/* XPM */
static char *xpm[] = {
"320 180 254 2",
".. c None",
"ab c #000000",
"ac c #010101",
"ad c #030102",
"ae c #030203",
"af c #050304",
"ag c #070138",
"ah c #07031d",
"ai c #080707",
"aj c #0a0604",
"ak c #0a0609",
"al c #0a060b",
"am c #0b0609",
"an c #0b070e",
"ao c #0c0b14",
"ap c #0d0907",
"aq c #0f0c0d",
"ar c #110b09",
"as c #110c14",
"at c #120c13",
"au c #120d10",
"av c #120d11",
"aw c #120e13",
"ax c #130f11",
"ay c #150f0d",
"az c #161415",
"aA c #19120e",
"aB c #1a1118",
"aC c #1a1214",
"aD c #1a1819",
"aE c #1b1410",
"aF c #1e1713",
"aG c #1e1b1c",
"aH c #1f1420",
"aI c #1f1618",
"aJ c #1f171b",
"aK c #1f1a25",
"aL c #211613",
"aM c #211a16",
"aN c #211f20",
"aO c #221532",
"aP c #23191b",
"aQ c #231923",
"aR c #241b22",
"aS c #251916",
"aT c #251a1f",
"aU c #251e19",
"aV c #252223",
"aW c #261923",
"aX c #261b27",
"aY c #271c1e",
"aZ c #272528",
"a0 c #281c18",
"a1 c #28221c",
"a2 c #291e35",
"a3 c #292524",
"a4 c #2a212b",
"a5 c #2b1f21",
"a6 c #2b2829",
"a7 c #2c201b",
"a8 c #2c2125",
"a9 c #2c2128",
"a! c #2c241f",
"a# c #2f2324",
"a$ c #302431",
"a% c #302822",
"a& c #302c2e",
"a( c #31231e",
"a) c #321e2e",
"a* c #32252a",
"a+ c #332528",
"a, c #342621",
"a- c #342b25",
"a. c #343230",
"a/ c #352932",
"a: c #353535",
"a; c #363036",
"a< c #37292c",
"a= c #38302f",
"a> c #392a25",
"a? c #392e37",
"a[ c #3a3028",
"a\ c #3a3638",
"a] c #3c2e2e",
"a^ c #3c3a3c",
"a_ c #3d2e28",
"a` c #3d2e33",
"a{ c #3d352e",
"a| c #3e2c33",
"a} c #3f3542",
"a~ c #403932",
"ba c #403e3e",
"bb c #413336",
"bc c #413e44",
"bd c #42322d",
"be c #42333a",
"bf c #433d37",
"bg c #45424f",
"bh c #454343",
"bi c #462733",
"bj c #463632",
"bk c #463a47",
"bl c #464246",
"bm c #47363a",
"bn c #48423d",
"bo c #493c34",
"bp c #493e4d",
"bq c #4a393d",
"br c #4a4a4a",
"bs c #4b4742",
"bt c #4b4753",
"bu c #4c484b",
"bv c #4d413c",
"bw c #4e3935",
"bx c #4e3e43",
"by c #4f4b48",
"bz c #504556",
"bA c #523d3b",
"bB c #52514f",
"bC c #53433f",
"bD c #53464a",
"bE c #535064",
"bF c #54454e",
"bG c #565057",
"bH c #565553",
"bI c #584742",
"bJ c #585858",
"bK c #594f4d",
"bL c #5a4e61",
"bM c #5b424a",
"bN c #5b5956",
"bO c #5c556c",
"bP c #5d4d4e",
"bQ c #5d5d5d",
"bR c #5f5f5d",
"bS c #605661",
"bT c #605752",
"bU c #615b5f",
"bV c #625f5b",
"bW c #63494d",
"bX c #635a72",
"bY c #654857",
"bZ c #655b67",
"b0 c #656564",
"b1 c #676563",
"b2 c #685353",
"b3 c #686868",
"b4 c #6a555c",
"b5 c #6c5a59",
"b6 c #6c6074",
"b7 c #6c6a6a",
"b8 c #6d6e6e",
"b9 c #71667e",
"b! c #737373",
"b# c #746468",
"b$ c #747371",
"b% c #777777",
"b& c #787877",
"b( c #7a5f65",
"b) c #7a6f8a",
"b* c #7c7170",
"b+ c #7e7e7e",
"b, c #7f7e80",
"b- c #806d7d",
"b. c #807f7e",
"b/ c #81779a",
"b: c #818180",
"b; c #847d7b",
"b< c #868583",
"b= c #868686",
"b> c #87798d",
"b? c #878786",
"b[ c #886a71",
"b\ c #898688",
"b] c #8b5c68",
"b^ c #8c8b8a",
"b_ c #8d7684",
"b` c #8e81a6",
"b{ c #8e8e8e",
"b| c #8f8e8f",
"b} c #8f8f8f",
"b~ c #918182",
"ca c #91908e",
"cb c #919191",
"cc c #928193",
"cd c #9289b5",
"ce c #929291",
"cf c #948a9e",
"cg c #959595",
"ch c #997373",
"ci c #9a9997",
"cj c #9a9a99",
"ck c #9c8a8a",
"cl c #9c9c9c",
"cm c #9e9e9e",
"cn c #9f979a",
"co c #a092ae",
"cp c #a19fa1",
"cq c #a1a1a1",
"cr c #a29ac9",
"cs c #a3a2a0",
"ct c #a3a3a2",
"cu c #a4a4a4",
"cv c #a5929c",
"cw c #a699b1",
"cx c #a69ead",
"cy c #a79190",
"cz c #a7a8a7",
"cA c #a8a8a7",
"cB c #a9a9a9",
"cC c #ac9d9c",
"cD c #acadad",
"cE c #acaeae",
"cF c #aeaeae",
"cG c #aeafb0",
"cH c #b0acae",
"cI c #b0afae",
"cJ c #b2b2b2",
"cK c #b2b2b3",
"cL c #b2b3b3",
"cM c #b3b3b3",
"cN c #b4b4b4",
"cO c #b5a8c8",
"cP c #b6a2a9",
"cQ c #b6b1c7",
"cR c #b6b4b4",
"cS c #b9b9b9",
"cT c #bbbbbb",
"cU c #bcbcbc",
"cV c #bebebe",
"cW c #bfbaba",
"cX c #c1c1c1",
"cY c #c6c6c7",
"cZ c #c7c7c7",
"c0 c #cc8d90",
"c1 c #cecece",
"c2 c #cfc5c3",
"c3 c #d4d4d4",
"c4 c #d7d7d7",
"c5 c #d8d8d8",
"c6 c #daabb1",
"c7 c #dcd7d8",
"c8 c #dcdcdc",
"c9 c #e1e1e1",
"c! c #e6e6e6",
"c# c #e9e9e9",
"c$ c #edecec",
"c% c #efefef",
"c& c #f3f3f3",
"c( c #f7f6f6",
"c) c #fafafa",
"c* c #fdfdfd",
"c+ c #ffffff",
"c, c None",
"................................................................................................................................................................................................................................................................................................................................................................................................................................................................................................................................................................................................................................................................",
"................................................................................................................................................................................................................................................................................................................................................................................................................................................................................................................................................................................................................................................................",
"................................................................................................................................................................................................................................................................................................................................................................................................................................................................................................................................................................................................................................................................",
"................................................................................................................................................................................................................................................................................................................................................................................................................................................................................................................................................................................................................................................................",
"................................................................................................................................................................................................................................................................................................................................................................................................................................................................................................................................................................................................................................................................",
"................................................................................................................................................................................................................................................................................................................................................................................................................................................................................................................................................................................................................................................................",
"................................................................................................................................................................................................................................................................................................................................................................................................................................................................................................................................................................................................................................................................",
"................................................................................................................................................................................................................................................................................................................................................................................................................................................................................................................................................................................................................................................................",
"................................................................................................................................................................................................................................................................................................................................................................................................................................................................................................................................................................................................................................................................",
"................................................................................................................................................................................................................................................................................................................................................................................................................................................................................................................................................................................................................................................................",
"................................................................................................................................................................................................................................................................................................................................................................................................................................................................................................................................................................................................................................................................",
"................................................................................................................................................................................................................................................................................................................................................................................................................................................................................................................................................................................................................................................................",
"................................................................................................................................................................................................................................................................................................................................................................................................................................................................................................................................................................................................................................................................",
"................................................................................................................................................................................................................................................................................................................................................................................................................................................................................................................................................................................................................................................................",
"................................................................................................................................................................................................................................................................................................................................................................................................................................................................................................................................................................................................................................................................",
"................................................................................................................................................................................................................................................................................................................................................................................................................................................................................................................................................................................................................................................................",
"................................................................................................................................................................................................................................................................................................................................................................................................................................................................................................................................................................................................................................................................",
"................................................................................................................................................................................................................................................................................................................................................................................................................................................................................................................................................................................................................................................................",
"................................................................................................................................................................................................................................................................................................................................................................................................................................................................................................................................................................................................................................................................",
"................................................................................................................................................................................................................................................................................................................................................................................................................................................................................................................................................................................................................................................................",
"................................................................................................................................................................................................................................................................................................................................................................................bB..............................................................................................................................................................................................................................................................................",
"................................................................................................................................................................................................................................................................................................................................................................................bn..............................................................................................................................................................................................................................................................................",
"................................................................................................................................................................................................................................................................................................................................................................................bB..............................................................................................................................................................................................................................................................................",
"..............................................................................................................................................................................................................................................................................................................................................................................by................................................................................................................................................................................................................................................................................",
"........................................................................................................................................................................................................................................................................................................................by....................................................bTby..............................................................................................................................................................................................................................................................................",
"................................................................................................................................................................................................................................................................................................................bs......bB..............................bf......................a-..............................................................................................................................................................................................................................................................................",
"................................................................................................................................................................................................................................................................................................................bV....a:..............................br........................a{..............................................................................................................................................................................................................................................................................",
"....................................................................................................................................................................................................................................................................................................................a~................................bn..........................a~............................................................................................................................................................................................................................................................................",
"..............................................................................................................................................................................................................................................................................................................bsbBa6..................................bs..........................a~............................................................................................................................................................................................................................................................................",
"..............................................................................................................................................................................................................................................................................................................aAbf................................................................bvby..........................................................................................................................................................................................................................................................................",
"............................................................................................................................................................................................................................................................................................................a,bh......................................bf......a&a1................a1............................................................................................................................................................................................................................................................................",
"..........................................................................................................................................................................................................................................................................................................a]ay........................................bB..........a[............bTa-............................................................................................................................................................................................................................................................................",
"........................................................................................................................................................................................................................................................................................................a~aU..........................................a\..........a[............a[..............................................................................................................................................................................................................................................................................",
"......................................................................................................................................................................................................................................................................................................byaF..........................................bH............byb1........bTb1..............................................................................................................................................................................................................................................................................",
"....................................................................................................................................................................................................................................................................................................bHbna=..........................................a6..............bo......bCbv................................................................................................................................................................................................................................................................................",
"..............................................................................................................................................................................................................................................................bf....................................bT..bHa&........................................a3..............bo....a,ar..................................................................................................................................................................................................................................................................................",
"..............................................................................................................................................................................................................................................................byby....................................a...aM....................................a{bna-..............bKboa,aE....................................................................................................................................................................................................................................................................................",
"................................................................................................................................................................................................................................................................a>......................................a{a{bV..............................bNbf....a[..............bKbIa,br....................................................................................................................................................................................................................................................................................",
"................................................................................................................................................................................................................................................................a(......................................bHa]aL............................aMbs......a%................bCbybKa^..................................................................................................................................................................................................................................................................................",
"................................................................................................................................................................................................................................................................a(..........................................a[........................bBaE..........bn................a[bva7bH..................................................................................................................................................................................................................................................................................",
"................................................................................................................................................................................................................................................................bvbn........aNa!bH..........................bTbs....................a^a1............bTa~..............bHa_a5bn..................................................................................................................................................................................................................................................................................",
"..................................................................................................................................................................................................................................................................a[............bnaGaUa-a~byb3bTbna.aUapajaSbwbf....................bf..............b1a{................a#bja1..................................................................................................................................................................................................................................................................................",
"..................................................................................................................................................................................................................................................................a[bf................bha6aUaAapapaza1a.bra^a(a~..................by..................bIbCa%aAa-bsbVbTa{bqa=....................................................................................................................................................................................................................................................................................",
"....................................................................................................................................................................................................................................................................a,........................................a_..................a%..............bnbya~aLa1aNaEaEaEa[bsa]a%....................................................................................................................................................................................................................................................................................",
"....................................................................................................................................................................................................................................................................boaU......................................a-a-..............a%................bobva1..............bVa]bh....................................................................................................................................................................................................................................................................................",
"....................................................................................................................................................................................................................................................................byaA......................................a-a7a-..........a\a1..............a~bdaA................a>aU......................................................................................................................................................................................................................................................................................",
"......................................................................................................................................................................................................................................................................a%aM..................................aFbNa3a,by........a%aMba..........bVbjaA................a[bja7......................................................................................................................................................................................................................................................................................",
"........................................................................................................................................................................................................................................................................aAa_bKa~..........................aU......aybd......bTa-..aUa:........bIa[................bTbfbIa[by........a~..........................................................................................................................................................................................................................................................................",
"........................................................................................................................................................................................................................................................................aVaFbfa-........................bva6......a!a-bK....aN......auaA....a~a_bn................bsbsbda_a~a&....bHbn..........................................................................................................................................................................................................................................................................",
"..........................................................................................................................................................................................................................................................................aza{bba{....................bHaA........bBa!a{....az........aAa-bsa>a6..................a_a~bobs..bv....a~by..........................................................................................................................................................................................................................................................................",
"............................................................................................................................................................................................................................................................bH..............aMbCbd..................bVarbB..........a>a1..bHa{..........aMa[a1....................a>a[bCbH..a~....a{............................................................................................................................................................................................................................................................................",
"............................................................................................................................................................................................................................................................bI..............a1a{bIa{..............bJay....a.......b1bAa[bfa1..........aVbna#aYbf..................boa[a(a-..bn..bnaF............................................................................................................................................................................................................................................................................",
"..............................................................................................................................................................................................................................................a&by........b8a!................a7a,a-............bnaz......bya:....bKa[boa[a-..........a^..a>aEayaya1by..........b*a-a%a%a%..ba..bja&............................................................................................................................................................................................................................................................................",
"................................................................................................................................................................................................................................................a[..........a^................a~a,a%by........a-aj..........aU..bsbCa{a[a,bn........a&....a+a-a~..aFaAaFayaEa{..bCa{brbja>..bybha>a&............................................................................................................................................................................................................................................................................",
"..................................................................................................................................................................................................................................................a{........a%................bja_a7aU....a~apap..............aNa[bPa-a!aAa!........a!....bVbfbs......a.aFaEaEa(a(....bdbj..bBbna,..............................................................................................................................................................................................................................................................................",
"..................................................................................................................................................................................................................................................b1a3......a{................a=a-a[a>a,aUaG....................bsa~a[a7aMaU......b$bH......bCbI......bna\..a-a0a(a>..bdbobna\a{a!..............................................................................................................................................................................................................................................................................",
"....................................................................................................................................................................................................................................................aFbH....bsbH..............boa>a,a,a+a[......................a[bobsa_a5a-bs....bna~a{boa[a%a]bs....bna1a[a,....a<a7a[bvbna{a>bH..............................................................................................................................................................................................................................................................................",
"..................................................................................................................................................................................................................................................aAbfaV......aM..............bda5bs..a,a[a~a6bB................a(bjboa1aGa-a0..bya>aSa0a-aFaUa&a[a{boa-aLaMa[a{..bha5a%bjboboa!................................................................................................................................................................................................................................................................................",
"......................................................................................................................................................................................................................................................a^a7....aE..............bmaC....bda>bv....aza.............a0bjbCaUaLbha%a]a>a+aFa7a[bB....braMa{a,a[bs....a:a.a.a0a1bna-a[......a\........................................................................................................................................................................................................................................................................",
"........................................................................................................................................................................................................................................................a!bn..bfby............a\a%....bKa,aL........a1bH........a_a_a>aLa1bfa\a(a,a[a%............a{bwa,..........bHa-a7a,a~aUbv..bnbsbI........................................................................................................................................................................................................................................................................",
"......................................................................................................................................................................................................................................................bVbBa%....a[..........bTa(aM......a7aL..........a%........a{a<a0aE..a.a[a~aUbobn............bjbwa~............bsa(a,a,bda[....bTbf........................................................................................................................................................................................................................................................................",
"......................................................................................................................................................................................................................................................bKbKa1a[..a%..........b1a0aE......a~a=..........a^........a,a-aFaUbI..a!a[a-a(bC............bCbwbT........bha:bha_a7a]a_....bIa1..........................................................................................................................................................................................................................................................................",
"........................................................................................................................................................................................................................................................a{boa%..a~b7........bBa,aC......a=bja^..........a6....bIa>aFaNa{a~..a~a0a0a%a>............bvb2bH......ba....bTa0a(a>a,..a[aE............................................................................................................................................................................................................................................................................",
"........................................................................................................................................................................................................................................................a^a7a<bnbsaM....by..bCa#aL......a^a(a{..........ar....boa-aD..bHa%bda[a[aMa-a7bn..........b5bTa-b7bsa&......a%aSaLa{a,a7aF..............................................................................................................................................................................................................................................................................",
"............................................................................................................................................................................................................................................................a3a]bsaE........bfa>a0a{..a\bya(bf........a6a{a7boboa7a~..a[a[a!a-bNa1a%bjaMaMbn....a6a~bobCbTa_aI....b$aSaLa1a-a1aU....bH..........................................................................................................................................................................................................................................................................",
"..............................................................................................................................................................................................................................................................a%a#a>a~........a7a>bo....baa-bj..........bHa[a>bjaSa!..a^a7a{bobCa~a[a[aFa0a0aEaya&byb5bIbIa[ap....a[aMaLa[aUa1baa%a.................a.bfa.a~....................................................................................................................................................................................................................................................",
"..............................................................................................................................................................................................................................................................a[boa=aSaAa%....aNaLbda{....a%a=aM........aL..bIa,aLa(bfa{aMaUa%a,bAa{a[a7aUaraCaA....b2a(a1..a&a3bfa7a7a[a~aya%..................a{a6......baa~..................................................................................................................................................................................................................................................",
"..............................................................................................................................................................................................................................................................a6a-a{aya%aMaAa~a.aMaMa>aUaMa:a7a!a-......an..a~a~a!a[a%a!a]aA....bna>a_a-a.a.aEayaU..boa>a!..b$a~a{bda1a.a(aEbaaD................aD..........aV..................................................................................................................................................................................................................................................",
"................................................................................................................................................................................................................................................................aUa=aFbr..a,a,a-aFa1a-a%aya0a-aUbja-....arbna>....aFa{a0bPa,....bna7aUaFa!a{aUaMaAbva[a-bobTbTa>a,a7a%a~ara-....ay..............ay........bh....................................................................................................................................................................................................................................................",
"................................................................................................................................................................................................................................................................a6a5a8aUaNa>a#aMaUaMa(a-..b1bAa[a[aUa%bBa,a_a=..bHaIbda7boaU....a-a,bs..aGaLaEa7aLa-a[bvbIbda%a>bwa,bnbfayby....................bBaDbK..........................................................................................................................................................................................................................................................",
"..................................................................................................................................................................................................................................................................aWaTaI....bna[a%a1a(aUa-bja>a_a,a!aEa,bdbs....a%aYbja!a%......aUa,......bTa~a-a{a[bjbjboa_bvbda-a6bva[a0bN......................byaG..........................................................................................................................................................................................................................................................",
"..................................................................................................................................................................................................................................................................aIaYa5....bna{a-aUaLa7a7a>bjbdbda[a>a_a0......a-a1a_aM......bTa0a[........bna,bCb*b5a_a_bdbIa>..bTbdbjbdbf........................ax..........................................................................................................................................................................................................................................................",
"..................................................................................................................................................................................................................................................................bVa7aE....a{a_a%a~a5bda_a,a,bda(a!a>bdbda-..bya>a0a5aLaM....bja0a{........bVbjbdbobTbda,bwbwa_bobobja,a%a_bs....................aA............................................................................................................................................................................................................................................................",
"....................................................................................................................................................................................................................................................................aMa(a~bHbwboa-a%baa(a>a[boa[a[a7boa_a,aUa1bsbAa>a(a1aCaLa>a(aS..........boa#a_bda[a[bdbIbIbdbdbja_aLaya(a(................aNac..............................................................................................................................................................................................................................................................",
"....................................................................................................................................................................................................................................................................bBa(a[a-bda-a=a~..bsa(a_boa[a0a(a~a(a_a(a0a-a=a,a.aMaEbda_aEa1........bnaPa,aLaSa7a0a,bobCa_a0bda~a{aEaLa7aAa\......bsaUacaD................................................................................................................................................................................................................................................................",
"................................................................................................................................................................................................................................................a:....................a-a%a1a!a1aTa*a0a0a0a~bda{a0a,bda>bdbCa(aUa%aUa^a\aSa>a(az........bna-bva_a7aFaSaFa,bobAa_bvbwa{bIa,aFaMa7a|aCapayaraI....................................................................................................................................................................................................................................................................",
"..............................................................................................................................................................................................................................................a&aE....................bHa-aDaAaiaDa&a(a<aYa{boa_a7a7a(a[bda7bja_aYa5a>a[a-a!a!a7bKbKbB..a&a~bCa7a{a7a>a>a_a>bobdb5bwa_a_a7a1a7a,a!..............................................................................................................................................................................................................................................................................",
"................................................................................................................................................................................................................................................aDa...................byauaAapaqaMa1a-a-aUa!a~boa-a7aEaUbCa(bdbIa_bja_a>bIa1aVaFa7boa[....boa_a0bvbobjbjbda(bdbobjbjbda[a[aAa[a!a%..............................................................................................................................................................................................................................................................................",
"..................................................................................................................................................................................................................................................aUaqa\............bsaFarapaFa!a-bra%a!a1a[a{bva,a-a%a[a-a{a_bIbva{bjbIboa3....aFa1a7aVbBboa_aSa]bCa1bva>a7a_boa_bIa[bIbva(bvaUaUaUa1bybTbya%..................................................................................................................................................................................................................................................................",
"......................................................................................................................................................................................................................................................a&aAaFa[a%aqadaraAaAaEaMa1a%a%aUa=bna{boa[a7a!bobIa[a(a0a0bobobobPbdaAay....bfa!aUa1a[a[a-a0bfa!a[bdaSbobdbvboa>a[a[bobdbh......bJ......aj................................................................................................................................................................................................................................................................",
"............................................................................................................................................................................................................................................................a&aGba....a&aEa[aMaMa1a7aMa!a%aUa%a[a[aSbob5boa(a{aEaSa,bIbobdaLajaD..b1a!a7a1a7aFaSa1a-a[a{a(aUbda(bTbobda[bdbda,................a~ba..............................................................................................................................................................................................................................................................",
"......................................................................................................................................................................................................................................................................a[aCa[a%aGaUa1a1aUa=a!a7bfa(aAa_bCa,a(bobdbja[bwbjbIa,ajajaFaEaMa7a7aUaAayaMa0bna[a,a7a~a(bKa>bja%bya[a(..................aF..............................................................................................................................................................................................................................................................",
"..................................................................................................................................................................................................................................................................a-aEa%a1a1bf..aAaFaVa!a[a~a%a=a[aLa%a>a_a0bvbPa_bdbwa(bwboapajajaAa1a7a!a7aUa%a1a%a1a-a7a7boa_boa[a1..bsaUa7................a&................................................................................................................................................................................................................................................................",
"..........................................................................................................................................................................................................................................................a%a[a1a1......a{aMa[....bya&a3a{a[bna(a%a7a0bjbja0bdbIa7bdbPbIa>a_apajaraSa7a{a{a(a{bna%a%aFa[a7boa[a>a(a-a[boa-a-a-........bKbdbIa%by................................................................................................................................................................................................................................................................",
"........................................................................................................................................................................................................................................................aya-............bfa-a(aN........a-aUa{a~aSa[aLa>bda!aSbCa_bdbIb5a(a1aUajaraMa-bvboa,a(a-aUa-a0a%aSbIa[a,a(a(a[bobda[a!....a^bwbobIa%a&..................................................................................................................................................................................................................................................................",
"........................................................................................................................................................................................................................................................araMa-bfa~bs......aFa#a|a#a1bya~a1aMaUa{a7a!a(aSbdbIa0a>bda[boboboa(aUapayaFaMbvbda,a(a-aMa%a!aSa0a%a(a_a7a_a>boa[bdby..boa[a7bsa[......................................................................................................................................................................................................................................................................",
"........................................................................................................................................................................................................................................................a3a^aza&a-aMaAbh....aUa{a-aPaLaEaMaMaUa0a%aMa[a0a0bnbja7bda,a_aLboa(aFayaMaEaAa{aAa>aSa-a1a-aFaSa!bdaUa>a0a[a>a[a{a0a,a{bCa,aMbN........................................................................................................................................................................................................................................................................",
"........................................................................................................................................................................................................................................................a^a6....a.aqayaAa:bla%aGaUa3aLa,aMaMayaAa0a7a7a%a,a=a-a_a7a>bdaEa7a0a7aUaFaEaEa!aya>aMa[a%a[aFaFa7a(a1aLa0a[a>bda[a7a7bvbva(a[..........................................................................................................................................................................................................................................................................",
"..........................................................................................................................................................................................................................................................a:......a6aAa&a]a3aVapaEa5aEa#a=a1aMaMaAa0aLa%a(a[a{a(a7a0a,a(aSa%aMa!a7aEaMaEara{a!a!a!a-aFa1a>aSa>aLa(boa(a[a{a-a3a-a%ar............................................................................................................................................................................................................................................................................",
"....................................................................................................................................................................................................................................................................aAafaMaFaGa&aNaMa!a&a=a=a%aMaLa7aSaEa(bdbva,a-a1aLa_a%a~aAarayaAaSaUa7a>aEaFaUa7aFaFbda7a_aSa(a7a>bCbda(....................................................................................................................................................................................................................................................................................",
"........................................................................................................................................................................................................................................................................a^........aEa1a=a*a%a%a%aAaAa(aEaSbobva_a[a1aAaSbda~a0arapaLa7a!a(ayaya7a0a1aFaLa7a>a~aSa(a0a_bTa>a>bo..................................................................................................................................................................................................................................................................................",
"..................................................................................................................................................................................................................................................................................bna(a7a5a!a!a!aSaEa0a~aLa_boa>a>a-aLaya(bjaMarayayaUa(a0ayaLa!aSa7aFa5a0a,a7aSa,a(a,bda1aja0bK................................................................................................................................................................................................................................................................................",
"..................................................................................................................................................................................................................................................................................a~aSaSa-a-a1a1a(aAa(a[a{aSbvbIa>boa7a0a7a>apaparajaya_a5aEa7a!aMaMaya0aSa1aMaSa0aSa,aUa1a>aFa{................................................................................................................................................................................................................................................................................",
"..................................................................................................................................................................................................................................................................................a-aEaFa%a%aMa%a[aAaSa(a[a0a7b2a0a7a(a(a7a0aAajajajaraLaAara,aUaEaMaFaEa(aUaEa,a,a,a!aSa8bfb1a%................................................................................................................................................................................................................................................................................",
"................................................................................................................................................................................................................................................................................bhaMafapa!a.aMaUa1a0aAa,a%a7aybda~aLa7a0a(aAaFajajafarayaraya7aMaMaFaEaSaLaMaFa{boa(a-aEaIaAa7a\................................................................................................................................................................................................................................................................................",
"................................................................................................................................................................................................................................................................................a^ayaUa1aEaMa%aUa1a{aEayaMa-aLaMboaraFa-a1a%aEajapajaYa&a0aSaUaAa!a0aEaEaEaSaLa{a[aSbbb2bFbmaWaT................................................................................................................................................................................................................................................................................",
"................................................................................................................................................................................................................................................................................a:a&aVaraAaUa.aUaUa-a%araAa1aEaLa(aMaAbja_a,aPapapapaMa-a0a!aEaEaSa-aNaAaFaLa-a[aFaSbeb#beaWa)bP................................................................................................................................................................................................................................................................................",
"................................................................................................................................................................................................................................................................................bGazapauaNaGa-aFa1aEa[aEapbKa[ayaSa[a7a,a_aLaAayapaqaya1aMaSayaUaUa=aFaAaFaAa{aFaLaYaWbYbba|a|bc................................................................................................................................................................................................................................................................................",
"................................................................................................................................................................................................................................................................................b0atataxbbbta<aMaMaMa!a%aya{a%aEaAbCbVaya>a7aEazadapaCaLaMaAaEaUa!a=aFaEaAaFaFaEa-aLa$b9bMbZb-aC................................................................................................................................................................................................................................................................................",
"................................................................................................................................................................................................................................................................................bGa&aCa/blbta$aAaAaUaEa~a!ara%a-aFaMaAaSajbja8aCadafayaIaUaraLaAa%a[aAaEaya0aEaEa%a]bzb/b6b`cObg................................................................................................................................................................................................................................................................................",
"................................................................................................................................................................................................................................................................................a&aRaKa6a;bza/aGaua1auaUa!ayaUa{a!aAapa7aSa&a+aramadaya3a#aFaPaCa-a-a-a(aAa0aFaFaUa,bLb`cdcdcO..................................................................................................................................................................................................................................................................................",
"..................................................................................................................................................................................................................................................................................aBbOa}a$bObpa$aFaUaMaAaUa7ara!a{a%aMara`bbaCaIapamayaBaGa3aJapaIaYa7aMaMaFaAaUa-bjbpb`cdbXb/cf................................................................................................................................................................................................................................................................................",
"..................................................................................................................................................................................................................................................................................bgb/b9bgbObza;aGaEa1aUaUa!aAaMa1aya!a5aTbqbla<ayamaIaBa5aGa8a5avayaIaEaMapaAaSbjbebOb/cob/cdcrb_..............................................................................................................................................................................................................................................................................",
"..................................................................................................................................................................................................................................................................................bcb/bEbgbEbEa}a4aMaUaGaFaEaUaVaEapa#a&a<a\bba5aZaVaJa;a/a\a;aJava+aYa%afara(bdbFbYccb/cdcdb`cOb-..............................................................................................................................................................................................................................................................................",
"..................................................................................................................................................................................................................................................................................bXbXa2bgbObEa}aKa9aIaxauaAaxaVapapazaNa?aRaCbqa&aCaPaRaZa/a6aTaBaYaNaxaua>a|bAbMb(b)b_cdcob_ccb6bU............................................................................................................................................................................................................................................................................",
"..................................................................................................................................................................................................................................................................................bOb6bgbEbObObEbka/a3aUaUaxaxaxambca&aZaVa$bGbDbbaRaBataPa9a;aTavauaqaIbmbia7a+bMbWccb6b)bXc0b/b)bibU..........................................................................................................................................................................................................................................................................",
"..............................................................................................................................................................................................................................................................................bhbtbZbXa?bObXbObgbgbca<aIaLa+a*adafa&aZauaJaRa;bma\a+aPa8bcaRaBavaCaqaIa+bwcWc#b5bPbkbMbLb/b-b_b[cOb6bWbJ........................................................................................................................................................................................................................................................................",
"............................................................................................................................................................................................................................................................................baa.btbgbgbzbEbzbEbgbga*bea5b[bWa|aTanaIaxaRaZa4aZa+a3bbaya`bDa*a/a6aRaua]bqcWc*c&c(b_bqa<b4crccb]b_c6cwbYbx........................................................................................................................................................................................................................................................................",
"............................................................................................................................................................................................................................................................................a^bBasbgbOb9bzbEa}bza?a}bMcZc+c!b5bmbbaJaqaBaxaTaGauaJa&aYa+a*a9a*aQa6aJa]cyc)c7chc0c#bWbib4cOb]bYb(cvb[chbMbP......................................................................................................................................................................................................................................................................",
"............................................................................................................................................................................................................................................................................bJa&a2b9b6bYbLbObEa}bebecpc#c2c)c%b5bqbkaPaCaCaCaJa?a?bbaYa#bmaIaBaRaRbmbUc7c7b]a)bichb]bdb-ccbMa)bxckb[b]b4bd......................................................................................................................................................................................................................................................................",
"............................................................................................................................................................................................................................................................................a^a/bLb)bZbWbLbObXa$a|bDc6b]bYc0c&c7b4bFbxbmaBayaTaBaBa;a5aGaYaxaHa|a/a=b5c6cha)agaOb]b5bWb[b-bia)b(b(bMb]bAbia-....................................................................................................................................................................................................................................................................",
"..........................................................................................................................................................................................................................................................................bsa#bMbpbSbGbma/bzbLa?a#bIb5aHagbic0c$b_bDbxbmaWa)aBaHbqa}a^aIata|a+bma|bqbTb[bYaOaObibWbWbwb(b(bAb4bUaWbMchckcHbv....................................................................................................................................................................................................................................................................",
"..........................................................................................................................................................................................................................................................................a8bqbAbmb4bGa/a)a$bSbpa<bjb2a)ahagbYcPb~bCaWbia<a|bxbSbFaTbKbGbxbYbqbibebbb2bvbMbibMbMbia>b(b[bxbFbbaIbeb2cvc*c*c6....................................................................................................................................................................................................................................................................",
"..........................................................................................................................................................................................................................................................................a5bmbAbibmbubea#a5bJbza*a8a_bCaWaWbMckb4a|aYbiaWbkbGaZawa*a5a?bGb#bMa`a/aYbCbAaSa5bwbiaAbmb_a}bqa|a|bMb4bYcyc(c6b]....................................................................................................................................................................................................................................................................",
"........................................................................................................................................................................................................................................................................bua;bmbqbYa`a5bla`a?blbxbma*aJa,bwa(a+bAbqa+bia5bebGaIaBbeb2bPa9atbmb*bGa5a8bmbwbibMbibia7b(bqaHbMbYb4b]bYb(c2c6bYag....................................................................................................................................................................................................................................................................",
"........................................................................................................................................................................................................................................................................bVcHcHb_bCbea<a5aRaTa?a|a|a`aYaPa0bia(a(a+aIaJa<bqaIaTbMbbbqb4bqa#ata5bSbDaJbma<bMa,bia<a|b2bib(bLbWchc6ckb2c6c0a)ah....................................................................................................................................................................................................................................................................",
"........................................................................................................................................................................................................................................................................b;chcyb;bxa<bqbqa+bea;a/aQa#a5a8aYa0bmbiaLaraWbxa]aCbAbxaPbxbKa<bDa<aPbxb#bxaYbxbMbia5a`a`aTbkcobma)b4bibmb2ckb]bibi....................................................................................................................................................................................................................................................................",
"........................................................................................................................................................................................................................................................b3bgb6bGb8......a?a)b2b8bKa<bqbAbmbea?a?bFa5a#aTaPaTa9b5bqaWbbbxbva<bPbcaYa\bqa`b2bqaYbxbKbPaTbbbwbxa$a}a}bzccccbMa+a)bia)bwb#bTbWbMb9bS..............cpcxb8............................................................................................................................................................................................................................................",
"......................................................................................................................................................................................................................................................bHa;b9bSbgblbka}bga2aha>bPbIa,bMb[b4beaIbcbLa5aJa*a/a8bmbmbxa|bDa=bDbba]a5aTaVa*bmbxbmaSa=a=bDbbaYbmbma}bEb)b>b-b6bMbibwbYbia>a7a0bib]b`b>b>b7a}bZb#b_bPcccwb9b3..........................................................................................................................................................................................................................................",
"......................................................................................................................................................................................................................................................bZbEbQbEbubka;aZbkbpaHa(bda{a#bba+aHa#aIa}b7bgbpa}a}a$bqa/a#a`bqa-bPbdaYaPaPa8bbbqbxbbaYa{a^bDbPbxbMbSbObzb9bXbOb(b]b(b]b4a+bibwbYbYc0cfb6bka?a}bpb4ccb_bFcwb-b9bV........................................................................................................................................................................................................................................",
"......................................................................................................................................................................................................................................................b3bgbtbtaRaIaBaKa$bkbDbwa]a>a0aCaSaWaYaSa$bGbgbXb)bgbgbza*a*bbbCa=bma=aPa8a<a^bDbxbWbma+a!a&bea$bkb6b6bObEbXcdbLb_b>ccb-a$a<bibwbMb]ccbYb>bObpa$a?bebFcvbUbFccbZb,........................................................................................................................................................................................................................................",
"......................................................................................................................................................................................................................................................b6a}a^aNalazaKa&btbOa<a<a+bdaYara+bba+aPa|bcbcbEbOa2a}bZbZbFa9bea;a#aYaPa+a*bKbFa5bba,aTaTa#bSb6b4b6bOb/b`b)b6b4ccb_b9b6bMbYb4bib4b-bYbzb9b`bOa/a$aQaHbSb5bbb#b#cv........................................................................................................................................................................................................................................",
"..................................................................................................................................................................................................................................................bRbrbua\a6awaoaBa;btbFb-bDbibibjaCa0a#bxbqbkbxbFbkb/b9b6bEbgbObSbSbPa?a5aBaYa6aPa;bma+a#a]a`bqbbb[b[bYb-bLb9b6a}bpbPbObXb)b_bYa)bib4bEa?a)b`crcdbXbpa$aKaQbGa`bDbSbDb~by......................................................................................................................................................................................................................................",
"..................................................................................................................................................................................................................................................bbaZa&a\a&aKaBa$bkbEa$a9bPbzbma+a,a5a5bDbGbpbSbga4bEbOb9b/bObtb9bPb#bDa<a]a\a#aua8bmaIa5a>a|b2chb(b[bmbpa?a6aNa5a?a=bkbOb)bXa)bib4bZa8a9a}b/crcrcdbpaOawaKbGa=bybTbbb&b1......................................................................................................................................................................................................................................",
"................................................................................................................................................................................................................................................braVa.blaZaGazaza}bXb9bEa4a`bga}a`aIa+bqbGbGa;bta$aBaBaXa}bca}bga/a|b4bqa]bma#aCara9bma<aPaYaYbAa/aha)a<beaRaJaCaIazaHbkb)b9bYa)a}bpbFb5a/a}bXcdcdbEaOaKaKaDbua5bKb*a`b4b1......................................................................................................................................................................................................................................",
"................................................................................................................................................................................................................................................bca^baa&aJaJawaHa2bObEa}a;a/a4bgbkaYaHbkb0bEa;a&a;aKanamazaVaza}a4a`a)afa<a]aIauaCa;a`bDaIaYaYa]aIaBa9a}a`aCa|aHa$bka/a?bzbOb-b-a/bkbqbqbzbpbpbEbga2agaDaDaNbma3bTb#bFb2bu......................................................................................................................................................................................................................................",
"..............................................................................................................................................................................................................................................bNa&bla^a&aVaIawazazbgbEa2aKaKa;bla?a*aJa}b6bga;a/a&awawaoamaPaCa*a;aRa&a5aYazaIaCaCa^bxa=aPazaCaGa5aYa6aTa|bxbFbOb)b)bEbpbgb/cwbXbebebxbca?a2aOagaHaKa3a~a&a4a\a+bGb_b#bFa<......................................................................................................................................................................................................................................",
"..............................................................................................................................................................................................................................................a3blbGbla3aIaqazanaNa&a2aKaZa&bta/a&aXa;a;bEbgbca}aKaKa2a4a4a4a*a5a`aJazaYaDaCaIauaublbCaVauaGaGaDa#aZaIaCbDbba$bXbXbEbzbzbpb>b9a8bba5a+aBa4a}a^a;a^b/cj..a\aJaYa5bPb~ckb#a|a6....................................................................................................................................................................................................................................",
"..........................................................................................................................................................................................................................................bra3blbZbVbxa&aGaxauaq....aNaoaoaGaGa:a;bubtbZbEbga$aDaKa2a}a}a;a4aJa*aTataIaVaJazauayaCa\a\aCapaGaVaJaIaIaGa#a&aBa4bpbpa?a?bpa}a4beb4bWbZb4a4b9b`b)bcbOcfb>....avaIa*b4ckcPckbSbo....................................................................................................................................................................................................................................",
"........................................................................................................................................................................................................................................a^a\babQbZbUbDbeaCaiax............baa^aMa6bebcbGbta}aVa;a2a6bga;aKaDavavaBaxaxaxaJaGauazaDa^bDaNaCaGaCaCaGaIaGaPaJaVaKaKbzbka/a$aDaVbMb-b_bGa}b6b)baazaxbzb/b>......axbmb2b~cxcvbrbKbK..................................................................................................................................................................................................................................",
"......................................................................................................................................................................................................................................a\a6a:a&bubhbcbubKaTai..................a^bbbDbua^aGaDaKaZaKaKa$a&aKawaxaqaxaDaJazaJaZazaIazbGbUa&aRaGaqaYa6aYaPaCaCaNaKa4a$a2aKaRaMaJbLb*a`a9a}bga6a:amara?bLbt......a\a6bPbGbGbZbca<bvbuba..............................................................................................................................................................................................................................",
"......................................................................................................................................................................................................................................aVa\a]a&blaNa&a;bhaD....................bha=blbJblaTawazazazaBa/a}aNaoazaCaCaJaBaJaTaNaIaxaNbZb3a}aKaVaGaNaJa*bca5a8aIaJa/bzbYbMa<aLbDbZa;a5axawat....axaja5bkbg........a&bba\a9bDa*a#bqa*aX..............................................................................................................................................................................................................................",
"....................................................................................................................................................................................................................................bha&bhblbcbva^aVaKadbH....................bhaqaPa=bla8azaxaBaxawaza\aZaxaxaJaBaPa*aGaBazaCaJaZbZb8bga\a&a3aZaPa&bxbqa#a<bAbmbYckchb(b4bxbea=azaN........baadaxaHa&........bla5a3a&bDb2blbbbma)..............................................................................................................................................................................................................................",
"....................................................................................................................................................................................................................................a&bcbybna8a6bha*auap......................aDalbaa\aUa&a8aCaEa/bea*a/a8aCaBaYa8a8a5azazaDaPa8a&btbEaZa^a;a+a6aPaMa+a3aYbCchcyb[chcyb[bMbbbf................afaqasba..........aIaMa6a&a<bDblbba|ba............................................................................................................................................................................................................................",
"..................................................................................................................................................................................................................................bBa^bubJbTbua<a.a6ai......................bhaBaYa&..a:azaYa%a<bmbWbxa#bqbba<aYa5a#aCaEaDaUaNaPa;bGbua6a?a*bmbmaPaEaPaSa#bjbWbmbYb2b]bba7aM..................aGapax............baaGa\blbHb#bKbhbGa^............................................................................................................................................................................................................................",
"................................................................................................................................................................................................................................bQbEblbybUbbaIaramap........................a^aiaBaq......aMaFa+bmbDbdbma`a<a!a5aLaCaCa5a7a6a<a1a&btbtaVa&a*bMbIbqbCbAa<a,a>aLafaBaWaPaAa^....................baaraD..............baaDaIa\b*b&bxa&a&............................................................................................................................................................................................................................",
"..............................................................................................................................................................................................................................bya;btblbla^aPaCafax..........................a6apaya6........a3aCaYa]a]aJamauaPaSaIaYa+a>a#a5a3a-a;bgblaVa;bmbxbmbxbWbDbja&a5aYaPaGaIaN..........................aya9by..............a6amaIa=b8bDaVa^ba..........................................................................................................................................................................................................................",
"............................................................................................................................................................................................................................bHa&a^a=a^a;aJapa3............................a^aZa;aza...........baa3aPa5aBauazaIaYa#a0aPaYaPaYaVa6a<a\a^aJa&bqbxa`a<a]bba=aNa3aNaDauap............................ava#aV................a6aVa<a=a6a&a^a;bh........................................................................................................................................................................................................................",
"..........................................................................................................................................................................................................................a&a&bDaSaxaVa&aDaN......................aVaia.aGaGa4a6aza6............a6aJa4aGaJaIa+a^bba!aPaFaFaVa%a8a\a;aZava;bqbmaPaFaNaNaVazaxafapaD..............................aqaJbca&....bBat....byaIbcaNaPa!a6aTaNayaGba....................................................................................................................................................................................................................",
"..................................................................................................................................................................................ab....................................aVaCaCaJaCaCazazay......................bJaNaNasaBaDaxaxaq..............akaza\a&aDaIaDaVaVa3aGaCazaCaDaNa^a=anaCa8bCaNarafaiamaxaDaG....................................aiaCa;a}bla/aXa4aDaJa5aVbkbGaEaMa=a6avararaxa6..................................................................................................................................................................................................................",
"..............................................................................................................................................................aiaiapafai..........apaiaeacababap....apaqaqacaeaiaNaNa:baa!aCaBaBaJavaIa6aDaGapaiaf..apapaiaqaDbkaKapa&aZaNaqanayaq..............afa.baazaVa8aGajaqauauaxayapapaNbca&apaqaYblaCakakanamaraf......................................a&ayapa4bLbSbkbSbLa}a}bra:a\a1a1aCaRaBauauaxaDbya^..............................................................................................................................................................................................................",
"....................................................................................................................................................................afaeacababacaeaiafacaeaeaeaeababacacacaeaeaDapacaUa&aIaBaTaBavata5azadapaxacacacaeacafapazaxapaqaDaDaGatauaGayaiacaeafapaNaVanaqaqapa3aUarapaiamakaqauaqapawa^a&apapaJa&aranataBaqaxata.......................................a\auaRa4a/a&a6a^bka4....apafaNa9aBaBaxayaxaqaDadaba6..........................................................................................................................................................................................................",
"..................................................................................................................................................................................apaiaeaeaeabacababababababaeaDacacaxaNa&a*aZa8aCavaDakacaNaNaiaeaeaeaeafaeacaeafaiaiaqapaiapapaiaiaeaeaqaNaGaDaqaxaxaqaDaUauazapaqazaxaDaxasapaGa3azapaGa&apaiapaza!aAaBacaeab..................................a:axaGaGaTaJaxazbkanaxa&alaqala;a8axawaPaBaqazafafabbr........................................................................................................................................................................................................",
"..............................................................................................................................................................................................................aDacaeaiaqaVaDapaqapanaNakafazaiaeabababababababaeabababababacacacacaeafafaNaDa&azazaDaNaGaVaNaNaNacacaqazaqaiaiaiaiaNaKazaNa6aqaeaiaNa.azaya\aN....................................................a&a&..aZaeaiala6a6aJaqaBaBauaqafafabaz........................................................................................................................................................................................................",
"..............................................................................................................................................................................................................aVaiacafaeabaeacacaeaia3acafacax....................................ac....aNaZaVacacazaDawawaiaq......................aiapaqaDaoaZ..bsa*....bsbV..........................................................aNadaiaoazakaiaiaxaVaNazadafaeaN........................................................................................................................................................................................................",
"..........................................................................................................................................................................................................................................................................................a&..................................................a6b#bH................................................................abacafacacaf..............aNaiaf............................................................................................................................................................................................................",
"................................................................................................................................................................................................................................................................................................................................................................................................................................................................................................................................................................................................................................................................",
"................................................................................................................................................................................................................................................................................................................................................................................................................................................................................................................................................................................................................................................................",
"................................................................................................................................................................................................................................................................................................................................................................................................................................................................................................................................................................................................................................................................",
"................................................................................................................................................................................................................................................................................................................................................................................................................................................................................................................................................................................................................................................................",
"................................................................................................................................................................................................................................................................................................................................................................................................................................................................................................................................................................................................................................................................",
"................................................................................................................................................................................................................................................................................................................................................................................................................................................................................................................................................................................................................................................................",
"................................................................................................................................................................................................................................................................................................................................................................................................................................................................................................................................................................................................................................................................",
"................................................................................................................................................................................................................................................................................................................................................................................................................................................................................................................................................................................................................................................................",
"................................................................................................................................................................................................................................................................................................................................................................................................................................................................................................................................................................................................................................................................",
"................................................................................................................................................................................................................................................................................................................................................................................................................................................................................................................................................................................................................................................................",
"................................................................................................................................................................................................................................................................................................................................................................................................................................................................................................................................................................................................................................................................",
"................................................................................................................................................................................................................................................................................................................................................................................................................................................................................................................................................................................................................................................................",
"................................................................................................................................................................................................................................................................................................................................................................................................................................................................................................................................................................................................................................................................",
"................................................................................................................................................................................................................................................................................................................................................................................................................................................................................................................................................................................................................................................................",
"................................................................................................................................................................................................................................................................................................................................................................................................................................................................................................................................................................................................................................................................",
"................................................................................................................................................................................................................................................................................................................................................................................................................................................................................................................................................................................................................................................................",
"................................................................................................................................................................................................................................................................................................................................................................................................................................................................................................................................................................................................................................................................",
"................................................................................................................................................................................................................................................................................................................................................................................................................................................................................................................................................................................................................................................................",
"................................................................................................................................................................................................................................................................................................................................................................................................................................................................................................................................................................................................................................................................",
"................................................................................................................................................................................................................................................................................................................................................................................................................................................................................................................................................................................................................................................................",
"................................................................................................................................................................................................................................................................................................................................................................................................................................................................................................................................................................................................................................................................",
"................................................................................................................................................................................................................................................................................................................................................................................................................................................................................................................................................................................................................................................................",
"................................................................................................................................................................................................................................................................................................................................................................................................................................................................................................................................................................................................................................................................",
"................................................................................................................................................................................................................................................................................................................................................................................................................................................................................................................................................................................................................................................................",
"................................................................................................................................................................................................................................................................................................................................................................................................................................................................................................................................................................................................................................................................",
"................................................................................................................................................................................................................................................................................................................................................................................................................................................................................................................................................................................................................................................................",
"................................................................................................................................................................................................................................................................................................................................................................................................................................................................................................................................................................................................................................................................",
"................................................................................................................................................................................................................................................................................................................................................................................................................................................................................................................................................................................................................................................................",
"................................................................................................................................................................................................................................................................................................................................................................................................................................................................................................................................................................................................................................................................",
"................................................................................................................................................................................................................................................................................................................................................................................................................................................................................................................................................................................................................................................................",
"................................................................................................................................................................................................................................................................................................................................................................................................................................................................................................................................................................................................................................................................",
"................................................................................................................................................................................................................................................................................................................................................................................................................................................................................................................................................................................................................................................................",
"................................................................................................................................................................................................................................................................................................................................................................................................................................................................................................................................................................................................................................................................",
"................................................................................................................................................................................................................................................................................................................................................................................................................................................................................................................................................................................................................................................................",
};
