/* XPM */
static char *xpm[] = {
"320 180 254 2",
".. c None",
"ab c #000000",
"ac c #010101",
"ad c #010204",
"ae c #020202",
"af c #030304",
"ag c #050505",
"ah c #070606",
"ai c #080808",
"aj c #090909",
"ak c #0a0a0a",
"al c #0d0d0d",
"am c #101010",
"an c #121212",
"ao c #151514",
"ap c #171717",
"aq c #181818",
"ar c #1a1a1a",
"as c #1c1b1b",
"at c #1e1d1c",
"au c #211f1f",
"av c #232221",
"aw c #252423",
"ax c #27231f",
"ay c #272523",
"az c #292726",
"aA c #2a2827",
"aB c #2b2928",
"aC c #2e2b29",
"aD c #2f2d2b",
"aE c #312f2d",
"aF c #32302e",
"aG c #343231",
"aH c #353332",
"aI c #373533",
"aJ c #373534",
"aK c #383634",
"aL c #393533",
"aM c #393635",
"aN c #3b3836",
"aO c #3c3938",
"aP c #3d3b39",
"aQ c #403d3b",
"aR c #413327",
"aS c #413e3d",
"aT c #43413e",
"aU c #454241",
"aV c #474342",
"aW c #484643",
"aX c #4a4746",
"aY c #4b4947",
"aZ c #4c4a48",
"a0 c #4c4a49",
"a1 c #4d4a47",
"a2 c #4e4b44",
"a3 c #4e4b49",
"a4 c #4f4d4b",
"a5 c #504e4c",
"a6 c #514d4b",
"a7 c #514f4e",
"a8 c #524d48",
"a9 c #53504f",
"a! c #54514d",
"a# c #555250",
"a$ c #564925",
"a% c #565453",
"a& c #565553",
"a( c #575451",
"a) c #575453",
"a* c #585655",
"a+ c #595654",
"a, c #5a5756",
"a- c #5b5855",
"a. c #5b5956",
"a/ c #5b5958",
"a: c #5c5856",
"a; c #5d564f",
"a< c #5e4a3b",
"a= c #5e5844",
"a> c #5e5b5b",
"a? c #5f5b59",
"a[ c #605c58",
"a\ c #615b4d",
"a] c #625f5e",
"a^ c #635f5d",
"a_ c #645f5b",
"a` c #655f5a",
"a{ c #656262",
"a| c #666260",
"a} c #67625d",
"a~ c #676462",
"ba c #676565",
"bb c #684d46",
"bc c #68562f",
"bd c #696765",
"be c #696767",
"bf c #6a625b",
"bg c #6b6766",
"bh c #6b6965",
"bi c #6c696a",
"bj c #6d6250",
"bk c #6e6c6c",
"bl c #6f5245",
"bm c #6f6763",
"bn c #6f6c69",
"bo c #6f6c6a",
"bp c #706e6f",
"bq c #716e68",
"br c #716f6e",
"bs c #726e6c",
"bt c #736256",
"bu c #736b56",
"bv c #745830",
"bw c #747170",
"bx c #747172",
"by c #757374",
"bz c #77736e",
"bA c #777676",
"bB c #787473",
"bC c #7a7979",
"bD c #7b5b4e",
"bE c #7b6256",
"bF c #7b7873",
"bG c #7b7978",
"bH c #7c7365",
"bI c #7e7b7b",
"bJ c #7e7d7d",
"bK c #806738",
"bL c #807d7a",
"bM c #817969",
"bN c #828080",
"bO c #828181",
"bP c #857d71",
"bQ c #868586",
"bR c #878481",
"bS c #895c53",
"bT c #8a655e",
"bU c #8b8a8a",
"bV c #8c8882",
"bW c #8d6e5a",
"bX c #8e8b86",
"bY c #8f8f90",
"bZ c #929190",
"b0 c #936a45",
"b1 c #939393",
"b2 c #948470",
"b3 c #948d7c",
"b4 c #959595",
"b5 c #969089",
"b6 c #969696",
"b7 c #979594",
"b8 c #979797",
"b9 c #988a7a",
"b! c #999898",
"b# c #9a9b9b",
"b$ c #9e8374",
"b% c #a07265",
"b& c #a0978e",
"b( c #a0a1a2",
"b) c #a4794f",
"b* c #a5a096",
"b+ c #a6a6a6",
"b, c #a79379",
"b- c #a79771",
"b. c #a8a9ab",
"b/ c #a99664",
"b: c #a9a49d",
"b; c #ab7957",
"b< c #aba69e",
"b= c #abacad",
"b> c #af9d77",
"b? c #afb0b0",
"b[ c #b1aba2",
"b\ c #b37f5e",
"b] c #b38270",
"b^ c #b4b4b4",
"b_ c #b7a57c",
"b` c #b7b8b8",
"b{ c #b89d8b",
"b| c #b9b5b0",
"b} c #ba8c83",
"b~ c #ba8f66",
"ca c #bbac87",
"cb c #bcbcbd",
"cc c #bdb09b",
"cd c #bfac82",
"ce c #c0a57f",
"cf c #c19c80",
"cg c #c2896d",
"ch c #c2896e",
"ci c #c49e66",
"cj c #c4a789",
"ck c #c5c5c5",
"cl c #c69c74",
"cm c #c8b794",
"cn c #c9966f",
"co c #cacac9",
"cp c #cfc1a9",
"cq c #d0b67e",
"cr c #d29877",
"cs c #d39c78",
"ct c #d4d1cc",
"cu c #d5be90",
"cv c #d6c19a",
"cw c #d89878",
"cx c #d9d0c0",
"cy c #dba179",
"cz c #ddd6ca",
"cA c #decfb3",
"cB c #e0bc8a",
"cC c #e0c180",
"cD c #e0c69f",
"cE c #e0ccb5",
"cF c #e39c7d",
"cG c #e3a181",
"cH c #e6c793",
"cI c #eaa684",
"cJ c #ebc687",
"cK c #eed5b7",
"cL c #efd1a1",
"cM c #f0a881",
"cN c #f0b789",
"cO c #f2b597",
"cP c #f4ad8b",
"cQ c #f7bb96",
"cR c #f8eacf",
"cS c #f9c799",
"cT c #f9d990",
"cU c #fac4a0",
"cV c #fac69d",
"cW c #fac895",
"cX c #fbc99f",
"cY c #fbcda0",
"cZ c #fbd5b2",
"c0 c #fbdbae",
"c1 c #fcbaa4",
"c2 c #fcc3a6",
"c3 c #fcd5ac",
"c4 c #fce2bc",
"c5 c #fdc6a9",
"c6 c #fdcdab",
"c7 c #fdd8a7",
"c8 c #fdd8af",
"c9 c #fecfa9",
"c! c #feddb3",
"c# c #fee2b4",
"c$ c #feefce",
"c% c #fef1d2",
"c& c #ffeac1",
"c( c #ffefd0",
"c) c #fff3d4",
"c* c #fff8df",
"c+ c #fffde9",
"c, c None",
"................................................................................................................................................................................................................................................................................................................................................................................................................................................................................................................................................................................................................................................................",
"................................................................................................................................................................................................................................................................................................................................................................................................................................................................................................................................................................................................................................................................",
"................................................................................................................................................................................................................................................................................................................................................................................................................................................................................................................................................................................................................................................................",
"................................................................................................................................................................................................................................................................................................................................................................................................................................................................................................................................................................................................................................................................",
"................................................................................................................................................................................................................................................................................................................................................................................................................................................................................................................................................................................................................................................................",
"................................................................................................................................................................................................................................................................................................................................................................................................................................................................................................................................................................................................................................................................",
"................................................................................................................................................................................................................................................................................................................................................................................................................................................................................................................................................................................................................................................................",
"................................................................................................................................................................................................................................................................................................................................................................................................................................................................................................................................................................................................................................................................",
"................................................................................................................................................................................................................................................................................................................................................................................................................................................................................................................................................................................................................................................................",
"................................................................................................................................................................................................................................................................................................................................................................................................................................................................................................................................................................................................................................................................",
"................................................................................................................................................................................................................................................................................................................................................................................................................................................................................................................................................................................................................................................................",
"................................................................................................................................................................................................................................................................................................................................................................................................................................................................................................................................................................................................................................................................",
"................................................................................................................................................................................................................................................................................................................................................................................................................................................................................................................................................................................................................................................................",
"................................................................................................................................................................................................................................................................................................................................................................................................................................................................................................................................................................................................................................................................",
"................................................................................................................................................................................................................................................................................................................................................................................................................................................................................................................................................................................................................................................................",
"................................................................................................................................................................................................................................................................................................................................................................................................................................................................................................................................................................................................................................................................",
"................................................................................................................................................................................................................................................................................................................................................................................................................................................................................................................................................................................................................................................................",
"................................................................................................................................................................................................................................................................................................................................................................................................................................................................................................................................................................................................................................................................",
"................................................................................................................................................................................................................................................................................................................................................................................................................................................................................................................................................................................................................................................................",
"................................................................................................................................................................................................................................................................................................................................................................................................................................................................................................................................................................................................................................................................",
"................................................................................................................................................................................................................................................................................................................................................................................................................................................................................................................................................................................................................................................................",
"................................................................................................................................................................................................................................................................................................................................................................................................................................................................................................................................................................................................................................................................",
"................................................................................................................................................................................................................................................................................................................................................................................................................................................................................................................................................................................................................................................................",
"................................................................................................................................................................................................................................................................................................................................................................................................................................................................................................................................................................................................................................................................",
"................................................................................................................................................................................................................................................................................................................................................................................................................................................................................................................................................................................................................................................................",
"................................................................................................................................................................................................................................................................................................................................................................................................................................................................................................................................................................................................................................................................",
"................................................................................................................................................................................................................................................................................................................................................................................................................................................................................................................................................................................................................................................................",
"................................................................................................................................................................................................................................................................................................................................................................................................................................................................................................................................................................................................................................................................",
"................................................................................................................................................................................................................................................................................................................................................................................................................................................................................................................................................................................................................................................................",
"................................................................................................................................................................................................................................................................................................................................................................................................................................................................................................................................................................................................................................................................",
"................................................................................................................................................................................................................................................................................................................................................................................................................................................................................................................................................................................................................................................................",
"................................................................................................................................................................................................................................................................................................................................................................................................................................................................................................................................................................................................................................................................",
"................................................................................................................................................................................................................................................................................................................................................................................................................................................................................................................................................................................................................................................................",
"................................................................................................................................................................................................................................................................................................................................................................................................................................................................................................................................................................................................................................................................",
"................................................................................................................................................................................................................................................................................................................................................................................................................................................................................................................................................................................................................................................................",
"................................................................................................................................................................................................................................................................................................................................................................................................................................................................................................................................................................................................................................................................",
"................................................................................................................................................................................................................................................................................................................................................................................................................................................................................................................................................................................................................................................................",
"................................................................................................................................................................................................................................................................................................................................................................................................................................................................................................................................................................................................................................................................",
"................................................................................................................................................................................................................................................................................................................................................................................................................................................................................................................................................................................................................................................................",
"................................................................................................................................................................................................................................................................................................................................................................................................................................................................................................................................................................................................................................................................",
"................................................................................................................................................................................................................................................................................................................................................................................................................................................................................................................................................................................................................................................................",
"................................................................................................................................................................................................................................................................................................................................................................................................................................................................................................................................................................................................................................................................",
"................................................................................................................................................................................................................................................................................................................................................................................................................................................................................................................................................................................................................................................................",
"................................................................................................................................................................................................................................................................................................................................................................................................................................................................................................................................................................................................................................................................",
"................................................................................................................................................................................................................................................................................................................................................................................................................................................................................................................................................................................................................................................................",
"................................................................................................................................................................................................................................................................................................................................................................................................................................................................................................................................................................................................................................................................",
"................................................................................................................................................................................................................................................................................................................................................................................................................................................................................................................................................................................................................................................................",
"................................................................................................................................................................................................................................................................................................................................................................................................................................................................................................................................................................................................................................................................",
"................................................................................................................................................................................................................................................................................................................................................................................................................................................................................................................................................................................................................................................................",
"................................................................................................................................................................................................................................................................................................................................................................................................................................................................................................................................................................................................................................................................",
"................................................................................................................................................................................................................................................................................................................................................................................................................................................................................................................................................................................................................................................................",
"................................................................................................................................................................................................................................................................................................................................................................................................................................................................................................................................................................................................................................................................",
"................................................................................................................................................................................................................................................................................................................................................................................................................................................................................................................................................................................................................................................................",
"................................................................................................................................................................................................................................................................................................................................................................................................................................................................................................................................................................................................................................................................",
"................................................................................................................................................................................................................................................................................................................................................................................................................................................................................................................................................................................................................................................................",
"................................................................................................................................................................................................................................................................................................................................................................................................................................................................................................................................................................................................................................................................",
"................................................................................................................................................................................................................................................................................................................................................................................................................................................................................................................................................................................................................................................................",
"................................................................................................................................................................................................................................................................................................................................................................................................................................................................................................................................................................................................................................................................",
"................................................................................................................................................................................................................................................................................................................................................................................................................................................................................................................................................................................................................................................................",
"................................................................................................................................................................................................................................................................................................................................................................................................................................................................................................................................................................................................................................................................",
"................................................................................................................................................................................................................................................................................................................................................................................................................................................................................................................................................................................................................................................................",
"................................................................................................................................................................................................................................................................................................................................................................................................................................................................................................................................................................................................................................................................",
"................................................................................................................................................................................................................................................................................................................................................................................................................................................................................................................................................................................................................................................................",
"................................................................................................................................................................................................................................................................................................................................................................................................................................................................................................................................................................................................................................................................",
"................................................................................................................................................................................................................................................................................................................................................................................................................................................................................................................................................................................................................................................................",
"................................................................................................................................................................................................................................................................................................................................................................................................................................................................................................................................................................................................................................................................",
"................................................................................................................................................................................................................................................................................................................................................................................................................................................................................................................................................................................................................................................................",
"................................................................................................................................................................................................................................................................................................................................................................................................................................................................................................................................................................................................................................................................",
"................................................................................................................................................................................................................................................................................................................................................................................................................................................................................................................................................................................................................................................................",
"................................................................................................................................................................................................................................................................................................................................................................................................................................................................................................................................................................................................................................................................",
"................................................................................................................................................................................................................................................................................................................................................................................................................................................................................................................................................................................................................................................................",
"................................................................................................................................................................................................................................................................................................................................................................................................................................................................................................................................................................................................................................................................",
"................................................................................................................................................................................................................................................................................................................................................................................................................................................................................................................................................................................................................................................................",
"................................................................................................................................................................................................................................................................................................................................................................................................................................................................................................................................................................................................................................................................",
"................................................................................................................................................................................................................................................................................................................................................................................................................................................................................................................................................................................................................................................................",
"................................................................................................................................................................................................................................................................................................................................................................................................................................................................................................................................................................................................................................................................",
"................................................................................................................................................................................................................................................................................................................................................................................................................................................................................................................................................................................................................................................................",
"................................................................................................................................................................................................................................................................................................................................................................................................................................................................................................................................................................................................................................................................",
"................................................................................................................................................................................................................................................................................................................................................................................................................................................................................................................................................................................................................................................................",
"................................................................................................................................................................................................................................................................................................................................................................................................................................................................................................................................................................................................................................................................",
"................................................................................................................................................................................................................................................................................................................................................................................................................................................................................................................................................................................................................................................................",
"................................................................................................................................................................................................................................................................................................................................................................................................................................................................................................................................................................................................................................................................",
"................................................................................................................................................................................................................................................................................................................................................................................................................................................................................................................................................................................................................................................................",
"................................................................................................................................................................................................................................................................................................................................................................................................................................................................................................................................................................................................................................................................",
"................................................................................................................................................................................................................................................................................................................................................................................................................................................................................................................................................................................................................................................................",
"................................................................................................................................................................................................................................................................................................................................................................................................................................................................................................................................................................................................................................................................",
"................................................................................................................................................................................................................................................................................................................................................................................................................................................................................................................................................................................................................................................................",
"................................................................................................................................................................................................................................................................................................................................................................................................................................................................................................................................................................................................................................................................",
"................................................................................................................................................................................................................................................................................................................................................................................................................................................................................................................................................................................................................................................................",
"................................................................................................................................................................................................................................................................................................................................................................................................................................................................................................................................................................................................................................................................",
"................................................................................................................................................................................................................................................................................................................................................................................................................................................................................................................................................................................................................................................................",
"................................................................................................................................................................................................................................................................................................................................................................................................................................................................................................................................................................................................................................................................",
"................................................................................................................................................................................................................................................................................................................................................................................................................................................................................................................................................................................................................................................................",
"................................................................................................................................................................................................................................................................................................................................................................................................................................................................................................................................................................................................................................................................",
"................................................................................................................................................................................................................................................................................................................................................................................................................................................................................................................................................................................................................................................................",
"................................................................................................................................................................................................................................................................................................................................................................................................................................................................................................................................................................................................................................................................",
"................................................................................................................................................................................................................................................................................................................................................................................................................................................................................................................................................................................................................................................................",
"................................................................................................................................................................................................................................................................................................................................................................................................................................................................................................................................................................................................................................................................",
"................................................................................................................................................................................................................................................................................................................................................................................................................................................................................................................................................................................................................................................................",
"................................................................................................................................................................................................................................................................................................................................................................................................................................................................................................................................................................................................................................................................",
"................................................................................................................................................................................................................................................................................................................................................................................................................................................................................................................................................................................................................................................................",
"................................................................................................................................................................................................................................................................................................................................................................................................................................................................................................................................................................................................................................................................",
"................................................................................................................................................................................................................................................................................................................................................................................................................................................................................................................................................................................................................................................................",
"................................................................................................................................................................................................................................................................................................................................................................................................................................................................................................................................................................................................................................................................",
"................................................................................................................................................................................................................................................................................................................................................................................................................................................................................................................................................................................................................................................................",
"................................................................................................................................................................................................................................................................................................................................................................................................................................................................................................................................................................................................................................................................",
"................................................................................................................................................................................................................................................................................................................................................................................................................................................................................................................................................................................................................................................................",
"................................................................................................................................................................................................................................................................................................................................................................................................................................................................................................................................................................................................................................................................",
"................................................................................................................................................................................................................................................................................................................................................................................................................................................................................................................................................................................................................................................................",
"................................................................................................................................................................................................................................................................................................................................................................................................................................................................................................................................................................................................................................................................",
"................................................................................................................................................................................................................................................................................................................................................................................................................................................................................................................................................................................................................................................................",
"..............................................................................................................................................................................................................................................................................................................................................................b[b|b5bVb<b<......................................................................................................................................................................................................................................................................................",
"............................................................................................................................................................................................................................................................................................................................................................ctcbb?b?b?b^b^b?b<..................................................................................................................................................................................................................................................................................",
"..........................................................................................................................................................................................................................................................................................................................................................bncbcob^b?b=b?b?b?b=b<................................................................................................................................................................................................................................................................................",
"..........................................................................................................................................................................................................................................................................................................................................................aVbQcob`b=b.b=b.b.b=b=b<..............................................................................................................................................................................................................................................................................",
"..........................................................................................................................................................................................................................................................................................................................................................aPa7b(ckb^b(b.b+b(b(b(b(b4............................................................................................................................................................................................................................................................................",
"..........................................................................................................................................................................................................................................................................................................................................................aTaObab`cbb#b(b(b+b(b(bYb4a/aX........................................................................................................................................................................................................................................................................",
"..........................................................................................................................................................................................................................................................................................................................................................aXaQaPbQcbcbb=b+b(b(b#b6b!bYaM........................................................................................................................................................................................................................................................................",
"..........................................................................................................................................................................................................................................................................................................................................................aVaJaHa9b#b`b=b#b4b4b6b6b6b!bUbG......................................................................................................................................................................................................................................................................",
"..........................................................................................................................................................................................................................................................................................................................................................aOaIaIaHa{b.b^b(b4b6b6b6b6b6b!b6bZbX..................................................................................................................................................................................................................................................................",
"..........................................................................................................................................................................................................................................................................................................................................................a7aFaJaHaObAb?b.b8b6b6b6b6b6b6b8b!bZbR................................................................................................................................................................................................................................................................",
"............................................................................................................................................................................................................................................................................................................................................................aGaJaJaGaPbUb=b#b7b6b6b6b8b8b8b6b!bZbR..............................................................................................................................................................................................................................................................",
"............................................................................................................................................................................................................................................................................................................................................................aKaJaJaIaGa%bZb:b6b6b4b6b4b4b1b1b1bYbUbL............................................................................................................................................................................................................................................................",
"............................................................................................................................................................................................................................................................................................................................................................aUaGaJaJaFaHa#b4b!bYbUbOa9aTbpbNbZbIbia~aAaT........................................................................................................................................................................................................................................................",
"............................................................................................................................................................................................................................................................................................................................................................a#aOaJaIaBayaDbyb#bZbUa*ayatbrbJbQbkbebwasam........................................................................................................................................................................................................................................................",
"............................................................................................................................................................................................................................................................................................................................................................a#aVaIaJaBaAaqaPbIa]beaQaEaCa>b4bZbYb1braDavar......................................................................................................................................................................................................................................................",
"............................................................................................................................................................................................................................................................................................................................................................bda!aSaGaBaAaqazaUa#bQbJbAbAbCbQbQbQbQbJbzbIbpbh....................................................................................................................................................................................................................................................",
"............................................................................................................................................................................................................................................................................................................................................................a9aPaTaGaBayapauaEbybUbrbebebdbababababdbgbrbCbra]..................................................................................................................................................................................................................................................",
"............................................................................................................................................................................................................................................................................................................................................................aVaGa>aPaEavapaqaza9a>aVaHaHaFaEaFaFaFaFaFaFaFaHaOaD................................................................................................................................................................................................................................................",
"............................................................................................................................................................................................................................................................................................................................................................aZaAa{a7aEayapasaBaFaFaCaBaBaBaBaAavauauauatapaparamaD..............................................................................................................................................................................................................................................",
"..............................................................................................................................................................................................................................................................................................................................................................ayaOa]aOazaqasaBawazaBaBaBaBawataqapapapapapapapalaC..............................................................................................................................................................................................................................................",
"..............................................................................................................................................................................................................................................................................................................................................................aPazbea5auapasaAavaAaBaBaCauapapapapapapapapalanamaz..............................................................................................................................................................................................................................................",
"................................................................................................................................................................................................................................................................................................................................................................aya:a7atapasazauaBaBaBazaqapapapapapapaqapakanamas..............................................................................................................................................................................................................................................",
"................................................................................................................................................................................................................................................................................................................................................................aDaXaSaGasasaAavaAaBaBatapapapapapapapapapakanalaw..............................................................................................................................................................................................................................................",
"................................................................................................................................................................................................................................................................................................................................................................aNaOaXa]awaparauaBaBatanakakakakakakakakakakanamat..............................................................................................................................................................................................................................................",
"................................................................................................................................................................................................................................................................................................................................................................bdaNaJa]aOapapauaBaBatalamalakakakakakakakakaoamar..............................................................................................................................................................................................................................................",
"..................................................................................................................................................................................................................................................................................................................................................................aUaza%aWaqapavaCaBasalalalalakakakakalalakamakat..............................................................................................................................................................................................................................................",
"..................................................................................................................................................................................................................................................................................................................................................................aXaEaSa:ayapaxaCawapaoapapanakakakakananakakahaB..............................................................................................................................................................................................................................................",
"..................................................................................................................................................................................................................................................................................................................................................................a8azaCa/aUauayayavapapapaqanajakakakananajajahaC..............................................................................................................................................................................................................................................",
"..................................................................................................................................................................................................................................................................................................................................................................bzaCaBaVa%aHayayavaqaqaqaqaoalamalanaCatamanaiaD..............................................................................................................................................................................................................................................",
"..................................................................................................................................................................................................................................................................................................................................................................b,aDaCaOa?aTawaDaEaDaEaEaEaDaDaEaDaFaKaHaGaKasaH..............................................................................................................................................................................................................................................",
"................................................................................................................................................................................................................................................................................................................................................................cDceaEaCaCa7a&azavaCaJaIaIaIaIaIaIaIaIaHaJaIaJaza!..............................................................................................................................................................................................................................................",
"................................................................................................................................................................................................................................................................................................................................................................cucyaEaBawaMa,aXaSaSaSaSaSaTaTaTaSaTaTaTaTaTaTaVa[bj............................................................................................................................................................................................................................................",
"................................................................................................................................................................................................................................................................................................................................................................ceclaEazaBaCaSaXa3a5a9a9a%a,a*a&a3a&a*a*a#a7a7a3aSbma8..........................................................................................................................................................................................................................................",
"........................................................................................................................................................................................................................................................................................................................................................c%c*c*..cvb9aFayaBazazaDaOaXa4a5a+a&a&a+a0a#a,a&aZaYaYaUaCa7biaH........................................................................................................................................................................................................................................",
"..................................................................................................................................................................................................................................................................................................................................................cRc+c+c+c+c)c4bXa:a(aFayapaoauaAaDaPaVaYa3a3a9a5a5a*a4aVaTaPaEataPbRa~aQ......................................................................................................................................................................................................................................",
"..............................................................................................................................................................................................................................................................................................................................................cLc)c)c%c)c%cKb{bma#a:a|a~aYakaialapasayaEaHaSaVaYaYaYaWaOaFaEaBatalaUbUbJa3a4....................................................................................................................................................................................................................................",
"..............................................................................................................................................................................................................................................................................................................................................cTc&c4c!cDb$bja;a9a)a,a&a,beaSalagaialanapatavaBaFaFaFaDavauaralamaVbkbJbOa>a!a!..................................................................................................................................................................................................................................",
"............................................................................................................................................................................................................................................................................................................................................cCc7c0cXc5bEaSa)aTa4a,a+a&a,a?a|aYaEatalakajakalalanaoaoaoakaoauaPbabGbybIbObLa}aYa[................................................................................................................................................................................................................................",
"............................................................................................................................................................................................................................................................................................................................................cJcScScXclaRaTa1aWa0a9a&a*a.a?a?bfbia~a?a4aTaHaDavapataAaTa#brbBbha/a#a#a7a)bgbGa&aV................................................................................................................................................................................................................................",
"............................................................................................................................................................................................................................................................................................................................................cNcQcQcQbDaDaTaWa[a*aUa9a,a,a&a?a`a`a}a_a}a~a~bnbsbrbAbObQbra[a,a0a0a3aWaUa1a#bebkaYa!..............................................................................................................................................................................................................................",
"..........................................................................................................................................................................................................................................................................................................................................cdcMcMcPcwaRaFaSaWaXaWa9a3a9a7a#a/a}a}a`a`a|a|a[a{bxbNbNbJbpa{a{a{a{a[a>a/a:a?a]a>bebwaWa}............................................................................................................................................................................................................................",
"..........................................................................................................................................................................................................................................................................................................................................b_cycFcMcwa<aHaKaWaTaGa*a#aWaYa7a[a|a}a`a[a[babebkbxbsbaa*a9a9a3a0a3aYaTaSaSaSaQaUa5bobBa!............................................................................................................................................................................................................................",
"..........................................................................................................................................................................................................................................................................................................................................b>cncrcrcsbEaFaKaXaPaPaVa7aKaPa9a[a,a,a+a*a+a+a>baa,a9a7a7a3a3a9a7a3aXaYaYaYaXaNaGaGaNa[biaTa,........................................................................................................................................................................................................................",
"..........................................................................................................................................................................................................................................................................................................................................b>b~cgcgcrb$aPaMaYaMaPaQaOaSaMaUa4a&a+a+a#a3a-a{a{a*a#a7a&a4aZa9a&a&a9aYaYaYaZaWaOaIaHaUbgaXataQ......................................................................................................................................................................................................................",
"..........................................................................................................................................................................................................................................................................................................................................b-b)b;b;b\b]a2aFa7aLaDaMaJaNa4aHaIa3a,a4aYa7a,a?a,a+a*a+a0aYaYaXaZaZa0aYaYaYaYaZaWaOaOaUa:a*aCaVa[....................................................................................................................................................................................................................",
"............................................................................................................................................................................................................................................................................................................................................bKbKb0b0b]btaEa%aIaBaEaHaIaKaPaDaQa5aYa9a*a#a&a&a&a+a&aZaXaYaYaYaYaYaYaYaYaYaYa0aVaPaVa-a*aEaSa3a]..................................................................................................................................................................................................................",
"..............................................................................................................................................................................................................................................................................................................................................a=bcbvb0bWaPa9aKaDaAaDaJaAaEaQaDaMaVa#a&aZaZaYa7a*a*a#aZa0a3aYaYaZaYaYaYaYaYaWaXaOaSa#a{a3aGaWa7a}................................................................................................................................................................................................................",
"..................................................................................................................................................................................................................................................................................................................................................a=a$bcaQaWaNaFaAaFaIaBaEaTaPazaQa>a*aYaYaYa9a+a+a+a&a+a7aXa0a#a4aXaYaZa0aSaUaTaSa4baa{aKa3a/aWa|..............................................................................................................................................................................................................",
"......................................................................................................................................................................................................................................................................................................................................................a!aWaEaNaIaEaEaIaCaJaMaOaBaNa,a5aXaYaZa#a#a*a*a+a*a#aWaWa4a#aZaWaUaXaXaTaYaXaXa/a]aQaXa*a,a8..............................................................................................................................................................................................................",
"..........................................................................................................................................................................................................................................................................................................................................................ayaHaJaIaIaKaEaEaKaEaCaCaUaYaYaYaYaXa7a&a#a+a*a,aXaPaXa4a7aUaMaSa4aVa3aZaWa3a,aPaWa,a|a?a!............................................................................................................................................................................................................",
"..........................................................................................................................................................................................................................................................................................................................................................b9aCaEaDaJaKaEaCaEaDaOaDaOa3aYaYaYaXa3a3aXa9a,a*a#aQaKaVaZaYaTaNaTa6a9a>aVaWa,aSaDaQa9bkbaa}..........................................................................................................................................................................................................",
"..........................................................................................................................................................................................................................................................................................................................................................c4a;avaBaGaKaIaEaBaDaKaOaBaSa0aYaYaYaVa9a#a7a5a4a9aYaOaNaVaZaVaMaSa4a5bBa/a4a:a0aEaGaWbga~a`a(........................................................................................................................................................................................................",
"........................................................................................................................................................................................................................................................................................................................................................c0c&cjazazaCaDaIaJaBaBaBaOaGaDaUa3aYaZaUaVa9a3aYaYaXa0aVaIaMaWaUaLa3a6a7bObqaXbabNa3aBa1a4aSa#a^a(......................................................................................................................................................................................................",
"........................................................................................................................................................................................................................................................................................................................................................c0c#c#btayaBaBaFaKaGaBaBaCaTazaFa1a7aZaXaOaPa7a9aSaNaSaWaOaJaVaUaWbxa?aVa~bwa7a-bLa`aEbdbgaGaMaYbaa^....................................................................................................................................................................................................",
"........................................................................................................................................................................................................................................................................................................................................................c#c#c&cEaEazaCaEaKaKaHaBaAaIaPavaIaXaYaYaTaFaFaUaQaJaIaHaJaPaYaTaVa{a+a#aYa!a6a-a9a&a4a%baaWa&aLaZa[a3..................................................................................................................................................................................................",
"......................................................................................................................................................................................................................................................................................................................................................cDc#c#c$c)bHayaAaFaKaJaKaEaBaAaSaGayaIaQaUa1aOaCaJa)a3aPaDaJaUa9aTaLaXa,baa?a5a*a9aYaVa4aTaVa?boa|aNa(a(a.................................................................................................................................................................................................",
"......................................................................................................................................................................................................................................................................................................................................................cDc0c!c$c)cAaSayaDaJaIaJaIaDaBaCaUazazaNaPaQaUa3aHaQa4aYaGaLaYbobobra?a#aSa%bibLbwa~a]a4aUaXaVaYa:aSaVa&aV................................................................................................................................................................................................",
"......................................................................................................................................................................................................................................................................................................................................................cvc7c!c%c)c%b,ayaBaDaJaJaJaJaBaAaQaTayaDaEaEaIaXaPaCaVbia4a9bAboa#a4aVa6a0a]bibkbpbibibebebaa^a#aUa,bka0aPaT..............................................................................................................................................................................................",
"......................................................................................................................................................................................................................................................................................................................................................cdcYc4c)c)c(cKblaxaHaKaJaJaKaGaBaFaYaIaAaBaBaFaUa9aEaIa3a9bYa,aOa#a]a{a^a*a]bebebebebebebibrbybebabybLbBa~a5aW............................................................................................................................................................................................",
"........................................................................................................................................................................................................................................................................................................................................................cBc!c)c)c&c&cfaxaGaKaJaJaJaJaDaCaPaWaBaBaBaBaNa/a3a,aHbObzaGaVa9a/a-a*a/babebkbAbIbAbrbxbAbAbybxbAbCbIbGbAa6a!..........................................................................................................................................................................................",
"........................................................................................................................................................................................................................................................................................................................................................cqcPc!c4c4cZc1bbaCaKaJaJaJaKaFaAaCaQaMaAaBaBaCaOaSaQbsbdaEa3aYa9a,a{bpbibibxbxbrbpbkbibpbxbIbybkbea{a]a]bybBaW..........................................................................................................................................................................................",
"........................................................................................................................................................................................................................................................................................................................................................cJcwcIcUc6c2c1b%axaDaIaJaJaJaHaBaAaDaNaCaBaBaBaBayaWa~aFa7a!aYa,a|bebibibkbkbebea>a#a0aWa*bkbka{a/a&a%a3a#bga~a(........................................................................................................................................................................................",
"........................................................................................................................................................................................................................................................................................................................................................cWcQcIcPcGcFcwbSavaAaDaJaJaJaIaBaBaBaJaEaDaEaNaKaPa/aIaYa/a%a#a|bkbebabkbkbxbxbka/a9aYaSaWa5a>a>a/a*a,a9aWaYa.a[bmbF....................................................................................................................................................................................",
"......................................................................................................................................................................................................................................................................................................................................................cucYc0c#c4cOcGcFbDaxaBaBaGaKaJaKaFaBaBaGaEaDaHaEaUbaaOaVa,a&a*a^bebybwbpbCbAbJbObJbea9aZaSaPaTa3aZa7a7a#a5aXaVaOa3bhbha]..................................................................................................................................................................................",
"......................................................................................................................................................................................................................................................................................................................................................cCc3c&c&c%c4c9c1bSaxaAaBaCaGaJaIaPaHaBaCaHaBazaAaYaUaOa7a,a:a/bgbibebkbrbybIbJbUbYbxbaa9aTaHaGaQaUaUaVaXa0a3a4aXaYa8bdbAa7................................................................................................................................................................................",
"......................................................................................................................................................................................................................................................................................................................................................cqcSc0c$c)c&c8c2bTaEaCauaBaBaFaKaKaPaMayaQaVaEaTaKaHa1a#a*a?a?bkbxbibybybCbQbYbNbybebea:aXaHaQa*a/a*a)a[bkbxbAbCboa,a!a/a,a[..............................................................................................................................................................................",
"........................................................................................................................................................................................................................................................................................................................................................cNcQc4c(c&c!c9b%aCaOauaxaBaBaGaJaMaQaCaCaTaWaGayaPa0a%a{bka{bkbxbibCbkbAbkbpa[a*a9aYaUa0bebJbCbda%aXaWaTaMaBauatanataPaWaXaZ............................................................................................................................................................................",
"........................................................................................................................................................................................................................................................................................................................................................cicPc3c!c!c3c9b]aFaMaCataxaBaEaKaIaMa3aTaEaMaBaBaJaVa:bebebpbObCbebpbibebaa]a/a0aOaMa,bQbIa0azavavaraqaoamakajakakakalavaPaKaU..........................................................................................................................................................................",
"........................................................................................................................................................................................................................................................................................................................................................b/cycVc8c7c6c5b}aCaMaFauataAaDaIaSaSaOaYa9aTaBaBaEaNa*bebkbObUbNa~a{bibibibea%aPa#baa{a3aAanaoaoapapapanamamamamamamamamaqaCayaw........................................................................................................................................................................",
};
