/* XPM */
static char *xpm[] = {
"320 180 256 2",
".. c None",
"ab c #0a0807",
"ac c #0c0b0c",
"ad c #0d0909",
"ae c #0e0c0d",
"af c #0f0a07",
"ag c #100e0e",
"ah c #110b08",
"ai c #120f11",
"aj c #140c09",
"ak c #151212",
"al c #160f0b",
"am c #171414",
"an c #18120e",
"ao c #191617",
"ap c #1a191c",
"aq c #1c100d",
"ar c #1c1512",
"as c #1e1917",
"at c #1e1c1e",
"au c #211310",
"av c #211c1a",
"aw c #221815",
"ax c #221f21",
"ay c #241a18",
"az c #242123",
"aA c #251612",
"aB c #251f1d",
"aC c #252325",
"aD c #272322",
"aE c #272424",
"aF c #272426",
"aG c #281914",
"aH c #282629",
"aI c #291c1a",
"aJ c #2a2222",
"aK c #2a2525",
"aL c #2a272a",
"aM c #2b2726",
"aN c #2b292c",
"aO c #2d1b15",
"aP c #2d2b2e",
"aQ c #2f201c",
"aR c #2f2524",
"aS c #2f2928",
"aT c #2f2d31",
"aU c #302a2a",
"aV c #322c2b",
"aW c #323033",
"aX c #331e17",
"aY c #33231d",
"aZ c #332727",
"a0 c #333335",
"a1 c #352929",
"a2 c #352f2d",
"a3 c #353538",
"a4 c #363234",
"a5 c #38211a",
"a6 c #382721",
"a7 c #383437",
"a8 c #38383c",
"a9 c #392c2b",
"a! c #39312f",
"a# c #3b3639",
"a$ c #3b3b3e",
"a% c #3c2b24",
"a& c #3c3331",
"a( c #3d3d42",
"a) c #3e241c",
"a* c #3e2f2c",
"a+ c #3e3635",
"a, c #3e393c",
"a- c #403d3e",
"a. c #41322f",
"a/ c #414043",
"a: c #423937",
"a; c #43271f",
"a< c #432f27",
"a= c #433433",
"a> c #434245",
"a? c #45342f",
"a[ c #45454a",
"a\ c #462d26",
"a] c #463635",
"a^ c #474546",
"a_ c #483632",
"a` c #483a37",
"a{ c #48484b",
"a| c #49342b",
"a} c #493d3c",
"a~ c #4a2b20",
"ba c #4b4a4d",
"bb c #4d3835",
"bc c #4d3c37",
"bd c #4d4c50",
"be c #4e322a",
"bf c #50413e",
"bg c #504f52",
"bh c #51382f",
"bi c #523022",
"bj c #523c38",
"bk c #535155",
"bl c #543c35",
"bm c #544542",
"bn c #555457",
"bo c #56382d",
"bp c #563e3a",
"bq c #57362b",
"br c #57575b",
"bs c #594039",
"bt c #5b3d34",
"bu c #5b423e",
"bv c #5b4a45",
"bw c #5b5a5e",
"bx c #5d3325",
"by c #5d423c",
"bz c #5e5d62",
"bA c #5f3b2b",
"bB c #5f4238",
"bC c #5f4f4a",
"bD c #604740",
"bE c #605754",
"bF c #616165",
"bG c #62656c",
"bH c #644640",
"bI c #663e2d",
"bJ c #664c45",
"bK c #66696f",
"bL c #68453a",
"bM c #686465",
"bN c #694a43",
"bO c #6a544d",
"bP c #6a6e75",
"bQ c #6b5d59",
"bR c #6c4b41",
"bS c #6c686a",
"bT c #6e422f",
"bU c #6f6d6f",
"bV c #705047",
"bW c #705149",
"bX c #70747b",
"bY c #734835",
"bZ c #744f41",
"b0 c #75564d",
"b1 c #757274",
"b2 c #767a82",
"b3 c #776058",
"b4 c #795950",
"b5 c #7a564b",
"b6 c #7a655f",
"b7 c #7a7a7c",
"b8 c #7b4c36",
"b9 c #7c8189",
"b! c #7d5545",
"b# c #7f5b51",
"b$ c #7f6a63",
"b% c #808082",
"b& c #815c4f",
"b( c #82868b",
"b) c #836f67",
"b* c #846156",
"b+ c #855239",
"b, c #866054",
"b- c #86898e",
"b. c #885d4a",
"b/ c #898c91",
"b: c #8b665b",
"b; c #8c6556",
"b< c #8c7368",
"b= c #8d9095",
"b> c #8f593c",
"b? c #8f7a73",
"b[ c #906a5f",
"b\ c #90959c",
"b] c #926650",
"b^ c #926b5c",
"b_ c #956f61",
"b` c #958078",
"b{ c #969394",
"b| c #969ba2",
"b} c #98705f",
"b~ c #9a7467",
"ca c #9c6241",
"cb c #9ca1a8",
"cc c #9d877e",
"cd c #9e7665",
"ce c #9e9a9b",
"cf c #9f6d53",
"cg c #a27b6c",
"ch c #a3a8af",
"ci c #a4908a",
"cj c #a5735a",
"ck c #a66945",
"cl c #a67b67",
"cm c #a7a1a0",
"cn c #a88274",
"co c #a8aeb4",
"cp c #ab704b",
"cq c #aca7a7",
"cr c #acb1b8",
"cs c #ae816c",
"ct c #b07654",
"cu c #b08e7d",
"cv c #b1adac",
"cw c #b1b7bd",
"cx c #b77f5b",
"cy c #b8bec4",
"cz c #b9b1b1",
"cA c #bb8b6e",
"cB c #beb7b4",
"cC c #bfc5cb",
"cD c #c08660",
"cE c #c2977e",
"cF c #c4bcb9",
"cG c #c5afa3",
"cH c #c68c66",
"cI c #c6a08a",
"cJ c #c6cbd1",
"cK c #c8c1c0",
"cL c #cb926a",
"cM c #cdcaca",
"cN c #cdd2d8",
"cO c #d19a74",
"cP c #d1a98f",
"cQ c #d3bcae",
"cR c #d6d1cf",
"cS c #d6dadf",
"cT c #d7a27d",
"cU c #dda984",
"cV c #dde0e5",
"cW c #dfc5b6",
"cX c #dfd7d4",
"cY c #e0b79c",
"cZ c #e4b08c",
"c0 c #e5e8ec",
"c1 c #e6dfdb",
"c2 c #e7ccbc",
"c3 c #e9b892",
"c4 c #ece7e4",
"c5 c #eceef2",
"c6 c #f0c09c",
"c7 c #f2d4bb",
"c8 c #f2edea",
"c9 c #f4f4f6",
"c! c #f5c8a5",
"c# c #f5e3d4",
"c$ c #f6f4f3",
"c% c #f8f5f2",
"c& c #f8f8fa",
"c( c #f9dbc0",
"c) c #f9f8f7",
"c* c #fad0ad",
"c+ c #fde2c7",
"c, c #fde9d5",
"c- c #fff2e4",
"c. c None",
"acacacacacacacacacacacacabababababaiapavaxatapamamapaxaCaNaPaTaWa0a8a/a^bgbrbGbPb(b(b-b=cmcwcebSa#aJaKaSawaya*a_bbbbbbbha`bcbcbha_a?a%a6aZaYaQaYa5a%a%a<aYaIayasaramananakalakalananananamakakamamamamanakamararaoaraoaramaoaoaoaraoaoasaoasasasasatasasasavavasatavavatavatavatavaxavaxavaxavaxavavavatavatavavavavavavavasavavavavavavavavavavaBavavasasasasavavavavavavayavavavavaBavavavavavavavavavavayavayasayasasasasasasasasaoaoaoaoaoaoaoaoaoaoaoaoaoaoaoaoaoaraoaramaramaramaranarararararararararasawayaBaBaXaXa)a;a;a%a<a%a;a6a)a6a;a1a)aZa6a6aZaYa6a9a%a*a<a*a*a*a<a.a?a?a?a.a%a9a6a!bEb=cFcMcCcwcbb\b/b9bXbKbzbka{a[a(a#a0aWaTaHaxaxaHaNaTa#a$aPap",
"akakamamamamamamamaiacacacababagapaxaxaxatapaoapaxaHaPaTa0a3a8a(a^bdbwbGbXb9b\b\b-b=cochb7a^aJaIaZa&a=a.a9a?a_a_a|bba|a.a%a6aYaDaOaGaOaXa<blbRb4bsbAblbQbva<aQaQavavayasasasaoawasasasasasasasasavatavavaBavaBaBaBaBaBaBaDaDaDaDaDaDaDaEaKaKaKaMaMaMaMaMaSaMaSaSaSaSaUaPaSaUaUaUaUaVaPaUaUaUaUaUaUaUaUaPaUaUaUaUaSaSaUaUaUaUaUaUaUaUaUaSaSaSaSaVaSaVaVaSaVaSaUaUaUaUaUaUa1aUaSaUa1aVaVaUaUaUaUaUaUaSaSaSaSaSaMaRaRaRaMaMaKaKaEaDaDaDaDaDaDaBazazaBazazaBaxaBaxavaxavaxavavavavatavavavavavavavavavavavavaBayaBaQaRa6a%a\bob<b)b)bYb.b.b!b!bYbLbtbqa~a;aXaOaAauauauaraAaGaQaYa6a9a*a*a<a<a.a|a_a?a*aZaRa&bQcbcMcJcycob|b=b(b2bUbFbrbgbaa(a$a3a0aWaLazaCaNaPa3a/a-",
"aFaHaNaNaTa0a3aWapagaeacacaeapaCaFaFaxatapapaxaHaNaTa3a8a(a>a{bkbzbPb7b-b|b|b(b=chcbbSa4aIaJa9a.a9a?a?a?a?a?a?a.a6aBaAanalalaAa5bAb&cucIc2c(c,c,cua<aOaOaYa6a<aYaGayayasasavasatavatavatavavavatavaBaxaBaBaBaDaDaDaDaDaDaDaEaEaEaKaKaMaMaMaMaMaMaMaMaMaMaMaSaMaMaMaMaMaSaSaSaSaSaSaSaSaSaUaUaUaUaUaVaVaVaVaUaUaUaPaVaUaUaUaUaVaVaVaVaVaVaVaVaVaVaVaVaVa2aVa2aVa2aVaVa9aVa9aVaVaVaVa2aVaVaVaVaVaVaVa1aUaUaUaUaZaSaSaZaSaSaSaSaMaMaMaKaKaKaKaKaKaKaKaKaKaKaDaJaDaJazaJaDaBaBaBaBaBaBaBaBaBaBaBavaBavaBavavavaIaBaQaYa6a%a~bYcLcDcDcLcOcTcZcTcTcEcxcjb;b8btbea\a5aGaAauaqalalaqauawaQaYa6a%a<a<a.a?a?a_a?a%aQaSbgb(czcKcCcrcbb\b(b2bPbFbwbrbka{a(a8a3aWaNaHaHaTa0a/",
"a$a>a{bgbrbza{azacaeacacaiaHaNaNaHatapapataHaPaWa8a(a>a{bdbrbFbPb%b=chcmb9b9cbcebMa9aBaZa.a`a_a?a.a_a_a?a.a6avaralalanaAaGa5bIb>cxcOc6c+c,c,c+c7cGbAaAaAaraAaYa%a6a%a%a6a)a5aYaYaXaQaXaQaQaQaQaQaQaQaQaQaQaYaYaYaYaYaYa6a6a)a%a%a;a<a;a<bebebhbhbobtbBbBbLbVbObObObObObQbQb0bObObObRbJbLbBbBbtbobobhbea|a<a<a<a<a<a%a*a%a%a9a%a9a%a9a%a%a%a*a%a*a<a*a\a<a\a\a\a\a\a\a\a\a\a\a\a\a|a\bea<a|a|a|a|a|a|a|a|a\a\a\a;a;a;a6a)a6a5aYaYaYaYaYaYaYaQaYaQaQaYaQaJaQaJaQaBaQaBaIaBaBaIaBaBaBaBaBaIaBaIaBavayayayayayayaIaQaQa5a;a~bAb]ckcpcxcxcAcLcEcEcLcActcfb+bYbIbAbxbubpa]a9aYayaraqanalaqanawaYaVa*a*a*a<a?bba_a*a6aRa^b7cvcJcJcwb|b=b2bKbKbGbzbwbka[a(a$a7aWaNaLaTa0",
"b1b2b%b-b-brataeaeacacataTaTaTaHatatataCaNaWa8a(a[babkbrbGbPb7b/cbcrb=b1b\cebSa!aQa6a.a.a<a_a`a_a:a.a6aIaqalalauaraAaXa)a~bxbTb8b+b+b>b.b!bYbAa~a5a5aXaAaAaqaXa6a6a5bJb:b&b8bYbTbAbtbqbqbebea|bea|bebebebebhbqblbtbtbtbIbLbLbYbZbZb+b.cacfcjctcAcHcTcUcYc6c7c(c#c#c-c-c,c-c-c,c+c(c7c!c3cZcTcOcDcxctcjcab.b>bZb8bYbLbLbIbLbIbLbIbLbIbLbIbLbTbYbTbYbYb8b8b8b!b+b+b>b>b]b]cfcjctcscAcEcOcPcZcYcYcYcYcWcYcYcYcPcPcTcEcEcAcAclcjcfb]b.b.b+b!bYbYbLbIbBbAbtbqbqbebea<a\a\a<a%a%a%a)a%a%a;a6a%a6a%a)a%a%a%a%a%a<a~bibqbAbqa5a;aXaqaqaXaXa5a)a)a~a)a;a)a;a;a;a;a;a;a)bbbNbJbvbmbmbfa*aQayaranalalanayaRa9a*a*a\a.a|a`a<aZaZbgb%cqcNcJchb=b(b2b2bPbGbzbnbga[a(a8a0aTaLaW",
"crcwcCcybFaoagagacacaCa3a3aWaHaxaxazaTa0a8a(a[bdbrbwbGbPb%b/b|crchbXb%cbb7a}a1a6a!a|a%a%a*a?a&a%aMawajalaqawawaIaYaYa6a;a;a;a)a5aXaGaAaAaXa~bTb>cxcdbia5aXaOaGa5a\a6a)bLbYbYbTbIbIbAbxbqbebebebebebebebebebqbhbobtbobtbAbIbLbTbRb8b!b>b^cpcjcxcDcLcOcUcYcYc2c2c#c1c#c,c8c,c,c#c(c7c!c6cYcUcTcLcHcxctcjcfb>b.b!b8bYbTbTbLbLbTbLbLbTbRbYbYbYbZb8b!b!b+b!b.b.b>b]cacfcjctctcxcAcLcOcUcZc6c2c7c7c(c#c(c#c(c7c7c2c6c6cYcZcUcTcLcDcxctcjcab]b>b>b8b8bYbTbTbIbAbAbqbqbebebea\a\a;a%a;a%a;a%a;a;a;a;a;a;a\a\a<bebobIbYb!b8bIbIbxa~bxb+b]b]b.bYbIbia)a5aXaXaOaAauauaqaqaqaqaqaqaAaQa.bmbma}a&aBaramanalakaraIa1a*a*a\a<a?bba&aRaVbrb(cwcJcychb|b/b(b7bPbGbwbnbda[a/a8aWaP",
"cJcVcCbnaoaiaiaeaiaPa(a/a8aHaxazaNa3a8a>a[bdbkbrbGbwbXb(b\crcyb=bKb=b{bCa9a%a<a?a<a<a<a<a*aVaQalafahalaAaGaIaQaQaYaYaYaQaXaOaAaAaOa)bxb>cDc3c(c,c,c(b}bia~a~a5aOa)a~a;a5a)a~a%a~a\a~a;a\a;a\a;a\a\a\a\bebebebebqbqbobtbtbAbAbIbLbRbYb+b]cfcxcAcOcTcZc3c6c*c7c#c#c,c8c-c,c,c,c#c(c7c7c6c6cZcUcOcLcDctcjcab.b>bZb8bYbLbTbIbLbIbIbIbIbAbIbBbIbIbIbIbLbTbTbYb8b8b>b.cacfctcscOcTcZc3c6c7c7c7c(c#c#c#c#c,c#c#c#c(c7c2c6c6cZcUcOcOcDcxctcfcab>b+b8bYbTbIbAbAbAbqbqbebebea~a\a\a\a;a;a;a%a;a%a;a)a;a%a;a\a\a~bebqbAbIb+b]b>bYb>cLc(c+c,c,c,c+c!cTcjb8bia)a)aXaXaOaAauaqaqaqaqauaqaqaAaQa9bbbfa+aSavamalalalaqaIaZa*a*a<a.a*a%a9aPa{bGb(cCcJcrcob|b=b(b7bPbFbwbkbda[a/a8",
"c0cCbgamaoakaiaiaWa[a^a/aPaHaNaWa(a>bdbkbwbFbKbPb2b7b/cbcycwb2bSceb%bca%a*a?a<a<a<a%a<a%aIanalaqaqaGaXaQaOaIaOaIaGawauauauaAaXbib8cacDcTc!c+c,c-c-c+cPbIa~bia;a)aXa;a%a;a6a%a%a)a%a6a%a%a%a%a%a\a%a\a\a\a\bebebebebhbobobobobtbIbLbYbZb+b]cjcscAcEcTcUcYc6c!c7c(c#c#c#c#c(c(c7c2c2c6cYcYcUcTcEcAcxcjcab.b+bZbYbYbIbIbAbAbobAbqbqbqbqbqbebebebqbqbqbqbxbIbIbLb8b!b.cfcjcxcHcEcTcZcYc6cWc!c2c7c(c(c1c(c7c7c7c2c!cWcZcZcTcOcEcDclcjcab.b>b!b8bYbIbIbtbobobobqbea|bea|a\a|a<a<a<a*a\a;a*a%a%a%a%a%a<a\a\bebibebxbLbYbAbIb>cLc!c+c+c,c+c,c+c(c6cIcjb+bxa;a)aXaGaGaGawauaraqaqaqaqaqauaAaOa)a.bba=a1ayawaqaqaqaqaGa6a.a?a%a*a*a=a*a,bwbKcwcNcCcwcrb{b7b(bXbKbzbnbgbga[",
"cSbzaoaoamaiaka3a{bda[aWaPaWa(a{bgbrbGbPb2b9b-b=b\cbchcCcrbMbUcmb1a?a%a.a?a<a<a*a%a%aQaralajaqaOa5aXaOayauaAawauaqaqauaAa5bibTb+cacfcpcxcAcAcAcsb<b!bDa|a)a;a)a)aYaQaQaOaQaOaQaOaQaOaQaOaQaQaOaQaQaQaQaQaYaQaYaYaYaYa5a)a)a)a)a)a5a)a;a;a~bibibxbxbxbIbTbYb+b>cackcpctctcjckcab>b+b8b8bTbTbTbTbIbIbAbxbxbqbibia|bibia|bia|bebia|bia|bobobobobebibebibibebibibxbxbAbAbIbIbIbTb8b+b>cacacjctclcxcxcxcActctcfcacab>b+b8bYbTbTbxbxbxbibia~bia~a;a;a;a)a)a)a6a5aYa5aYaYaYaQaQaQaQaXaQaQaQaQaOaQaQaOaQaOaQaXaXa5a)a5aXaXbibTb8b!b.b]b.b]b.b]b!b8bYbBbia~a;a5aXaOaGaAarauauarauauauauaqaqauaAa)a;a\bba_a9aIawaralalauaIa9a_bjbba]a]a=a#brbrb|cVcMcychb=b=b-b%bXbGbwbnbg",
"b/aKaoamamaka0bdbrbka3aTa0a[bkbwbKbXb%b/b=b\cbchchcrcCchbwb1cmbUa?a<a|a<a<a<a*a<aZawalalaqaAa5a)a6aOauaqaqaqalajaqauaGaOa5a;a~a~a;a~a;a;a5a5aOaOaQaYaYaYa6aYaRa6aYaRa6aRa6aRaYaSaYaRaYaSa6aZa6aZa6a1a1a%a1a%a9a%a9a*a*a*a*a<a*a<a.a?a|a_bhbhbobtbIbLbTb8b+b.cfclcDcOcUc3c3cZcOcscpcab>b>b8b8bZb8bRbYbRbHbBbDbBbBbBbBbBbsbBbBbBbBbDbRb0b&bWbRbBbBbAbtbtbtbtbBbBbBbLbLbLbYbYb8b+b>cfcjcDcAcOcTcZcZcZcZcUcOcLcDclckcab.b+bYbYbTbIbqbqbtbqbebebea|a\a<a\a<a<a*a%a%a%a%a%a6a%a6a6a6a6a6aYa6aYaYaYaYaYaYaYaYaYaYaYaYaYa5a5a6a)a6a)a)a)a)a)a)a)a)a)a5aXaXaXaOaOaGaGaAauauaqaqaqaqauaOa~bea;aOaqaAa)a~blbsbba1aBawaqalaqaAaQa?bjbjbba<a]a&bkbdb/cNcCcycrchceb=b(b7bPbFbr",
"bkataoaoaiaTbdbwbFa$aWa0a{bzbGbXb9b-b\cbcbcocrcwcycCchbrbXcqbMa.a.a|a|a|a<a%a*aQanalajaAa;a\a.a)aAaqaqalalalalakaqarawawawawawayaIaIaIaQaIaBaQaBaGavawawasasararararanananananananananananarananaranararasarawarasarawawawawawawayaGayaGaIaOaBaQaQaQaYa6a%a%a<a|bibhbtbBbTbBbIbtbtbqbebea|a<a<a<a<a%a%a%a%a%a%a%a%a6a%a6a6aSa6a6a%a6a%a%a%a%a%a%a%a%a6a%a%a%a%a;a<a<a<a\a\a|bebibqbtbtbIbBbLbRbRbRbRbYbRbIbIbAbqbibia~a;a;a;a1a)a6a6a6a5a6aYaYaYaYaQaYaYaQaYaQaQaQaQaQaJaQaQaJaQaQaBaBaBaBaBaBaBaBaBaIaBaIaBaIaQaBaQaQaQaQaXaYaYaYaXaXaXaYaOaQaOaIaIaIaIaQaIaQaQaOaIaIaAauaqaGa;btbTbYbIa)auaAa;bIbYbvbbaZaAaralanauaGa%blblbba_a]a&bna{b2cCcNcMcycrchceb/b%bXbK",
"a3apapamaxbgbzbPbda8a3a[bGbPb9b(b\b|chcocwcycCcCcCcrbwbUcvb1a]a]a`a%a|a|a<a6aBauajaja)bsbBbhaOaqaqaqalalalalananamararararananakakakaialahahahahahahahajahahafafafafafafabadabadabadabafafafafafabafafafafafafafafafafafahahahafahajajajajajajahahahahahahahahahahafafafafahahajajajaialalajajajajajajajaialalaialaiajagajajagagaeadahafahahahajajajajajajahahafafahahajajajajajajajajajajajajahajahahahajajajalajaqajaiajalajajajajajajajajahajajajajajajajajahahahajahajahajajahajahajahahajajajajajajajajajajajajajajajajahajahajajagahajajagalalalakaqarawayaQaQaZaYaYaQaGaAaXbibTb8b+b8bxaXa)bTcjcdbOa<aOawalaqaGaAaYa_blbcbba`a#bna[bXcJcNcNcMcwcrcbb{b-b7",
"aPatapaia[bGbPbKa[a(a>bKbXb(b/b|cbcocwcycCcJcNcJcybMbzczb=bca|a`a|a?a?a.a6awauaqbicfcdb!btaOauauaqaqaqalakanakalaiagaeahacafadafafafafafahahajahajajajajajajajajahahahahaeahaeajaeahaeafafagalalalalalanaqanaqanaqaraqaqarauarauarauawauawauawawawawawaAaGaGaGaGaGaGaGaGaGaGaGaOaIaOaOaOaOaGauajajajalaialaiaqakakalakaialagalagalagajanararawawawawawawayawaualajalauauaAaAayaGaGaGaGaGaGaGaGaGaGaGaGaGaGaGaGaGaGaGaGaGaGaGaGawaAaAaAauawauauarauauararauararanananaqaqaqaqaqaqaqaqaqaqanaqalaqaqanalanaqaqaqaqaqaqaqaqaqalalalalagahacacacacaeaeaeacafacafaeajaiauayaRa%a%a;a;a5aOaXbxb>cxcOcDb+a~bib>cAcgboaYawalaqarayaQa|bcblbfa_a}bra^b%cRcScNcNcCcwcob|b=",
"aNataoaHbKb2b9bra{a[bGb9b(b/b|chcocwcCcJcNcNcNcJb9bgcocvbCa?bha_a|a`a?aYawaqajb0c6c(cAboaOaOaOaGauaraqakalagaeafacadababadabadalajajajalalayasarawawayaGaIaIaIaIawararaqamaqamauauasaiahajaqarauararauawauaAauawaAawawayaAayaAayaGayaIaGaIaIaIaOaIaOaIaOaOaQaOaQaOaQaOaOaOaOaOaOaOaOaXaOaQaQaAalalalananamaraoararararamakalaiamakajaiarasayaIaIaIaIaIaIaIaIaIanajarayaIaIaIaQaQaQaQaQaQaQaQaQaQaQaQaQaXaYaYa5a5a6a5a5a)aYa5a5aYa5aXaQaQaQaIaOaOaIaOaIaGaIaGayayayaAayaAayaAaAawaGawaGaGawaGaGaGaGaGaGaGaGaOaOaOaOaQaYaYaYaIauararanajaeaeaeacacacacaeacacacacaeahaeagalauaQa*bebqbia;a;bxb>cDcZc!cZcpbxbIcxcPb4a<aXalajawayaOa<bbbjbfa+babna{b|cScVcRcNcJcycrcb",
"aNatapa(bPb(bXbrbdbwb(b-b=cbchcrcycCcJcNcScNcNcbbkb-cMb7a\bbbhbca|a|aYauanalb<c+c+cEa~aXa)aXaXaOaGaragaeacabacacacacacacabadadagalalalalalasararawayaIaQaQaQaQaGarararaqaqamaqaoayayaqajalanarararararauauawauauawauarauaraqararaqararawarawauawawaAawaAaGaGaIaOaIaGaIaOaQaOaQaAaGayaGaIaIaIawajalamarasarasarasarararaoanaialasamagalaravayaIaIaIaIaIaIaIaBaBanalarayaIaOaIaQaYaYaYaYaYaYaYaYaYaYa5aYa5a6a)a5a)a;a;a;a;a;a)a;a)a)a)a5aYaQaQaQaXaQaXaOaOayayawawawawawawawanaqaqarararaqaqararauarauauayaGaOaOaOaQaXaYaYaIawawarawarahaeagaeaeaeaeaeaeaeaeacacacacaeaeaeadahaua5bebAbTbTbxbxbTcpcUc*c+c!ctbYctcYb$bha%anajanavaIa9bbbfbfa:bEbdbwcyc0cVcVcScNcCcw",
"aNaxapbFb9b-bPbGbwb9b\b\cbchcwcycCcNcNcNcNcNcybXbPcyczbva=bha|bha?a%aAaqaGcuc-c(csa~a~bia~a~a;aOaqafadadacacacacacacacacadacaeajalaqaqaqalajajajalaqaqaqaqalaqaqaqaqaqakaqaqamaqakaqaiaqaranarawarararawarawarawaqaraqaqaraqaqanaqakaqakaqaqaqamauamaraqarawawawayawayayayayayayayayaIaIaIaIawalanasasayatayasayatawatasamalalavaoajalasaBaBaIaQaQaQaQaQaJaQaBarajaraIaIaOaGaGaOaQa6a%a)a%a)a%a)a%a)a%a;a;a\a~bebibqbqbibibibea~a~a;a;a)a)a5a5a5a5a5a5aXaGaAauawauawawawawananarararamaqamaramaramaqaoayaIaQaQaYaYa6a5a6aAananarawarajaeaeaeagagagagagagagaeacacacacaeacadacahajaua)bxb&cab>b8bxb8cxcZc+c,c*csb]cTb<bsa*anajavaIaQa9bbbfa}bgbMa{b%cVcVc0cVcVcNcJ",
"aPaxaCb2b9bXbXbKb2cbcbcbcocwcycCcNcNcScScNcJcbbGcbcNb`aZa.a|a|a`a<asanaXcPc,c+cjbibYb8b8bTbxaOajahacacacadadadadadadadadafacaeahaqawaIaYaXaQa5a6a%a\a_blbtbsbBbybBbsbBbtblbhbea|a\a;a;a)a5aYaYaQaOaIaIaGaIayaIayayaGawawaAawawawawawawawawawawawawayayawayayayayayayayayayayayayaIaIaIaIaIaIawanaravavayayayayaxayaxayavamalalavasajalavaJaQaJaQaRaYaRaQaRaQaJaualaqaIaQaQaOa*a|a%a\a\a\a\a\a\a\a\bea\bebibqbxbtbIbIbIbIbIbAbxbibibia~a;a;a;a)a)a)a5a)aYaOaGayaGaIaIaIaIaIawauayayayayayawawayayayaIaOaYa6a%a\a\bebebea|a<auauaGawasajaeajagagagaiagagagagagagagagagaeaeaeaeacaeadajaubib.ctctcpb>bTb8cDc6c,c-c6clcsb~bva!amakawaQaYa.bcbfbfbSbwbzcCc0c0c0cVcVcN",
"aPaxa0b(b(b9b2bPb|cocococrcycCcNcNcVcVcVcNcwb/bPcNcMbgaGaQaYa6a%aBaraGcEc+c7cpbYcpctcpckbAaOajahacacacacadadadadadadadadafacaeahajayaQa6a6a%a\a|bebebhbtbtbtbsbBbsbsbsblblbhbha|bea|a\a\a;a6aYaOaIaGaGavawawawawawawawawawawawawawawawawawawawawawawawayawawawawawawawawawawawawawawayayayayararasavavayaIaxayaIaxayaxayaralakaBasajanaBaJaRaYaRaRaZaRaRaRaRaQawalaraIaIaQaQa.a_a*a%a\a\a\a\a\a\a\a\a\bebebqbqbtbtbybtbtbxbobobebea\a\a;a)a%a)aYaYa5aYaXaQaIaIaIaIaIayayayayayaGayaGaGaIaGaIaGaIaOaOaQaQa5a6a)a)a;a6a)a)a6aGauararanajaeajagagagagagagagagagagagagaeaeaeaeaeaeaeaeaeaeafaAbIctcLcOcDcabTcacOc*c,c+cIcsb$bva2aralayaQa*a_bma}bSb1bgcbc0c5c0c0cVcS",
"aTaza[b\b\b(b2b2chcrcbcwcwcCcJcNcScScVcScCchb9b|cScva=aQaYaYaZaDaBawb)cPc3cfcacOcUcUcLbIaOaqafafacacacacadabadabadabacadafacafacafafafafafahafahafafafafahahahahahahahahahafahahahahahahahahahahahahahajalahajalajalalalalalalalalalalalalalalalanananananananananarararanaranararararararararasawavaIaBaIaJaIaJaIaJaQaBaranaqaBawalanaBaDaRa1a1a1aRaRaQaRaRaQawaqanauaraqauaqaqaqauaqaraqaqaqanaqanaqaqaqaqaqaqaqaqaqaqaqaqaqaqalaqalajaqaqajaqajalalajalajalajajajajajajajajajajajajajajajajajajajajajahahahahahahahahahahahahahahahaeajagagajajaeaeaeaeaeaeaeaeaeacacacacacacacacaeahafafaAbTctcOcLcDcab>ctcTc!c(cUb)b6baaSakamaZa.bvbEbdbMb/brb%cVcSc0c0c0cV",
"aTaHbrb\b=b(b2b-crcwcrcycycCcNcNcScScVcScrb|b9cwcVb/a9a9a%a%a*aQaObib]ctb]ctc6c!c6cZb8aAaqafadacacacacacadabadadadacacaeagahagajalalalanaqauauauaAaAaAaOaGaOaGaOaOaOaOaOaGaOaOaGaOaGaGaGaGawaGawawawaAawauauawauawaAawaAaAaAaAaAaAaAaAawaAaGaAaGaGaGaGaIaGaIaGaIayaIaIayaIaIaIayaIaIaIaIayayayaIaJaQaRaRaRaZaZaZaZaZaZaRavanaraJaBalaraKaSa9a%a2a*aZaZa1a1a1aRayarawaIaIaIaIaIaIaIaIaGaGaGaGaOaOaOaOaXa5a)a;a~bibxbxbAbAbAbAbobqbibia~a;a5a5a5aOaOaOaOaGaGaGaAaAaAaAaAawauauawauauawauaAauawaAawaAawaGaGaIaOaIaOaGaGaGaGayaAawaAauaraqamaqakanaialaiaiaiaiaiagaeaeaeacacacacacacacacaeaeaeaeahadaAbTctcLcHcHcpckctcDcEb!b3bUa^axaka2a>bgb1bQbMcbbSbXcSc0c5c0c0c0",
"aTaHbGb\b=b(bXb\cwcycycycJcJcNcNcScScScNb\b|b9cNcSb1a%a.a<a<a<aXa5bxbYb8ckc6c*c!c!ctaOaqafadacadadadadadadadadadacaeagagalanaqaraAawaGaOaXaXa5a)a)a;a;a;a;a;a~a;a~a;a;a~a~a;a;a;a;a)a)a)a5a5a5a5aYaXaXaYaQaXaQaXaQaXaQaQaXaQaXaQaYaYa5a5a6a)a6a;a%a;a<a%a\a\a*a.a?a`a}bfbmbvbvbCbEbEbObEbEbEbCa,a*bfbma{bmbma^bma>a}a:a+aUavasa!aSalawa+bfbmbmbvbabfbfbfa}a}a}aRavaZbcbmbsbmbmbububmbybubsbpbsbsbybybybBbBbLbLbLbYbRbYbYbYbYbTbTbIbIbtbqbqa~a\a\a;a)a)a6a5a5aYaQaXaQaQaQaQaOaQaQaOaQaIaQaIaQaXaQaYaYa5a6a)a6a;a;a)a)a6a6a)aZa5aYaQaOaIayaAarararakaqakanakalakajaeahacacacaeaeaeaeaeaeahaeajahajafafaAbTcpcLcHcHctb>bTa~bLb)bSa-aoatbkbQb{bXbSchb(b7cSc0c5c5c0c0",
"aWaNbPb\b=b(b2b|cycwcycCcCcJcNcScScScScCb=b|b\cVcNbMa*a?a<a<a6a5a;bAbxb8cOcZcZc3cLa~aqajajadacadadadadadadadadaeaeagaiaqarawawaGaOaQaXaYa)a5a)a)a)a;a;a;a~a;a;a~a;a~a~a~a;a~a;a;a;a;a)a)a)a)a5a5a5aYaYaYaQaYaQaXaQaQaQaXaYaYaYa5aYa5a6a6a)a\a\a\bebbbhbubCbQb6b)b%b`b/cicmcmcmcvcvcvczczczczczb7bScmcvcvcvcvcqcqcqcmceb/bMaVaKbEa}akaRb1b`b(b`b%b?b7b)b1b)b1bUa`aRbCb(ccb{ccb{ccccb=ccccccb`b`b`b?b`b?b?b<b<b$b6b3b4bWbRbHbHbtbtbqbqbbbea\a\a\a%a%a6a6a6a)a6a5aYaYaYaYaYaQaQaQaQaQaQaQaQaQaQaQaYaYaYa5a6a6a%a6a%a6a;a6a)a6a6a5a6aYaYaYaQaIaGawawauamarakaqamakakalagaeacacaeaeaeaeaeaeahaeahaeahaeahahajaObTcpcHcHcDb>a;b!b%b1bMaNaobwbUceb-b7cycbb%cVc5c5c5c0c0",
"aTaPbXb\b9b-b2cbcycycCcJcJcNcNcScScScScyb/cbcrc0cJbwa\a\a\a%a5aXa~a~bicacHcHcLcOb8aqaqajadaeadadacacacacacahagalaianaoawaGaIaOaXaXaXa5a5a;bia;a;a;a;a;a;a~a;a~a;a~a;a~a~a;a~a;a;a;a;a;a)a;a)a)a)a5aYaYaYaYaYaYaYaYaZa5a6a6a6a)a%a%a%a<a*a?bbbpbDbOb3b$b?b=cmcqcFcFcMcRcRcScXcScXcScScScVcVcVc4cqb|c4c5c5c8c0c5c5c5c0c5c4cma-a,cqbUasa{cRc4c4c0c1c1cVc1cXcSc1cRbMa&b{c1c1cSc1cXcVcXcRcRcNcMcMcKcKcBcBczczcqcmcicib`b?b<b$b3b0bObNbDbubpbpbbbbbebea\bea\a\a*a;a9a%a6a6a6aZa6aYaYaYaYaYaQaYaQaYaYaYaYaYaYa5a6a6a)a%a6a%a;a9a;a;a1a)a6a5a5aYaXaQaOaIaGayauararanamanalakakagaeaeaeaeaeaeaeaeaeaeaeaeagaeahahafafaObTckcxctb>b~crb(b1bgaobkb7crb\b/cNcwb(cSc5c5c5c5c0",
"aTaNbXb\b(b=b2chcCcCcCcJcNcScScScVcScVcyb\chcyc0cJbwa.a\a\a%aYbcb$bAbib+ckcpcxcpaXajajadaeaeadacacacacaeagalakanarawayaIaQaXaXa5a5a5a)bqbhbebha\a5aYaYa5a5a5a5a5a5a5a5a5a6a5a5a5aYa5aYaXaQaYaQaXaQaQaQaQaIaQaQaJaQaJaYaRaYaZaYa1a6a9a%a*a=bba}bmbCbEbEbQb6b)b?b-ccb=b{b{b=cecyc0c8c5c5c8c5c9c9cwcec5c9c9c9c9c9c)c9c9c9c9cqa{a^cFb%aCbEcVc$c9c%c9c%c%c$c$c%c)c8b7a}cmc$c$c9c$c$c$c$c9c8c9c5c8c0c4c0c4cKb{b`ccb%b?b)b)b6b6bQbQbObEbCbvbubfbpbba`a_a?a?a.a*a*a9a%a9a6a6a1aZaYaRaYaRaQaQaQaQaQaQaQaQaQaYaYaYaYaYaYa6a6a6a6aZaQaXa5a*a\a)a6a)a5a5aYaYaQaQaIayawararamakakakakaiagaiagaeaeaeaeaeaeaeaeaeaeagagahahahajaObTckckcucCcqb7bSaHbab=cJcmcbc0cyb(cVc5c5c5c5c0",
"aTaNb2cbb|b/b9cocCcCcJcNcScScVc0c0c0c0cwb\chcJc0cJbza?a\a.a6aQbdczcqb!bxbTb>cabTajajafaeaeacacacafacagajalanarawaGaIaOaXa5a5a5a)a)a;bea*aIauawasasararararauawarararararararararararararararaoawarasasarawasasawayayaxaIaBaQaJaJaYaRaSa6a9a!a=a`bfbvbCbObQbQb6b$b1b?b%b`b{b7bnb7cMc)c9c9c5c$c9cycmc5c)c9c9c9c&c&c&c&c&c)cvbgbdcFb%a2bFcXc9c$c$c$c$c$c$c$c9c$c8b(a}cmc9c$c%c9c9c9c$c$c&c$c$c9c)c)c1b=a-a^bMbSbSbMb3bQbEbCbvbmbmbfa`a=a=a.a*a1aVaUaSaRaRaRaJaJaQaBaQaBaIaBaIaIayayayayayawawawawayawayawawawawawawawawawaAawauaGaQa?bba\a;a;a)a)a6a6aYaYaRaBaIasaramakakalakalaiaiaiagaeacacacacaeaeaeaeahaeajajajajaqbIcacmcMcyb=bXa/a(cbcScocwc0cCb-cSc5c5c5c5c0",
"aTaHb9cob|b=b9cwcCcCcJcNcScVc0c0c0c0c0crb\crcNc0cJbQa1a1a%a9a!bncvcBb)a~bibIb8a;ahahahaeacacacacagalakanarauaIaIaOaQa5a5a)a)a;a\bea*aOaAayapasaoasasarasayasayasasawasasawawawawawayawavatayavaBaBaBaBaBaJaBaJaJaRaRaZaZa1a1a9a*a*a?bbbbbpbubJbOb0b6b:b)b?cncicmcGcKc%c)c)c%c1b|bMb=cSc)c)c9c$cCcqc5c9c&c9c&c&c&c&c&c&c&czbnbgcFb/a!bMcXc9c9c$c%c%c%c$c&c$c&c8b(a^cmc$c9c9c%c9c%c9c)c)c%c&c)c4b{bgbEcmcVc)c1cRcFcBcGcqcmcucib`b<b$b3bQbObCbubmbmbjbca`a=a=a.a*a9a9a9a1a1a1aZaRaRaYaJaJaQaJaJaIaJaIaJaIaQaBaQaBaQaBaQaQaIaIaRa&aBaGa6bhbca\a\a;a%a%a6a6aYaYaDaBavasarakanalaialaialaiaeacacacacaeaeaeaeahagagalalajajaubIcEcJcCb|bXbna[cbcScrcCc5cCb=cVc5c5c5c5c5",
"aTaHb(cob|b\b|cJcCcNcNcScScVc0c0c5c5c5cob\crcNc5cJbUa+a4aVa4a$bwcwcyb)a;a~a~biaOafahacaeacacaeagagakaqarayaIaXa5a5a;a;a\a~bebea\aYawayasatamanarararaAawawayawawawawawayasavavavavavaBaBaBaBaBaJaBaJaJaJaRaRaRaZaZa1a9a1a9a*a.a=a_bbbcbjbpbubNbJbNbWb0b#b*b[b?b`cicGcXc$c9c9c&c&cVcebUb|cVc&c)cMcrc9c&c&c&c&c&c&c&c&c&c&cBbnbgcKb-a!bMcSc)c$c&c%c)c%c%c&c&c&c$b(a^cqc$c%c9c%c9c&c$c)c&c&c8cmbkbEcqc5c)c8cRcqcicib`b?b_b)b$b3b4b4bObObJbCbJbvbubmbmbfbja}a`a]a=a=a.a.a&a*a9a9a1a1a1aZaRaRaYaJaQaJaQaJaQaQaQaJaQaIaQaIaXa)aXarawayayayaGa*bsblbea\a<a%a%a%aSaYaRaJaBasarakalaialakalalaiagagagahaeaeacaeaeagakananalajaqa5cicMcCcbb7bzbgcocScrcJc5cJb\cVc5c5c5c5c0",
"aPaHb9crb|b|b/cwcJcNcNcNcVcVc0c0c5c5c5chb\cwcNc5cJb7bMbgaWa8a-bKcycyb{a)a~a)aYauahaeacaeacacagaialamaAayaXaXa)a;a~bebebqbqbqa6aGasavasaraqaGbea<auaAa\a1aGayayayayayayavavavaBavaBaBaBaBaBaJaDaJaKaDaYaRaRaZa1a1a9a9a&a*a=a=a=a]a`bcbfbfbubmbJbCbOb4b6b$b)b?cccicicqcKc1c9c)c)c)c&c&c0ceb7b\cScRcwc9c&c&c&c&c&c&c&c&c&c&cBbgbgcFb/a&bMc1c9c&c%c)c)c)c)c)c&c&c$b`a^cqc$c9c$c9c%c9c)c&c$cvbwbrcmc0c)c8cXcFczcqcmcmciccb?b?b)b)b6bUb6bQbQbEbEbEbnbCbvbdbmbabma^a}a}a}a-a`a:a+a.a&a*a*a*a9a1aVaZaZaZaZaRaYaRaYaQaYaYaQaOaXbRb}bRaYaAayayawawaObcbDblbea<a<a%a%a1a6aRaJaBaIasaranakalaiakakalalaialagahacaeaeagamararanalajaqb?cNcMchb7bwbncrcNcycNc5cJb|cVc5c5c5c5c5",
"aNaCb-cob|b|b/cwcJcNcNcNcVcVc0c0c5c5c5chb\cycNc5cJb(chb%a0a8a[bPcycycea\a|a)aXauafafagaeaeajaiaqaqawaOaXa)a;a~bibqbqbtbta\aOaAasasaraua5bTb.bTaXaAaAaAa9a9awayayayayayayaIaBaBaBaBaJaBaJaDaDaKaRaRaMaSaSaSaVa2a2a4a#a#a,a,a}a>bfbabvbnbEbQbSb1b<b%b/cib|cechcqchczczcFcJcVc5c)c)c)c)c)c)c8cqb7b%cBc$c&c&c&c&c&c&c&c&c&c)cBbgbgcFb/a+bMc1c9c$c$c)c)c%c)c)c)c)c$b-bfcqc%c%c$c$c$c$c)cRbQbEcmc1c)c)c5cScRcNcMcKcKcBcvcqceb{b=b-b?b%b7b1b1bUbSbMbFbzbEbrbnbCbgbdbma^a>a}a}a}a:a,a=a+a.a&a&a9a9a1aVa6a1a1a6aZaZa6aRa6a6aYaOaObIcscsb8a)aAaAawaraAaYbsbDblbea<a<a9a%a1aZaRaJaBavasamanaialalalagalalajajagagajagarayawauauauajb%cXcJchb7bKbKcocNcwcSc5cNb|cVc9c5c5c5c5",
"aNaCb/crcbb|b/cwcNcNcNcScSc0c0c0c5c5c5cbb=cycSc5cCb(cwb|aWa(a{bXcycCcea~bebha|aOabahahaeaeajalaqawaOa5a)a\bibqbxbAbBboa5awasawaraqa;b+clcfbiaAaGaAaGaIaIawavayavayaIavaBaBaBaJazaJaDaJaJaEaKaMaMaSaVa2aWa4a,a-a>a{bgbnbwbzbSb1b1b%b-b{cececqczcwcFcKcMcJcMcJcMcNcNcNcScVc4c5c$c&c)c)c&c)c)c)cXbScmc)c&c&c&c&c&c&c&c&c&c)cBbCbgcFcca+bScXc%c9c$c)c)c%c)c)c)c)c%b/bfcqc$c%c$c$c$c$c$cqb/c8c)c&c)c9c5c5c4c0c4c0c1cScRcMcCcFcwcrcqcbceb{b-b(b7b7bUbUbGbFbzbwbEbnbkbgbaa{a^a>a}a}a-a:a:a+a+a&a&a!a9a9a9a9aVa6aVaSa6aRaZa6a6a5aOa)b+cDcxb!a)auarasarara6bmbDbla|a*a*a*a%aUaZaKaQaBavasarakalalalanagajalanakalalaGaXa6aXaGaGaqb7cXcJchb2bXbXcocNcycSc5cNb|cVc9c5c5c5c5",
"aNaCb/crcbb|b/cwcNcNcScNcVcVc0c0c5c5c5cbb=cycSc5cJb9cbb\a8a(bgb2cCcCcbbibqboboa6afahahahagalaqawaOa5a)a\bibqbtbtboa;awarararaqa)b+cAcDb+a5aGaGaGaIaRaQayayayayaIavaBaBaBazaJaFaFaMaUaVaWa4a8a(a>a{bkbwbzbMbPb7b7b(b-b=b{b|chcqcrczcycFcCcMcJcNcXcScScScVcVcVc0c0c5c8c9c9c&c9c9c)c&c&c)c)c)c)c1bUcmc$c&c&c&c&c&c&c&c&c&c)cBbgbvcFb/a:bMcSc%c$c$c)c)c%c)c)c)c)c$b/bfcqc8c%c$c$c$c$c8cRcRc%c)c)c&c&c9c9c9c8c9c8c5c8c0c4cVcScXcNcMcCcyczcvchcbb{b{b-b(b%b1b1bKbMbzbwbwbnbkbgbaa^a^a>a}a-a:a+a+a+a&a!a!a!a2a2a%aVaVa6aSa6a6a%a6aYaOa~b>cHcAb+a5auararanaAa6bmbDbja|a.a*a*a%aVaRaRaQaBavaramakakalakajamauauaqaqaXbtbAa)a5aXaqb7cNcJchb2bPbGchcNcycSc5cNcbcVc9c5c5c5c5",
"aHaHb/cocbb|b=cycNcNcNcScScVc0c0c5c5c5cbb=cCcSc5cJb9b7a{a(a[bdb2cCcCcqbebAbtbta\ajajajalalaraAaQa5a)a\bebebhbha%aAaqauaraqaXb+cDcTcjbiaGaOaGaXaQaJawayaIaBaBaJaJaKaSaVa2a7a,a-a>a{bgbkbwbzbGbSbXb1b%b(b(b/b=b|cbcbchcocrcrcycycCcJcJcNcNcNcScVcVc0c0c0c0c5c5c5c9c&c&c&c&c&c9c$c&c)c&c)c)c)c)c1bUcec8c&c&c&c&c&c&c&c&c&c)cBbgbgcFb/a:bQcXc9c$c$c%c)c%c)c)c)c%c8b-bfcmc$c$c$c$c$c9c8cRcRc%c%c&c&c&c&c&c&c&c9c9c9c9c9c5c5c5c0c0cVcVcXcNcMcCcKcycrcvcmcbb\b=b-b%b7b1bPbKbMbzbwbnbkbgbaa^a^a}a/a:a,a+a+a&a!a!a2a2a2aVa%aVa9a9a9a9a%aXaOa~b>cLcAb8a5auauauaraAa*bvbmbja]a?a.a*a6a1aZaRaDaBasasaramakalamawauauaqbebYbTbxa\aYalb2cNcJchb7bPbGcbcJcCcSc0cNcbcVc5c5c5c5c0",
"aHaHb/cob|b|b=cycJcNcScNcVcVc0c0c5c5c5cbb=cCcSc5cNb9b=bXa[a[bkb2cCcNcqbBbLbTbHbeajajajalanauaIa5a)a\a<a|a<aYayalalaqauaObIctcTcAbYaXaXaOaXaYaRaQaDaRaMa1a2a!a&a+a:a/a^a^bdbgbnbEbzbFbMbKbUbXb2b7b(b-b/b=b\b|cbcmcococwcwcycCcCcJcNcNcRcScVc1c0c5c9c9c9c$c$c&c&c&c&c&c&c)c&c)c9c)c)c)c)c)c)c)c1bUb{c8c&c&c&c)c)c)c)c)c)c)cBbgbvcFcca-bEcRc)c$c%c%c)c%c%c%c$c%c8b`a^cmc$c$c$c$c$c9c8cRcXc-c$c&c&c&c&c&c&c&c9c9c&c9c9c9c5c5c5c5c5c0c0cVcVcScNcNcJcCcycycrcvchcbb\b=b/b(b%b2bXbSbGbFbwbrbkbgbaa^a>a/a-a,a+a+a&a&a&a!a9a2a9a9aVa9a9a%a;a)aXbicacOcDb8aXaqauarauaGa.bvbva}a_a?a.a*a%a1aZaQaJaBayararanarawawauaGbtb+b+b0a;atabb7cScMchb2bKbFcbcJcCcSc0cNcbcVc9c5c5c5c5",
"aHaHb/chb|cbb=cycNcJcNcScScVcVc0c5c5c0cbb=cCcSc5cSb-cCcCbka{brb9cCcNcvbRbZbZbVbeajajalanaraAaQa6a;a\a<aQauaqakakalaubicacLcLb>a%aXaXaXa%a!a*a2a*a!a&a&a+a:a:a}a/a^a^bvbgbnbnbwbzbMbKbSbPbXb7b2b(b(b/b\b\b|cmchcocrcwcycCcCcJcNcNcScScVcVc0c5c5c9c9c&c&c&c&c&c&c&c&c&c&c&c)c5c$c%c)c)c%c%c)c)cXbSb{c8c&c&c&c)c)c)c)c)c%c&cBbabacBb/a`bEcRc)c$c%c%c)c%c$c9c$c$c8b(bfcmc$c$c$c$c$c9c8cXcRc-c8c&c&c&c&c&c&c&c&c9c&c9c9c9c9c9c9c5c5c5c0c0c0cVcVcScScNcNcMcJcycBcwcochcbb|b\b=b/b(b7b2b1bPbSbFbwbrbkbdbaa^a>a}a-a:a:a+a&a&a!a!a!a9a9a*a?bhbia5a5bAcpcOcAbYaOaqaqaraqaIa]bCbmbca_a?a*a9a9aZaRaJaQavasararawawaAaObZcfcfb!aOauabb7cXcCchb7bKbKb\cCcycSc0cNb\cCcScScScScS",
"aHaNb-chb|b|b=cwcJcJcNcNcScVc0c0c0c5c0b|b/cCcSc5cSb\cJcJbzbgbrb(cCcNcvbZb!bYbRbhajajanarawaOaYa;bebta\aYaqajaqaqa)b8ctcHckbiaOaXaYa<a|a?a&a?a+a&a+a+a:a,a:a-a}a^a^babgbgbnbEbzbFbGbSbPb1b2b7b(b-b=b\b|b|cbcocrcwcycycCcJcJcNcScScVcVc0c0c0c5c9c5c&c&c&c&c&c&c&c&c&c&c&c)c$c5c8c$c%c9c$c$c$c)cXbMb{c8c&c&c&c%c&c)c)c9c$c$czbabacBb`a-bEcMc)c$c$c$c%c$c$c$c9c9c8b%bfcmc8c%c$c9c9c9c8cXcRc8c$c9c&c&c&c&c&c&c&c9c9c9c9c9c9c9c5c9c5c5c5c0c0c0cVcVcScScScNcNcJcCcCcycwcvchcbb|b|b=b/b(b9b9b7bXbUbKbFbFbwbnbkbdbma^bfa/a}a-a]a#a=a&a&a*a!a?bfbBbia)a;bTcxcOcxbTauaqaqauaqaJa`bJbDa_a=a*a%a9a1aRaJaJayasauayaAaAaOb.cpcfb+aXarabb7cScJchb2bKbKb=cCcrcNc0cNb|cNcScScScNcN",
"aHaHb-cbb\b|b=cycCcJcNcJcScScVc0c0c0c0b\b-cycVc5cSb\cJcJbzbkbrb9cCcNcvb0b#bTbNbeajaqanawaGaYa6a|bAbVbeaqalaqa5bIcacxckbAaXaOa5a)bhbha?a?a+a.a+a+a+a+a:a,a-a}a>a^bmbdbgbkbrbwbFbFbKbPb1bXb%b9b-b/b\b\cbcbcocrcwcycycCcJcNcNcScScVcVcVc0c0c5c5c5c9c9c9c9c9c9c&c&c&c&c&c&c9c$c4c5c$c$c$c8c$c$c%cRbQb-c8c&c&c9c&c$c9c)c9c$c%czbabmcBb-a:bCcMc)c$c$c$c$c$c$c9c$c5c5b%a}cmc$c$c$c9c$c$c8cXcRc-c8c9c9c9c&c&c&c9c&c9c&c9c&c9c9c9c9c5c5c5c5c5c0c0cVcVcVcScScScNcNcCcCcycycwcochchcbb|b=b=b-b(b%b%b2b1bPbUbMbFbzbEbrbCbdbabma^a}a}a}a,a=a+a.a.a<bhbDbLbxa)a~b8cxcOcjbAauaqauauaubDb4bla_a?a.a%a1aZaRaQaBawauaIayaGa5b]cfcab!a)auahb7cScCchb2bKbPb(cychcJcVcJchcVc0c0c0c0cV",
"aHaNb-cbb\b\b=cwcJcJcJcNcScScVcVc0c0cVb=b-cycSc5cSb=cCcCbzbgbzb9cJcJcvb5b+b#bZa~ajalaravaOaYa%bebtb4bhaqaqaua;b>b]bTa)aOaOa)bhbtbha?a?a?a&a=a+a+a:a,a:a-a(a}a[a{a{bdbkbnbrbzbFbKbKbXbXb2b9b(b/b\b\cbchchcrcwcycCcCcJcNcNcNcScScVcVcVc0c0c0c5c5c5c9c9c5c9c9c9c9c&c&c9c&c9c9c4c4c$c$c8c8c8c$c$cRbEb(c8c9c9c$c9c)c$c$c$c9c)czbda{czb`a+bkcMc%c$c$c$c$c8c9c8c9c5c4b%a}cmc8c%c$c$c$c$c8cXcXc8c8c5c9c9c9c9c&c9c&c9c&c9c&c9c9c9c5c9c5c5c5c0c0c0cVcVcVcScScScNcNcCcCcycycwcrcochcbb|b=b=b-b(b(b9b7b2bXb1bKbSbMbFbwbEbnbvbdbma^a}a}a}a:a:a+a=a.a.a|bsbWbLbia;a~b+cDcLcaa;auauaubBb*bybba_a*a6aZaQaIawaranamavayaAa)b]cfcab!biaGafb1cNcJchb2bXbKb9chcbcJcScJchcVc0c0c0c0cV",
"aHaHb(b|b\b\b=cwcCcJcJcJcScScVcVcVcVcSb=b-cycSc5cSb/cCcCbrbdbGb9cJcNcvbWb!b8bLa\ahajalalalalaAaGaXa%a6auaAaAaOa5a5aOa5a5a~bTbBbhbea_a_a=a=a+a+a+a:a:a:a-a/a>a[a{babgbkbrbwbFbGbSbPbXb7b9b-b/b\b\b|cbchcocrcwcycCcCcJcJcNcNcScScScVcVcVc0c0c0c5c5c5c5c5c5c5c9c9c9c9c9c9c5c$c4c4c8c8c8c8c8c8c8cMbEb%c4c9c9c9c$c9c9c$c9c$c$cza{a^cvb%a&bvcKc$c8c8c$c8c8c9c8c8c5c0b%a`cec8c%c$c$c$c$c8c1c7c8c8c5c5c5c5c9c9c9c9c9c9c9c9c9c9c5c5c5c5c5c0c0c0cVcVcVcScScScNcNcJcJcCcycwcwcochcbcbb\b\b/b-b(b9b9b2b2b1bUbPbKbFbQbzbEbnbkbgbmbma[bfa}a-a`a:a:a]a_bbbhbtb0bBa~a;a)bib+cxcfbAaAaua;bla%aOaGaraqalalalalagajanavayaAa)b]cpb]b!biaGabb1cNcCchb9bPbKb2cbcbcJcNcJchcVc0c0c0cVcV",
"aNaNb(b|b=b=b/crcCcCcJcJcNcNcScScVcVcSb/b(cycSc5cNb-cycybdbdbGb(cCcNcobRbYbLbta;ajalasavaBaBaBaBaOaBayaGaIaOaXa)a;a<a~a)bobZbIbtbobha_a_a=a+a:a+a,a:a-a(a>a>a[babdbkbnbwbzbFbKbPbXb2b2b9b-b/b\b\b|cbchcocrcwcycycCcCcJcJcNcRcScScScVcVcVc0c0c0c5c5c5c5c5c5c5c5c9c9c5c9c8c5c4c4c8c8c8c4c8c4c5cKbgb7c1c9c5c$c5c$c8c9c8c5c$cva^bfcvb7a*bacKc8c8c8c8c5c8c8c5c8c5c4b%a`cec8c%c$c$c$c8c-cXcXc8c4c0c0c4c5c9c9c9c9c9c9c9c9c5c9c5c5c5c0c5c0c0cVcVcVcScScNcNcNcJcJcCcycycrcrchchcbb|b\b=b/b(b(b9b2b7bXb1bPbSbGbFbzbwbrbnbCbdbdbma^a^a}a}a}a}a`a`bcblbsbHb*bVbea%a;a;a)bib8bZa)aqananawasawavavavavarakalagakayayaGa6b]cpcab.boaAabb1cJcCchb9bGbGb2b|b|cCcNcJcbcVc0c0c0cVcV",
"aNaNb9b|b\b/b-crcycCcCcCcJcNcScScScScSb-b(cwcSc5cNb(cwcwbdbdbGb(cCcNcebtbAbqbea6awaSa:aWa>bnbSb{ceb6a}a+a?bfbybqbobqbia)bqb.bZbBbtblbba_a]a:a:a:a-a-a-a}a>a[bmbdbkbnbwbzbFbGbKbXbXb2b7b9b-b/b\b\b|cbchchcocrcwcycycCcCcJcJcNcNcNcScScVcVcVcVc0c0c0c0c5c0c0c5c5c5c9c5c9c5c8c4c1c8c8c4c4c4c4c4cKbvb7c1c5c8c5c8c5c8c5c8c5c8cva^a/cvb7a%bmcKc8c4c5c4c8c4c5c8c5c4c0b7a`cic8c$c%c$c%c$c8c1c7c8c0c0c0c0c0c5c8c9c5c9c9c5c9c5c5c5c0c0c0c0c0cVcVcScScScNcNcNcJcCcCcycycwcrcochcbcbb|b\b/b/b(b9b9b7b2b1bPbSbKbFbFbzbwbrbkbgbgbdbmbma[bfa}a}a}a}bcbsbDbDbZcdb5bea*a<a~a~a<a%bhbQbSb1b1bkbkbEbEbnbaa^a+avakalamaIaIaGa%b^clcfb]b3b3b?chcCcCchb9bzbGbXb|b|cCcNcCcbcVcScVcVcVcV",
"aNaNb9b\b=b=b(cocycCcwcCcJcNcNcNcScScNb-b(cwcSc0cNb2crcra[bdbGb9cCcNb(bebqa;a%aYavayararaBa!bvb7b%bEbcbfbfb<b~bIbTbRbia)bIb}b!bYbBbtbjbba:a:a:a-a`a-a/a/a[a{babdbkbrbzbzbGbGbPbPbXb2b2b9b-b-b=b\b|b|cbchchcrcrcwcycycCcCcJcJcNcNcNcScScScVcVcVc0c0c0c0c0c0c0c8c5c5c5c5c8c5c4c1c8c8c4c1c4c4c4cBa/b1cXc4c5c4c5c8c0c8c0c8c0cva^a-cqb<aSa^cFc4c4c8c4c5c4c4c4c4c4c1b1a`b=c4c%c$c8c-c8c8cXcXc8c4c1cVcVc0c0c5c5c5c9c5c9c5c5c5c0c0c0c0cVcVcVcScScNcNcNcJcJcCcCcycycwcrcochcbcbb|b\b\b/b-b(b9b7b7bXbXbKbSbGbFbzbzbrbrbkbkbgbabaa^bfa/a}a}a}bcbfbybNbZb.cub.bha<btbLbxbia%bCb/b{bXb%b%b-b7bFbEbkbma-a2aBamaraBaJaOa)b}clcucib$bCa0b1cMcyb|b2bwbzbXb\b|cCcNcychcScScVcVcVcS",
"aPaHb9b|b/b/b9chcwcycycCcJcJcNcNcScScNb-b9crcNc0cJb2chcoa[a{bzb9cJcJb%bebea)aYaQaBamajakamasaBaRa2a2araqaOa|bLbTb+b.bIa~bTcsb]b8bNbBbpbca:a:a:a-a-a-a/a>a[bababkbkbrbzbzbGbGbPbPbXb2b2b9b(b-b=b\b\b|cbcbchcocrcrcwcycycycCcJcJcJcNcNcScScScVcVcVcVc0c1c0cVc0c0c5c5c5c5c4c5c4c1c0c4c1c1c1c1c1cza:bUcXc4c1c0c4c0c4c0c1c0c1cqa}a+ceb7aYa-cBc1c0c1c4c4c4c1c0c1c4cXb1a_ccc4c8c8c8c$c8c8cXc2c8c4cVcVcVcVc0c0c0c5c5c5c5c5c4c0c0cVcVcVcVcScScScNcNcJcJcCcCcycycwcwcrcochchb|b|b|b=b/b-b-b9b9b7bXbXbUbKbSbFbFbwbwbrbnbkbgbdbabma^a^a}a>a}a}a}bsbHbWb!cfcIb[bxbibZb.bYbxa5aVbgbMbFb=b\cmb=bMbSbSbka:aVaBasawaBaJaQa6b)cvcmb`bFa2asbUcCcyb|b9bwbrbXb\b|cCcNcychcNcVcScVcScS",
"aPaHb9b\b-b/b9chcrcwcCcycCcCcJcNcNcNcNb(b9cocNc0cJb2cbcha[a{bGb9cCcJb7a|a|aXaQawanahajakamaIa7bCb1bMaAafaja5bIb+cfcjbTa~b8cEctb&bYbLbpbja:a:a:a:a-a/a/a/a[a{babkbrbwbzbzbGbKbPbPbXb2b2b9b(b(b/b\b\b\cbcbcbchcocrcrcwcwcycCcCcCcJcNcNcNcNcScScScVcVcVcVcVcVc0c0c0c4c5c0c4c4c0c1c4c4c1cXcSc1c1cqa&bScRc1cVc1cVc1cVc1cVc1cScma,a+b{b)aDa:czc1c1cVc1c1cVc1c1cSc1cRb1a&b?c1c8c8c8c8c8c4cXc2c8c4cVcScScVcVc0c0c0c5c0c0c0c0cVcVcVcVcScScScNcNcJcJcJcCcycycycwcrcocochcbb|b|b\b\b/b-b(b9b9b7bXbXbUbPbKbMbFbzbwbrbrbnbgbgbabaa{a^a^a>a}a}a}bfbubNb#b]cscZb_bAbxb]cpb+bAa)aAarama(b%b(b-b7bkbabfa-a:aUaBarayaJaJaJa1b1cFb{bMbfa&asbPcCcyb|b9bzbrbPb/b|cCcJcycbcJcScScScScN",
"aNaHb9b\b-b-b9chcwcwcycycCcJcJcJcNcNcNb(b9chcNc0cJbXb\b|a[a{bzb9cycJb?bca|aXaIarajagakaoayaza2a^bQbQaSafaAbib+ckcxcAb8bib>cYcEb]b!bRbybja`a:a:a:a-a/a/a>a[a{bdbgbnbrbwbzbGbGbKbPbXbXb2b2b9b9b-b/b=b\b\b|cbcbchchcocrcwcwcycycCcCcCcJcNcNcNcScScScScVcScScVcVcVc0c0c0c0c1c4c1cVc1c1cScXcRcXcRcma2bMcMcXcScXcVcXc1cSc1cScXcea&a!b{bUaQa+cvcXcXcXcSc1cXcScXcXcXcMb6a!b7cXc4c4c4c4c4c4cXc2c4c4cScScScScScVcVc0c0c0cVc0cVcVcVcScScScNcNcMcJcJcCcycycycwcwcrcochcbcbb|b\b\b=b/b-b(b9b9b2bXbXb1bPbPbSbGbFbwbwbrbrbnbgbgbdbaa^a^bfa>a}a>bfbpbDbVb,cjcEc6cnbIbIcfcDcabTa)aGauatb7cbb=b-bMaTaxaqarasayasaoawaJaJaJa1bScqcmb?a^a*ayb1cCcwb\b9brbrbPb/b|cycJcwcbcJcScNcNcNcJ",
"aPaHb9b\b-b-b9cbcrcwcycycycCcJcJcNcNcJb9b9cbcNc0cCbXb/b=a[bdbzb9cycCb%bJbhaXaGanagagajararaBa1bfbQb7b3a|aXbTcacxcHcLb+bxb>c!cPclb>bZbybja`a:a:a:a-a/a/a>a[a{bdbgbkbrbwbzbFbFbKbKbPbPbXb2b2b9b9b-b-b/b\b\b|b|cbcbchchcocrcrcwcycycCcCcJcJcJcNcNcScNcScScScScScVcVc0cVcVcVc0c1cXc1c1cRcRcRcRcRcea2bFcKcRcScRcXcScRcScRcRcRb{a4a!b{b6aBa+cqcRcRcRcXcRcXcRcRcRcRcKbSa*b)cXcVc1c4c4c4c#cXc2c1cVcScRcNcNcScRcScVcVcVcVcScScScScNcNcNcJcJcCcCcycycwcwcrcocochchcbcbb|b\b\b/b/b-b9b9b2b7bXbXbXbPbKbKbGbFbzbwbrbrbnbkbgbdbabma^a^bfa>bfa}bfbsbHb0b]cscPc!csbIbTctcLckb8biaOa5bzb7b1bUbMbMbwa^aUavawanaqanasaBaJaRa1bMcBcRcqb3a\aub1cCcrb\b9brbrbPb(b|cycCcwcbcJcNcNcNcJcJ",
"aTaHb9b\b-b-b9chcrcrcwcycycCcCcJcJcJcJb9b2cbcJcVcCbKb(b9a{a{bzb9cwcCb?bCboaXaGarakagahalaraBa2bmb7b`bMbvbIbYckcxcOcLb+bIb]c*c3cAb]bZbybpa`a:a:a:a-a/a/a>a[a{babdbkbkbrbwbzbzbGbGbKbPbPbXbXb2b9b9b9b(b/b\b\b\b|b|cbcbchchcocrcrcwcwcycycCcJcJcNcNcNcNcNcNcNcScScScVcVcVcVc1cScXcVcXcMcMcMcMcMb=aVbEcFcRcNcRcMcRcNcRcNcMcMb{a4a2b=bQaDa&cmcMcMcRcRcNcMcRcJcMcMcFbMa2b1cRcXcVcXc1c1c1cXcRcXc1cNcMcJcMcNcNcNcRcScScNcScNcNcNcJcJcJcCcycycwcwcrcocochcbcbcbb|b\b\b\b/b-b(b9b9b9b2bXb2bXbUbPbKbKbGbFbzbwbrbnbkbkbgbdbmbaa{bma^a>bfa}bfbfbsbHb5b^cAcYc7cAbYbYcxcOctb>bxa~bSb7bwbzbFbwbka^a:aSavaranalalasaBaJaRa1bScQcKcmb4a.aAbPcycrb\b9bkbnbKb9cbcycycrcbcJcJcNcJcCcC",
"aTaHb9b\b(b-b9cbcrcrcwcycycycCcJcCcJcCb9b2b|cJcVcybKb9b2a{bdbzb9cwcyb?bCboaXaGarahahakaravaBa+bEb)bUbva<a%bTcpcDcOcTb>bIcjc(c!cEcfb!bLbja]a:a:a,a-a-a/a>a>a[a{babdbkbnbrbwbwbzbGbGbKbPbPbPbXb2b2b9b9b9b-b/b/b\b\b|b|cbcbcbchchcococrcwcycycCcCcJcJcJcJcJcJcNcNcNcScScScXcVcXcRcXcRcMcKcCcKcKb-aSbrcwcMcMcJcMcMcJcMcMcJcKb=a0aVb/bQaBa!cecMcMcMcMcMcMcCcMcCcKcBbMaVbUcMcRcXcScSc1cXc2cRcXcXcMcCcCcCcCcJcJcJcNcJcNcJcJcJcCcCcCcycycwcrcocochchcbcbb|b\b|b\b=b=b-b(b9b9b2b2bXbXbPbPbPbKbKbGbFbFbzbwbrbnbnbgbgbababma{a^a^bfa>a}a>bfbfbubNb#cfcAc6c(cEbYb8cHcUcxb>bTa~aAatbMb/b{b%bSbrbda:aMasalalanavaBaJaRa2bQb)b0b)bta)aub1cycrb=b9brbkbPb9cbcwcycocbcCcJcJcCcCcy",
"aTaNb9b\b9b/b2b|crcrcrcycycycCcCcJcJcCb9b2b|cCcVcybKbXb2a[bdbzb2crcwb<bCblaXaOarajanasaJa1a=bEb-cvcmb?bfa)bYcpcHcTcTcabTclc(c*cIcjb!bHbjbba]a#a+a-a-a/a>a>a>a[a[babdbdbkbkbrbrbwbzbGbFbGbKbPbPbPbXbXb2b2b9b9b9b9b-b/b/b/b\b\b\b|b|cbchchchcocwcycycCcCcCcCcJcJcNcNcNcRcNcScRcRcRcMcKcFcycFcyb%aLbkcvcycKcCcMcCcKcCcKcCcKb/aWaVb-bEaBa2b{cCcKcCcCcKcCcKcKcycFcBbwaVbScKcMcMcRcRcScXcRcWcRcRcJcycycycBcycCcCcCcCcCcCcycycycrcrcochchcbcbcbb|b\b\b\b=b/b/b(b(b9b9b9b2bXbXbXbPbKbKbKbGbGbzbzbzbwbrbnbkbkbgbdbdbabaa^a{a^a^a^bma>bfbfbfbubRb#b~cAc6c(cEb8b+cLcUcDcabTbea.bwb{cocqb{b%bUbMbCa}aSaralaravaBaQaZa*bOb*b*cgbta%aybScycrb=b9brbnbPb9cbcrcwchcbcCcCcCcCcycy",
"aTaNb9b\b9b-b9b|chcocrcwcwcycCcCcCcCcCb9b2b\cCcScybGbXbPa[a{bzb2chcrb<bCblaXaOawajarayaRa9a]bQcccqceb?bJbxb8cpcLcUcTcab8cxc+c7cTcjb!bLbjbbbba}a=a9aRaDaEaDaDaCaFaHaCaHaHaHaHaHaHaHaHaHaNaNaNaNaTaTaTaTaTaTaTaTaTaTaTaTa3aTa3aWa3a3a3a3a3a3a0a8a(bgb-cwcycycCcCcCcJcJcNcMcNcRcMcMcMcFcycBcBcyb7aFbgcqcycKcycycFcycycycycBb-a2aUb-bQasaVb{cycycFcCcFcycycycBcyczbraVbMcFcCcJcMcNcRcRc2cWcRcRcKcwcwcwcwcwcwcycycycwcwb|bPbga{a>a>a>a/a/a(a(a(a$a$a$a8a8a8a3a8a3a3a0aWaTaTaTaTaTaTaTaPaPaPaPaPaNaPaNaSaNaSaSaSaSaRaMaRaRaRaSa+a}bfbfbsbDbVb&cjcEc!c(cEb8b+cOcZcHcab8b<b6bUcmcvcqb{b%b$bMbCa:aSawanaraIaYaYa%bocucQcubRa;aOabbScwcrb=b9brbgbPb2cbchcwcbcbcCcycCcycycw",
"aTaTb9b\b9b9b2b|chchcrcrcycycycCcCcCcyb9b2b\cycScwbGbPbPa[babwb2cocob)bObjaXaQawajauaIaZa9a}bQb=cqcmb?bRbxb8ctcLcUcUcab8cAc+c7cPcjb!bTbtbobWcIbOaOaOauaqaramamamamamamamaoamamaoamaoamamamamaoapapapaiapapapapapapapapapapapapapapapapapapapapapapaxb7cwcrcycycycCcJcCcMcJcMcCcMcycBcwczcrczb7azbdcmcwcwcBcwcycwcycwcwczb%aUaMb%bEasaNb/cBcwcBcycycwcBcwcwczcobnaVbFczcycycKcJcMcRcMcWcMcMcycrcvcococococrcrcrcwb9aHapatatapapapapatapatapapatatatatatapapapapapapapapapapapaoapapapaoasaoasaoaoaoaoaoaraoararaoauarauauaAaObDbObDbRbVb.cdcEc6c(cEb8b>cOc3cLckb+b$bJbUcmcvchb{b%bUbMbva:aVawanawaQaYa6bqb;b}b]bLa)aOaOaAbUcwcob=b9bnbgbKb9cbcbchcbcbcCcycycycwcw",
"aTaTb9b/b9b9b2b|chchcocrcrcwcycycCcCcyb2b2b=cwcScwbGbPbKa[babwb2chcob)bCbla5aQaGaiauaIa6a*bfbMcicmcmb`bObAb>ctcOcZcUckb8cDc+c(cPcjb.bLbBbqb*c2cjbIbTboa\aQayatayatasatataxaxaxataxaxaxaxaxaxaxazaxaCaCaCaCaCaCaHaHaHaHaHaNaTaTaTaTaTaTaWaWaWa0a0aHapbFchcocrcwcycycCcycKcCcCcFcCcBcrcvcocvcobUaCa{cbcvcrcrczcrczcrczcrcvb7aSaKb7bEasaSb-cvcwcrczcrcrcrcrcococmbnaMbwcocwcwcBcycJcMcKcKcKcKcwcochchchchchchchchcbbGataxaCaNaTaWaWaTaWaWaTa0aWa0aWaWaWaWaTaWaTaTaTaPaPaNaNaLaHaLaHaFaCaCaCaCaCazazaBazaIaBaBaBaIaQaQa5aYa5aXa;cub~bRbZb0b,cjcEc!c+cEb8b.cOc6cLcpbTbibCb)cmcrcqb{b%b$bMbCa`aVaGanaIaQa5a<b0bZbLbiaOa)a<a%aqbMcwchb=b9bnbzbKb2b|b|cbb|chcycwcycwcwcw",
"aTaTb9b/b9b9b2b\cbchchcrcrcwcwcycCcycyb2bXb=crcNcybGbKbKa[bdbwb2chchb)bJbla5a5aIaqauaQa9a<bfb6b{cqcmb`bZbIb>ctcOcZcZckb+cAc,c(cPcjb+bRbIbtb,c6cdbYb+b5bLbeaRaKaJaJaJaRaLaLaNaLaNaPaTaTaTaTaTaTaWa0a3a3a8a8a8a8a(a(a(a(a(a[a[a[a[a{babdbdbgbgbkbka0apbFcbchcocrcwcwcycycycycycycBcrcocqchchcqbKaxa[b\chcqcococococococqchb7aRaKb7bnasaMb%cocqcococococqchchchcebgaxbrcmcocrcwcBcycKcQcKcFcBcrchcbcbcbcbcbcbcbcbcbbFaxaCa3bnbrbnbnbgbkbgbkbgbgbgbdbdbaa{a{a[a/a/a/a(a(a,a,a#a#a#a7a4a4a4aWaWa2aTaVa1aVa1aVa1a1a9a=bbbobhbha~bocIcnbYbZb!b;clcOc!c+cIb+b>cTc6cTcpb8bibsbQcmcvchb{b%b1b3bka`a6avaraOaYa6a\btbia)bia;a5aXaOabbScwcqb/b9brbkbGb2b\b|b|b\chcycwcwcycrcr",
"aTa3b9b-b9b9b2b\cbchchcocrcwcwcycycycyb2bXb/cocNcwbGbGbKa[bdbrbXchcmb)bJboa)a5aIaqayaYa9a.bmb6b{cqcmcnbZbIb+ctcTc3cUckb+cLc,c+cPcjb!bYbtbAb,cWcjbTb+b!bLa\aZaRaJaJaKaMaSaNaNaNaNaPaTaTaWaWaWaWa0a3a8a8a8a8a(a(a(a[a[a[a[a[baa{babdbdbgbgbkbkbkbka3apbrb|cbcbcococrcwcwczcwcBcwcwcvchcbcbcecbbGata>b=cbcbchcmchcmchchcqcmb1aMaKb1bCaoaHb%cbchchcqchchchcmcbcbb|baaxbkb|chcqcococwcBcFcFcBczcocbcbb|b|b|b|b|b|b|b|bGazaHa[bGbGbFbrbrbrbnbnbkbkbgbkbdbabaa{a[a[a>a/a>a/a(a(a,a8a8a#a8a7a7a0a4a4a2a2aWa9a2a9a2a9a*a_bpbtblbqbibtcIcnbZbZb!b]clcOc!c+cIb+b.cUc6cTctb+bxa~bWcmczcqb=b?b1b6bCa`a1aIauaOa5a;a;a;a5bxb>b.bYa~aGafbScBchb-b9bnbdbGb2b/b=b|b\chcwcwcwcwcrco",
"aWa0b9b(b9b9bXb\b|cbchchcrcrcwcwcycycwb2bPb/chcNcwbGbGbGa[bdbrbXcbcbb)bJboa)a6aIaqaya5a9a\bmbScicmcmccbZbIb+cxcTc3cZcpb+cEc-c(cPcjb+bLbIbtb&cYb^bxbIbLbta\aZaRaRaKaMaSaPaPaPaPaTaTaWaWaWa0a3a3a8a8a(a(a(a(a(a[a[a[a[a{a{bdbdbgbgbkbnbrbrbrbrbwbza8apbkb\b|b|cbchchcocrcocrcrczcrchcmb|ceb|cbbFata/b/b|cecbcbcbcmcbcbcmcbb1aKaDbUbgaraFbXcbcbcbcbcmcbcbcbcbceb\baazbgb\cbcbchchcocvczczczcqchb|b|b\b\b\b=b\b\b\b\bFaxaHbdb2bPbPbGbGbzbzbzbzbwbrbrbrbkbkbkbgbgbdbaa{a[a[a[a>a(a(a(a(a(a,a$a,a+a7a!a4a!a!a!a!a!a*a_blblbhbea\bqcIccbYbZb&b]cscOc!c+cPb.cacUc6cUcxb+bxbxb5cmczcqb=b%b1b6bCa:a6aIauaQa)a;a~a~bxbZb+b;b]b,a~afbUcFcmb-b9bna{bGb2b-b-b=b/chcwcocrcrcoco",
"aTa3b9b9b9b2bXb\b|cbcbchcocrcrcwcwcycrb2bPb9chcJcwbGbGbGa{bdbrbPcbb|b)bNbta)a)aQaqayaYa9a=bub6cicqcmcnbZbTb+cxcTc3c3cpb>cOc,c(cPcjb!bLbBbtbJb`bNa%a\a.a?a*a1aVaVaVaWa2a3a3a8a8a8a$a(a/a>a[a[bdbdbkbkbkbrbwbzbzbGbGbGbGbPbKbPbPbXbXbXb2b2b2b9b9b(brapa[b/b\b|b|b|cbchchchcvchcocvcbceb|b|ceb\bwata(b-b|b|ceb|ceb|ceb|b|cebUaDaBbSbgaraFb1b|cecbceb|cbceb|b|b{b\a{aCbdb=b|b|cbcbchcqcqcvcqcqcbb|b=b=b=b/b-b-b/b/b-brataHbkbXbPbKbGbGbFbFbFbzbFbzbwbrbrbnbnbnbkbdbabaa{a[a[a>a>a/a/a/a(a-a-a$a,a#a7a7a4a!a!a!a!a*a=bbbba=a*a;bpcib[bRb!b!b^cxcOc7c+cPb>cacUc6cUcxb+bxbIb&cmczcqb=b?b1bMbvbca6aBaAaQa)a;a;a~bIbZb8b+b!b.blafb1cFcmb/b-bna{bGbXb(b(b-b(chcwcocrcococh",
"aWa0b9b9b9b2bPb\b\b|cbchchcrcrcrcwcwcwb2bPb9cbcJcwbKbGbGbda[brbPb|b|b)bVbta;a;aQauaGaYa9a=bmb6b{cqcmcnbZbTb>cxcUc6c3ctb>cPc,c(cTcjb!bLbBbpbpbba]a]a.a!a9a2a9aVaTaTa4a3a3a#a8a8a$a(a/a>a[a[bdbdbdbdbkbrbrbrbzbzbGbGbPbPbXbXb2b2b2b9b9b9b-b/b=b\b\b\b9crcyb|b=b\b|b|cbcbcbchcmchchcbb|b{b\b\b{brata(b9b{b\b\b\b|b{b|b|b{b{bSaDavbSbdaraFbUb\b\b|ceb|b\b|b{b\b\b/a{aCa{b-b\b{b|cecbcmcmcqcmceceb\b=b-b(b9b(b2b-b/b9bdaHa3bGb9b2b2bPbPbKbKbGbGbGbFbzbzbwbrbrbnbkbdbabdbaa{a[a[a>a>a/a/a/a-a(a-a,a,a#a#a#a7a!a!a4a!a7a*a*a.a*a]bpbDbDbLbVb&b]cscTc!c+cPb]cacZc6cZcDb>bTbTb,cqczcqb/b?b1bQbCa`a6aBaAaXa)a;a;a)bIb8b!b+b&b&boafb)cQcmccb-bra[bFbXb(b9b(b(chcocococochcb",
"aWa0b9b(b2b2bXb-b\b|b|cbchchcrcrcwcwcrbXbPb9cbcJcwbKbGbGa{a[bkbPb\b|b[b5bta~a;a5auaGa5a%a*bpb$cicqcIb`b8bTb>cDcUc6c3cxcacPc-c(cIcjb!bLbBblbja`a:a:a+a+a,a-a/a/a^a{babgbkbkbnbrbwbzbFbGbKbPbPbXbXb2b2b9b(b/b\cocwcwcycycCcCcCcCcJcJcJcJcNcNcNcNcScVc0cVcyb/b=b/b\b\b|cbb|cbcbcbcbb|b\b=b=b=b=brapa$b9b/b=b=b=b\b=b\b=b=b=bMazavbMbgaoaCbUb/b=b\b{b\b{b\b{b=b=b-a{aCa[b%b=b=b\b\b|cececbceb|b|b=b-b(b9b2bPb2b\cbcycJcJcJcNcNcNcJcJcJcCcJcCcCcCcycCcycycycwcycrcebXbrbkbgbgbdbaa{a[a[a[a[a[a>a>a/a(a(a,a,a#a7a#a7a7a7a7a#a.a=a`bbbpbBbZb.cfcxcPc*c+cPcacfcZc6cZcDcabTbTb^cqczcqb{b7b)bMbvbca1aOaAa5a)a)a)a)bIb8b!b+b]b.bqafb)cQb{b/b-brbabFbXb%b9b%b2chcochchchcbcb",
"aWa0b2bXb2b9bPb9b\b\b|b|cbchcocrcrcrchbXbGb2b|cCcwbKbGbGa[a[bkbPb\b\b)bWbYbibea;aAaAa5a%bhbJb)cicmcIccb+bTb>cDcZc6c6ctcacUc-c(cIcjb!bLbtblbba]a+a&a#a/a^a{bdbkbnbnbwbwbzbzbFbMbKbSbPbUbXb7b2b7b2b9b9b9b(b/b2b(b=b=b\b\b\b\b\b\b\b|b\b|b|b|cbcbcbcbcbb|b\b9b9b9b=b\b\b|b\cbb|b|cbb\b=b=b=b/b/bnapa8b2b-b/b/b/b=b/b/b/b/b/bMaxaxbFbaaoaCbKb/b/b=b=b=b=b=b=b=b/b(a{aza>b9b-b/b=b=b=b\b{ceceb=b|b=b(b9b2bXbGbPb2b9b\cwcwcwcrcococococococococochcochchchchchcbchb/ceb9bKbUbPbMbFbzbFbwbrbwbrbnbkbdbdbabaa{a^a>a^a>a>a}a,a#a=a=a]bjblbDbZb+b}cxcPc*c+cZb]cfcZc!cZcHcab8b8cjcGcFcqcib?b$bQbDa_a6aOaAa5a;a;a~a~bTb8b+b>cfb.bxaqb<cQceb/b-bna>brbXb%b7b2b%cbchchcbchcbb|",
"aWa0bXb2b2b2bPb9b\b\b\b|b|cbchcococrchbXbGb2b\cCcrbPbGbza[a[bkbGb/b\bUbqb!bIbAbiaGaOaXaXa5a~bibIbRb#b.b8b8cacDcZc!c6cDckcYc-c(cIcpb!bRbtbjbba]a+a#a,a2aNaTaVaWaWaWa0a0a$a$a$a$a$a$a$a(a/a/a>a>a^a>a>a>a[a/bgbXb%b9b(b(b(b(b(b-b-b-b/b/b=b/b=b\b\b\b\b\b/b2bXb9b9b\b\b=b=b|b\b|b|b=b/b/b/b/b-bkapa0b2b(b-b-b-b/b-b-b-b-b-bMaxaxbza{amaCbKb(b-b/b/b/b/b/b/b-b-b%a{ata/b7b(b(b-b-b/b/b=b=b{b/b=b-b9b2bXbXbKbrbGbXb9b-b(b-b-b9b9b/b-b/b/b/b/b/b/b/b/b/b-b/b(b(b(bwa[bwbzbFbFbna{a[a^a>a[a^a[a[a>a>a/a/a(a$a,a,a+a#a4a7a,a+a+a]a}bjbsbDbZb.cfcscTc7c+cPcfcpc3c!c3cLckb8b>cOcIcscfb!bYbIbIbIbAbea5aAa)a~bqbxbIbYb8b+b+b>b&bTaXcccGcib{b-bEbdbrbXb7bXbXb2cbchcbcbcbb|b|",
"aWa3bPb2bXbXbGb9b9b\b\b\b|cbchchchcochbPbGbXb\cychbPbGbza[a[bdbGb-b=bSbAb^b8b.b8aXaXa)a;bxbIbTb>b+bTb>b>b+cacHc3c!c!cDckcYc-c(cIcjb.bYbybjbca}a:a-a$axazaoaiagacaeagagagagagagagagagagaiakakakakakamamamaia(bXb7b7b9b(b(b(b(b(b-b-b-b/b/b(b(b=b=b\b=b\b/b9b2b9b9b-b=b=b/b\b=b\b\b/b/b-b-b-b(baapa0bXb(b(b9b(b(b(b(b(b(b9bzaxavbwa^amaCbKb(b(b-b-b-b-b-b(b(b(b7a>apa/bXb9b(b(b(b(b(b-b/b/b(b/b(b2b2bXbPbzbzbzbPb9b(b9b9b-b2bXb-b(b-b(b-b(b-b(b-b(b-b(bXb2b9b9a>aiaiakaiakakamaoaoamamamamamakamaoamaoamaoaoaoazazazata4bfbfbjbpbybLbZb,cjcDcTc7c+cPcfcpc3c*c3cLckb>ctc3cAcab>b+b8bTbTbIbTbTbTa~bxbIbxbxbYb+b8b+b+b+b+b8a~cscQcib/b-bnbdbrb1b2b1bPbXcbchcbb|cbb|b\",
"a3a3bPbXbPbXbGb9b9b\b\b\b\cbcbchchchcbbPbGbXb/cwchbPbGbza[a[bdbGb9b-bMbAcHcacIcTbYbTbTbTb8b+cacxcDcjcDcpb>ckcLc3c!c!cHcpcQc-c(cIctb.bZbHbsbfa}a}a[a8a-bFa^axaiapatagakakanakamamakaialalagagagamaoaoaoaoaia(bXbUbFbPb%b(b9b(b9b(b(b(b(b/b-b2b/b/b/b=b=b9bPbXb9b9b(b-b-b(b=b/b\b=b/b(b(b(b(b9a{apa3bXb9b9b9b9b9b9b9b9b9b9bwatatbwa^akaCbKb9b(b(b(b(b(b9b(b9b7bXa/apa-b1b2b9b9b9b9b(b%b-b(b9b-b9b2bXbXbGbzbGbwbPb2b9b9b9b9b9b9b9b(b9b9b9b9b9b9b9b9b9b9bGbPbXb2a[acaiaiapapamamamakaiakakamapatapapamamaoaoaoaxbrbMbdaxa,bnbubububHbNb5b.cjcAcTc*c+cZcfctc3c*c6cTctckcLc*c6cPcLcxcxckb>b>b>cLcZcAckctckb>b>b+b+b+b+b+b+b8bYcucGciccb`bkbdbnbPbXbPbUbXb|cbb|b|b|b\b\",
"a0a3bPbXbPbXbGb2b9b/b/b\b\b\b|cbchchcbbPbGbXb9crchbPbGbra[a(bdbzb(b(bQbBcPcxcYc,c*cpb8bTbTb8ckcOc!c7cOb>cacpcTc3c*c*cLctcWc-c(cPctb.b!bNbybmbma{bda$bdb(bUa0aoa8a$agaoaxaBaxavaJa&bfbmbvbObObEbCa6asasapaka>bXb7bXb7b(b9b(b(b(b(b(b(b(b-b-b-b-b-b-b-b/b9b2bXb2b9b9b/b(b(b/b-b/b/b-b9b(b9b9b9a[apa0bPb2b2b2b9b2b9b9b2b9b2bratatbra/amaCbGb%b9b%b%b%b9b9b9b9b2b1a$apa(bPb2b2b2b9b9b%b%b%b%b%b(b9bXbXbPbGbwbGbzbKb2b2b2b2bXb2b2b2b9b2b9b9b9b2b9b2b2b2b2b2bXbXb7baamapaCaNaHaHaCaxatatapaoapazaMaCataMaWaTaEapaFbKb7bwaFa-bEbmbubDbHbVb!b]ctcAcUc7c+cZcfcxc6c*c!cUcHcDcUc+c-c-cUcpb+b+b+b+cDc*c,c(cTcUcOctckb>cab>b>b+b+b8b8cOcGciccb-bdbgbkbPbXbUbPbPb|b|b|b\b\b\b=",
"a0a8bPbXbPbPbGb2b9b-b9b\b\b\b|cbcbcbb|bPbGbPb9cochbPbrbra[a(bdbGb9b%bwbBcZcscWc,c(ctb+b+b>cpcZc,c-c#cPcacacxcTc6c*c*cLcxc2c-c+cPcxb]b!bRbNbvbvbgbra-bnb/b%a$apa3a3akapa0a2aSaDaBa9a!a2a<a<a&a|a2aBavaBavaoa0bwbFbFbMbKbKbKbKbKbKbKbUbPbPbXb2b(b(b9b9b(b9bPbXbXb9b9b9b9b9b(b(b-b-b(b9b9b9b9b2a[apaWbKb2b2b2b2b2b2b2b2b2b2bnapapbra-aoazbGb7b2b9b%b9b7b9b7b2b2bPa$aoa(bPbXbXb2b2b2b2b7b%b%b7b9b2bXbPbXbFa{bnbkbGbXbXb2bXbXbKbKbKbPbPbPbXbPbPbPbPbPbPbPbPbUbKbPa{amapatazaxaxaxatapapapaoaoamamapapatatatazaCaPb1b%bFaHa/bQbvbDbDbJbVb!b]clcHcUc7c,cYcjcxc!c*c*cZcLcLc6c,c-c)c!cxcab>cacacZc,c-c(c3c*c3cDctcpckcacab>b>b+b+cZcPcib`b`bdbdbgbPbPbKbUbPb\b\b\b\b\b=b=",
"a3a(bKbXbGbKbGb2b9b/b\b-b\b\b\b|cbcbb|bPbzbPb2chcbbXbra[a[a(bdbzb2b2bEbJcYcAc6c,c(cxb>b>b>cDc!c-c-c,cUckckcDcUc6c*c*cTcxc7c-c+cPcxb^b&bZbNbvbvb%cma{a>b7bXa>aHaTaTaCaHaEaMaMaEaLaKaKaMaMaMa2a!aSaSaSaSaMaCaxatatatatatataxavaxatatataxaxaxaNa[bKb9b9b9bXbdbrbPb2b2b9b9b9b(b9b(b-b9b9b2b9b2b2a/apaTbKbXbXb2bXb2b2b2b2bXbXbnapatbra/aoaxbFb2b2b7b2b7b2b7b2b2b2bPa3aoa$bKbPbXbXbXb2b7b1b7b7b2b9bXbXbPbPbGa(aPa0brbPbXbPbKbaaNaCaHaCaHaHaHaHaHaHaHaCaCaCaCaCaCaFaCazaEaNaPaTaWaTaWaTaWaWaTaTaPaTaTa2aTaPaTaWaTa/b%b%bgatbab)bvbDbJbRbZb&b]cxcHcUc(c+cYctcDc!c(c*c3cUcUc6c,c)c-c*cDcackckckc3c-c-cIb)clcxcLcLcDcxctcpckckcab>cUcGcnb/b`bdbgbgbKb1bKbKbKb\b\b\b/b=b=b=",
"a8a(bGbPbGbKbGbXb9bGa[brbGbrb2b\b|b|b|bPbzbGbXcbb\b2bzbda[a[a[bGb2b2bEbJcYcAc7c,c(cAcacacpcHc*c,c-c,cZckcpcHcUc!c*c+cTcAc7c)c,cZcAcfb.bZbNbJbvbQcecqb7bga7a7a3a3a3a8a3a3a0a3a3a3a#a3a8a+a$a$a$a$a8a3a8a3aWaPaEaCaCaCazaxaxaxazaCaCaCazaxaxatapata/bza{a3bdbKbXbXb2b9b2b2b9b2b(b(b9b2b2b2b7bXa(aia0bKbXbXbXbXbXbXbXbXbXb1bdapatbna-amatbFbXbXbXb7b2b7b2bXb7bXbKa0aoa$bGbPbPbPbXb2b1b1b1b1b7b2bXbPbKbGbGbnaTapaCa/brbgaNapapapaxatatatatatatatatatatatatatataMa3a$a^a^a^a{babdbdbdbababaa{a^a^a>a>a^a^a>a>a>a>a^a2aBbvb=b<bCbJbRbWb!b.b^cscLcZc(c,cYcjcAc!c(c*c6c3c3c!c-c)c-c7cDckckckcpc3c,c-cQcPc+c(cOcLcLcHcDctcpckcacacUcPccb`b%bkbkbkbKbUbKbKbPb=b=b=b=b/b=b=",
"a8a/bGbPbGbGbGb9b9braTapapaHa[b9b|b|b\bPbzbGbPb\b\bXbra[a[a(bdbzbXbXbCbJc6cuc7c-c(cHcacpcDcOc*c-c-c#cZcpctcHcZc!c+c*cUcAc7c)c,cYcDcfb.bZbVbNbHbubmbEb-cqb/bgaVaLaNaNaNaNaPaNaNaPaPaTaPaTaTaPaVaTaTaTaTaTaTaPaNaNaNaNaHaHaHaCamagaoapaxaHapapaCaCapaNa{bPbXbXbXbXbXb2b2b2b9b2b%b9b2b2b2bXbXbXa8aiaWbKbPbPbPbPbXbPbXbPbXbUbdapatbna-akatbzbXbXb1bXb1bXbXbXbXbXbKaWaoa$bGbGbPbPbPbXbXbUbUb1b7b2bPbKbGbGbGbKbGbdaPamapaoamapatapamapamaiaiamaoaoaoaoapapapapatatazaxazazazazazazazaCaCaCaCaCazaCazazaCaCaCaFaFaKaSbgb%b`bQbvbJbJbVbWb!b.cfcxcEcZc+c,cYcxcAc!c+c(c!c6c6c*c-c)c-c*cHckcpcpcxcZc,c-c2cQc,c+cUcLcLcHcDcxctckckcacTcIccb%b7bCbdbgbMbPbKbGbGb/b/b/b/b/b/b=",
"a(a>bGbPbGbGbrbrbzbGbGapapapa[b9b\b\b\bGbrbGbPb/b\bPbra[a[a(a[bGbPbPbnbRcYcEc7c,c(cAckcpcxcOc*c-c-c#cZcpctcLc3c!c*c+cUcLc7c)c,cYcAcjb.b!bRbNbHbvbmbfa}bdb1b7bEbdbdbdbdbdbdbgbgbkbkbnbnbrbrbrbrbwbwbzbzbzbFbzbFbFbFbGbFbGbKb9b-brazaiapaNa3aHapa0bgbGbXbPbPbPbPbXbXbXb2bXb2b7b2b7b2bXbXb1bXbPa8aiaWbGbPbPbPbPbPbPbPbXbPbKbaapatbga8amatbzbPbXbUbXb1bXbXbXbPbPbKaTaoa8bFbGbKbPbPbXbUbUbUbUb7bXbPbKbGbFbFbGbGbGbGa>apamaza0a8aNapamata{bGbnbnbnbnbnbnbrbwbFbGbMbGbMbFbFbFbFbFbzbzbzbzbwbwbzbwbwbwbrbwbwbwbzbzbzbMb1bEa^bmbvbvbVbWb5b&b;cfcAcOcYc(c-cYcxcAc7c+c(c*c!c6c*c-c)c-c7cHckcpcDctc3c-c-cWcQc,c+cUcLcLcHcDctctckckcacTcIb`b?b7bgbabgbMbPbMbFbGb/b/b/b/b/b/b-",
"a(a[bFbKbGbzbratapapapapapapa[b9b\b/b\bGbrbGbGb9b9bPbda[a[a[a[bzbPbPbvbJcYcEc7c-c(cAckcpcpcOc(c-c-c#cZctcxcLcZc*c+c*cUcLc(c)c,c3cActb;b!bZbNbHbubmbfbfa^a}a/a^a^a[a^a[a[a{a{babdbdbkbgbkbkbkbnbrbrbrbwbwbwbzbwbzbzbzbzbFbFbFbXb\b|bKaTapaCa[bzbKbPbKbKbKbPbPbPbPbPbXbXbXb1bXb7b2bXbXbXbXbUbPa3aiaWbGbKbPbPbPbPbPbPbPbKbKa{apatbga3aoatbwbPbPbUbPbPbUbPbPbPbPbGaTama8bzbGbGbKbKbXbUbUbUbUb1bXbKbKbGbFbzbFbFbFbFbGbza$aHaxatapaNbGb|b\b2bKbKbGbGbGbGbFbGbFbFbzbwbzbwbzbwbwbrbrbrbnbnbkbkbkbkbkbgbdbgbgbababdbdbma[bfbmbvbvbJbObWb5b.b]cjcDcOcYc+c,cYcxcAc7c+c(c*c!c6c(c-c)c-c*cLckcpcDctc3c,c-cWcGc-c+cOcLcHcHcDctcpckcacacOcIb?b7b7bCbabgbFbPbFbFbPb-b/b-b/b-b-b(",
"a(a[bzbKbzbrbraHapapapaiapapa[b2b-b\b/bGbrbGbGb9b2bPbda[a[a[a[bzbGbKbgbWcYcEc7c-c(cxcackcpcOc(c-c-c,cZctcpcLcZc!c*c*cTcLc1c-c,c3cEcjb]b5bRbNbHbubmbfbfbfa^a^a^a^a>a>a[a[a^a{bababdbdbgbgbgbkbkbnbrbnbrbrbrbwbwbwbwbzbzbzbzbzbzbzbPb9bPbwbzbGbGbGbGbGbGbKbKbKbKbPbPbPbXbPb1b1bXb2b1bXbPbXbPbKa3aiaWbGbKbKbKbKbKbKbKbKbKbMa{apatbga0aoaxbrbPbPbPbUbPbUbPbPbKbPbGaTaka8bzbFbFbGbKbPbUbSbUbUb1bPbKbFbFbzbzbzbFbzbFbFbFbGbra(a(bKb|b|b2bMbGbGbMbFbFbFbzbFbzbzbzbrbwbrbrbrbrbrbrbkbkbkbkbkbkbgbgbgbdbabdbda{babababmbma{bmbvbvbJbOb0b5b.b]ctcAcOcYc+c-cYcxcAc7c+c(c*c!c6c*c-c)c-c2cLckcpcxcxc3c,c-cWcPc,c(cOcHcHcDctcpckckb>b>cPcub?b7b)bgbabdbFbUbzbzbKb-b-b-b-b-b(b9",
"a[a[bwbGbwbrbraNapapapapapapa[b2b9b-b/bGbkbGbGb2bXbPbdbra(a[a[brbGbPbmbOcWcAc7c-c(cscacacpcOc(c-c-c#cZcpcpcHcZc!c*c*cTcLc(c)c,cYcLcjb.b!bVbHbHbubmbfbfa>bfa^a^a>a/a/a>a>a>a[a{a{babdbdbdbdbgbgbkbkbkbnbnbrbrbrbrbrbwbwbwbzbzbzbzbzbzbGbGbFbGbGbzbGbFbGbGbGbGbGbKbKbKbPbKb1bPb1bXbPbPbPbPbUbKaWaiaTbGbKbKbGbSbGbKbGbGbGbMa[apapbda0amaxbrbKbKbUbKbSbKbPbKbKbKbFaTaia8bwbzbFbGbGbKbKbMbSbMbUbKbGbFbzbzbzbwbzbzbzbzbzbzbFbGbPb2bKbzbFbFbFbFbzbzbzbwbwbwbwbwbrbrbrbrbrbrbnbnbkbkbkbkbdbdbgbdbgbdbaa{a{baa[a{bma{a^bfbfbmbmbvbJbOb0b#b.b]clcDcIc3c+c-cYcxcAc7c+c(c*c6c6c(c,c)c-c!cLcacpctctcZc,c-cWcGc+c(cLcDcxcxctcpckcab>b>cIcib?b)b1bga{bkbKbSbzbwbGb(b-b(b-b(b9b9",
"a[babrbGbwbrbra8aiapapapaiaxbrb2b9b9b9bGbdbzbGbPbPbPbka(a(a[a[brbGbGbdbZcYcEc7c-c(ctb>cackcLc(c-c-c+cUcpcpcHcZc!c*c*cTcAc(c)c,cYcAcjb.b!bRbHbybubfbfa}bfa>bfa>a>a/a/a/a>a>a>a[a{a{babababdbdbdbgbkbkbkbkbkbnbnbrbrbrbrbrbwbwbwbzbzbzbzbzbzbzbFbzbzbFbFbFbFbFbGbGbGbKbKbKbUbUbPbXbPbPbPbPbKbKaWaiaWbzbGbGbGbGbGbGbGbGbGbFa^apapbaa0amatbrbKbKbSbKbKbKbKbKbGbGbzaTaia3brbzbzbzbGbKbGbMbSbMbUbKbFbzbzbzbrbwbwbzbzbwbzbwbzbwbzbrbzbzbzbzbzbzbwbwbrbrbrbrbnbrbnbkbkbnbkbkbkbkbkbkbdbdbdbdbdbdbdbabaa[a{a{a^a[a{bfa^bfbfbmbmbvbJbOb0b#b.b]ctcAcOcYc+c-cYcjcAc*c+c(c*c6c3c*c-c)c)c!cLcackcpctcUc,c-cQcIc+c!cDctcxcpcpckcab>b+b+cOcib<b7b1bva^bnbFbGbwbwbGb(b(b(b-b(b9b7",
"bdbrbrbzbzbnbra[apapapapapa[bPb2b9b9b9bGbdbrbGbPbPbGbra(a[a(a[brbGbGa^bJcYcuc(c,c(clb>b>ckcLc*c-c-c#cTckckcDcUc!c*c*cLcAc(c)c,cYcAcfb.bZbRbHbububfbfa}a}bfa>a>a>a/a/a/a/a/a>a[a[a{a{a{a{babdbdbdbdbgbkbkbgbkbnbnbkbnbrbrbrbrbwbrbwbwbzbzbzbzbzbzbzbzbzbzbFbzbGbFbGbGbKbGbSbKbUbPbPbKbKbKbKbGaTaiaTbzbGbFbGbFbGbFbGbFbFbFa^aoapbaa0amatbnbGbGbKbMbKbGbGbGbGbGbzaNaka3brbwbwbzbFbKbGbMbMbMbKbKbzbzbzbrbrbrbrbwbwbwbrbwbwbwbwbwbwbwbwbwbwbrbrbrbrbnbnbnbnbnbgbkbkbkbgbkbkbgbdbdbdbdbdbdbdbdbabda{a[a[a[a>a^a^bfa^bfa>bmbmbvbJbOb0b!b,b]cjcxcEcZc(c,cYcfcxc*c(c*c!c3c3c*c-c)c-c*cHcacacpcpcUc+c-cYcEc(cWcxcpckckckb>b>b+b+b+cEcib)b$b1baa^bkbFbGbrbwbGb9b(b9b(b9b%b2",
"bSbGbrbzbwbkbka[aHapapapa(bGbPbXb9b9b9bGbdbkbrbGbKbGbra[a(a[a[bkbGbGa^bvcYcuc7c-c7cfb>b>b>cHc(c-c-c(cOcackcDcUc6c*c!cLcxc7c)c+cPcxcfb.bZbLbHbububfbfbca}a}a^a}a>a/a-a/a>a/a>a>a[a[a{a{a{a{a{babdbdbdbgbdbgbgbgbkbkbkbnbnbrbrbrbrbrbrbwbwbrbwbrbwbrbrbzbzbwbzbzbzbFbFbGbGbKbKbKbUbKbKbGbKbFbFaTaia0bwbFbFbFbFbFbFbFbFbzbza>akaobaa&akatbgbFbGbGbGbMbGbGbGbFbFbzaNaka8bkbrbrbwbFbGbFbFbMbMbMbGbzbzbwbrbrbrbrbrbrbrbrbrbrbnbrbnbnbrbrbrbnbrbnbnbkbnbkbgbkbkbgbgbgbgbgbdbgbdbdbdbdbabdbdbabda{a{a{a[a[a>a>bfa^bfbfbfa}bfbmbubJbVbWb4b.b;cfcxcHcTc7c+cPcfctc6c(c*c6cZcUc!c,c)c-c6cHcab>ckckcOc+c-cPcuc(c6cpcacacab>b+b+b8bTbTcucub$b$bUbda^bkbFbFbwbrbFb9b9b%b9b9b9b2",
"b$bSbrbzbwbgbgbdaTatata3brbGbPbXb2b2b9bGa[bdbzbGbGbGbka[a[a(a[bkbGbFa/bDcPcuc(c-c7cab+b>b>cHc7c%c-c,cEb>b>ctcTc3c6c3cDcpc2c-c(cOclb]b!bZbHbHbubfbpbfa}a}a}a}a>a/a-a-a/a/a/a>a/a>a[a[a[a{a[baa[bda{bdbdbdbdbdbkbgbkbkbkbkbkbkbkbrbkbrbrbrbrbrbrbrbrbrbrbrbwbwbwbzbzbzbGbFbGbFbKbKbGbGbGbGbFbzaNacaTbwbzbzbzbzbFbzbFbzbzbza/akapa{a&akatbdbFbFbGbMbFbGbFbGbFbzbwaNaia8bkbrbrbrbzbFbFbFbMbFbMbGbwbwbrbrbkbkbrbkbrbnbkbnbkbnbnbkbnbkbnbnbkbkbkbkbgbgbgbgbgbdbgbdbdbdbdbdbdbdbda[baa[a[bababaa{a{a[a>a>a>a>a>bfa>a}a>bfbfbmbubDbJbVb5b!b,b^cjcDcAc6c#cIb>cfc6c!c6cZcOcLc3c-c-c-cYcxb>b+cacacLc,c-cPclc*c3cfb+b+b+b+b8bxa)aXbxciccb$bUbSbaa>bkbzbFbwbrbrb9b%b9b9b7b7b2",
"b6b3bwbwbwbdbdbda{a[a[brbGbGbKbXb2b2b2bGa[bdbrbGbGbGbka[a(a[a[bdbzbGa-bBcIclcuc7c2b>b8b8b+ckcEcGcQcPcfb+b>cpcOc3c6c3ctcacWc-c!cAcpb.b!bRbHbybsbpbja}a}a}a}a}a-a/a-a(a-a/a/a/a/a/a>a[a[a[a[a{a{a[bdbdbdbdbdbdbdbdbgbgbgbgbkbkbkbkbkbkbnbrbnbrbkbrbrbnbrbrbrbrbrbzbwbzbFbzbGbFbGbKbGbGbFbGbFbzaNagaTbrbzbzbzbzbzbzbzbzbzbra/aoava^a0akatbdbFbzbFbFbFbFbFbFbzbzbraNaia3bdbrbrbrbwbzbzbzbFbFbFbFbwbrbnbgbgbkbkbkbkbkbkbkbkbkbkbgbgbkbgbkbkbkbgbgbgbkbgbdbdbdbdbabdbabdbabdbabaa{a[a{a{a{a{a{a{a[a[a/a/a/a/a/a>a}a>a}a}bfbmbmbDbJbVbWb!b.b]b^ctcscPc(cAb+b]c3c!c3cTcDcxcTc,c-c-cYcabTbTb8b+ctc+c7clb<c3cYcab8b+b8b8bTa~auaubiccccb$bUbSa{a>bgbzbFbrbrbzb2b9b7b2b2b2bX",
"b6bMbrbzbrbabdbdbgbrbrbzbzbGbKbXbXb2bXbza[bdbrbGbGbzbra(a[a[a[bdbzbza$bccuclcIb)b^bYbTbTbTbIbxb!b_b.bYbTb+ckcLcUc3cZckb+cUc,cYcxb]b+bVbLbHbsbpbjbca}a`a}a`a-a-a-a(a$a-a(a(a(a(a/a/a>a[a[a>a[a[a[a{bdbabda{bdbdbdbdbdbdbdbdbkbgbkbgbkbkbkbkbkbkbkbgbkbrbkbrbrbrbrbwbwbzbzbFbFbFbGbFbFbFbFbFbwaHacaPbrbzbwbzbwbzbzbwbwbwbra/apata^a4akatbabzbzbFbzbFbFbzbzbzbwbraHaia3bdbkbnbrbrbzbwbwbFbwbFbzbrbrbkbgbdbdbkbkbkbkbkbkbkbdbgbdbgbgbgbgbgbgbdbgbdbgbdbdbdbabaa{baa{a{a{a{a{a{a[a[a[a[a[a[a[a[a[a>a/a/a/a/a}a>a}a}a}a}bfbfbmbvbDbJbVbWb!b.b]cfclcIc*csb8b>cUc6cZcLcpcacjcPcGcPcEb>a~bxb+b8b8b8bDbAcfc!cYb.bYb8bTbYbTa;aAaAbqb`b`bUbSbGa[a/bgbzbFbrbrbFb2b2b2bXbXbXbX",
"b3bMbrbrbra[a{bdbdbkbrbwbzbGbKbPbXbXbXbza[a[brbGbGbrbza[a[a[a[bdbrbza$bhb)b8b<cIcib8bxbxbIbTbYb&b`b.bTbxbTckcDcTcZcTcabYcOc(cIcfb.b8bNbHbsbpbfbca`a`a`a-a:a-a-a-a$a$a$a$a(a(a(a(a/a/a>a>a>a[a[a[a{a{a{a{a{bda[bdbdbdbdbdbdbdbdbdbdbdbgbdbkbdbdbgbgbgbkbkbrbkbrbrbrbrbzbwbFbzbFbFbFbFbzbFbzbraHaiaNbrbrbrbwbwbwbwbrbwbrbra(aoasa^a0aiapbdbzbzbzbzbzbzbzbzbwbrbnaHaia3bdbkbkbnbrbwbwbwbQbwbzbzbnbnbgbdbdbdbdbdbkbdbdbdbdbdbdbdbdbdbdbdbdbdbdbdbdbabdbaa{a{a{a{a[a{a{a{a{a{a{a[a[a[a[a[a[a[a>a[a>a-a/a-a(a-a-a-a}a/a}a}a>bfbubvbHbJbVb0b#b.cfcfcEc6cdbTb!cTc6cTcHckb>bYbIbAbAbYbTbxbTb8b8bxbibAcAc7cQb}bYbTbYbTbTbAa;aAaAbqb`b`b3bMbSbfa(bdbwbFbnbnbzb2bXb2bXbXbPbP",
"bQbMbrbrbra[a[bdbdbdbrbwbzbGbGbPbPbXbXbra[a[brbGbrbGbda(a(a[a[bkbrbra$a|bObIbDbOb)b?b3b<cccccicecIccbZbxbIcacxcLcTcOb>bIcLc!cAb]b+bRbLbybpblbca}a`a:a:a`a-a-a-a$a$a8a$a$a$a(a(a(a(a/a/a>a/a>a[a[a[a[a{a{a[a[bda[bda{bda[bababdbabdbdbdbdbdbdbdbdbdbdbdbgbkbkbkbnbrbrbzbwbzbzbFbFbzbzbzbzbwbnaHaiaPbkbrbrbrbrbrbrbrbrbrbna(aoapa>aWagapbabwbzbwbzbwbwbwbwbrbrbkaHaia0a{bkbkbkbrbwbrbwbzbEbzbwbnbkbdbdbaa{bdbdbdbdbda{bda{bda{bda{bda{baa{a{a{a{a{a[a{a[a{a[a{a[a[a[a[a[a[a[a[a>a>a>a>a>a>a>a>a/a(a-a-a-a-a-a-a}a}a-a}a}bfbmbDbDbDbJbVb0b&b]b]cAcYb}bIb8cEcZcOcxcab!bTbxbibqb!cfb>bxbxbIbia|cIc7cub&bYbDbIbLbBbIbta;aAaGbbb?b?bQbzbMa[a,babwbzbnbkbzbXbXbXbXbPbPbP",
"bQbFbrbrbra[a[a{bdbkbrbrbzbzbGbPbPbXbPbra[a[bdbGbzbrbda(a(a[a[bdbrbra8a!btbAbAbla?aYaYa6a6a%a?bpbQb4bha~bxb>cpcHcLcDb8bxcxc6clb.bYbLbybtbpbja}a]a:a,a,a,a:a-a,a$a$a8a$a$a$a$a(a(a(a(a/a/a/a>a>a[a[a[a[a[a[a[a[a[a{a[a{a[a{a{a{a{bdbababda{bda[bda{bdbdbdbdbdbkbgbkbkbrbwbzbzbzbzbzbwbwbwbrbkaHaiaNbgbnbnbkbrbrbrbrbrbnbka(apasa/a2agapa{bwbwbwbwbwbwbrbrbrbrbgaHaia0a{bdbkbkbkbrbrbrbwbrbwbwbkbgbda{a[a{a[bda{bda[a{a[a[a{a[a{a{a{a[a{a[a[a[a{a[a[a[a[a[a[a[a[a[a[a[a>a[a>a/a>a>a>a/a/a/a/a/a/a(a,a-a,a,a-a-a:a-a`a}a}bfbfbmbvbDbDbNbZb!b.b]clcPb]bAbYcAcTcHcjb.b!btbhbpa?a)a)a%a)a5aXaXa%bQb!bBbBbBbBbAbBbtbtbla)aAaubeb?b?bQbQbwa[a(bdbwbzbnbkbwbXbXb1bPbPbKbK",
"bQbEbrbrbna[a[a[a{bgbnbrbzbzbGbGbPbPbXbka[a[bkbzbrbGa[a[a(a[a[bdbrbga8a%bhbtbtbla<aYaqaqauaAaOa%bsa|a)bibTb+ckctcDctbTbxctcPcjb8bNbLbpbpbja`a`a:a=a+a]a#a,a,a,a$a$a8a$a$a8a8a$a$a(a(a(a(a/a/a>a>a>a[a[a[a[a[a[a[a[a[a[a[a[a{a[a{a[baa{a{a[bda[a[bda[a[bdbdbdbdbgbkbgbrbrbzbwbzbzbzbwbwbrbnbgaHaiaHbdbkbkbrbrbrbrbkbkbkbka(aoapa/aVagapa{brbrbrbrbrbrbrbrbnbnbgaCaiaWa[bdbgbkbkbrbnbnbwbrbrbwbgbga{a[a[a[a{a{a[a{a[a[a{a[a[a[a[a[a[a[a[a{a[a[a[a[a[a[a[a[a[a>a[a>a>a>a>a>a/a/a/a/a(a/a(a(a(a/a(a,a$a$a:a,a:a-a,a:a,a}a}a}bfbfbubDbDbHbRbZb!b.cjcIb&bxbTcncEcAb]b8bVb3bObEbva?aYaXaQaOaQaOa<bhbhbAblbAblbobtblblbha5auaua.b?b<bQbwbQa[a/bdbwbzbnbkbrbPbXbPbPbKbKbK",
"bQbFbnbnbna[a>a{a{bdbnbkbrbzbzbGbKbPbPbka[a[bdbGbrbza[a(a(a[a[bdbrbka3a9bobqblbfa%a6aralaqaOa6a;a%a;a\bAbTb8b>cacacabAbictcIb]bYbHbtbpbjbba`a:a=a+a+a#a#a,a+a8a,a8a8a8a8a8a8a$a$a$a(a(a(a(a(a/a/a>a>a>a>a>a>a>a[a>a[a>a[a[a[a[a[a[a[a[a[a[a[a[a[a[a[a[a[bda[bdbdbdbdbrbrbwbwbwbzbwbwbrbrbnbgaHaiaHa{brbda[a[a{a[a{bkbkbka8apapa-aTagasa[bnbrbrbrbrbrbrbrbkbkbdaCaiaTa[bdbdbdbkbnbkbnbEbnbrbnbgbda{a[a[a[a[a[a[a[a[a[a[a[a[a[a[a[a[a[a[a[a[a>a>a>a>a>a>a>a>a>a>a>a>a>a>a/a/a(a(a(a(a(a(a(a(a(a(a$a$a$a:a,a,a,a,a,a,a-a}a}bfbfbfbmbybDbNbRbZb5b;cub5bqbAcgcAcjb,bRbRbObObObCbJbfa<a6a%a%a|a|blbhblblblbhbbbhbhbba_aQaqaua9b)b1bQbEbra^a/babwbwbkbkbrbUbPbPbKbKbKbG",
"bQbEbgbnbga/a[a[bdbdbkbrbrbrbzbGbGbPbPbka(a[brbrbrbGa[a(a(a[a[bdbkbka3a1bqbhbjbja9aZaGajaqaOa6a9a\a.a_bebobIbTb8b8b8boa;cfcAb!bIbubpbbbba`a]a:a+a+a+a=a#a#a#a#a8a8a3a8a8a8a8a8a$a$a$a(a(a(a(a(a(a/a/a/a/a/a/a/a>a>a>a>a/a>a[a>a>a[a>a[a[a[a[a[a[a[a[a[a[a[bda[bdbdbdbkbkbwbrbrbwbrbrbrbnbkbdaHaiaHbdbdbnbGbFbUb1bgbgbkbda$apasa-aVagapa>bnbnbnbnbnbnbnbnbkbda{azaiaTa/a{bdbdbdbnbgbkbrbkbnbkbdbaa[a[a[a[a>a[a[a[a[a[a[a[a[a[a>a[a/a/a>a>a/a/a/a/a/a/a/a/a/a/a/a/a/a/a/a/a(a(a(a$a(a(a$a(a$a(a(a$a8a+a,a#a,a+a,a,a#a,a`a}a}bcbfbmbsbybybNbRbRb&cnbRbebqb_clb^b!bIbCbObObObJbCbDbmblbcbcbcbhbhbhbhbhbba|a?bba_a_a?aIajauaRb)b1bEbCbna^a-a{bwbwbgbkbnbKbPbKbKbGbGbG",
"bQbEbdbgbga/a>a[a{bgbkbkbrbrbzbGbGbKbPbda[a[a[brbrbza[a[a(a[a[bdbgbdaTaRbhbebcbca6aSa`a:a`a`a`bcbcbjbcbhbtbBbLbLbZbRbia)b]clb8bybpbba]a]a:a:a.a+a7a&a&a#a#a#a#a8a8a7a3a8a8a8a8a8a$a$a$a$a(a(a(a(a(a/a/a/a(a(a/a/a>a/a/a/a/a/a>a/a>a/a>a>a[a>a[a[a[a[a[a[a[a[a[a[bdbdbdbkbwbnbrbwbrbnbkbkbka{aHaiaHa[bdbPcececvcebrbdbgbda$apasa$aPagasa>bgbkbnbnbnbkbnbkbgbda{axaiaTa/a[bdbdbdbkbdbkbnbkbnbkbaa{a[a>a/a/a>a>a>a/a>a/a/a(a/a/a>a/a(a>a(a/a/a/a/a(a/a(a(a(a(a(a(a(a(a(a(a(a(a(a8a$a$a$a$a$a$a$a$a8a8a#a#a#a#a+a#a,a+a,a:a:a}a}bjbfbfbsbubDbDbNbVb<bLbebqb*b}b.bZbBbJbCbCbJbCbvbvbvbCbvbDbvbDbvbCbCbCbCbmblbcbfa}a!aIajaqaYb)b$bEbkbCa>a-a{brbrbgbgbnbKbKbGbGbGbFbF",
"bQbEbabgbga/a/a[a{bdbgbkbrbrbwbGbGbGbKbka(a[bdbrbrbza[a(a(a[a[bdbda[aNa_bhbebba]aYaDa`bmbvbkbEbQb6b$b7b`bJbobBbBbLbDa<a)b+b~bLbtbbbbbba]a+a+a.a&a&a7a&a#a#a#a#a8a3a8a3a8a7a8a8a8a8a8a$a$a$a$a$a(a(a/a/a(a(a(a(a/a/a/a/a(a/a/a/a/a/a/a/a>a/a>a/a(a/a(a[a[a[a[a[a[a[bdbdbgbrbnbnbrbnbkbkbgbda{aCaiaHa[bdbPb=cecqb{bCbdbgbda8asata$aPagasa/bgbkbkbkbkbkbkbgbdbda[ataiaPa(a[a{babdbgbdbgbnbgbgbka{a[a>a/a(a/a(a/a/a(a>a(a>a/a/a(a/a(a/a(a/a(a(a(a(a(a(a(a(a(a(a(a(a(a(a(a(a(a(a$a8a8a$a8a8a8a8a8a8a8a8a7a#a4a7a#a#a+a#a#a:a:a`a}bfbjbfbpbsbsbubDbJb*bBbebeb#b;b!bRbsbDbvbDbvbvbDbfbDbCbCbJbCbvbQb$b$b$b6b6bEbfa:a+a1awahakaRbUb$bnbCbka>a$a^brbrbgbdbkbKbGbGbFbFbFbz",
"bQbEbabgbga(a>a[a{bdbdbkbkbrbrbzbGbGbGbda(a[bdbrbrbra[a(a(a[a[bdbda8bcbBbha|a`a*avasarasaBaDaMaVa&a^bmbma*a%bebsbDbDa~a5bZb,btbebbbba=a=a&a&a&a&a4a4a4a7a&a7a7a3a3a3a3a3a8a8a8a8a8a8a8a8a$a$a$a(a(a(a(a(a(a$a(a(a(a(a(a(a(a/a/a(a/a/a/a/a/a/a/a/a/a/a>a/a[a[a[a[a[a[bdbkbnbkbkbnbkbkbgbdbda{aCacaHa[bdbKb7b$b?b7bvbdbdbaa8asapa$aMagapa/bgbgbgbkbkbgbgbdbdbda[ataiaTa/a>a[bababdbdbabnbgbgbga{a>a/a(a(a(a(a(a(a(a(a(a(a(a(a(a(a(a(a(a(a(a(a(a(a(a(a(a(a(a(a(a(a(a$a(a$a$a$a$a8a8a8a8a8a8a8a8a8a3a3a3a3a4a7a7a7a7a7a#a+a:a:a`a}bcbfbjbfbpbsbubDb3bsa_beb0b&bZbRblbfbfbfbsbmbfbha<a<a<a*a<a|a_bfa:aMavayaSa+a*a1aRasajanaQbSbUbCbkbCa/a$a^brbrbdbabkbGbGbGbzbFbzbz",
"bQbra[bdbda/a(a[a[bdbdbdbkbrbrbzbzbGbGbda(a(a[bkbrbra[a(a8a[a[a[a[a3blbsa|a<a?a}a^aVbQb%b{cmcmcmcececeb{ccb`b1bsbcbla<a5bRb0btbbbea.a.a&a!a&a!a4a!a4a4a4a4a7a7a0a0a3a3a3a3a8a7a8a8a8a8a8a8a8a$a$a$a(a(a(a(a$a$a(a(a(a(a(a(a(a(a(a(a(a(a(a(a(a(a(a(a/a(a/a/a/a[a[a[a[bdbdbnbgbkbkbkbgbgbdbda[aCacaHa[a{bKb1bSb?bQbaa{baa{a3aoasa8aSacapa-bdbgbgbdbgbgbdbdbda{a[apaiaNa(a/a[a{a{bdbababgbabdbda[a>a(a(a(a(a(a(a(a(a(a(a(a(a(a(a(a(a(a(a(a(a(a$a$a$a$a$a$a$a$a$a$a$a$a$a$a8a8a8a8a8a3a8a8a8a8a8a8a3a0a0a3a4a7a7a4a7a7a7a&a+a:a]a}a}bbbcbjbjbpbpbyb0bsa|a_bWb5bRbBbhbCbQb)b{cib?b7b<b)b)b6bva]bvbva:a.a2aRaSa!a*a1aRasajamaRbMbSbCbgbga-a:a^bnbnbababkbGbFbGbzbzbzbz",
"bQbna[bdbaa$a(a[a[a{bdbdbkbrbrbrbzbzbGbda(a[a[bdbrbra[a(a8a(a[a[a(a0blbha|a<a.a}bfa0bkbEbQbQbQbMb3bMbQbMbUb)b)a_a%a|a%a5bLbVbba_a=a.a.a*a!a!a!a4a2a4a4a4a4a7a3a3a4a3a7a3a3a8a3a8a7a8a8a8a8a8a8a$a$a$a(a(a$a$a$a(a(a(a(a$a$a(a(a(a(a(a(a(a(a(a(a(a(a(a(a(a/a(a>a>a[a[babdbkbgbgbkbgbdbdbdbda[aCacaHa[a[bMb%b)b)bva{a{a{a{a4aoama8aMacaoa-babdbdbdbdbdbdbdbaa{a[ataiaNa(a(a[a[a[bda{a{bga{bdbda>a/a(a(a$a$a$a(a$a(a$a(a(a(a(a(a(a(a(a(a$a(a8a$a8a8a$a$a$a8a8a8a8a8a8a8a8a8a8a3a8a3a3a3a3a8a7a8a8a3a0a0a4a4a4a4a4a4a4a7a&a#a]a,bba`a`a}bbbjbfbjbpbObsbebhbVbWbNbBbbbfbnbEbEbCbCbCbCbEbEbQbfbmbCbva:a.a!a6a2a9a!aRaRawahaqaJbQbMbCbabva,a$a^bnbkbaa{bgbFbFbFbzbzbwbw",
"bwbka[bdbda/a(a(a[a[bdbdbgbkbrbrbzbzbzbda(a(bdbdbdbra[a(a8a(a[a{a(a2bhbha|a%a%a!aSanaBaMaKa&a*aIaQa1a6a6aVa%a2a<a<a<a%a5bsbDa_a?a&a*a*a4a*a4a9a4aWaWa4a4aWa4a4a4a0a0a4a3a3a3a3a3a3a8a3a8a8a8a8a8a$a$a$a$a$a8a$a$a$a(a$a$a$a$a(a(a(a(a$a$a$a$a$a(a(a(a(a(a(a(a(a/a[a>a{bdbkbdbgbgbdbda{a{a[a>aCacaHa(a[bEcecib`bva^a>a{a^a4amaoa3aMagaoa(a{babdbdbdbdbdbaa{a[a>apaiaNa$a(a>a>a[baa[a^baa^babaa/a(a(a$a$a$a$a$a$a$a$a$a$a$a$a$a$a$a$a$a$a$a8a8a8a8a8a8a8a8a8a8a8a8a8a8a8a8a8a3a3a3a3a3a3a3a3a8a3a0a0a0a4aWaWa4a4a!a4a7a7a+a=a,bba]a`a`bba`bbbcbjbJbsa|bhbRbVbHbya_a`bfa^a}aMaraVa`a`bfa}aZa*a1bfa:a&a%a1a9a!a9aRaRasadalaIbEbQbgbmbaa+a#a^bkbna{a{bgbzbFbzbwbwbwbr",
"brbda>bdbda3a8a/a[a[bdbdbkbrbrbrbwbzbGa[a(a(a[bdbkbra[a8a8a(a[a[a(aVbhbha|aYa6a!aRalanawawa&a:aIaRa%aZa6aRaRa%a`a?a<aYa5bJbva*a*a!a2a!a4a9a4aWa2aWaWaWaWa4a4a0a0a0a0a0a0a0a3a3a3a3a3a3a8a8a8a8a8a8a$a$a$a8a8a8a$a$a$a$a$a$a$a$a$a$a$a$a$a$a$a$a$a$a$a$a(a(a(a(a/a>a>a[bdbkbababdbaa{a{a[a[a(azaiaHa(bababgbEb`bCa-a>a>a>aWaoaoa3aHaiapa$a[a{bdbabaa{baa{a[a[a/ataiaNa8a(a/a>a[baa{a^baa>a{a{a/a(a$a8a8a8a8a8a8a8a8a8a8a8a8a8a8a8a8a8a8a8a8a8a8a8a8a8a3a8a7a8a8a8a7a8a7a8a7a3a3a3a3a3a3a7a7a3a7a0a4aWaWa2aWa4a2a4a!a!a!a&a+a=a,a]a]a]a`a]bbbbbbb$cIccb0bLbJbDbsa_bCbEbfa`aGala+bvbCbCbfaRaZaSa}a`a2a9a6aVa%a2aRaJawahalaBbEbzbCa^baa:a8a^bkbgbaa{bgbFbFbzbwbrbwbr",
"bra{a/a{a{aNa3a(a[a{bdbdbdbdbkbrbrbrbzbda(a(a[bdbdbra[a8a8a(a[a[a(aVbha|a|aYaYa2aManaraDarayaJayaRa6aQaYaQaQaYa%aYa6bsb`b`bfa*a!a!a9aVaWa9aWa9aTaTaWaWaWaWa4a4aWaWaWa0a0a0a0a3a3a3a3a3a3a8a7a8a8a8a8a$a8a8a8a8a8a$a$a8a8a8a8a8a$a$a$a8a8a8a8a8a8a8a8a8a$a(a(a(a(a(a/a[a{bga{a{a{a{a[a[a[a>a(axaiaHa(a{a[bnbEccbva:a/a/a/aTaoapa0aHaiaoa8a[a[a{baa{a{a[a[a[a[a(apaiaNa8a(a(a/a>a{a[a^a{a/a^a{a/a$a8a8a8a8a8a8a8a8a8a8a8a8a8a8a8a8a8a8a3a8a7a8a7a8a7a8a3a3a3a3a8a3a3a3a3a3a3a0a0a0a0a0a4aWa7a4a0a4aWaWaWa2aWaWa2a2a2a!a!a&a&a=a]a]a]a]a]a]a`bba]bCcqc7c2cub4bybsa_bmbCbfa:awaqa:bvbCbCbcaYaMaSbfa-a9aVa6aVa9a2aRaJarahalavbnbQbgbma{a-a/a>bgbgbdbababrbzbwbzbrbrbr",
"bra{a$a[a{aPaWa/a>a8aCaCaHaHa(bkbrbrbra[a(a(a[bda[bka[a8a8a(a[a[a(aVa|a|a<aYaYaVaBarasaMavararayaQaRaYaVaQawaAaObfb?cmb?bfa*a9a!a2a2a2a9aTa9aTa2aTaTaTaWaWaWa4aWaWaWaWa0a0a0a0a0a3a3a3a3a8a8a8a8a8a8a8a8a8a3a8a8a8a8a8a8a8a8a8a8a8a8a8a8a8a8a8a8a8a8a8a8a$a$a$a(a(a(a>a[bda^a[a{a[a>a>a>a/a(azaiaHa8a{a/babmb$bfa:a-a/a(aTaoapa0aFagaoa8a>a[a{a[a[a[a{a[a[a[a(ataiaHa8a(a(a/a>a[a>a^a^a>a^a^a(a$a8a3a7a3a8a7a8a3a3a8a7a8a7a8a7a8a7a8a7a3a3a3a3a3a3a3a3a3a3a3a3a3a3a3a3a0a0a0a0a0a0a0a4aWa4a4aWaWaWaWaWa2aWaWa2aWa2aWa!a&a=a+a=a+a=a:a,a]a]a]a]a?a_b6cGc7cQb`bLa\bvbCbca_aYa6a}bfbmbCa>aDaYaMa}a+aVaSaRaSa9aVaRaRarahalavbCbEbaa^a^a-a0a/bgbda[a>a{brbna0aHaHaHaC",
"bka[a8a[a{aTaWa(a(a3atataNaHa(bgbkbrbrbda(a(a[a[bdbka[a8a(a[a(a[a8aVa|a|a<aYaYaMaBararaVaBarararavayayaBaGaBa`b)ceb?bCa<a&a4a2a2a!aVaVa9a9aTa9aTaVaTaTaTaWaWaWaWaWaWaWaWa0a0a0a0a0a0a3a3a3a3a3a8a8a8a8a8a8a3a8a8a8a8a7a8a8a8a8a8a8a8a8a8a8a8a8a8a8a8a8a8a8a8a$a$a(a(a>a^a{a^a>a[a>a>a/a/a(a(axaiaHa8a[a(a^bcbOa|a+a/a(a(aTamaoa0aFaeama3a>a[a[a[a[a[a[a[a[a>a(apagaHa8a$a(a(a/a>a>a>a^a-a^a^a$a$a8a3a3a3a3a3a3a3a3a3a3a3a3a3a3a3a3a3a3a3a3a0a3a0a3a3a0a0a0a0a3a3a0a0a0a0aWaWaWaWaWaWaWaWaWa4aWaWaTaTaTaTaVaTa2aTa2aWa!a!a&a=a+a.a=a+a+a+a=a+a=a]a]a=bcb$cGc2cGbWbfbba%aVa%a&a&aYaBaBaBawaDaSaDaBaVa2a!aVa%aVaRaJarahalaBbgbEbabfa^a8a3a/bgbaa>a>a{bwbraWakakakak",
"bka[a8a{a{aTaTa(a/a7azaJaTaLa(bkbkbrbra[a(a8a[a[bdbda[a8a(a(a(a[a8aUbea<a<aOaQaRaBanama2aVaramaraBaMaVaVa!bCb7b?bma:a:a+a!a2a2a2aWaVaTaVaVaTaVaTaPaTaTaTaTaWaWaWaWaWaWaWaWa0a0a0a0a0a0a3a3a3a3a3a8a8a3a8a3a3a3a8a8a8a3a8a7a8a8a8a8a8a8a8a3a8a7a8a3a3a3a8a8a8a8a8a$a(a(a>a{a>a/a>a[a>a/a/a(a$azaiaHa8a[a/bEbCbCaSa+a-a-a(aNakamaWaCagaoa8a(a>a[a[a[a>a[a>a/a/a(apaiaHa3a8a(a$a(a>a/a>a^a-a/a>a-a$a3a3a3a3a3a3a3a0a3a3a3a3a3a3a0a0a0a0a3a7a4a3a4a3a4a7aWa0a0a0a0a0a0a0a4aWa4aWaWaWaWaWaWaWaWaWaWaTaTaTaTaVaVaPaVaTa2a2a!a!a!a+a+a#a&a#a#a&a#a&a+a+a+a]a=a]bub?cFcQb?bea6a6aVa6aDaGararauawaQaSaSavaBaVa+a2a2aVaRaBanabahaIbmbCbaa}a^a3a3a(bdbaa>a/a{brbrbgaCatatat",
"bka[a3a[a[aTaNa(a}a]bxbxbxbxa(bkbkbkbra[a(a8a[a[a{bga[a8a8a(a(a(a8aPbea.a%aIaOaRavasaLbnbraVaLaVa0a#a+aVa-bma>a#a,a,a7a4a!a2aVaTaVaTa2aTaVaVaVaPaVaTa1aTaTaTaTaWaTaTaTaWaWaWaWaWa0a0a0a0a3a3a3a3a3a3a3a3a3a3a3a3a8a3a3a3a3a3a3a8a7a8a7a8a3a3a3a3a3a3a3a3a8a8a3a8a8a$a(a}a^a/a/a/a>a/a/a(a(a8azaiaHa8a[a/bwbEbCbga!a$a$a-aHakamaTaCagaoa3a/a/a>a/a>a/a/a/a/a(a$apaiaFa3a8a,a(a(a/a-a/a^a:a/a>a$a8a3a0a0a0a0a0a0a0a0a0a3a3a3a3a0a0a0a0a4a4a4aWa4aWa4aWaWaWaWaWaWaWaWaWaWaWaWaWaTaTaTaTaTaTaWaTaTaTaTaTaPaPaVaPaUaVaTa2a2a!a!a&a#a&a7a&a4a&a7a&a&a&a#a=a#a]a]a]bHb`cGcib<ccciccb`b1b6bQbQbEbCa2a2aBasaDaKaRaVaVaSaBavaBaVa2a^bCbaa>a>a3a3a(babaa/a(a{brbrbna0aCaEa5",
"bga>a8a>a[aTaHa(a[bbbIbTbTbpa[bkbkbkbka[a(a8a(a[a[bda(a(a(a(a[a(a8aPa?a\a*aGaIaDaKa^bwbFbzbrbnbwbzbwbwbrbkbga{a$a7a#a7a4aWaTaVaTaUaTaTaVaUaUaUaTaUaPaTaTaTaTaTaTaTaTaTaTaWaWaWaWaWaWa0a0a0a3a3a3a3a3a3a3a3a3a3a3a3a3a3a3a3a3a3a3a3a3a3a3a0a3a3a3a3a0a0a3a3a3a8a7a8a8a,a/a^a/a-a/a/a/a(a(a(a8azaoaCa8a>a(bzbEbQbEa+a$a$a8aHakakaWaCagaoa3a-a-a>a/a/a/a/a/a(a/a8ataiaHa3a8a$a$a-a/a-a(a>a-a-a/a+a8a0a0a0a0a0a0a0aWa0a0a0a0a0a0a0a0a0a0aWa4aWaWaWaWaWaWaWaWaWaWaWaWaWaWaTaWaWaTaTaTaTaTaTaTaTaTaTaTaPaPaUaPaPaUaUaUaUaVaTa2a9a7a.a7a*a7a*a4a*a4a4a*a4a.a7a#a=a,a]a=bfbQbQbCbCbnbCbkbCbdbfa-a+a&a!aSaBaDa}a2aSaRaDaVbvbnbMbQbdbga{a^a>a8a3a(baa{a(a/a{bnbrbnaWaCa!a;",
"bda>a8a>a/aPaHa(bkbXb2b?b2b2bGbdbdbkbka[a8a(a[a[a[bda(a8a(a(a(a[a8aNa?a.a%aAaBaJaKa+a/a[a>a(a(a(a[bdbdbdbgbnbga8a0a7a3aWaTaTaTaTaUaPaPaVaUaUaUaPaVaPaUaTaTaTaTaTaPaPaTaTaWaWaTaWaWaWaWa0a0a0a0a0a0a0a0a0a0a0a0a0a3a3a0a3a3a3a3a3a0a3a0a0a0a0a3a0a0a0a0a0a3a3a3a3a8a3a,a(a^a-a(a/a/a/a(a(a(a8azaiaHaTa(a>b(b)bgbEa&a3a$a8aCakamaTaCagapa3a-a-a/a/a/a(a/a(a(a(a8aoaiaLa3a8a$a$a$a/a$a-a>a:a-a/a$a3a0a0aWaWa0a0aWaWaWaWa0a0a0a0aWaWa0a0aWaWaWaWaWaWaWaWaTaTaTaTaTaTaTaTaTaTaTaTaTaTaTaTaTaPaTaTaTaTaPaPaPaSaPaUaSaUaUaVaVaVa9a4a*a4a*a4a9a7a9a4a9a9a4a*a7a&a#a=a7bvbUb1b1b1b1bUbSbSbMbzbEa-a!a!a!a!aMaDaDaVa!a2a+bQb7bMbEa-a^bda^a>a>a8a3a(baa{a/a(a{bnbnbna0aHaWa;",
"bda>a8a>a/aPaCa>bkb2b=cbb\b\bGa[bdbdbda[a8a8a(a[a[a[a(a8a8a(a(a[a3aPa:bca?avayaRaBaoaUa/a8a3a3a8a/babaa>a(a>a^a0a4a3a4aTaTaVaTaUaPaUaPaUaPaUaNaUaPaUaPaUaVaTaVaPaVaPaUaTaVaTaVaWaTaWa2aWaWaWa0a0a0a0a0a0a0a0a0a0a0a3a0a0a0a3a0a3a0a3aWaWaWaWaWaWaWaWaWa0a0a3a3a3a3a8a8a-a/a/a(a/a/a/a(a(a$a8aTbkbPbPbwa-a>a^baa^a:a+a8a+aCakamaTaCaiaoa3a$a(a(a-bkbzbzbzbwbwbra#apaTa#a8a$a$a$a/a$a$a/a$a-a-a8a0a0a2aWaWaWaWaWaWaWaWaWaWaWaWaWaWaWaWaWaWaTaWaTaTaTaTaTaTaTaTaTaTaTaTaTaTaTaTaPaPaPaPaPaPaTaPaPaPaPaPaSaPaUaPaUaUaSaVa1aVa9a4a9a4aWa9a7a9a7a9aWa9a9a7a9a7a*a7a4a^baa^a^a^a^a^a^a^a^a^baa-a!a2a2aVaMaKaBawaJbfb%b7a`aragaha^baa^a(a(a8a0a(a{a{a(a/a[bnbnbkaTazbzbU",
"bda>a8a>a/aTaCa[bkbSb2b9b-b/bUa[bdbdbda[a8a(a(a[a[a[a(a8a(a(a(a(a3aHa!aUaQaravaKaBasaWa,a8a8a-a$a-a/a>a/a>a/a>a0aWa3a0aTaTaTaUaPaUaNaUaNaUaNaZaPaUaPaUaPaPaPaPaPaPaSaVaPaPaPaPaTa2aTaWaWaWaWaWa0a0a0a0aWaWaWaWa0a0a0a0a0a0a0a0a0a0a0a0aWaWaWaWaWaWaWaWaWaWa0a0a3a3a3a8a,a/a(a-a/a/a/a(a(a(a8a0a{bdbga{a&a2a!a^bva3a3a8a3aEakamaTaCakaoa3a$a(a-a(a>a3aWaTaWa8a^aWaTa#a8a8a$a$a(a/a-a$a/a$a-a-a3a0aWaWaTaWaTaWaTaWaTaWaTaWaTaTaTaTaWaTaTaTaTaTaTaTaTaTaTaTaTaTaTaTaTaTaPaTaTaPaPaPaPaPaPaPaVaNaPaPaNaNaNaNaSaNaUaPaUaUaUaVa9aWa9aWa9a4a9aWa9aTa9aWa9a4a9a4a4a!a7a^a^a>a}a>a-a/a>baa^a>baa+aVa$a>a^babdbvbkbEb7bQa9aoaoaiaea>baa[a(a(a3aWa(a{a{a(a/a>bkbkbgaNazbga^",
"bda/a8a/a(a8aWaHaCaPaPa1aWa9aTa(baa[bda[a3a8a(a(a[a[a(a8a(a(a(a[a3axaSaJaDasasaDaBava3a-a(a-a>a(a$a-a/a/a/a/a/aWaWa4aWaTaUaSaSaSaNaSaSaNaUaNaNaUaPaUaPaPaPaPaPaPaPaNaPaPaPaTaVaPaPaTaVaWaWaWaWaWaWa0aWaWaWaWaWaWa0a0a0aWaWaWa0a0a0aWaWaWaWaWaWaWaWaWaWaWaWaWaWa0a0a3a3a8a/a$a(a/a>a/a/a(a(a$aWaxapaoasavavaBaVa2aPa0a&a3aEakamaPaCakaoa3a$a$a^bga^aMaoaoaoataMaEa8a-a(a(a(a(a/a/a$a$a-a$a$a-a3a2aTaWaTaTaTaTaTaTaTaTaTaTaTaTaTaTaTaTaTaTaTaPaPaPaPaPaPaPaPaPaPaPaPaPaPaPaPaPaNaNaNaNaPaSaPaPaNaNaNaNaNaNaNaNaMaNaSaUaUaUaVa2aWa9aWa9aWa9aTa9aTa9aWaWa4a4a*a4a#a>a,a0a0a0aWa0a3a$a-a/a^aTaEaMa#a>bvbrbnbgbfaMaramaoamagaga/baa[a(a(a3aWa$a{a{a(a(a>bkbkbdaLamaiak",
"baa(a8a>a(a(a(azaiakakaiamaiaia3a{a[a[a[a3a8a(a[a[a[a(a8a(a(a(a(aWaVa^bfa-asasaDavata,a>a{a{a(a-a{a[a[a^a>a>a/aWaTaWaWaUaUaNaSaNaMaNaSaNaUaZaNaUaNaNaSaNaPaPaPaPaNaNaNaPaVaPaPaPaPaTaWaPaTaTaTaWaWa0aWaTaWaWaWaWaWaWaWaWaWaWaWaWaWaWaWaWaWaWaWaWaWaWaWaWaWaWaWaWaTaWa3a3a/a$a-a>a[a[babnbzbrbda>a$a8a8a&a8a-a-a-a$a3a4a#aMakamaLazaiaoa3a(aWa3bkbnbabdbdbgbgbkbwbSbSbSbGbrbaa[a^a(a$a-a8a$a$a3a$aWaPaTaTaTaTaTaTaTaTaTaTaPaPaPaPaTaTaTaTaTaPaPaPaPaPaPaPaPaPaPaPaPaPaPaPaPaPaNaNaNaNaPaSaPaSaNaNaNaNaLaLaLaMaNaMaNaSaSaSaVa2a2a2a2a9aTaWa1aTaTa9aTa9aTa9a4aWa7a-a-a$a$a$a$a-a8a$a$a-a^a4aPagagaeaiasasagaiakakamakakaiaga(baa^a$a$a0aWa$a^a{a$a$a(bgbkbdaCaoapaz",
"bda(a8a(a$a(a(a(axamapapatatata8a[a[a[a[a3a8a(a[a[a[a(a8a8a(a(a/aWaNa#a#aSaJaKaPaHaTbwbna>a$a/a/a>a/a/a/a/a(a/aPaPaWaTaUaUaNaSaSaLaZaLaSaLaNaLaNaNaNaNaNaNaSaNaSaNaSaNaNaPaPaPaPaTaPaTaTaTaTaTaWaWaWaWaTaWaTaTaWaWaWaWaWaWaWaWaWaWaWaTaTaTaTaTaTaWaTaTaWaWaTaTaTa[bda3a3a/a$a-a^bwb(cBcNcRcNcMcKcKcFcBcBcFcBcwb{bSbaa-a,aNakamaMazaiaoa8a^a/a>bMcmcwcBcBcycFcFcKcCcMcMcMcMcmbUbga$a8a$a8a8a8a0a{bka$aPaPaPaPaPaPaPaPaTaTaTaTaTaTaTaTaTaTaTaPaPaPaPaPaPaPaPaPaPaPaPaPaNaPaNaNaMaNaMaNaNaNaNaNaNaLaLaLaNaNaNaNaNaNaNaNaSaUaVaTa2aTa2aTaTaTaTa9aTaTaTaTaWaTaTaWaWa-a$a0aWa3a8a0a0a8a$a$a$a0a0aoamamamakamaoaoamaoamaiaiagaga(a{a^a$a8a0a0a8a[a[a(a(a(bdbgbdazaoaHbr",
"baa(a3a(a$a(a(a(aHapataWaWaPaHa3a[a[a[a/a3a8a(a(a[a[a8a3a8a/a$a(aTaMa$bdbkbga{a^a{a(bra{a>a>a/a[baa{a[a{baa>a(aPaPaTa2aNaSaNaMaSaLaSaLaZaNaZaNaLaNaNaNaNaNaSaNaSaNaSaNaPaPaPaPaPaPaPaTaTaTaTaTaTaTaTaTaTaTaTaTaWaWaWaWaWaWaWaWaWaWaWaTaTaTaTaTaTaTaTaTaTaTaTa8bnbna$aWa0a$a8a-bab(cvb-bUbFbEbwbEbwbEbwbzbQbSb7cmcqbSa:a8aNakamaHaEaiama$a^a>b7cKb=bQbgbabaa{a{a^a{a^babdbwb7b7bna8a3a8a8a3a8aWaTa0a[a{a0aNaNaPaPaPaPaPaPaPaPaPaPaPaPaPaPaPaPaPaPaPaPaPaPaPaPaPaPaPaPaNaPaNaNaMaNaMaNaNaNaNaNaNaLaNaNaLaLaHaLaLaLaLaNaSaUaUaVaUaUaUaPaVaTaTaTaPa1aTaTaPaTaTaTaWa$a$a8a3a8a3a0aWa8a$bgbda3a0aPaNaNaNaPaPaNaNaLaHaCatamaiaea(a{a^a$a3aWaWa8a>a[a(a$a(bdbgbaazaoaHbz",
"a{a$a8a>a$a(a(a(aNataHa[a>a$aNa3a[a>a>a/a8a8a(a(a(a[a8a3a8a(a8a$aTaCaWaWa4aPaKaTaPaHa3a3a$a/a-aTa0a[a/a/a(a(a-aTaPaTaWaSaPaMaLaMaLaMaLaLaZaLaLaLaNaNaNaNaMaLaLaNaSaNaSaNaPaPaPaPaPaPaPaTaTaTaTaTaTaTaTaTaTaTaTaTaTaTaTaTaTaTaTaWaWaWaTaTaTaTaTaTaTaTaTaNa8bkbna/a0aWa0a0a$a#a$a>bSbga^a}a`bcbcbca`a`a|a:a+a+a-a^bMbFa&a0aMakamaEaCakama-a^a-b(b%a^a-a+a+a:a?a+a?a:a?a:a+a+a-a>a{a0a0a3a3a3a8aTaTaPaPa0a^a[aTaLaNaPaPaPaPaPaPaPaPaPaPaNaPaNaNaPaPaPaPaPaPaPaPaNaNaNaNaNaPaMaNaMaNaMaNaNaNaNaNaLaNaLaLaLaNaLaLaLaLaLaLaSaNaUaUaUaUaUaUaPaUaUaPaUaPaPaPaPaPaPaPaTa,a$a8a8a$a$a$a8a$a8babga-a3aPaTaTaTaTaWaTaPaPaHaHazapaeaga$a{a^a$a8a0aWa8a/a[a(a$a$babga{azapaCbz",
"a[a$a3a(a8a$a$a(aTataHa^a>a$aLa3a[a>a>a/a3a8a(a(a(a[a8a3a8a(a8a$aTazaTaTaWaPaTa8aTaCa8a(a-a(a/a$a-a>a>a/a/a/a8aNaPaPaPaNaSaHaMaHaHaMaMaLaLaLaLaNaNaNaNaLaLaLaLaLaNaSaNaPaPaPaPaPaPaPaPaPaPaPaPaTaTaTaTaTaPaPaTaTaTaTaTaTaTaTaTaTaTaTaTaTaTaTaTaTaTaTaWbdbna>aWaTaWaWa0a0a$a0a8a8baa{bmbvcicIcGcGcIcqcIcqcubvbababCbga2a2aMakamaEaDakaoa$a^a&babga^a-bQcEcmcIcIcqcIcGcIb?bfa-a+a/aWaWa3a3a3a3aTaPaPaPaNaNa3a{a-aPaLaNaPaPaPaPaPaPaPaPaNaNaNaNaPaPaNaNaNaNaNaNaNaNaNaNaNaSaNaMaNaMaNaMaNaNaNaNaLaNaLaLaLaLaHaLaLaLaLaLaLaNaSaUaUaUaUaUaPaPaPaPaPaUaPaPaPaPaPaPaTa,a8a$a8a8a$a$a8a$a3a7a3a0aWaNaTaTaTaTaTaTaPaPaNaHaCapaeaga$a{a^a$a8aWaWa3a/a[a$a8a(a[bda{azapaCbz",
"a[a$a0a$a8a$a$a$aPapaLa^a>a$aHa0a[a[a[a(a3a8a(a(a(a[a8a3a8a(a$a$aTaxaPaTaWaPaTaTaNaxaHaPaWaWaWaWaWaWaTaTaTaWaTaCaNaPaPaPaSaHaMaHaMaHaMaHaLaLaLaLaNaNaNaLaLaNaNaLaNaSaNaPaPaPaPaPaPaPaPaPaPaPaPaTaTaTaTaTaPaPaPaTaTaTaTaTaTaTaTaTaTaTaTaTaTaTaTaNaTa{bwa[aWaTaWaWaWaWaWa0a8a2aWa0a^babmbQcQc,c,c#c,c#c#c,cKbQbabgbna^aVa0aSamamaEaDagapa+a$aVa+bga^bcb?c7c,c8c,c#c,c,c4cmbva:a7a-a4aWaWa4a3a7aPaPaPaNaNaNaLaNa$a^a8aNaNaPaPaPaPaPaPaPaNaNaNaNaNaNaNaNaNaNaNaNaNaNaNaNaNaNaNaNaNaNaNaNaLaLaLaLaLaHaHaLaLaHaLaLaLaLaLaLaLaNaNaNaPaPaPaPaPaPaPaPaPaPaPaPaPaPaPaPaTa$a0a0aTaWaTaNaCa3a0a0axaiataNaPaTaTaTaTaTaPaNaNaHaCapaiaea(a{a>a,a8aWaWa3a/a[a$a8a(bdbaa^axapaCbw",
"a>a8a0a8a8a$a$a$aPataLa>a[a$aLaWbgbaa/a$a0a3a$a(a(a[a8a0a8a(a$a$aTaxaPaWa8a4aPaWaWaHazaLaHaCaCazazazaxazatatapaxaNaPaPaSaNaMaHaLaKaHaKaHaLaLaLaLaLaLaLaNaLaLaLaLaLaLaLaNaPaPaPaPaPaPaPaPaPaPaPaPaPaPaPaPaPaPaPaPaTaTaTaTaTaTaTaTaTaTaTaTaTaPaTa(bwbgaWaPaTaWaWaTaTaTaWa0a3a2aPaWa>babmbQcWc#c#c#c#c#c#c#cFbQbmbgbCa^aVa0aSaraoaEaxagasa0a,aMa+bga^bcb?cXc,c,c#c#c#c,c#cmbva:a7a,a4aTaWa4a0a4aNaNaNaNaNaNaNaNaLaPa-a[a0aNaNaPaPaPaPaNaNaNaNaNaNaNaNaNaNaNaNaNaNaNaNaNaNaNaNaNaNaNaNaNaLaLaLaLaLaHaHaHaLaLaLaLaLaLaLaLaLaNaNaNaNaPaPaPaPaPaPaPaPaPaPaPaPaPaPaPaNa8a8a3a0a3a3a8a8a0aWaWazamataNaPaTaTaTaTaTaTaPaNaHaCataiaia,a[a/a#a#aWa0a3a(a>a8a3a(a{baa>azaoaCbr",
"a>a8a0a8a8a8a8a$aTataNa[a>a/aNaNaCaNa(a8aTa3a8a(a(a[a3a3a8a(a$a$aTaxaPaPa8aWaPaWaWaTazatapaxapaoapapapapatatatazaPaTaTaTaPaUaLaPaNaUaNaPaPaPa1aTaTaTaTaTaTaTaWaWaWaWa4a0a4a7a3a7a#a#a8a8a$a$a$a$a$a$a$a$a$a8a$a$a$a(a(a(a(a(a(a(a(a$a8a$a$a^bkbka8aPaTaTaTaTaTaTaTaTaWa2a0aPaTaTa>bmbmbMcWc#c#c#c#c#c#c#cFbQbva{bga/a2aVaMaoaoaKaxagasa0a4aMa0bgbmbfb?c7c#c#c#c#c#c#c#cmbva:a4a,a4aTaWa4a4a4aNaNaNaNaNaNaNaLaNaLaHaTa^a[a0aTaPaTaPaPaNaPaPaPaPaPaPaPaPaPaPaPaPaPaPaPaPaPaNaNaNaNaNaNaNaSaNaSaNaNaNaNaLaLaLaLaLaLaLaLaLaLaLaLaNaNaNaNaNaNaNaNaNaNaNaNaNaNaNaNaNaNaNaTaTaPaPaPaNaPaTaTaxaoataNaPa0a4aTaTaPaPaNaNaHaCataiaia$a[a/a#a#aWaWa3a(a>a8a3a8a[a{a^axapazbr",
"a>a8aWa8a8a8a8a$aTataNa[a>a(aPaPaPa0a(a8aTaWa8a(a(a>a8a0a8a$a$a$aTaxaPaNaLazaTaWaWaTaTaPaPaWaPaNaLaLaLaNaNaLaLaTa4a$a^a^a^a[a^a{bmbababababdbabdbgbgbgbgbgbkbkbnbrbrbrbwbwbwbzbzbzbFbFbMbMbGbMbSbKbSbSbSbKbUbUbPbUbPbUbPb1bPbUbXbPbPbUbUbUbna3aTaTaTaTaTaTaTaTaTaTaTaTaTa0aPaPaSa/babmb6cWc#c#c#c#c#c#c#cKbQbabmbga/aVaVaMamamaKaBagasa0a4aEaWbgbmbfb?cXc,c#c#c#c#c#c#cmbva-a4a,a4aTaWa4a4a4aNaNaNaLaNaNaNaLaLaLaLaHaHa3bnbFbzbzbzbwbwbrbrbwbEbwbwbwbrbrbrbrbnbnbnbnbkbkbkbnbkbkbkbkbgbdbdbdbdbababaa{a{a{a^a^a>a>a>a/a/a/a>a/a-a(a-a(a-a,a,a,a$a,a,a,a,a,a,a$aPaHapatapatapapapapapapaoataNaPaTaTaTaTaPaPaNaNaHaCataiaia$a[a/a#a#aWaWa3a(a/a8a0a8a[a{a>aCaoaCbn",
"a>a8aWa8a3a8a8a8aPataNa/a(a8aPa0a(a$a(a8aTaWa8a(a(a>a3a0a3a$a8a8aTaxaNaPaLaxaEaNaMaLaHaMaNaMaLaMaLaMaHaLaMaNaMaLaFaCaHaLaLaLaLaHaHaHaFaLaFaHaHaFaHaFaLaHaHaHaLaLaLaLaLaLaLaNaNaNaNaSaPaNaPaPaPaPaPaPaPaPaTaTaTaTaTaTaTaTaTaTaTaTaTaTaTaTaPaPaVaTaTaPaVaPaPaPaPaVaPaTaPaWa0aNaPaMa/bma^b6cRc#c#c#c#c#c#c#cKbQbdbmbaa-aSaVaDaoamaEaDagasaWa2azaVbdbmbfb`c1c#c,c#c#c#c4c#cqbva-aWa#aWaPaWa4a4a4aNaNaNaLaLaLaLaLaLaLaLaLaLaHaLaLaLaLaLaNaLaMaMaLaLaMaMaMaMaMaMaMaMaHaKaFaHaHaHaHaLaLaLaLaLaLaLaMaHaLaLaLaLaLaLaLaLaLaLaLaNaNaNaNaNaNaPaPaNaNaPaPaPaPaPaPaPaPaPaNaLaNaHazaoamamamamamamaoaoapataHaNaPaTaTaTaPaPaNaNaHaFataiaia,a[a/a#a#aWaWa3a(a/a8aWa8a>a[a>azaoaxbn",
"a/a8aWa3a3a8a3a8aNapaHbGbFbra>a3a$a$a(a$aPaTa3a(a(a/a3a0a3a$a8a8aPataNaTa0aPatapakamakamamaoaoaoaoazaKazaMaNaMaMaCaFaLaLaHaHaHaLaHaHaLaHaHaHaHaHaHaLaLaLaLaLaLaLaLaLaNaNaNaNaNaNaNaPaPaPaPaPaPaPaNaNaNaPaPaPaPaPaPaPaPaPaPaPaPaPaPaPaPaPaPaPaVaPaPaPaPaPaPaPaPaVaPaVaPaWaWaNaNaMa/a{a}b$cWc#c#c#c#c#c1c#cFb3bababaa:aSaSaDamaoaEaBagasaWaVaxaNbabmbfccc7c,c#c#c#c#c,c#cqbCa:aWa#aWaNaTa4a4aWaNaNaNaLaHaHaHaHaHaHaHaHaHaHaHaLaHaHaLaLaLaLaMaLaMaLaMaHaLaMaHaLaMaHaKaHaHaFaFaHaFaHaHaHaFaHaFaHaHaHaHaHaHaHaHaHaHaHaHaLaLaNaNaNaNaNaNaNaNaNaNaNaNaNaNaPaPaNaNaPaHaNaLaNaFapaiaiaeaiaeaeaeaeagaiaiamaCaTaTaPaNaLaHaFaCataiaia8a[a/a#a8aTaWa0a(a(a3aWa3a[a[a>axamapbG",
"a/a3aWa0a3a8a8a8aNapaoaxaNaTaTa3a(a8a(a(aTaTa3a8a(a/a0aWa3a$a8a8aTaFaNaTa3aPataoaeaeagacadadabacagaxaKaEaKaKaKaLaCaKaLaHaKaFaFaFaKaFaFaLaHaHaHaLaHaHaLaLaLaLaLaHaLaLaNaNaNaNaNaNaNaNaNaNaNaNaNaNaNaNaNaPaPaPaPaUaPaUaPaPaPaPaPaPaPaPaPaPaPaNaPaNaSaSaPaPaNaPaNaPaPaPaPaWaWaNaNaNa$a^a}b)cRc#c#c#c#c#c#c#cFbQbma^a{a:aMaMaDakakaDaBagaoa2aPataMbabmbfccc1c,c#c#c#c4c8c#cGbva8aWa7aTaNaTa4aWaWaNaNaNaLaHaHaHaHaHaHaHaHaHaHaHaHaHaHaLaLaHaMaHaLaMaLaMaHaMaMaHaLaMaHaKaHaHaFaHaHaHaHaHaHaFaFaFaFaFaHaHaHaHaHaHaHaHaHaHaLaLaLaNaNaNaNaNaNaNaNaNaNaNaNaNaNaNaNaNaHaHaNaLaNaNaCakaeacacacadababacacaeaeataTaTaTa4a#a(aWazapaiaia8a>a(a7a#aWaTa0a$a(a3aWa8a>a[a/atamaxbF",
"a/a8aWa3a3a8a$a$a$a8a3a0aWaWa3a8a(a8a$a8aTaWa3a8a$a/a0a0a3a$a8a3aTaHaNaTa3aVapapagagagaeacacacacagaxaKaKaKaKaKaKazaFaLaHaKaFaFaFaFaFaFaFaFaHaHaHaHaHaHaLaHaHaHaHaHaLaLaNaNaNaNaNaNaNaNaNaLaNaNaNaNaNaNaPaUaPaUaPaUaPaUaPaPaPaPaPaPaPaPaPaNaPaSaNaNaNaNaPaNaPaPaPaPaPaPaTaWaLaLaHa,a^a}b)cXc#c,c,c8c,c,c8cQbMbma^a^a$aMaMaDakakaDaBagaoaVaPasaEa{bfbfcic,c8c-c,c8c,c-c8cGbaa&aTa7aTaNaTaWaWaWaLaLaLaLaHaHaHaHaHaHaHaHaHaHaHaHaHaHaLaLaLaMaLaNaPaMaLaLaKaHaKaHaKaEaKaHaFaHaHaHaFaHaHaHaHaHaHaHaFaFaHaHaHaHaHaHaHaHaHaHaHaLaLaLaLaLaLaLaLaLaLaNaNaNaNaNaNaNaNaHaHaPaLaLaNaHamacacacacacabacacaeaiapazaPaLa#bna8a4aLapamaiaea8a>a(a7a#aWaTa0a$a(a3aWa3a>a[a/ataiapax",
"a/a3aWa0a3a8a8a$a$a$a(a$a(a(a8a8a$a$a$a8aTaWa0a8a$a-a0a0a0a8a8a3aTaHaNaTa3aWasapagagaeaeacacaeaeagaxaMaKaKaKaKaKazaFaLaHaKaHaHaHaHaHaHaHaKaKaEaEaEaKaHaHaFaFaHaFaHaHaHaLaLaLaLaNaNaNaNaNaLaNaNaNaNaNaNaNaNaNaNaNaNaNaNaNaNaNaNaPaPaPaPaNaPaNaNaNaNaNaNaPaPaPaPaPaPaPaPaTaTaLaHaHa#a^a:bCb`ciciciceciciceb`bCbabfa/a!aMaSaDakakaDaxagamaSaMasaBa^a>a:b$cicicicicicicicib7bca0aSa3aTaLaTaWaWaWaNaLaLaLaHaHaHaHaHaFaFaFaFaFaHaHaHaHaHaHaHaKaNaUaPaMaLaMaHaHaCaFaHaKaFaLaKaKaKaKaKaKaKaKaKaKaKaKaFaKaFaKaKaHaKaHaKaHaKaHaHaLaLaLaLaLaNaNaNaNaNaNaLaLaLaLaLaLaNaHaFaPaNaLaNaHamacacacaeacaeaeaeaiaxaHaCaNaHaPa3aPaHazakaiaeaia8a>a$a3a3aTaWa0a$a(a3aWa3a>a[a>axaiamai",
"a/a3a3a3a3a3a3a8a8a8a8a8a8a8a8a8a8a$a$a8aTaWaWa3a$a$aWaWa0a8a3a3aTaHaNaPa8a-avasaiakamakamakagaeaeaxaMaKaKaKaKaHazaFaHaHaKaFaFaLaHaHaHaFaHaKaEaEaEaKaHaHaFaHaFaHaHaHaHaLaLaLaLaLaNaNaNaNaLaNaNaNaLaNaNaNaNaNaNaNaNaNaNaNaNaNaNaPaPaPaPaNaNaNaNaNaNaNaNaNaNaNaNaNaNaNaNaTaWaHaHaCa2a-a!a!a2a2a4a!a*a&a&a&a!a+a:a:a-a2aMaSazanakaCaBagakaMaDaoava-a}a3a2aWa!a9a4a*a!a&a*a!a#aWaPa0aWaLaTaWaWaWaLaLaHaHaHaFaFaFaFaFaFaFaFaFaHaHaHaHaHaHaHaKaHaMaNaMaHaKaHaHaLaHaFaFaHaHaKaKaKaKaKaKaKaKaKaKaKaKaFaKaFaKaEaEaEaEaEaEaEaKaHaLaLaLaLaLaNaNaNaNaNaNaLaLaLaLaLaLaNaHaCaNaLaLaLaHakacacaeaeaeaiaiaiagaxaHaCaNaCaTa0aTaLazamaiaeaia8a/a$a0a0aTaTaWa$a-a3aWa3a/a>a>aHapapap",
"a(a8a(a8a0aWa3a8a8a8a8a8a8a8a8a8a8a8a$a$aWaWa0a3a$a(aWa0a0a8a8a3aPaHaNaPaPazamamapaxaKaxaxatamaiagaxaMaKaFaKaKaLaFazaHaFaKaFaFaLaHaHaHaFaHaKaEaEaEaKaHaHaHaFaHaHaHaHaHaHaHaHaHaLaLaLaLaLaLaLaLaNaNaNaNaNaNaNaNaPaPaPaPaPaNaNaNaNaPaPaPaNaNaNaNaNaNaNaNaNaNaNaNaNaNaNaNaTaWaHaHaDaSa+aSaKaMaMaMaSaSaSaSaSaSaMaDa&a-aVaSaSaBakakazaBagakaMaEasaoaMa$aSaKaRaKaMaRaKaMaMaMaKaMaSaPa4aTaLaPaWaWaTaHaHaFaFaFaCaCaCaFaFaFaFaFaFaFaFaFaHaHaHaHaHaHaHaHaHaHaFaHaHaHaLaHaCaFaHaKaKaKaKaKaKaKaKaKaKaKaKaFaKaFaKaEaEaEaEaEaEaEaFaHaHaHaHaLaLaLaLaLaNaNaNaNaNaLaLaLaLaNaHaCaLaHaHaHaNataoamakakakaiaiaiaiapataCaHaHaPa0aTaHazaoaiaeaiaTa(a8a0a0aPaVaWa$a-a3aTa0a/a/a/a[bdbdba",
"a(a3aNa3a3aTa3aWaWaTaWaTaTaTaWa0a8a8a8a8aTaWa0a3a(a-aWaWa0a8a3a7aPaFaLaPaNamacadacagaeaeaeaeagaeaeavaHaKaFaKaKaKaHaFaFaFaTaUaFaHaHaHaHaHaKaKaEaEaEaFaKaHaFaFaFaHaHaHaHaHaHaHaHaHaLaLaLaLaHaHaHaHaLaHaLaLaLaLaLaNaNaNaNaNaNaNaNaNaNaNaNaNaNaNaNaNaNaNaNaNaNaNaNaNaNaNaNaPaWaHaEaCazaSaUaSaSaSaSaVaVaVaVaVaVaVaVa!a2aMaSaSaBakakaDavagakaPaVavasaBaMaMaUaSaSaSaSaSaSaSaVaSaSaUaTa4aTaFaNaWaTaTaHaFaFaFaFaCaCaCaCaCaCaFaFaFaFaFaFaFaHaHaHaHaHaHaHaCaCaHaHaHaHaHaHaLaKaCaKaKaKaKaKaKaKaKaHaKaHaKaFaKaFaKaEaEaEaEaEaEaEaEaFaHaHaHaHaHaLaLaLaLaLaNaNaLaLaHaHaLaHaFaLaHaHaHaHaLataiaeaeaeaeaeaeaeaiaiapaHaHaHaNa3aTaHaCapaiaiaca0a(a8a0a0aPaPa2a8a8a3aTa0a/a/a/a(a$a$a$",
"a(a3aWa3aWaTaWaNataCaHaHaCaCaxaza3a3a8a3aTaWa0a0a$a(aWaWa0a8a3a3aNaFaHaNaPazakacabababacabadadadacaxaKaEaEaFaKaFaFaFaFaFaCaMaPaPaUaPaTaTaTaTaTaPaTaTaWaTaTaTaTaTaTaWaWaWaWaWaWaWaWa4a0a4aWa4aWa3a4a0a7a3a7a3a3a3a3a3a3aWaLaNaNaNaNaNaNaNaNaNaLaLaLaNaNaNaNaNaNaPaPaNaNaPaWaMaCaEazazaEaMaMaMaMaMaMaSaSaMaSaMaKaDaDaFaSaUazalakaDatagakaMa0azatataCaKaMaMaMaMaMaRaMaRaDaKaKaLaWaWaWaFaPaTaTaPaFaFaFaFaFaCaCaCaCaCaCaCaFaFaFaFaFaFaHaHaHaFaFaFaFaCaCaCaCaFaLaLaNaNaLaLaNaTaPaTaPaPaPaPaPaPaPaPaTaPaPaPaPaPaPaPaPaPaPaPaPaPaPaPaPaPaPaPaPaPaPaPaPaPaPaPaTaTaTaHaHaHaHaHaHaEazakabababacababababagaCaHaCaHaPa0aTaFaCapaiaiagaWa$a3aWaWaPaPaTa8a8a3aWa0a/a(a(a$a$a$a$",
"a$a3aTa3aWaTaWaNataCaPaHaNaHaHaxa3a3a3a3aPaWa0a0a$a(aWaWa0a8a0a3aNaCaLaNaPaNataiabababacacacacadacaxaEaEaEaEaEaFaFaFaCaFaEaEaKaHaKaMaLaMaLaLaLaLaLaLaLaLaLaLaLaLaLaNaNaNaNaNaPaNaPaTaTaTaTaTaTaTaPaTaTaTaTaTaTaTaTaTaTaNaLaNaNaNaNaNaNaNaLaLaLaLaLaNaNaLaLaNaNaNaNaNaLaPa0aMaCaEazatapagalalanakanakanalasaBaxaBazaJaNaVazagakaCataeakaLa7aKaxatavatamahamararanananakamaxaMaWaWaTaHaPaTaTaPaCaCaCaCaCaCaCaCaCaCaCaCaFaFaFaFaFaFaHaHaFaFaFaFaFaCaCaCaCaCaCaNaPaPaNaNaPaPaPaPaNaNaNaNaNaNaNaLaLaLaLaLaLaLaLaLaLaLaLaLaHaLaLaLaLaLaLaLaLaLaLaLaLaLaLaLaNaNaLaLaLaHaHaFaFaCaCamababababababacabaiaHaNaCaHaNa0aWaLaCapakagaeaWa$a3aWaWaPaPaTa3a8a0aTa0a(a$a$a$a$a$a8",
"a$a3aTa3aWaTaWaNataCaHaHaHaHaHaxa3a3a3a3aPaWa0a0a$a(aWaTa0a3a3a0aNazaHaNaNaTaHamabababacacacacadacaxaEaEaEaEaEaFaFaFaCaJaCaDaDaDaDaEaEaFaCaCaCaCaFaFaFaFaCaCaCaCaCaCaFaCaFaFaFaFaHaHaHaHaFaHaHaHaHaHaLaHaHaHaLaLaNaLaHaLaNaNaNaNaNaNaNaLaLaLaLaLaLaLaLaLaNaNaNaNaNaNaNaPaWaMaEaCaCaxataiagalasawasasaralapaBazazaDaKaVaPaxaiakaCataeakaLa7aSatatatatamadasawawawawanakamaxaNaVaTaWaHaNaTaPaPaCaCaCaCaCaCaCaCaCaCaCaCaCaCaCaCaCaFaFaFaFaFaFaFaFaCaCaCaCaCaCaCaCaCaFaFaCaCaCaCaCaCaCaCaCaCaCaCaCaCaCaCaCaCaCaCaCaCaCaCaCaCaCaCaCaFaFaFaFaFaFaFaFaFaFaHaFaFaHaFaHaFaHaFaFaCaCamababababacababacaiaHaHaHaHaNaWaNaCaCapaiagacaWa$a3aTaTaNaPaTa3a8a0aTa0a(a$a8a8a3a8a8",
"a$a3aTa3aWaTaWaNapaHaHazaHaHaCata3a3a3a3aPaWaWaWa8a(aWaTa0a3a3a3aNazaHaNaNaWa0apababacacacadacacacaxaEaEaDaEaEaFaCaCaCaJaCaDaDaDaDaEaEaFaCaCaCaFaFaFaFaFaCaCaCaCaCaCaCaCaCaCaCaFaHaFaFaFaCaFaFaHaHaLaLaLaLaLaLaLaLaLaLaLaLaLaLaLaNaNaNaLaLaLaHaHaHaLaLaLaLaLaLaNaNaNaLaPa0aNaMaHaEaCaxakaiawa9a%a6a%aBalasazaDaEaKaUaVaPaxaiakaCataeakaMa#aWaDatatatamafaYa*a%a<a*aIanaoaDaPaPaTaTaHaNaPaTaPaCaCaCaCaCaCaCaCaCaCaCaCaCaCaCaCaCaCaFaFaFaFaFaFaFaCaCaCaCaCaCaCaCaCaCaCaCaCaCaCaCaCaCaCaCaCaCaCaCaCaCaCaCaCaCaCaCaCaCaCaCaCaCaCaCaCaCaCaCaFaFaFaFaFaFaFaFaHaCaHaFaHaCaFaCaCaCamabababababababacakaHaHaHaHaHaTaNaHaLapaiaeacaLa$a3aTaTaNaLaTa3a8a0aTaWa$a$a8a3a3a8a8",
"a$a3aTa3aWaTaWaNaxaPaNaNaTaTaTaTa3a3a3aWaTaTaWaWa8a$aWaTa0a3a3a0aNazaCaLaNaWaVapacabababacacacacacataEaCaCaCaCaCaCaCaCaCaCaCaCaCaCaCaCaCaCaCaCaFaFaFaFaFaCaCaCaCaCaCaCaCaCaCaCaCaCaCaCaCaCaCaCaFaHaHaHaLaHaHaHaHaHaHaHaHaHaHaHaLaLaLaLaLaLaLaLaLaHaHaLaLaNaNaNaLaLaLaHaPa0aNaTa$aMaHaCamalaGa<a<a<a<aOalavaHaHaMaPaVaVaPaxagaiaCapagakaKa#a4aVazavavaoahaYa%a<a%a<aYanaraEaSaVaPaUaHaPaPaTaPaCaCaCaCaCaCaCaCaCaCaCaCaCaCaCaCaCaCaFaFaFaEaEaEaEaEaEaEaCaCaCaCaCaCaCaCaCaCaCaCaCaCaCaCaCaCaCaCaCaCaCaCaCaCaCaCazazazaCaCaCaCaCaCaCaCaCaCaCaCaCaCaFaFaHaHaFaFaFaFaCaCaCaCaCaCamabababababababacakaHaHaHaHaCaWaWaPaHapaiaiaeaPa7a0aPaTaNaLaTa7a8aWaWa8a(a$a3a3a3a8a8",
"a$a3aTa3aWaTaTa[b9b-b/b=b/b/b=b9a8a0a3aWaPaTaWaWa8a$aTaTa0a0a0a0aNazaCaHaLaNataiacacaiaiacadadacaeaxaDaCaCaCaCaCaCaCaCaCaCaCaCaCaCaCaCaCaCaCaCaCaFaFaFaFaCaCaCaCaCaCaCaCaCaCaCaCaCaCaCaCaCaCaCaCaCaFaFaHaHaHaFaFaFaHaHaHaHaHaHaHaHaHaHaLaLaLaLaLaHaHaLaLaNaNaNaLaLaLaHaNaWaNaPaPaNaNaEaoalaGa<a<a<a<aYalaBaPaVaTaWaVaPaPaxagaiaCapagaiaFa7a7a4aSazaBarahaYa<a~a<a|aYanamaEaVaPaVaPaMaNaPaTaPaCaCaCaCaCaCaCaCaCaCaCaCaCaCaCaCaCaCaFaFaFaEaEaEaEaEaEaEaCaCaCaCaCaCaCaCaCaCaCaCaCaCaCaCaCaCaCaCaCaCaCaCaCaCaCaCazazazazazazazaCaCaCaCaCaCaCaCaCaCaCaFaFaFaHaFaFaCaCaCaCaCaCaCamababababababacabamaHaNaCaNazaWa4aPaNapaiaiaiaLa4a0aPaTaNaLaTa7a3aWaWa>a>a8a3a3a8a$a-",
"a$a3aTa3aWaTaTbgb|b|cbcbb|b|b|b-a8a3a3aWaPaTaWaWa8a$aWaPa0a0a0a0aLaxaCaFaHaLaEaCazazaMaPaLaCazaxapaxazaCaCaCaCaCaCaCaCaCaCaCaCaCaCaCaCaCaCaCaCaCaCaFaFaFaCaCaCaCaCaCaCaCaCaCaCaCaCaCaCaCaCaCaCaCaCaCaCaCaCaCaCaFaFaHaHaHaHaHaHaHaHaHaHaHaHaHaHaHaHaHaHaLaLaLaLaNaNaNaLaNaWaPaPaNaNaNaEaoalaIa|a<a|a<aXalazaVa2aWaVaTaUaPaxagaiaCapagaiaza4a4a4aWaNaBamajaYa<a|a|a|aYanaraMaVaVaTaPaSaNaPaTaPaCaCaCaCaCaCaCaCaCaCaCaCaCaCaCaCaCaCaFaFaFaEaEaEaEaEaEaEaCaCaCaCaCaCaCaCaCaCaCaCaCaCaCaCazazazazazazazazazazazazazazazazazazazazazazazaCaCaCaCaCaCaCaFaFaFaFaCaFaCaCaCaCaCaCaCamabababababacacacamaHaHaHaNaCaCaxapapamaiaiaiaNa4aWaPaTaNaLaTa7a3aWaTaTa$a$a3a3a(bnbg",
"a$a3aPa3aWaTaTa[b1b1bUbUb1b1b1bGa8a0a0a0aPaTaTaWa8a$aTaPa0a0aWaWaHazazaCaFazaxazazaxaxaxatatatataoaBazazazazazazazazazaCaCaCaCaCaCaCaCaCaCaCaCaCaCaCaFaFaCaCaCaCaCaCaCaCaCaCaCaCaCaCaCaCaCaCaCaCaCaCaCaCaCaCaCaFaFaHaHaHaHaHaHaHaHaHaHaHaHaHaHaHaHaHaHaHaHaHaHaLaLaLaLaNaWaPaPaPaPaNaCaoalaOa|a|a|a<aQanaDa2aTaVaPaVaVaPaxagaiaCataeaiaza4a4a4a0aWaSasaja6a<bia|a|aYarasaMaPaTaTaPaMaNaPaTaPaCaCaCaCaCaCaCaCaCaCaCaCaCaCaCaCaCaCaFaFaFaEaEaEaEaEaEaEaCaCaCaCaCaCaCaCaCaCaCaCaCaCaCaCazazazazazazazazazazazazazazazazaxaxaxaxaxaxazazaCaCaCaCaCaCaCaCaCaCaCaCaCaCaCaCaCaCaCaoacababababababacapaEaHaHaPaHaFaxaoamamakaiaiaLa4aWaNaPaNaHaTa7a3aTaTaTa$a8a8a0a3a0aW",
"a$a3aTa3aWaTaWaTaPaPaPaTaTaTaTaWaWa0aWa0aPaTaWaWa3a$aTaPaWaWaWa4aCaxazaFaFaHaFaFaEaEaEaCaDaDaDaKa2aJazazazazazazazaCaDaCaCaCaCaCaCaCaCaCazazazazazazaFazaCazazazazazazazazazazaCaCaCaCaCaCaCaCaCaCaCaCaCaCaCaCaFaHaHaHaHaHaHaHaHaHaHaHaHaKaHaKaHaKaHaKaHaHaHaHaHaHaHaHaNaVaPaPaPaPaPaKaoalaOa|a<a|a<aQanaDaTaTaTaTaTaTaPataeaiaHataeaiaza0a4a4aWa0aWaxaja%a\bia|a|aYarasaNaVaTaTaPaNaLaPaTaTaFaFaFaCaCaCaFaFaFaFaFaCaCaCaCaCaCaCaHaHaHaKaHaKaFaFaFaFaEaCaEaEaEaEaCaDaEaEaEaEaEaEaEaEazaCaCaCaCaCaCaCazazazazazazaxaxaxaxaxaxaxaxaxaxazazazazazazazazazazazaCaEaEaEaEaEaEaEaNa0a$a^a8a/bgbrbnbda^a8a3aWaCaCazaxatapakakacata7a4aPaTaNaFaTa3a3aTaTaWa8a$a-aTaWaTaT",
"a8a3aWaWaWaTaPaTaTaTaTaWaWaWaWaWaWaWaWaWaPaTaTaWa8a$aTaPaWaWaWa4aCaxazaFaFaHaHaHaKaHaEaEaEaDaDaRa&aJazazazazazazazazazazazazazaCaCaCaCaCazazazazazazaCaCaCazazaCaDaCaDazazazazaCaCaCaCaCaCaCaCaCaCaCaCaCaCaCaCaFaHaHaHaHaHaHaHaHaHaHaHaHaKaHaKaHaKaHaKaHaHaHaHaHaHaHaHaNaVaPaUaPaPaPaLaralaBa|a<a|a|aJanaEaTaTaTaTaTaTaPataeaiaCapaeaeazaWa4aWaWa4a4azana.bha|a|a|aYarasaNaVaTaPaPaNaLaPaTaPaCaCaCaFaFaFaFaFaFaFaFaFaFaCaCaCaCaCaHaHaHaKaHaKaFaFaFaFaEaEaEaEaEaEaEaEaEaEaEaEaEaEaEaEaCaCaCaCaCaCaCaCazazazazazazaxaxaxaxaxaxaxaxaxaxaxazazazazazazazazazazaDaEaEaEaEaEazaEaHaMa,bra^a$a{baa^a>a$a3aWaLazazazatataoamakadata7a4aPaTaNaFaPa4a4aTaTaWa8a8a$a8a8a0a0",
"a3aWaHa0aWaPaPaTaPaHaFaFaFaFaFaPaWaWa3aWaNaPaTaTa3a$aTaPaWaWaWaWaFaxazaFaFaFaFaFaEaEaEaEaFaKaDaRa.aJazaxazaBazazaBazazaBazazazaDaDaDaDaDazazazazazazaJaCaDaDaDaDazaJazaJazazazaCaCaCaCaFaFaFaFaFaFaFaFaFaKaFaFaFaHaHaHaKaFaFaFaLaHaLaLaLaMaLaMaMaLaMaLaLaLaLaLaLaLaLaLaNa2aPaPaPaPaPaNataoamararararaoamaHaVaTaTaTaPaPaPataeaiaCaoaeaeazaWa4aWa4aWa4aPaoavaBaBaBavarakasaPaUaVaTaNaNaLaPaTaPaCaFaFaFaFaFaFaFaFaFaFaFaFaFaFaFaCaCaFaFaFaKaHaEaFaFaFaFaEaEaEaEaEaEaEaEaEaEaEaEaEaEaEaEaCaCaCaCaCaCaCaCaJaCaDaDazazazazazazazazazazazazaxazazazazazazazaDaDaDaDazazazaEaEaEaEaCaCazaKaEaxaBaxaxaxaxazazazaCazazatatapamakadaxa3a4aPaPaNaFaPa4a4aTaPaWa8a8a8a3a7a3a3",
"a3aWaLa0aWaNaNaTaFataxazazaCaxaCaWaWaWaTaNaPaTaTa3a$aTaTaWaWaWaWaCaxaCaCaFaFaFaFaEaEaEaEaFaJaDaYa.aJazaxazazaBazazaBazazaBazazaCaDaDaDaDazazazazazaDaDaDaDaDaDazaJazaJaJazazazaCaCaCaCaFaFaFaFaFaFaFaFaFaKaFaFaFaHaHaHaHaKaHaKaHaHaLaLaLaRaLaRaLaMaLaMaLaLaLaLaLaLaLaLaNa2aPaPaPaPaPaPaPa0a/a{a{bfa/a#aWaVaWaVaTaTaTaTaPataeaiaFaoacaeazaWa4aWa4aWa4a0aWaWaTaVaMaMaEaKaNaPaUaTaPaPaPaNaPaTaPaCaFaFaFaFaFaHaHaHaHaFaFaHaHaHaHaHaFaFaHaKaHaKaEaFaFaFaFaEaEaEaEaEaEaEaEaEaEaEaEaEaEaEaEaCaCaCaCaCaCaCaCaJaCaDaDazazazazazazazazazazazazaxazazazazazazazaDaDaDaDazazazaCaEaEaEaCaCaDaUaKazaDaDaFaFaCaCaCazazaxaxatapapamaiacaxa3a4aPaPaNaCaPa4a0aPaPaTa#a8a3a8a3a3a0",
"a7aTaNaWaWaLaLaPaCa7bGbzbzbFbUbaaPaWaWaTaNaPaTaTa4a8aTaPa0a4aWa4azaxazaCaCaEaEaEaFaJaFaEaDaDaDaRa.aQazazazaxaxaxaxaxaxaxazazazazazaDaDaDazazazazazaCaDaCazazaCaDaJaFaJaFaCaCaCaFaFaFaFaFaFaFaFaFaFaKaHaFaFaFaHaHaHaLaLaKaLaKaKaHaMaMaLaLaLaLaLaMaLaMaNaSaLaNaMaLaMaLaHaLaTaUaNaPaVaTaTaVaWa$a/a+a3a-a$a7a2aTaTaTaTaTaTaPatagaiaFapaeaiazaWaWa4aWa4a0a4a8a^baa{a!aFa,a7aTaUaTaVaUaUaUaSaUaWaSaFaKaKaKaKaKaKaKaKaKaKaFaKaKaKaKaKaFaKaKaKaKaHaKaKaKaKaKaKaKaKaKaKaKaKaKaKaFaKaFaJaFaEaEaEaCaJaCaCaJaCaCaJaCaDaDaCazaDazazazazazazazazazazaxaxaxaxaxaxazazazaDaCazazazazaDaCaDaCaDaDaZaJaBazaBaCaDaCaDaCazaxaxaxatapapakaiacata7a0aNaPaNaCaPa0aWaNaTa4a8a8a8a8a3a0a0",
"a7aTaLaWaWaHaLaPaHa(bFa{a(a{bwbraPaWaWaTaNaNaTaTa4a#aTaNa4a0aWa4azaxazaCaCaEaEaEaFaJaFaDaDaDaDaRa*aQazazazaxaxaxaxaxaxaxazazazaBaxaxaxaxavataxaxaxaxavaxaxaxaBaxazaBazazaxazazazazazazazazazazazazazazazazazazaCaCaCaCaJaFaEaEaEaEaFaKaFaKaFaKaFaKaKaSaUaNaSaLaMaLaMaHaLaTaVaPaUaPaTaTaVaVaSaMakadaDaVaTaVaTaWaTaTaTaTaPatagaiaHapacaiazaWaWa4aWa4a0a4a4a2aTaUamacaCaSaPaPaPaVaUaUaVaSaUaWaSaEaKaKaKaKaKaKaKaKaKaEaDaCaDaDaDaDaCazaDaEaFaFaJaFaEaEaEaEaEaEaEaEaEaEaEaEaCazazaBazazazazaBazazaBazazaBazazaBazaxaBaxaBaxaxaBaxavaxaxavaxataxaxaxaxaxaxazazazaDazazazazaDaCaDaCaDaBaUaJaBazaBazazazazazaxaxaxaxatapaoamaiacata4aWaNaPaLaCaPaWaWaNaPaWa8a3a3a0a0aWaW",
"a3aTaMa0aWaHaLaPaHa$bFbrbnbnbwbkaPaWaWaTaPaPaTaTaWa7aTaPaWa4aWa4azatazaCaCaEaEaEaEaEaDaDaDaDaDaRa*aQazazazazazaBazazaBazazazaBaPa{bgbkbgbkbkbkbkbkbkbkbnbkbnbnbnbEbnbrbEbrbwbwbEbwbwbwbwbwbwbwbwbwbzbwbzbwbzbzbzbzbzbzbQbzbFbQbFbFbQbFbMbFbQbzbwbzbEa-aUaUaNaMaNaMaMaLaLaTaVaPaPaVaPaPaVaPaPaSamaeaEaTaVaTaWaTaTaTaTaTaPatagaiaHapacaiaCaWaWa4aWa4a0a4a0aWaWaVamacaCaPaUaPaVaVaVaUaVaUaVaWaSaEaKaKaKaKaKaKaMaMaNa-babdbgbgbgbkbkbkbkbnbnbnbnbEbrbEbwbEbrbEbwbEbwbwbEbwbEbwbEbrbEbrbEbrbEbrbEbrbEbrbEbrbrbnbEbnbEbnbnbnbEbnbnbnbnbnbkbga/azaBaxaxaxaxazaBazazazazazazaDaCaDaDazaBa1aJaBazaBazazazazazaxaxaxatatapaoaoaiaeazaWaWaNaPaNaFaPa0aWaNaNaTa7a3a4a4aWaWaW",
"a3aTaNa0aWaHaHaPaHa$bFa3a0a8brbnaLaWaTaTaNaPaPaPaWa7aTaPaWa4aWaWaCaxaCaCaCaEaEaEaEaEaDaDaDaDaDaRa*aQazazazazazaBazazaBazazazaBaMa+a-a}a-a}a}a/a}a^bfa^a^a^a{bma{a{bmbabababdbabdbdbdbdbkbkbkbkbkbCbkbkbnbnbCbnbnbnbEbrbrbEbrbEbwbEbzbzbQbFbFbQbQbFbFa>aVaUaUaSaSaNaSaSaLaTaTaUaTaTaTaVaTaVaPaMamagaKaTaVaTa2aTaTaWaTaTaPatagaiaHapacaiaCaWaWa4aWa4aWaWa4aWaWaUamacazaSaPaPaVaTaVaVaVaUaTa2aNaDaKaKaKaKaLaMaMaNaUbkbSbSbSbSbSbSbSbSbSbSbUbSbSbSbSbSbMbSbMbMbMbMbMbMbMbFbMbFbFbQbFbzbzbzbzbEbzbwbEbwbEbrbEbnbEbnbkbkbCbgbgbvbgbvbabmbaa^a-aDazaxaxaxazazazazaDazazazazaDaCazaDazaBaUaJaBazaBazazaBazazaxaxaxatatapaoamaiaeaCaWaWaNaPaNaFaTaWaTaNaNaTa7a3a4a4aWaWaW",
"a7aTaLa4aWaHaHaPaHa#bga&aTa+a{baaSaWaTaTaNaNaPaPaWa4aTaPaWa4aWaWaCaxazaCaCaEaEaFaJaJaJazazazaJaRa*aQaxazazaBaBaBaBaBaBaBazazazaJazaBazaBaxaBazaBazaBazazaDaDaDaDaEaFaKaJaJaJaFaKaKaKaRaKaRaKaKaKaFaKaKaKaLaLaLaRaLaLaLaLaRaLaMaNaNaSaMaMaSaRaLaLaRaRaUaVaVaUaUaSaSaSaSaSa2aVaUaVaVaVaVaVaVaVaUakaiaKa2aWa2aWa2aWa2aWaVaPatacaiaMaoacaeaFaWaWa4aWaWa4a4a4a2a2aSamaeazaPaVaTaVaTaVaVa2aUaVa2aSaDaMaMaMaMaMaMaMaMaMaKaDaKaKaRaKaKaRaLaRaMaMaRaLaMaMaMaMaMaLaMaLaMaMaLaMaLaMaMaKaKaKaKaKaKaMaKaKaKaFaFaFaFaFaKaEaEaJaEaFaKaDazaDazaJaDaDaBazaJazazaBazazaBaJaDaDaDaDaDaDaDaDaDaDazaBaUaKaBazaBazazaBazaxaxaxatatapapapamaiaiaLa4aWaLaNaNaFaTaWaTaNaNaPa3a4a4a4aWa4aW",
"a4aTaLa4a4aHaLaTaMa2a,a2a0a:a>a^aSaTaWaTaNaNaTaPaWa4aTaPaWa4aWaTaxatazaCaCaFaEaFaJaJaJaJazazaJaRa*aJaBazazaBaBaBaJaBazaBazazazaMa^bgbkbkbkbkbkbnbnbEbnbEbrbEbrbEbwbzbzbEbzbzbQbzbFbzbFbFbFbQbFbMbMbMbFbMbMbMbMbMbMbMbMbMbMbMbMbSbMbMbMbMbMbMbMbMbQbwa&aUaVaUaUaUaSaSaSaMa2aVaUaVaVaVaVaVaVaVaSakaiaMa2a2aVa2a0a2a2a2a2aVasacakaEaoacagaFaWa4a4a4a4a4a4a!a4a2aSamaeazaPaVaTaVaWaVaVaVaVaVaVaSaEaMaMaMaMaMaMaMaMaKa,bEbFbQbzbFbQbzbFbQbzbFbzbzbQbzbwbEbwbEbwbEbwbEbwbEbrbEbrbrbnbnbnbnbnbnbnbnbnbnbnbnbnbkbkbkbkbkbCbkbkbkbkbkbgbkbkbgbna}axazazaBazazaBaJaDaDaDaDaDaDaDaDazaDaBaDaUaKaBaBaDaxazaBazaxaxaxatatapapapamaiaiaLa4aWaLaNaNaFaTaWaTaNaNaPa7a4a4a4aWa4aW",
"a0aPaLaWaWaHaNaPaKa2a^a{bgbaa>a-aVaTaTaTaNaNaTaTaWa4aTaPaTaWaWaNapataxaCaCaEaEaEaJaJaJazaJaDaDaRa.aQazazazaBaBazaBaJaBazazazazaEaKaMaSaRaMaSaRaSaSaSaUaUaPaVaPaVaVa2a2aWa!a2aWa4aWa4a!a4a4a4a4a&a7a&a7a7a#a7a#a#a#a#a#a#a#a#a#a#a+a+a,a:a:a:a:a,a:a+a2aVaVaVaVaVaUaUaSaSa2a2aVaVaVaVaVaVaVaVaSakagaMaWa2a2a!a2a4a2aWa2aVatacakaEamafagaKa2a4a!a4a4a!a4a4a!aWaSamaeaDaUaVa9aTa2a2aVaVaUaVa2aMaMaMaSaMaMaNaMaNaMaMaUaVaUaPaUaUaPaUaNaSaPaSaUaSaSaUaSaNaSaNaSaNaSaNaSaNaNaSaSaMaRaKaRaKaKaRaKaKaRaKaKaRaKaKaJaJaJaDazaJaDaJaBazaBaBaJaBaJaCaDazazazazazaBaBaDazaBaDaDaDaDaDaDaDazaDa1aKaBaBaDaxazaBazazaxaxaxatapapapakaiaeaHaWaWaLaNaNaFaTaWaTaNaNaTa7a3a3a4a4aWa4",
"a0aPaLaWaWaHaLaUaza2bkbEbEbna{a:aPaWaWaTaNaPaTaTaWa7aTaPaTaWaWaPatatazaCaCaDaDaEaJaJaJazaJaCaDaRa.aQazazazaJaBazaBaJaBaDaDaDaDaDaxaBaxaBaxaBaxaBaxazaBazazazaDazaDaEaEaEaEaEaFaKaKaLaHaKaKaKaKaKaKaKaKaMaKaKaKaMaMaMaMaMaMaKaKaKaKaMaMaMaSaRaMaSaMaSaVaVaVaVaVaVaVaVaUaSa!a2aVa2aVaVaVa2aVa2aUakaiaMaWa2a!a4a!a4a!aWa2aVasaeakaKamadagaMa!a2a4a!a4a!a4a&a4a2aUamaeaDaUaVaWa9aWa9aVa2aVaVa2aSaSaUaSaSaSaNaSaSaNaSaKaKaFaFaJaFaEaEaEaEaEaEaEaEaEaEaEaFaEaEaEaEaEaEaEaEaEaEaEaCazaBazazazaBazaBaxaBaxaBaxaBaxaBaxaBaxaBaxaxavatavatavavataxaDazazaBazaBaBazaBaDazaDaDaDaDaDaDaDaDaJaVaJaBazaBazazaBazazazaxaxatapapaoamaiaeaHaWaWaLaNaPaFaTa4aPaNaNaTa#a3a4a4a4aWa4",
"a4aPaMaWaWaFaLaLaCapapapasasaBaDaSaTa2aTaMaNaVaTa2a3aVaPaTa4aWaTataxazazaFaJaDaDaDaDaDaDazazaJaRa.aQaDazazazazazaBaDaDaDaDaDaDaKa+a>a}a>a>a^a>a^a^a^a^a^a{a{bma{a{bababmbababababdbdbdbdbdbdbvbdbdbgbdbgbvbgbgbgbvbkbgbkbkbCbgbkbCbgbvbgbgbvbgbgbva^a2aVa2aVa2aVaVa2a1aSa&a!aVa2a2a2a2a2a2a2aVakakaNa2a!a4a!a!a4a&a4a4a2avafalaMarafagaMa!a4a!a7a&a4a&a4a!a2aVamaeaDaVa2a2a2a2a9a2a2a2aVa2aSaMaUaUaUaUaUaUaUaUaUa/bgbgbgbkbkbkbnbnbnbnbnbnbnbnbnbEbnbnbEbnbnbnbnbnbEbnbrbEbnbrbnbrbnbEbnbnbnbEbnbnbnbnbkbnbkbkbgbkbkbkbgbkbgbgbdbgbgbva,aBaDaBaJaBaBazazaBazazazazaJazaJaJaDaDaJa1aJaBaBaBazaxazaBazaxazaxavatasaoaoaiaeaLaWaWaLaNaNaKaVa4aVaNaSaVa#a3a4a4aWa4a4",
"a4aPaMaWaWaFaHaLaHaFaFazaxaxaxaMaPaVaTaVaMaNaTaVaTa0aUaNaUaWa4aPatatazazaCaJaDaDaDaDaDaDazazaJaRa.aQaDazazaDaDaDaDaDaDaDaDaDaDaMa:a>a}a^a^a^bma^a{a{bmbabdbdbdbvbdbgbgbgbCbgbCbkbCbnbCbnbEbnbEbrbEbEbEbwbwbQbEbzbzbQbzbQbzbzbQbFbQbFbQbMbQbMbMbQbMbEa!aVa9a2a9a2a2a9a2aUa+a&a2a!a!a!a!a!a!a!aVamaiaSaWa!a!a&a&a7a&a7a!a4avafakaSaoafagaMa!a4a&a3a&a#a&a&a7a!aVamaeaDa2a2a2a2a2a!a9a2a2a2a4aSaSaVaUaUaUaUaUaUaUaUbfbgbCbgbCbgbCbgbvbabmbmbabmbma{bma{bma{a^bma^a^a{a^a^a^a^a^a^a^bfa>a^a>a^a>a/a>a}a/a}a-a}a-a}a-a:a:a:a:a,a:a:a:a+a,a:a2aDaDaDaDaJaDaDazaDaDaDaDaDaDaJazaJaDaDaJa9aJaBaBaBazaIazazaBazazaxaxasapaoamaiaeaHaWaWaLaNaPaKaVa4aVaSaSaTa#a3a4a4aWa4aW",
"a4aUaNaWaTaLaHaLaLaNaNaNaSaSaNaUaUaPaVaTaLaSaTaVaTa4aNaSaUaWa!aUatayazaCaDaDaDaDaDaDazaBazazaJaRa.aQaDazazaJaJazaJaDaJaDaJaDaJaDaBaBaBaJaJaBaBaJaJazaJaJaJaJaJaFaJaJaJaJaEaDaJaFaJaFaFaJaFaJaKaJaFaKaKaRaRaLaRaRaRaRaRaZaSaSaSaMaMaSaSaUaUa1aSa1aUaVa2a9a2a9a2a!a9a4a2aVa]a.a2a!a!a!a!a&a&a&a2analaUa!a&a&a&a&a+a7a&a&a4avaeanaSaoahaiaSa!a&a&a+a+a+a+a+a+a&aVaoajaDa2a2a!a!a!a!a!a2a!a!a!aUaSaVaVaVaVaVaVaVa1aPaSaLaRaKaKaKaKaKaKaJaHaJaRaHaRaKaRaJaFaJaFaFaKaKaKaKaKaEaCaDaDazazaCaDaDaDaDaDazazazazaCaDaDaDaBazaxaBaxaBaxaBaxaBaxaBaJaDaJaDaDaDaDaDaDaDaDaDaDaDaDaDaDaDaDaJaJa9aRaBaJaBaJazazazaBazaBaBaxavapaoamaiaeaNaWaWaLaNaPaKaVa4aVaPaSa2a#a0a4a4aWa4aW",
"aWaSaNa2aTaLaKaLaLaNaUaPaUaUaUaUaVaVaTaVaLaSaTaVaTa4aNaSaUaWa2aTavatazaDaDaDaDaDaDaDaDazazaDaJaRa.aJaJaJaJaJaJaJaDaDaJaJaKaJaKaKaMaSaSaSaSaSaSaSaUaUaUaUaUaUaUaUaUaUaVaUaUaUaUaUaUaUaUaVaVaVaVaVaVaUaUa1a1aTa1aTa9a1aTa9a9aTa9a9aVa9a2a2a9a2a9a!a9a!a9a!a!a!a!a4a&a&a!a9a]a=a!a&a&a.a.a&a+a+a2anakaVa&a+a+a+a+a+a+a#a+a&aBahakaVasafakaUa&a+a+a:a]a:a=a:a+a+a2arajaKa2a!a&a!a&a!a*a9a&a!a&aVaZa9aVa1a9aVa9aVa9a2a!a7a=a7a&a#a&a+a#a=a#a=a#a&a#a7a=a7a&a7a#a+a7a&a7a&a#a7a&a7a7a7a+a#a+a+a+a#a#a+a#a#a#a#a#a#a#a#a#a+a7a#a7a+a#a#a#a#a+a2aJaDaDaDaDaDaDaDaDaDaKaDaMaKaKaDaJaDaJaJa9aRaBaJazazaJaJazaBazaBaBavatapaoamaiadakaWaWaMaNaUaFaVa4aVaSaNa2a7a0a4a4aWa4aW",
"aWaSaNa2aTaNaEaLaMaNaPaUaUaUaVaTaVaVaTa2aMaSa2aVaVa4aSaSaPa4a4aVatavazazazaJazaJaJaJaJazazaJaBaRa=aJaJaJaDaJaJaJaJaJaJaJaKaRaKaMbdbEbQbzbQbzbQbFbQbFbQbMbMbMbMbMbMbSbMbSbMbSbMbSbSbSbSbSbSbSbSbUbSbSbSbUbSbUbUb$bUbUb1bUb$b1b$b1b$b1b1b$b1b1b$b1b1bQa#a*a.a.a.a=a.a=a.a9a`a]a&a=a=a=a=a=a+a+a!anaka2a+a+a+a+a+a+a:a+a+a+aBajanaVasafalaVa+a=a:a]a`a:a]a`a:a+a&aralaRa!a&a*a&a&a&a!a!a!a&a&a9aSa2a9aVa2a9a2a9a2a9bnbUb$bUbUbSbUb6bUbUb6bUbUbSb$bSbSbSbSbSbSbSbSbSbMbSbSbMbMbMbMbMbMbMbQbMbQbMbQbMbQbFbQbzbQbzbQbwbQbwbEbEbwbEbEbEbEbEbEa>aQaJaJaJaJaJaDaKaKaKaKaKaKaRaKaRaDaKaKaYa!aRaJaDaJaJaDaDaDaDaDazaBatatapamamaiakaKa2a2aMaUaVaEaVa!aVaSaUa2a#a4a4a4a4aWa4",
"aWaMaLa2aTaNaEaLaMaNaPaUaUaUaUaTaVa2aTaVaMaSa2aVaVa2aSaSaVaWa4aVaxavazazaJazaJaJaJaJaJazaJazaJaRa?aJaJaJaRaJaRaJaRaRaJaRaKaKaRaMaRaMaRaMaSaRaMaMaSaZaSaUaVaVaVaVaVa9a9a2a2a!a2a!a!a!a&a&a&a=a&a&a=a&a=a#a=a=a,a,a]a]a,a]a,a]a,a]a,a]a`a}a}a}a}a}a}a}a]a=a=a]a=a]a=a]a=a*a`a`a.a=a]a]a]a]a:a:a!amana!a+a:a:a:a:a`a:a:a:a:aBajana2asafala2a:a]a`a`a}a`a`a`a`a:a&aralaSa&a&a=a=a+a&a&a!a&a+a+a2a1a!a2a9a2a9a2a9a2a9a9a2a9a9a9a9a9aVa9aVa9a1a1a9aVa1a9a1a9a1a1aZaLaRaRaLaRaRaRaRaRaLaKaHaRaLaRaJaLaRaRaRaRaRaLaRaJaKaJaRaJaJaJaJaJaJaJazaJaRaJaJaJaJaJaJaKaKaKaKaKaKaKaRaKaRaDaKaDaRa!aRaJaDaDaJaJaJaJazazaBaxavataoaoamahasbEa+aVaSaSaVaMa2a!aVaUaUa2a#a4a7a4a4a4aW",
"a4aMaMaTa2aNaEaLaMaPaUaPaUaUaVaVa2aVa2aVaMaSaTa2aVaWaSaNaVa4a4aVaxavazazazaJazaJaJaJaJaJazaJaIaRa=aJaJaJaRaJaRaRaRaRaRaRaRaMaMaSaJaJaJaJaJaJaJaJaJaJaKaKaKaKaKaKaKaRaMaSaSaMaSaSaSaSaSaUa1aUa1aUaUa1a1a1a1aUaVa1a1aTa9a9a9a9a9a9a9a9a!a&a&a&a!a&a.a=a]a]a]a_a_a_a]bba_a*bca}a?a_a`bbbba`a`a`a&amaqa!a`a`a}bca}bca}bca}a`aKajara2asahana!a]a`a}a}bca}a}a}a}a`a.araqaUa.a=a=a]a,a=a+a!a&a:a]a!aVa&a!a&a*a!a!a!a!a!a9a9a1a9a1a1a1a1a1a1a1a1a1a1a1a1a1a1a1aSaZaRaRaRaKaMaMaMaMaMaKaRaMaRaRaRaRaRaRaRaRaRaRaRaRaRaRaJaJaJaJaJaJaJaJaJaJaJaJaJaRaJaJaJaJaJaKaKaKaKaKaKaKaYaDaDaYaDaYaKa*aRaJaDaDaJaJaJaJaJaBaBaxavatapaoamalagbma:aSaSaSaSa2a2a4aVaUaSa2a#a7a4a7a4a4a4",
"aWaMaSaTaVaNaEaLaMaNaPaUaUaUaVaVaVa2a2aVaMaUaVaWaVaWaSaSaVaWa4aVaxavazazaJazaJaJaJaJaJaJaJaJaBaZa=aRaJaRaRaRaRaRaRaRaZaSaSaSaMaSa}babmbabmbdbabvbdbvbabvbdbvbgbvbgbgbvbgbgbvbkbCbgbgbCbkbCbkbCbkbCbkbCbkbCbkbCbnbCbnbCbkbCbkbCbCbCbEbCbEbEbEbEbEbEbva]bba`a_bbbba`bcbba.bfbfa_bcbcbjbja}bba}a+aqama=a}bcbpbjbfbpbfbpbfa}aRalara2awahana!a`bcbjbfbfbfbpbfa}a}a=awala1a:a]a`a`a:a:a:a&a=a:a:a*a2a.a&a.a.a&a&a*a&a&bCbQbFbQbQbQbFbQbQbMbQbMbMbQbMbMb3bMbMbMbQbMbQbMbQbMbQbMbQbMbQbFbQbMbQbFbQbFbQbFbQbMbQbFbQbQbFbQbQbzbQbQbzbQbFbQbzbEbEa}aRaRaKaJaJaJaKaKaKaKaKaRaKaKaKaYaKaKaKaRa.aRaJaDaDaJaJaJaJaJaDaBaBaxatasaoamalaibfa+aRaSaSaSaMa2a4aUaUaUaVa4a#a7a7a7a4a4",
"aWaMaSaTa2aNaKaNaSaSaSaUaVaVaVaVaVa2a2aVaSaUaVa!aVa!aUaSaVa4a4aVaxavazazaDaDaDaDaDaDaJaDaJaDaJaZa]aZaRaRaRaRaMaSaSaSaSaSaSaSaSaVa}bvbdbvbabvbgbgbvbgbgbgbCbkbCbnbCbEbnbEbEbEbEbEbEbEbEbzbEbQbzbQbEbQbzbQbQbQbQbQbQb3bMb3b3bMb6bMb6b6bSb6b6b$b6b$b$bQbbbbbcbcbcbjbcbjbca?bfbsbcbcbfbpbubfbfbfa}auaqa]bfbfbpbmbsbmbubmbmbja1alara!awahana.bcbfbpbfbfbfbfbubfbfa]awala*a`a}bba}bba}a`a.a]a`a`a&a9a=a=a=a=a`bcbcbfbfbEb6b3bMbQbQbObCbCbCbvbvbdbvbvbabmbmbmbmbabmbma{bmbfbma^bfbfbfbfa}bfa>a}a}a}a}a}a}a-a}a`a-a:a:a:a:a]a,a:a+a+a+a+a+a+a+a!aRaRaRaRaRaKaRaRaRaRaRaRaRaRaRaKaRaYaMa6a!aRaJaJaJaJaJaJaJaJaJazaBaBavapaoamaialbfa?aYaZaRaKaJaVa4aUaUaUaTa+a+a7a+a0a7a4",
"aWaMaUaWaVaNaKaNaSaSaSaUaUaVaVaVa2a2a2a2aRaVa2a!a2a!aUaUaVaWa4aVaxavazazaDaDaDaDaDaJaDaJaDaJaJaZa:aZaRaRaSaRaSaSaSaSaSaSaSaSaSaVaSaMaRaSaRaSaSaSaSaSaZaSa1a1a1a9aVa9a9aVa9a2a9a2a9a!a!a*a2a*a!a!a!a4a.a.a=a=a=a=a=a=a=a=a=a]a]a]a]a]bba]a]a]a]a]a]bbbjbjbjbpbfbpbpbfbla|bDbmblbsbmbububvbubmbfauaua`bmbubmbDbvbDbDbvbvbma9ajara&awahana?bfbmbubmbubmbubmbubfbcawaqa&bcbcbfbjbja}bca=a`a}a}a.a.a]a=a]a]a`a`bca`bca`a_a_a]a_a]a=a.a*a*a4a9a9a9a*a9a4a9a4a9a*a9a9a9a9aTa9a9a1a1a1a1a1a1a1a1aUa1aSa1aUaZaZaZaSaZaSaRaZaSaRaRaRaRaRaRaRaRaRaRaZaRaRaRaRaRaRaRaRaRaRaRaRaRaRaRaRaKaRaSa*aRaKaKaKaJaFaJaFaJazazaBavatasaoamagajbfa_aZaZaRaKaJaTa4aUaUaUaTa#a+a3a&a3a4a4",
"aWaMaUaWa2aNaKaNaSaSaUaUaVaVaVa2a2a!a!a2aSaVa2a!a2a!aUaUaVa4a4aVatavazazaDaDaDaDaKaKaKaRaKaKaJa1a_aSaZaSaZaZaRaZaZa1aSa1aZa1aSa1aZaRaRaZaZaSa6aSa1a1a1a1a1a1a9a9a9a9a9a9a!a9a*a9a!a*a*a!a*a*a&a*a.a.a&a.a=a.a?a.a+a?a:a_a]a_a]a]bbbba}bbbbbbbbbbbbbjbpbsbsbsbsbsbybDbpbhbvbDblbybDbDbDbDbDbvbfauaubpbvbDbHbJbHbJbJbJbJbma9alaua+awahaqa`bmbmbDbubvbDbvbDbvbubfaAaqa=bfbpbpbfbpbpbja_a`bfbca=a.a`a:a_a:a:a?a+a?a+a&a*a!a&a&a&a&a&a&a=a&a=a7a=a7a.a&a*a=a&a7a.a4a*a7a*a&a*a7a*a4a*a4a*a!a!a2a9a!a2a!a9a!a!a9a!a!a9a!a!a9a2a2a9a2a9aVa1aVa1aSaZaSaRaSaRaRaRaRaRaRaRaRaRaRaRaRaRaSaVa&aRaKaKaKaKaCaFaFaJaDaBaBaBavasaoaralajbfbbaZa1aSaMaFaVa7aVaPaUaTa+a8a+a&a3a7a7",
"aWaKaSaWa2aSaKaNaSaSaUaUaVaVa9a2a!a!a!a!aUaVa2a&a2a!aUaVaVa4a4aVaxavazaJaDaDaDaKaKaKaRaMaRaMaRa1a:aZaSaZaSaZaZaZa1a1a1a1a1a1a1a9bvbwbEbQbEbQbQbQbQbQbQbQbQbQbQbMb3bMb3bMb6bMb6bMb3bMb6bMb6bMb6bSb6bSb6b6b6bSb6b$bUb$b$b$b6b$b$b$b$b)b)b)b)b)b)b)b)bObububDbybDbDbDbDbybhbJbJbsbDbJbJbJbJbJbJbuaAaAbybJbJbJbVbJbWbObWbObva*alawa:ayafaua}bvbDbDbJbvbJbJbCbDbvbfaGaqa`bsbubububububsa`bcbmbfa?a]bca`a`bca`a`a`a:bmb6bUb)b1b)b1b)b1b$b1b)b1b$b1b1b$b1b1b)b1b1b)b1b$b1b1b)b1b1b$b1b$b1b1b$b1b1b$b1b1b$b1bUb$bUbUb$bUbUb$bUbUb6bUbSbUb6bSbMbvaUaZaSaSaZaZaSaRaZaSaRaZaSaRaRaRaRaZaRaVa=aRaRaKaKaKaKaFaKaJaDaBaBaBatasaoaralaibmbba1a1aSaKaFaVa7aVaVaTa2a#a+a3a+a7a7a7",
"a2aKaSa2aVaSaKaSaSaUaUaVa9a9aWa9a7a&a4a&aUaVa4a7a2a4aVaVaVa4a!a2ataIazaJaJaJaKaRaKaRaKaLaRaRaRa6a:a1aZaZaZa1a1a1a1a1a1a1a1a9a1a9a}bfbfbfbfbfbfbfbfbmbmbmbmbmbmbmbvbvbvbvbvbCbvbCbCbvbCbCbCbCbCbCbObCbEbObObObObQbObQbQbQbQbQbQb3bQb3b3b3b6b6b6b6b$b0bDbHbJbDbJbJbJbRbDblbVbJbsbRbVbVbVbVbJbObvaAaAbHbJbWbWbWb0b0b0bWb0bOa=alawa:aIahaubfbJbJbJbJbVbJbObJbJbCbDaAaubbbvbDbDbDbDbDbDa`bpbvbua_bcbpbfbpbfbpbcbjbjbjbvbvbvbvbubmbububmbubfbfbmbpbfbfbfbfa}bja}a}a}a}bja}a`a`a]a]a]a`a]a]a]a=a=a=a=a=a7a=a=a.a=a.a.a.a*a&a*a*a9a9a9a9a9a9a9a9a1a1aZa1aZaZaSaZaSaZaSaZaSaZaZaZaZaZaZa9a]aZaRaRaKaKaMaKaKaJaJazaJaxatasapaoakaibpbja9a1aSaMaDaVa7aVaVaVa2a8a+a7a#a7a&a&",
"aVaKaUa2aVaSaMaSaSaUaVa9a2a9a4a!a4a.a7a&aTa2a4a7a2a4aVaVa2a4a&a2axaIazaJaJaKaJaRaKaRaKaRaRaRaRa9a`a1a1a1a1a1a1a1a9a1a9a9a9a9a9a9a9a9a9a9a9a9a9a9a*a9a*a*a*a*a*a*a*a*a.a.a.a.a.a=a=a=a]a?a_a?a_a_a_a_a_a_bbbbbbbbbbbbbjbjblblblbtbpbpbsbububybybHbDbHbJbJbJbRbVbVbWbWbNbtbObWbBbVbWb0b0b0b0b0bvaGaObHb0b0b4b4b#b4b#b4b4bOa:alawa`aIahaubybObVbWbObWb0bOb0bWbObvaGaubjbHbJbRbNbJbJbJblbsbJbDbbblbububububsbsbpbpbpbjblbjbjbbbbbbbbbba]bba]a]a]a]a]a]a]a=a=a.a.a=a.a=a.a.a.a.a*a*a*a*a*a*a*a4a*a*a9a*a9a*a*a9a!a9a9a9a9a9a9a9aVa9aVa9aVa1a9a1a1a1a1a1aZaZaSaZaSaZaSaZaSa1a1aZaZaZa9a_aZaRaRaRaMaMaRaKaKaJaJazaxavatapaoakalbfbja9a1aSaMaDaVa+aVaVaVa2a+a8a#a+a7a&a3",
"aVaEaVa2aVaSaLaSaUa1aVa9a9aWa!a&a&a&a=a#a9aTa!a#a2aWaVaVa2a4a&a2aBaIazaJaJaRaRaRaLaRaZaLaZaZaRa9a`a9a1a1a1a9a1a9a9a9a9a9a9a9a9a9a*a*a!a*a*a*a.a*a.a.a.a.a.a.a.a.a?a?a?a?a_a_a_a_bba_bba_bcbbbcbbbcbcbcbcbjbjbjbjbpbfbsbsbsbubububybDbDbDbHbJbNbJbNbJbRbVbVbObWb0b0b0bVbBb0b0bBbWb4b#b&b*b3b3bVaGaObRb4b#b&b,b*b*b*b*b3b4a:alawbfaIajaAbHb0b0b4b4b4b4b4b4b5b4bJaOaAbpbVbWbWbWbWbWbWbsbBbJbJbhbsbvbDbDbDbDbybybybybybsbsbpbpbpbjbjbjbbbjbbbjbbbbbbbbbbbba_a_a]a_a_a]a?a=a=a=a=a=a=a&a=a7a.a.a7a.a*a7a.a!a*a!a!a*a9a!a9a!a9a2a9a9a2a1a9a9a9a9a9a1a1a1a1a1a1a1a1a1a1a1a1a1a1a1a1a1a9a_a6aRaSaRaSaMaRaKaRaKaJazaBatatasapakalbmbpa6a9aSaMaDaVa#aVaVaVa2a#a#a8a+a3a+a&",
"aVaEaVa4a2aUaSaUaUa9aWa9a4a!a!a&a+a#a+a+aVa9a4a#a!a4aVa2a2a7a+a!axaIaJaJaKaRaLaRaZaLaZaZaNaZaRa9a`a9aVa1a9a9a9a9a9a9a9a*a*a*a*a*a*a.a*a.a.a.a.a.a?a=a?a=a?a?a?a?a?a_a_a_a_bba_a`bbbba`bhbcbhbcbjblbjblbpbpbpbpbsbsbsbubybybDbDbDbDbDbHbJbRbRbRbVbVbVbWbWb0b0b5b5b4b#bVbBb#b5bLb0b&b,b,b*b*b*bOaXaObZb*b,b;b;b;b;b;b;b:b3bcalaAbmaIajaAbNb4b&b,b&b,b,b,b,b&b&bOaXaAbHb0b4b4b4b4b5b0bBbBbWbWbjbBbJbNbNbNbNbDbHbDbHbDbybybubububpbpbpbpbjbjbjbjbjbjbcbbbcbbbbbbbba_a`a_a_a]a]a]a]a=a=a?a.a=a.a=a.a.a.a.a&a*a*a*a*a*a*a*a!a*a*a9a*a!a9a9a9a9a%a9a9a%a1a9a1a9aVa9a1a1a1a1a9a1a1a1a1a9bbaRaRaRaSaSaVaUaUaSaJaBaxaxavatapapakalbmbpa1a9aVaKaKa2a&a2aVa2a2a#a+a#a7a#a3a+",
"aVaRa2a!a2aUaUaUaVa9a!a9a!a!a!a&a&a+a+a+a9aWa!a#a!a!a9aWa!a&a#a9apaIaFaRaRaRaJa,a:a&a!a!a&a&a!a=a&a1a2a1a2a9a!a*a*a*a*a*a*a*a.a.a.a.a.a.a.a.a?a?a?a?a_a_a_a_a_a_a_a_a_bbbbbbbbbbbcbbbcbcblbjbjbpbpbpbpbsbsbsbybybybybHbybHbHbHbHbNbNbNbRbVbVbVbWbWb0b0b5b5b#b&b&b&b*b5bLb&b4bLb&b;b;b;b;b;b:b4aXaXbZb;b;b;b^b^b^b^b^b:b:bpaqaGbmaQajaAbVb#b:b;b;b;b;b;b;b:b,b0aXaAbRb#b&b,b&b,b&b#bDbBb0bObtbDbWbVbRbVbRbNbNbJbHbHbDbDbDbybDbubububsbpbpbpbpbpbjbjbjbjbcbcbbbba`bbbba`a]a]bba_a_a_a_a]a=a=a=a=a=a=a.a.a.a*a.a*a*a*a.a*a.a*a*a*a*a*a*a9a9a*a9a9a9a9a9a9a9a9a9a9a9a9a9a9aVa1a1aZaZa=aZaRaSaSaSaSaMaMaMaKaKavasavatasaoakalbmbpa6a9aSaKaDa2a+a2aWaVaVa-a+a#a+a+a+a+",
"aVaKa2a&a!aVaVaVa9a2a!a!a!a!a&a+a+a+a:a+a9aWa&a,a!a4a9a4a4a!a#a9akaJaJaLaRaKaBaVaUa-bma2a2a2aVa9a!aSaSa9a!a*a!a*a*a!a*a*a.a.a.a.a.a.a?a.a?a?a?a_a_a_a_a_a_a_a_a_a_bbbbbbbbbbbbbjbbbjblblbpbpbpbpbsbubububybybybHbHbHbHbHbHbNbNbNbNbRbVbVbVbWb0b0b0b5b4b#b&b&b*b,b,b,b!bLb*b&bRb&b]b[b^b^b^b[b4a5aXb8b[b^b^b_b}b}b}b_b_b[buauaObvaIajaAbWb:b[b^b_b^b_b^b^b^b:b3aXaAbRb,b;b;b;b;b,b*bRbDb4b0bsbJb0b0bWbWbWbVbVbRbJbRbNbNbHbJbHbDbDbybDbybybsbsbpbubfbpbpbjbjbjbcbcbcbcbbbcbbbba`a_bba_bba_bba]a]a=a=a=a?a.a.a=a.a.a.a.a.a.a*a.a*a*a*a*a*a*a*a*a*a*a*a*a*a!a9a!a9a9a9a9a9a9a1aZa`b$bUbEbma-a2aVaSaMaMaKaMaMavasavasapamaiaqbmbsa1a9aUaDaKaVa+a2a2a2a2a,a+a#a+a#a+a+",
"aVaMa!a&a!a9aVa9a!a4a!a4a*a7a=a=a,a]a,a=aWa9a&a,a&a!a!a:a&a&a+a4aqaJaJaRaRaKasaMaUa!a:a^bma`a&a2aVa!a9aVa*a!a*a&a.a.a.a.a.a.a.a.a?a?a=a?a_a?a_a_a_bba_bbbbbbbbbbbbbbbbbbbjbbbjbjblbjbpbpbpbsbsbsbsbybybybHbDbHbHbHbJbNbNbJbNbRbVbVbWbVbWb0b0b5b5b4b&b&b&b*b,b,b;b;b;b5bYb:b*bYb;b^b_b}b}b_b_b#a5aXb!b_b}b}cjb}b~cdb}b~b[buauaObCaBahaAb4b[b_b}b}b}b~b}b~b_b_b*aXaAbZb:b^b^b^b]b^b:bRbRb&b3bBbVb4b5b5b5b5b0bWbWbWbVbRbVbNbJbNbNbDbHbDbDbDbBbybubmbsbsbsbpbpbpbpbjbfblbjbjbjbcbcbcbcbbbbbbbbbba`a_a_a]a]a?a=a?a=a=a?a=a.a.a.a.a.a.a.a.a*a*a*a*a*a*a*a*a*a*a*a*a*a*a*a!a9a9bmb7cmcmcmcib7bEa`a6aSaSaYaMaRaMavaravavaraoaea*bCbpa*a9aUaKaKa2a8a2a!a2a4a+a+a,a+a#a+a+",
"aVaSa2a&a!a9aVa9a4a9a4a&a&a=a#a]a,a]a,a]a9a2a+a+a&a!a!a+a+a+a+a9amaJaJaRaRaKawaRaUaSaSbmb%b?b%b7bQa:a!a!a6a2a.a&a.a.a.a.a.a?a=a?a=a?a]a_a_a_bba_bba`bbbbbbbcbbbbbjbhbjbjbjbjbpbjbpbpbpbsbubybubybybybDbHbHbHbHbNbNbJbNbRbRbVbVbWbWb0b0b0b5b5b4b#b&b&b*b,b,b;b;b;b^b[b&bZb;b;bRb]b}b}cdb~b~b~b*a)aXb.b}b~cdcdcgcdclcgcgb~bDauaObCaJahaGb3b^b~b~cdcdcdcdcdb~b~b6a5aGbZb^b^b}b}b}b}b^bZbRb*b*bDb0b*b#b#b#b5b#b5b5b0bWbWbWbWbVbRbRbNbNbNbDbDbDbDbDbDbybybubybubsbsbsbsbpbpbpbpbjblbcblbcbcbjbbbbbba`a`a_a_a]a]a_a=a=a?a=a=a=a=a=a.a.a.a.a.a.a.a.a.a*a.a*a*a*a*a*a*a*a*a*a+b1cvcvcqcqcmb`bEa.aVa!a%aSaSaSaMaMaBasavavaoaoaga!bCbua*a9aVaMaMa!a:a4a!a2aVa:a:a:a:a+a+a+",
"a2aMa!a&a4a9aWa9a9a4a*a&a&a=a=a]a]a`a`a=a9a!a+a:a&a2a!a+a:a+a:a2amaJaRaMaZaJayaRa1a1a9a1aVa:bmbEbSbva!a&a*a*a9a*a.a?a=a?a=a?a]a]a_a_a_a_a_bbbbbbbbbbbcbbbjbjbjbjbjbjblbpbjbpbpbpbpbsbsbybybybybDbDbDbDbHbHbHbNbNbNbNbVbNbWbWbWbWb0b5b5b5b5b#b#b&b,b,b,b;b;b;b^b^b^b^b.bZb^b;bZb]cdcdcjcdcdcdb*a)aXb.b~cdcgclclclclclcgb~bNaAaXbOaYajaOb&b_b~cdclcgclcgcdcdcdb:a5aOb!b_b}cjcdcdb}b_b!bRb:b*bRb5b:b*b*b&b#b#b#b5b5b5b5b5bWbWbVbVbRbVbRbJbJbNbDbDbDbHbDbDbybybybybububsbsbsbpbpbpbjbjbjbjbjbjbbbcbbbbbba`a_bba_a_a]a]a]a]a?a]a?a=a=a?a.a=a=a.a.a.a.a.a.a&a.a*a&a*a&a!a!a+bfbCbQb7b<bgaVaZa2aZaMaVa6aSaSaSaSaBasayavasaoanavbvbya%a!aVaMaSa!a:a!a!a2a2a:a:a:a+a+a+a+",
"aVaSa!a+a#a9aWa4a*a!a&a&a=a=a]a,a`a`a}a=a!a9a+a:a9aTa&a,a:a+a:a2amaJaRaZaSaRaIaRa1a1a9a9a:a2a1aVaVa!a`a+a.a.a.a*a.a?a]a]a_a_a_bba`a_bbbba`bbbbbcbbbcbcbjbjbjbjbpbjbpbpbpbpbsbpbsbsbybybybybDbHbDbDbHbHbHbNbJbNbNbNbVbVbWbWbWb0b5b5b5b4b5b#b#b&b,b,b,b;b;b^b]b^b}cfb_b;bZb}b]bZb^cdclclcgcgcdb*a)a5b.cdcgcgclclcsclclcgcdbNaAaXbOaYalaOb*b_cdclclclclclclcgcgb:a5aXb!b}cdcdcjcgcdb}b5bVb^b:bRb4b:b*b:b,b,b,b&b#b#b#b5b5b5b0bWbZbWbVbVbRbVbRbNbNbNbHbNbHbHbHbHbDbybDbybybybubsbsbpbpbpbpbjbjblbjbjbcbbbcbbbbbbbba]bba]a`a_a_a]a_a]a?a]a=a=a=a=a=a.a=a.a.a&a*a*a&a.a&a2a2aVaVaSaVa2aVaVa9aVa%a2aVaVaSaSaSaSaBasayavasasanaJbCbsa%a&a2aMaSa!a:a!a!a2a2a:a:a:a+a+a+a+",
"aVaSa!a+a#a9a4a9a7a.a#a=a=a]a]a]a}a}a}a]a7a!a,a:a!a1a&a,a:a:a:a2amaJaJaRaZaRaIaZa9a9a9a9a:a!a9a9a9a2a+a]a.a=a?a=a.a*a]a_a_a`bbbba`bbbcbbbcbcbjbjblbjblbjblbpbpbpbpbsbsbsbsbybsbybybBbDbybHbDbDbHbJbHbJbJbNbJbNbVbVbVbWbWb5b0b5b5b5b4b#b&b&b,b,b,b;b;b;b^b^b^b}b}b}cdb;b!b}b]b!b^clclclclcgcgb:a)a)b*cgcgclcscncscscncgcgbNaGa5bOa5aqaOb,b~clclcnclcncsclclcnb)a)aOb&b}clclclclcgcdb!bZb^b:bVb&b[b:b:b;b;b,b,b,b,b&b#b#b5b5b5b0b0bWbZbWbVbVbVbRbNbNbNbNbNbNbHbHbHbHbHbHbBbybBbybubsbsbsbpbpbpbpbpblbjbjbcbcbcbbbcbbbba`a`a`a_bba_a_a_a]a_a]a?a=a=a?a.a.a.a&a*a9a&a=a&a!a2a!a!a!a!a!a2a2a2aVa%aVaVaVa6aSaSavayavaBasasalaVbObsa%a?a2aYaMa!a:a!a2a2a2a:a:a,a]a#a=a#",
"a2aUa&a+a#a4a9a7a*a#a=a=a,a]a,a`a}a}a}a]a&a&a:a:a&a1a+a:a:a:a-a!amaJaRaZaSaZaIa1a9a9a*a*a*a*a.a.a.a.a=a=a_a]a?a=a_a_a.a_bbbbbbbcbbbcbcbjbjblblbpbtblbpbsbtbsbsbsbsbybybybybybybBbHbHbHbHbHbHbNbNbNbNbRbNbRbJbVbVbVbWbWb5b0b5b5b4b#b#b&b&b,b,b;b;b;b;b^b^b_b}b}b~cjb~b]b!b}b<b!b}clclcsclcncgb_a)a)b]cgclcncscscscscscncgbRaOa5bOa6aqaXb,cgcgcscncncscscscncnb^a)aXb&cdclclclclclcgb&bZb_b^bVb&b^b[b[b:b:b:b;b,b,b,b,b&b&b#b5b5b5b5b5b0b0bZbWbVbVbRbVbRbRbNbNbNbNbNbNbHbHbHbHbybybybybybybsbybsbpbsbsbpbjbpbjbjbcbjbcbcbhbcbbbbbbbbbba_a_a_a]a_a]a_a]a=a=a.a9a&a&a:a=a2a!a!a&a%a2a!a!a9a!a2a2a9a9aVa1aSaSaBayaBaBavasananbcbfa<a?a!aMaYa!a:a!a!a2a2a:a]a,a]a#a]a=",
"a!aUa&a,a&a!a4a&a&a=a=a]a]a:a`a}a}a}a>a`a!a&a,a]a7aVa:a:a:a}a}a!amaJaRaSa1aSaIa9a*a*a.a*a.a.a.a=a?a?a]a_a_a_bcbca_bba.a_bbbbbhbjbbbjbjblbpblbpbtbpbtbpbsbsbybtbybybybybybybBbHbHbHbLbHbNbLbNbNbRbRbRbRbVbVbVbWbWb0b0b0b5b5b4b#b#b&b&b&b,b.b;b,b;b[b[b^b_b}b}b}b~b~cdb;b!cdb}b8b}clcscncscncsb[a;a)b]clcncscscscscAcscncgbVaAa5bOa6aqaXb:cgclcscscscncscscscnb^a;aXb.clclcsclcscscgb&bZb<b^bZb*b_b^b^b^b^b]b:b;b;b,b,b,b,b#b#b#b5b#b5b5b5b0bZb0bZbVbVbVbVbVbRbRbRbNbNbNbHbJbHbHbDbDbDbybHbybybybybybsbsbsbsbpbpblblbpbjbcbjbjbcbcbcbcbbbbbba_a`bba`a_a]a]a.a9a!a&a=bma]a*a*a.a.a.a*a*a*a*a*a*a9a9a9a1aVaSaBavaBaBavasarafaya`a+a:a.aKaJa&a+a!a!a2a9a-a]a:a]a,a=a+",
"a!aUa&a+a&a2aMaBaJaDaRaKaRaLaSaSaUaVa&a#a&a*a,a`a&aVa:a:a:a}a-a&amaJaRaSa1aSaIa9a.a.a.a=a.a=a?a=a]a_a_bba_a_bcbca`bca.a_bcbhbjbjblbpbjbpbpbtbpbtbsbsbsbybybubybybybybybHbBbHbybHbLbHbNbNbNbNbRbRbRbVbZbRbVbWb0b0bZb0b5b5b4b#b#b&b&b,b.b,b,b;b]b;b^b^b^b}b}b~b~cdcdcdb;b!cdb^b!cdclcscncsclcnb^a;a)b]cncscscscAcscscAcncgbVaAa5bOa6aqa5b:cgcscncscscscscscnclb_a;a5b*clcscscsclcsclb&bZb<b^bZb;b_b_b^b^b[b[b]b:b;b;b,b,b,b,b&b&b#b#b5b#b!b5b5b0bZb0bZbWbWbVbVbVbRbRbRbRbRbJbNbNbHbJbHbHbHbHbHbybBbybybBbybybsbsbsbsbpbpbpbjbjbjbjbcbhbcbhbcbhbbbba`bba]a`a?a9a+a.a=a?a=a.a.a.a.a.a.a*a.a*a.a*a*a9a9a9aVaSaBaBaBaBavasarafava-a+a:a=aJaJa&a+a!a!a2a!a`a,a]a:a]a,a=",
"a2aUa+a,a&aVawafafafajagajagajagahadaDa&a!a&a]a:a+a9a:a:a:a-a}a&amaJaRaSa1aZaJa9a=a.a=a=a?a]a_a_a_bbbbbba`a_a?a_bcbca?bbbjblblbtbpbpbsbpbpbsbpbsbybybybybybybybHbybHbHbHbHbHbHbNbHbNbNbNbRbRbRbRbVbRbZbZb5bZb5b5b5b5b5b5b#b#b&b&b&b,b,b.b;b;b;b]b[b^b^b_b}b}cdcdcdcdb;bZb}b^b!cdclcncscscncsb^a;a)b]clcscscscscAcscscncnbRaGa5bOa6aqaXb[cgclcncscncscscscscnb^a;a5b,clcscscscscscgb,bYb^b[bZb^b_b_b^b_b[b[b[b;b:b;b;b;b,b,b.b&b&b&b&b#b#b5b5b5b5b5b5b0bZb0bZbWbWbVbVbVbRbRbRbRbJbNbJbLbJbHbHbHbHbHbHbybybybybBbybybsbsbpbpbpbpblbpblbjblblbcbjbcbcbca`a`a_a*a:a?a=a=a=a=a=a=a.a.a.a.a.a&a.a*a!a*a2a9a9aSaBaDaBaBavasamafaBa:a:a`a+aJaJa+a:a!a&a!a!a`a:a:a:a:a:a]",
"a2aSa+a:a+aVaBahafaganamarasavavaBasaKa!a!a!a=a`a#a9a:a:a:a`a}a&amaJaRaSa1aZaQa*a=a=a]a]a_a_bbbbbbbbbbbcbbbcbcbjbjbfa_bbblbpbtbpbsbpbsbsbubybybybybybybDbybHbHbHbHbHbHbHbHbHbNbNbNbNbNbRbRbVbRbVbVbVbZbWb!b5b5b5b5b5b5b#b#b#b&b&b,b.b;b*b;b;b;b]b[b^b^b_b}b}b}b~cdcgcdb;bZbob!clclclcncsclcnb^a;a)b]csclcscucscAcscucscgbVaAa5bOa6aqaXb:cgclcscncscncscscncgb_a;a5b,clcscscsclcsclb^bia~b!b^b_b_b_b^b_b[b[b[b[b;b;b:b:b,b*b,b,b,b&b&b&b#b#b#b5b5b5b5b5b5b0b0b0bWbWbWbVbVbVbRbRbRbRbRbNbNbNbJbHbNbHbHbHbHbHbHbDbBbDbybybybybubsbsbsbpbpbpblbpbjbjbjbjbcbca`a*bca]a?a]a]a]a]a]a=a=a=a=a.a.a.a&a*a!a*a2a9aSaBaDaBaBavasanafaBa`a-a`a:aJaJa&a:a&a&a!a!a`a-a]a,a]a,a]",
"a2aSa+a,a+aVaJakalamasasavaBaBazaDaBaSa&a!a!a+a-a&a9a,a`a,a]a}a:aIaJaRaZa1aZaQa.a=a?a_bbbbbbbbbbbcbbbjbjbjbsbsbpbpbsa_bbbsbsbsbybybybybybybybybybDbybDbHbHbHbHbHbHbNbJbNbNbRbNbNbRbRbVbRbVbVbVbVbZb0bWb5bZb5b5b5b5b#b#b#b#b&b&b,b*b,b;b;b;b;b;b^b^b^b^b^b_b_b_cdcncgb,bRbYb&b}cdclclclcnclcgb_a;a)b]cgcncscscscscscscncgbRaOa5bOa6aqaXb,cdcgclcnclcncsclcscgb[a)a5b*cdclclclcnclclcdb}bYbibAb*b_b~b_b_b^b[b[b:b:b;b:b:b:b,b*b*b*b*b&b#b&b#b#b4b#b5b4b5b5b5b0b0b0bZb0bWbWbWbWbVbVbRbVbNbRbJbRbJbJbNbNbHbHbNbHbHbHbHbHbHbybybHbybybybybsbsbsbsbpbpbpbpbjbjbba.bca`a`bca]bba_a_a_a]a_a]a=a=a.a.a.a.a*a*a!a1aJaBaBaIavasanahaBa}a`a}a:aQaBa+a:a&a&a!a2a`a-a:a:a:a:a,",
"a2aMa+a:a,aVaKaBa^bgbabvbgbkbkbEbFbEaSa&a2a+a+a}a+a2a:a`a:a}bfa-aIaJaRaZa1aZaQa=a_a_bbbbbcbcbcbcbjbjblbpblbpbpbsbsbsa_blbsbybybybybybHbybHbBbDbHbHbHbNbJbNbNbHbNbNbRbRbRbRbRbVbRbVbRbVbVbVbWbWb0bWb5b5b5b5b4b#b5b#b#b#b&b&b*b*b*b*b*b;b;b;b;b[b]b^b^b^b^b^b~cgcdb,bIbIb!b^b}b}b}cdcgclcdcgcgb^a;a5b]cdclclcscncscscncncgbNaGa5bOa6aqaOb,b~cgcgcgclcgclclcgcgb[a5a5b&b~cdclcgclcgcdcdcgcdb:bBa~bAb*b<b}b_b^b^b^b:b:b:b:b:b:b,b*b*b*b*b*b*b#b#b#b#b#b#b#b5b#b5b5b0b0b0b0bWbWbWbWbWbWbVbVbVbJbVbJbRbJbNbNbNbNbNbNbHbNbHbHbHbHbHbDbDbybybybybybsbubsbsbsbpbpbca?bpbcbvbCbbbcbbbba_a_bba_a]a_a]a]a]a=a=a.a&a1aJaIaJaJayasanahaJa`a}a}a`aQaBa+a:a!a&a!a2a-a`a:a,a:a:a:",
"a2aRa,a:a:a2aEaVbEbEbFbzbQbzbQbFbMbaa1a7a!a:a:a}a+a9a:a:a,a}bma`aJaIaRaZa1a1a%a_a`bbbcbcblbjblblbpbpbpbsbsbJbJbubybya_blbsbybybBbybHbBbHbybHbDbHbDbHbJbNbNbRbNbRbRbRbRbRbVbRbVbVbVbWbWbWbWb0bWb0b5b0b0b4b4b#b5b#b#b#b&b*b&b*b*b*b*b;b:b:b:b:b^b[b^b^b_b}cgcdb4bIbBb!b^b_b<b}b_b~b~cdcdcdcdcdb^a)a5b;cdcgclclcnclcnclcgcdbNaAa5bOaYajaXb#b~b~cjcgcgcgclclclcdb)a5aXb#b_cdcdcgcdcdcdcdcdb~b~b}b;bAa)bIb^cdcdb}b^b[b:b:b:b:b:b:b*b:b*b*b*b*b*b#b&b&b#b#b#b#b#b4b4b4b5b5b0b5b0b0b0bWb0bWbVbVbVbVbVbVbNbRbRbNbNbNbNbNbNbNbNbHbHbHbDbHbDbDbDbDbBbybybybybybsbsbja|bsbfbpbjbjbjbcbbbcbbbcbbbbbba`bba_a]a?a=a&aZaBaRaQaDaBawarajaQa}a}a}a`aBaJa+a:a&a&a&a!a-a`a-a}a,a#a]",
"a2aRa+a-a:a2aKaVbEbwbEbEbzbEbzbEbMbmaNa&a&a}a^a:a9aUa:a:a`a}a{a}aJaIaRaZa1a9a*a.a<bcbjbjblbpbpbsbpbsbsbububObJbubDbDbsbOb0b0b0b0b0b0b4b4b4b4b4b4b4b4b4b4b4b4b#b3b#b#b3b&b3b#b*b3b*b*b*b*b*b*b*b*b*b:b*b:b:b:b:b:b:b[b[b:b)b[b[b^b<b^b<b^b_b<b}b~b}b~cdb~b&bBbIb4b^b_b^b^b}b_b_b}b~b}cdcdcdb~b:a)a5b.cdcdcgcgclcgclcgcgb~bNaAaXbOaYaqaOb#b}b~cdcdcgcdcgclcdcdb:a5aXb4b^b}cdb~cdb~cdb~b}b~b}b}b_b<b&boa;bLb<cdb~b_b_b_b[b[b[b[b[b[b:b:b:b:b:b:b:b:b*b:b*b*b*b*b*b*b*b*b*b#b*b#b#b#b#b#b4b4b4b0b0b0b0b0b0b0b0b0bWb0bWb0bWbWbWbWbVbJbVbJbRbJbJbJbJbJbJbNbvbHbDbbbubsbmbsbsbpbJbvblbpblbpbjbcbjbbbcbba`a*aRa1a+a9aJaJaBawarajaJa}a}a}a`aQaDa:a:a&a+a:a:a}a-a}a}bMbUb$",
"a2aRa+a-a:a2aMa2bnbEbwbEbzbwbQbwbMa^aZa!a&a}a:a:aRaKa:a:a:bfbma}aJaIaJaZa1a9a.a.a%a%a_bcblblbpbpbhbpbsbsbsbpbsbubububpbJbObObObObObWbOb0b0bOb0b0b0b0b4b4b4b4b4b3b4b3b4b3b*b3b*b*b*b6b*b$b*b$b:b$b:b$b[b:b)b^b[b_b<b_b<b~b_b~b<b~b~b~b~cgcgcgcgcgcgb:b5bIbLb!b^b_b^b^b_b_b_b_b}b}b}b~b~b~b}b~b:a)a5b.b~cdcdcgcgcgcgcgcgb~bHaGaXbCaYaqaOb5b_b~b~b~b~cdcdcdcdb~b*aXaXb0b[b^b}b~b}b}b}b}b}b_b_b_b_b^b_b^b4bia~bLb*b<cgb`cdb?cdb?cdb~b?b~b~b?b<b<b_b<b_b_b<b_b<b[b<b[b[b[b)b:b:b:b)b:b:b$b:b:b*b$b*b*b$b*b*b3b*b#b3b&b3b&b4b3b4b4b4bQb0b4bQb0bObWbObWbObWbObObJbbbDbDbububsbubJbublblblblbjblbcblbhbca?a9a`a`a9aZaRaQavavarala2a}a}a}a`aBaJa:a+a&a=a:a!a`a}a-a}b7b`b%",
"a2aKa+a-a:a2aRa2bnbEbEbzbEbzbEbzbQa{aZa2a!a}a`a+aKaRa:a:a`a}baa}aJaIaJaRa1a*a*a.a?a.a%a<a<a<a<a<a<a<a<a<a<a%a\a%a;a%a)a%a%a%a;a<a%a<a<a<a<a\a<a<a<a<a<a<a<a<a<a<a\a|a<bea\bea|a\a|bea|bebebha|bhbebhbhbhbhbobhbobobobobobobAbobtbtbtbtbtbtbtbtbtbtbtbRb&b^b^b^b^b^b_b^b_b_b_b_b}b}b~b}cdb}b~b:a)aXb.b<cdcdcdcgcgclcgcgb_bHaGaXbJaYalaOb5b[b[b}b_b~b~b~b~b_b~b&aXaObOb:b^b^b_b_b^b_b^b_b^b^b^b^b^b^b[b^b:b0a|a~beboblbtbtbtbtblbobobobobobobobobobhbqbhbhbhbebhbhbebebebhbebebebebebea|a|a|a|a|a|a\a|a\a\a\a\a|a\a\a\bea\a\a\a\a\a<a\a\a\a\a\a;a\a%a;a%a\a%aYa<a*a<a<a<a<a*a<a*a*a*a<a*a<a<a*a<a<a2a.a*a1aZaZaRaBaIavarana!a}a}a}a`aIaDa:a:a&a+a:a&a:a-a:a`b%b`cc",
"aVaKa+a:a:a2aRa!bnbEbEbwbEbzbzbQbFbfaMa2a+a`a-a:aQaKa:a:a:bmbva}aJayaJaQaZa9a*a.a?a_a_a_bbbbbbbbbbbcbjbjblblbjblblblbpblbsbsbsbsbsbsbsbsbubububybybybybybybybDbDbybDbDbDbHbDbHbHbHbHbJbHbJbJbJbJbJbJbJbRbRbRbVbJbVbVbVbVbVbVbWb0bZb0b0b0b5b5b4b#b4b*b[b[b^b^b^b^b_b_b_b_b_b}b}b}b~b~b~b}b~b~b*a)aXb&b}b~cdcdcdcdcgcdcdb_bBaGaXbCaXajaOb0b[b[b_b_b_b}b_b_b_b<b*aXaXbRb;b:b^b^b_b_b_b^b^b_b[b_b[b[b[b[b[b:b:b:b4b4b0b0bWbWbWbVbVbVbVbVbVbVbVbRbVbRbRbRbJbJbJbJbNbNbJbNbHbNbHbNbDbHbHbHbDbDbDbDbBbBbybybybybubybubybubsbubybsbsbsbsbsblbpblblbpbjbjbjbjbjbbbbbcbbbha_bba_a_a|a?a?a?a?a?a?a.a?a.a.a*a.a*a9a9a1aZaRaQavavasaja+a}a}a}a`aBaBa:a:a&a+a:a*a:a`a:a]cccmcm",
"aVaKa+a:a,a2aRa!bnbEbrbEbFbQbzbQbMa^aRa2a+a:a`a:aDaQa:a`a:a}bma-aIayaIaJaZa1a*a.a?a?a?a_bba_bbbbbbbbbjbjblblbjbpblbpbpbsbsbsbBbsbsbybsbybybybybybybHbHbHbHbHbHbDbHbHbJbNbNbNbNbNbRbRbVbRbVbRbVbVbVbWbWbWb0b0b0b5b0b4b4b#b#b#b&b&b&b*b*b,b*b;b*b;b:b;b:b[b^b^b^b^b^b^b_b^b_b_b}b_b}b_b}b}b}b_b:a)aXb&b}b~cdcdb~cdcdcdb~b<bHaAaXbJaXajaGbWb[b[b^b^b^b_b^b_b[b^b&aXaXbZb*b:b:b[b[b[b[b[b;b[b:b:b:b:b:b:b:b:b*b*b:b*b*b*b*b&b*b&b#b&b#b#b#b#b#b4b4b4b#b5b5b0b5b0b5b5b5b0b0bZb0bWb0bZb0bWbZbVbZbVbRbRbRbNbNbNbNbNbHbNbHbHbHbHbHbHbHbHbHbDbHbHbybHbubybubububsbpbsbfbsblbjbjbcbcbbbbbbbbbba_a_a_a_a_a?a?a.a*a9a1aZaRaJaBavarala+a}a}a}a`ayaBa:a:a&a]a:a+a*a&a=a&b%cmcq",
"aVaDa+a2a&a2aJaRa>bfa/a>a}a>a-a:a:a2aKa!a:a:a`a:aRaRa:a`a:a`a^bcaIawayaJaRa1a*a*a=a?a?a_a|a_a_a_bbbbbbbbbhbjbjbjbjbjblbjbpbpbpbpbpbpbpbpbsbubsbubububybubybybybybybybDbDbHbHbHbHbHbNbNbNbNbNbNbNbRbRbRbWbVbWb0bZb0b5b5b5b4b#b5b#b#b#b#b&b&b,b,b*b,b*b,b;b;b;b;b;b;b:b;b[b[b;b[b[b;b[b]b[b^b[b*a%a5b&b<b}b~b~b~b~cdb~cdb<bBaAa5bCaQalaAbWb:b[b[b[b[b[b[b<b[b[b3aXaObRb*b*b*b:b;b,b;b,b*b*b*b*b*b*b*b*b*b*b&b3b&b4b#b4b4b4b4b4b4b0b5b0b0b0b0b0b0b0b0bWb0bWbWb0bWb0bWbWbWbVbVbVbVbVbVbRbVbNbNbNbNbNbHbHbHbDbybHbybybHbybybybybybybybybybybybubububsbsbpblblblblblblbja_a|bba|a_a_a_a|a_a|a_a|a|a|a?a?a*a*a9a1aZaRaBaIavaraJa`a}a}a}a:ayaya:a:a+a=a]a,a.a=a&a.a]bba`",
"aKava!a+a&a2aKaBaBavavasanamasasayaBaKa+a:a}a`a`aJaZa+a}a`a}bfa}aGaraGaQaZa1a*a.a.a.a|a?a?a?a?a?a?a_a_bbbbbbbbbbbbbbbhbjbbbjbjbjbjbjbjbpbpbtbubpbsbubpbpbsbsbsbsbsbsbybybBbybBbHbybHbHbHbHbHbHbNbHbNbNbNbRbZbVbVbZbWb5b0b5b5b5b5b5b4b4b4b#b!b&b&b&b&b&b&b,b.b&b,b,b,b,b,b,b;b;b;b;b;b:b;b;b:b*a~aXb&b<b}b~b~b~b~b~cdcdb<bBaAa)bCaXalaGbOb:b[b[b[b^b^b[b)b^b^b&aXaXbRb&b*b&b*b&b*b&b&b*b&b&b3b&b&b&b3b&b4b5b0b0b0bZb0b0bVbWbWbWbVbVbVbVbVbRbVbVbVbVbVbVbJbObVbVbJbWbVbJbJbJbJbJbJbJbJbJbDbDbDbDbDbBbybububsbsbpbsbpbpblblblblblblblblbjblblblblblbjbhbcbhbbbhbbbhbhbba_a|a_a_a_a_a_a_a|a_a_a_a_a_a_a?a.a9a9a6aRaIayawaJa+a:a`a`a`a:ayaya,a:a&a,a]a:a=a=a=a=a=a=a=",
"aDava!a&a!a2aVaVaUaUaSaEaDaSaSaSaSaSaSa+a`a}a}a}aRaZa+a}a`a}bma}aIaqaraGaYa9a%a%a%a\a<a*a*a*a%a*a*a&a<a.a?a?a?a?a?a?a?a_a_a_a_a_a_a_a_bbbbbbbjbjbjbbbobjbhbobhblboblblblbtbtbobtbtbtbtbtbybBbybybybybHbHbLbLbLbNbRbRbRbZbVbVbZbVbZbWbZbWb0bZb0bZb!b0b!b5b!b#b!b&b!b&b&b&b.b&b&b&b&b&b,b.b,b,b4a5aOb!b<b}b}b}b~b}b~b~b~b_buauaYbCaAajaubJb;b:b;b:b[b[b^b;b:b[b5aOaAbYb4b&b#b#b#b#b5b#b5b0b4b5b5b4b5b5b0bVbZbZbRbZbVbRbRbRbRbRbLbRbLbLbHbLbHbHbLbHbHbHbHbBbBbybybBbybybBbybBbybybBbtbtbtbtbobtbobobjbqbbbbbbbebbbebebebebebebebebebea_bebebea_bebea_bebea_bebea_bebea_a|a?bea?a\a?a|a|a?a|a?a|a?a?a<a.a*a%a1a6a:a*aRaIa9a+a`a`a`a}a+awaya+a:a!a=a:a=a=a=a]a]a+a=a+",
"aKaBa2a!a4aVaVaVaUaUaUaVa2a2aVaVaVaVaUa+a`a}a}a}aRaZa=a}a}a}bfbca+bcbEbQb)ccb`ccccccccb`b`b`b`b%b?b?b7b?b<b7b<b?b<b7b<b?b)b7b<b7b<b)b7b<b7b<b<b7b<b1b6b6b6b6b6b6b6b$b6b$b6b$b$b$b$b$b$b$b$b)b)b$b)b)b)b)b)b<b)b<b<b<b<b?b<b?b?b?b?b?b?b?b`b`b`b`b`b`b`b`ccb`cnb`cccccncccccucccucccucicucccuccb6bvcdcccncccncncccncncccnb3a|bvb3bca`bfb)cgcgcgcncgcccgcccicuccb)b$b`ciccccccccccccb`b`b`b`b`b`b`b`b`b`b?b?b?b?b?b?b?b<b?b<b<b<b<b<b)b<b)b)b<b)b)b)b<b)b)b)b$b)b)b$b)b)b$b)b$b)b$b$b$b$b$b$b$b6b$b6b6bSb6b6bSb3bSb6bMb3bMb3bMb3bMb3bSb3bSb6b3bSb3bSb6bMb6bSb3bSb6bSb$bUb6bUb6bUb$bUb)b1b)b)b1b)b)b)b)b)ccb-cccmcmcib7a<a+bca}a}a}a:awaya:a+a!a=a#a=a+a&a&a+a+a&a.",
"aEaJaVa2aVaUaSaSaSaMaVa2aVaVaVaVaSaSaSa+a`a`a}a}aZa1a]a}bcbfbfbcbccGcRcWcMcQcWcMcWcQcQcQcKcQcFcQcGcBcGcBcGcQcGcBcGcGcBcGcBcGcGcGczcGcGcGcGczcGczcGcGcBczcBczcBcBcBcFcBcBcFcBcFcBcFcBcFcFcBcFcFcBcFcFcFcFcQcFcQcKcQcFcQcKcQcKcQcKcWcQcKcQcWcQcQcWcQcWcWcWcWcWcWc2cWc2cRc2c2cXc2cXc2cXc2cXc7cXc2c7cXc2c2c2c2cRc2c2c2cWcRcWcWcMcWcWcRc2c2cRc2cRc2cRc2cRc2cRcXc2cXcXcXcXc2cRc2cRcRcWcRc2cMcQcKcKcQcKcQcKcQcQcQcQcQcQcQcQcQcFcQcQcFcBcQcFcFcFcFcQcFcFcFcFcFcFcBcFcBcFcFcBcBcGcBcGcBcGcBcGcBcGcBcGcBcGcBcGcBcBcGcBcGcBcGcBcBcBcBcBcBcBcFcBcQcBcFcFcBcFcFcBcQcBcFcFcBcQcBcFcFcFcQcFcQcFcKcQcKcWcMcWcMcWcRcRcWcRcWcMcQcKcWcza?a&a`bfa}a`a:asaya:a+a!a+a=a&a&a!a!a!a!a!a4",
"aDaBaUaVaSaMaMaMaMaKaUaVaSaSaSaSaMavaQa+a`a`a}a}a1a1a=a}bcbcbfbcbcbQbvbQcGcQcGccb3bQbObObJbDbvbDbsbsbDbBbDbubybybDbDbybDbybDbvbubHbDbvbubvbHbDbDbvbDbDbvbJbCbvbJbCbJbCbJbCbJbJbJbCbJbvbJbJbCbJbJbObCbObObObObWbOb0bOb0bOb0bQb0b0bQb4b4bQbQbQbQb3bQbQb3bQb3b3b3b3b3b3b3b6b$b6b$b6b6b$b$b$b$b$b)b$b$b)b)b)b)b)b$b$b)b)b$b$b)b:b$b)b)b)b)b)b$b)b)b[b)b)b)b$b)b$b$b$b$b$b6b6b6b6b6b6b6b3b3bQb3b3bQbQb4bQbQb0bQbObQbQb0bQb0bQb0bQb0b0bQb0bOb0bEbQb0bQbObQbObObObObObObObObObCbEbObCbCbObCbCbCbCbCbCbCbCbCbJbCbJbCbJbCbCbJbDbJbDbDbJbDbDbDbvbDbvbDbDbDbDbvbDbvbDbDbvbvbDbDbJbCbvbCbCbCbJbCbJbvbJbCbObJbJbJbvbvb`cWcKcQcvb$a.a&a`a}a}a}a+arawa+a+a!a&a&a!a!a!a!a9a9a2a9",
"avavaKaMaKaEaEaKaEaKaDaEaDaKaDaMaYaDaKa+a:a`a}a}a1a9a]a}bcbcbcbbaXa6bQcccib`bQbOcccuccbObvb3b6bQbQbvbcbfbsbfbsbmbmbsbfbsbmbfbubfbmbubfbmbubfbmbmbmbmbubmbububmbubsbmbsbubmbubfbpbsbpbubfbsbmbubmbsbububububububububububHbubHbHbHbHbHbvbHbvbDbDbJbDbJbDbJbDbvbJbCbJbJbCbJbJbJbJbJbCbJbJbJbJbJbJbJbJbCbJbCbJbubmbubmbsbQbQbJbmbQb6b6bCb0b6b$b$bQbpbubWb0bWbWbWb0bWbWbWbObWb0b0b0bWbWbVbJbJbJbJbNbJbJbRbNbJbObJbJbJbJbJbJbJbJbJbJbJbJbJbCbJbCbCbCbCbJbCbvbObCbObCbCbCbCbCbJbCbvbCbCbJbJbvbDbCbDbvbJbDbvbJbvbDbvbDbDbvbDbDbvbDbDbvbDbBbmbsbubfbubsbubpbubfbubsbubfbubububmbDbmbDbvbvbDbpbCbObQbOa|bBb6b$b$b3bQb3b6b)bJa%aYa}bfbfbfa}a+aqaBa}a#a2a+a!a!a!a!a!a2aUaUaU",
"akalaxaDaBaBaBaxaBaxaBaBaBaBaBaDaDaBaDa+a:a:a`a`a1a&bfa}bcbcbca_a.a|a.a%aQa%b<cGcWcmb3b?cGcGcGcvccb<b<b?b?b?b?b<b?b?b?b?b?b?b?b?b?b?b?b?b?b?b?b?b?b?b`b?b`b?b?b?b?b?b?b?b?b?b`b?b?b?b?b`b?b?b?b`b`b`b`b`b`b`ccb`b`b`b`ccb`ccccccccccb`cccicccccicccicccicccicccicicucicicicucicicucicicicicicicucicicicicuccb?b`b`b`cGcWcQcQcWcWcWcQcQcWcWcWcGb`cgcccicccucicncccccncccicucicucicucccccncccccucccuccccccccccccccccccciccciccccccccccb`ccccccb`ccccccccccb`ccccccccccb`ccb`ccb`b`b`ccb`b`b`b`b`b`b`b`b`b`b`b`b`b`b`b`b`b?b`b`b?b`b`b?b`b`b?b`b`b`b?b`b`b`b`b`b`b`b`b`b`b?b`b`b`ccb`b`cccucGcIcqcgb<cIcGcGcGcEbEauauajaQbmbma^bmbfa+aqaSa^a&aVa+a!a!a!aVaMaKaDaEaC",
};
