/* XPM */
static char *xpm[] = {
"320 180 248 2",
".. c None",
"ab c #000000",
"ac c #010001",
"ad c #010101",
"ae c #020101",
"af c #020202",
"ag c #030303",
"ah c #040102",
"ai c #040203",
"aj c #060404",
"ak c #080707",
"al c #0b0509",
"am c #0c0505",
"an c #0d0a0d",
"ao c #0e0a09",
"ap c #0f0446",
"aq c #0f092d",
"ar c #110e17",
"as c #110f15",
"at c #111017",
"au c #120d0c",
"av c #120d10",
"aw c #120e0f",
"ax c #130d14",
"ay c #130e12",
"az c #140d13",
"aA c #140e12",
"aB c #160f19",
"aC c #16100e",
"aD c #161314",
"aE c #171319",
"aF c #181216",
"aG c #181218",
"aH c #181313",
"aI c #181318",
"aJ c #191719",
"aK c #1a120e",
"aL c #1a121b",
"aM c #1c1714",
"aN c #1d111c",
"aO c #1e151a",
"aP c #1e1a1b",
"aQ c #201613",
"aR c #20162d",
"aS c #21191d",
"aT c #21191e",
"aU c #211a17",
"aV c #211a20",
"aW c #211f1f",
"aX c #221822",
"aY c #23202f",
"aZ c #241916",
"a0 c #241c20",
"a1 c #241e19",
"a2 c #242222",
"a3 c #25163c",
"a4 c #251d29",
"a5 c #251e27",
"a6 c #251f26",
"a7 c #251f2e",
"a8 c #261c1e",
"a9 c #261e23",
"a! c #272024",
"a# c #27221c",
"a$ c #272525",
"a% c #281c18",
"a& c #292022",
"a( c #2a232d",
"a) c #2a2534",
"a* c #2a2827",
"a+ c #2b1f1b",
"a, c #2b241f",
"a- c #2b2536",
"a. c #2b2629",
"a/ c #2c1f46",
"a: c #2c252a",
"a; c #2d2324",
"a< c #2d252e",
"a= c #2f2b2d",
"a> c #30231e",
"a? c #302428",
"a[ c #302722",
"a\ c #322527",
"a] c #322b25",
"a^ c #322f33",
"a_ c #33302f",
"a` c #342521",
"a{ c #342831",
"a| c #35282b",
"a} c #362f29",
"a~ c #363435",
"ba c #372925",
"bb c #372d32",
"bc c #3b3136",
"bd c #3b332d",
"be c #3b3839",
"bf c #3c2b33",
"bg c #3c2c28",
"bh c #3d3731",
"bi c #3e312a",
"bj c #3e3c40",
"bk c #3f3d3c",
"bl c #402e35",
"bm c #40302b",
"bn c #41343b",
"bo c #442d2b",
"bp c #443430",
"bq c #443c35",
"br c #453a43",
"bs c #454444",
"bt c #46413d",
"bu c #46414c",
"bv c #464245",
"bw c #48393d",
"bx c #483a34",
"by c #494540",
"bz c #4a3933",
"bA c #4b3e4c",
"bB c #4b484c",
"bC c #4b4945",
"bD c #4d3d39",
"bE c #4d465b",
"bF c #4e3f44",
"bG c #4e4d50",
"bH c #4f3635",
"bI c #4f4d49",
"bJ c #51403c",
"bK c #525150",
"bL c #534741",
"bM c #554751",
"bN c #56464c",
"bO c #564e62",
"bP c #565554",
"bQ c #57455a",
"bR c #584f59",
"bS c #594645",
"bT c #594f55",
"bU c #5b504b",
"bV c #5b5a59",
"bW c #5e5854",
"bX c #5f4d4c",
"bY c #5f5a6a",
"bZ c #605f5f",
"b0 c #62565b",
"b1 c #63586b",
"b2 c #635f5a",
"b3 c #644c56",
"b4 c #656565",
"b5 c #67494d",
"b6 c #676562",
"b7 c #695955",
"b8 c #6a536b",
"b9 c #6a5b62",
"b! c #6a676b",
"b# c #6b6b6b",
"b$ c #6c647f",
"b% c #6d6b68",
"b& c #6e6371",
"b( c #705559",
"b) c #706564",
"b* c #707170",
"b+ c #737270",
"b, c #767676",
"b- c #77616a",
"b. c #777877",
"b/ c #787775",
"b: c #797195",
"b; c #797677",
"b< c #7a6c7f",
"b= c #7d7d7c",
"b> c #7e6c70",
"b? c #7f5f62",
"b[ c #7f7183",
"b\ c #7f7d7a",
"b] c #7f7f7f",
"b^ c #80737a",
"b_ c #817371",
"b` c #83768f",
"b{ c #838383",
"b| c #847a80",
"b} c #848381",
"b~ c #858285",
"ca c #868685",
"cb c #878481",
"cc c #897d9e",
"cd c #8a8a8a",
"ce c #8c8b89",
"cf c #8c8c8c",
"cg c #8d898c",
"ch c #8f84ab",
"ci c #8f8f8f",
"cj c #907d8d",
"ck c #919292",
"cl c #929292",
"cm c #929393",
"cn c #939393",
"co c #957471",
"cp c #959594",
"cq c #968594",
"cr c #989898",
"cs c #99999a",
"ct c #9a8bb1",
"cu c #9a9091",
"cv c #9b7779",
"cw c #9b9b9a",
"cx c #9f92b4",
"cy c #9fa09f",
"cz c #a09f9d",
"cA c #a18385",
"cB c #a18a99",
"cC c #a2a2a2",
"cD c #a6a6a5",
"cE c #a7949e",
"cF c #a9a9a9",
"cG c #ab9bac",
"cH c #ababab",
"cI c #aca9a7",
"cJ c #acabab",
"cK c #afa2ba",
"cL c #afafaf",
"cM c #afb0b0",
"cN c #b1b1b1",
"cO c #b1b1b3",
"cP c #b3b2b2",
"cQ c #b6a9c3",
"cR c #b6b6b6",
"cS c #bababb",
"cT c #bd978e",
"cU c #bfbfbf",
"cV c #c3c2c3",
"cW c #c6c6c6",
"cX c #c89aa1",
"cY c #cacaca",
"cZ c #d0cfcf",
"c0 c #d5d5d5",
"c1 c #d9d9d9",
"c2 c #dddddd",
"c3 c #e0e0e0",
"c4 c #e4e3e3",
"c5 c #e7e7e7",
"c6 c #ebebeb",
"c7 c #f0f0f0",
"c8 c #f4f4f4",
"c9 c #f8f8f8",
"c! c #fbfbfb",
"c# c #fdfdfd",
"c$ c #ffffff",
"c% c None",
"................................................................................................................................................................................................................................................................................................................................................................................................................................................................................................................................................................................................................................................................",
"................................................................................................................................................................................................................................................................................................................................................................................................................................................................................................................................................................................................................................................................",
"................................................................................................................................................................................................................................................................................................................................................................................................................................................................................................................................................................................................................................................................",
"................................................................................................................................................................................................................................................................................................................................................................................................................................................................................................................................................................................................................................................................",
"................................................................................................................................................................................................................................................................................................................................................................................................................................................................................................................................................................................................................................................................",
"................................................................................................................................................................................................................................................................................................................................................................................................................................................................................................................................................................................................................................................................",
"................................................................................................................................................................................................................................................................................................................................................................................................................................................................................................................................................................................................................................................................",
"................................................................................................................................................................................................................................................................................................................................................................................................................................................................................................................................................................................................................................................................",
"................................................................................................................................................................................................................................................................................................................................................................................................................................................................................................................................................................................................................................................................",
"................................................................................................................................................................................................................................................................................................................................................................................................................................................................................................................................................................................................................................................................",
"................................................................................................................................................................................................................................................................................................................................................................................................................................................................................................................................................................................................................................................................",
"............................................................................................................................................................................................................................................................................................................................................................................bh..................................................................................................................................................................................................................................................................................",
"............................................................................................................................................................................................................................................................................................................................................................................a]..................................................................................................................................................................................................................................................................................",
"............................................................................................................................................................................................................................................................................................................................................................................a]..................................................................................................................................................................................................................................................................................",
"............................................................................................................................................................................................................................................................................................................................................................................a}..................................................................................................................................................................................................................................................................................",
"................................................................................................................................................................................................................................................................................................................................................................bI..........bIbt................................................................................................................................................................................................................................................................................",
"................................................................................................................................................................................................................................................................................................................................................................aH............bh................................................................................................................................................................................................................................................................................",
"..............................................................................................................................................................................................................................................................................................................................................................bK..............bPbq..............................................................................................................................................................................................................................................................................",
"....................................................................................................................................................................................................................................................................................................a_........................................................bd................bq..............................................................................................................................................................................................................................................................................",
"..........................................................................................................................................................................................................................................................................................................bk....................................................................bta2............................................................................................................................................................................................................................................................................",
"..................................................................................................................................................................................................................................................................................................bW....bq......................................................................a]..............................................................................................................................................................................................................................................................................",
"..................................................................................................................................................................................................................................................................................................by..a*......................................................bq..............bWa]..............................................................................................................................................................................................................................................................................",
"..................................................................................................................................................................................................................................................................................................a#a~......................................................bPaMa]............bi................................................................................................................................................................................................................................................................................",
"................................................................................................................................................................................................................................................................................................beaU........................................................bZ..bUbI........b2bU................................................................................................................................................................................................................................................................................",
"..............................................................................................................................................................................................................................................................................................bIaM..........................................................bt....aM......bWbU..................................................................................................................................................................................................................................................................................",
"..............................................................................................................................................................................................................................................................................................a}a_..........................................................aP....bk....bWa%bk..................................................................................................................................................................................................................................................................................",
"............................................................................................................................................................................................................................................................................................bCaQ............................................................aW....b6bqbIaQa}....................................................................................................................................................................................................................................................................................",
"..........................................................................................................................................................................................................................................................................................bIa%a*........................................................bea[a2......bza}a]......................................................................................................................................................................................................................................................................................",
"..................................................................................................................................................................................................................................................a}......................................a}..a#....................................................bCbP....a]......bLbhbIa]....................................................................................................................................................................................................................................................................................",
"....................................................................................................................................................................................................................................................bq....................................bh..bWa&......................................a=........a~........a[......bqbhbJaM....................................................................................................................................................................................................................................................................................",
"....................................................................................................................................................................................................................................................bLby..................................bhbs..aU....................................a#........be..........a#........a]a]a}....................................................................................................................................................................................................................................................................................",
"......................................................................................................................................................................................................................................................a,....................................a]a2a]a]................................a]......................bh........bababd....................................................................................................................................................................................................................................................................................",
"......................................................................................................................................................................................................................................................a%..........................................a]..............................bq........................bd........bkbxa_....................................................................................................................................................................................................................................................................................",
"......................................................................................................................................................................................................................................................bLbq......................................bIbUbq..........................bkbe........................bU........bUa]a[......a}aM..........................................................................................................................................................................................................................................................................",
"........................................................................................................................................................................................................................................................bh........a$a$a~bk..............bda,aMajama%bi..........................aM................bC........b2bLbqa*btbybiby..bLaM..............................................................................................................................................................................................................................................................................",
"........................................................................................................................................................................................................................................................bya]..........bCa_a2auauaKaMaoahaoaHa~bK..a_bgbh......................a}............................bLa%aoahaoa>bDa`aZa[................................................................................................................................................................................................................................................................................",
"..........................................................................................................................................................................................................................................................a}bd..........bt..........................bhaZbd....................a#................a~........bLa>a#......bxa>......................................................................................................................................................................................................................................................................................",
"............................................................................................................................................................................................................................................................a,..........bKbI..........................a%a#..................a]aM................be......bxa`a*........bJa}......................................................................................................................................................................................................................................................................................",
"............................................................................................................................................................................................................................................................a]aH........bWa[........................bIa1a#a]................aCa1aC............bt......bDaUa1..........bxbabK....................................................................................................................................................................................................................................................................................",
"..............................................................................................................................................................................................................................................................a,a1..bZbgbDa]bt....................b2aU..aPaZbd............bkbt..beaM................bda%aM..........bUbibp....by........bt......................................................................................................................................................................................................................................................................",
"................................................................................................................................................................................................................................................................aoa]..bdbqbDbi....................aU......a%bmbI..........a,......a=aU......bk....bhbpa,............bybSbz....bybh......bh......................................................................................................................................................................................................................................................................",
"................................................................................................................................................................................................................................................................a*ah....a~bxbUbd................a#a$......b2a+a>........bqa_........a_akbqa]....bLbma#..............bDbLa,......bU....btbq......................................................................................................................................................................................................................................................................",
"..................................................................................................................................................................................................................................................................aUao....bta}a[..............bkaw..........a]aZ......bta[..............aKa,..bWbdaM................bqbgaK......by....bybD......................................................................................................................................................................................................................................................................",
"....................................................................................................................................................................................................................................................................aMaM....aZa%............byaD........bC..bIba......a>a;............a_..a=a1biaQa}................bLa>a1......bI....aZby......................................................................................................................................................................................................................................................................",
"..............................................................................................................................................................................................................................................by..........bd........a_aKa#bya}a[..........a=au............bybpbh......aQbk............ak....bhaMaKaKa#a~bk..........bxbia>......b6..bVa|........................................................................................................................................................................................................................................................................",
"................................................................................................................................................................................................................................................bt......a#bh..........a_aKa>bxbi......bqaUaK..............b%bdbq....byaZa_............a2......a]bda_aMaCaeabamaMa[bUbibhbpby....bUbLbUa1........................................................................................................................................................................................................................................................................",
"................................................................................................................................................................................................................................................bhbI....a_..............bdbibdbha}a,a;aZa*................b2a`bibIb%bDa#a[..........a_........a#babU..........a#a>bia}bhbDbh....bybybLa]........................................................................................................................................................................................................................................................................",
"..................................................................................................................................................................................................................................................a>....bt................bda}a#aCa}bybWa2be..............bhbpa}aUa}bhaMa[..........a,........bCbpbq..........bqa,a[bia}bJa}....bhbkbxbC........................................................................................................................................................................................................................................................................",
"..................................................................................................................................................................................................................................................bLby....bk..............bqa]a%aQ..........aJa_..........bxbzaQ....a#aKa#bq........a]........bWbibp........btbiaMbha]a>bDa%....bybqbpb6........................................................................................................................................................................................................................................................................",
"..................................................................................................................................................................................................................................................a}a%....a}..............a[bqa]a1a#............aMbk......bxbLba....bda,a*aKbt....bqbk......bxa|a[bib2....a,a%a#....bCa}a}a]....bUa[a]bW........................................................................................................................................................................................................................................................................",
"....................................................................................................................................................................................................................................................a[bG..bq..............a]bga]a,aKbh............bea}....babzbq....a[be..aUa,bq..a,....bqaOa#a}a|baa}bybga+aKaMbhbIbka}a+bi....bhbabha}......by................................................................................................................................................................................................................................................................",
"......................................................................................................................................................................................................................................................aK..by..............a]aQbhbtbia`..............aM....aMbmbxa[byaM....bka,aMa[bda[a1aQa}a#aQa+a2aCbpbgbpa#bta2a_..bmbga>....bdbma}........bU................................................................................................................................................................................................................................................................",
"......................................................................................................................................................................................................................................................a[bebIa*............biaKbq..a`a+..............aJ......a[bga`aQaC......aWa_bdbUbxa+auaoaKa_......bgbJaM..........bia>bgbebWbpa>bd......bUbd................................................................................................................................................................................................................................................................",
"......................................................................................................................................................................................................................................................bPbgbIbxbd....be....baa,bd..bdbhbU............aH......bLbiaKa+a>......a_a[a1bJbDbk..............bgbpbU......a=bha,a>bhbIa1a[babC....bLa+..................................................................................................................................................................................................................................................................",
"........................................................................................................................................................................................................................................................a]a}bxbibq..be....a`a+a+..b2bqbq..............aw....bqa`aZa`bp......bqa`baa]bI................bhbU......be..bha#aZa}a~..a`ba....btaK....................................................................................................................................................................................................................................................................",
"......................................................................................................................................................................................................................................................bea}bgbmbdbibC......a}babp....aZbd............bUa`a]..bpaZa>a]bgby..bKbabLbqa+bC................bUbUby..a]bWb6a>a%aKa#....bgbgbqbaaZa1....................................................................................................................................................................................................................................................................",
"..........................................................................................................................................................................................................................................................a,bzbta_aUbe..bea]a#bpbzbWa,a]bI........aUbLbUaUbibgaMa,bta?a]bqbIbha|bda}..................bUbDa[aKbib7a[aZaCa_....bWa>a+aZa}a]..............bhbhbKbCa1..............................................................................................................................................................................................................................................",
"..........................................................................................................................................................................................................................................................bta>a>a]a]a1a*..btaQaQbga#a]bqa}......bya[bt....a]a[aZa]bta1a,a[a,a]baa[bhbW............bPa1a}b7bDbha]bLa#a%aC..b2a}a+a+a[..be..............a#..........a[............................................................................................................................................................................................................................................",
"............................................................................................................................................................................................................................................................a;a+a]btaUaUa1aMa%a#a>a]..a,bha#b7bLaKaKbaa}bCbxa_a#a]bha#a[a#..bybLbxbxaQ........bka#aCa]b2bLa#..a>a>a,a#a}b2a>aQaUaUa,..................a_..........a#............................................................................................................................................................................................................................................",
"............................................................................................................................................................................................................................................................bhbaa#....a1a]a}aMa#a`a}..bda`bhbLbLa}bCbaa%bibgbka$a]bxa%aQa2....bIa#baa`aQa_..bPaM......bWbabxbUbgbDa>a1bWbLa+a]bha%aUao..............bha$........................................................................................................................................................................................................................................................",
"..............................................................................................................................................................................................................................................................a%a#......bda}a}a%a+a`bDbKa+babqbaa}..babDbha~aUa+a>bga[aZa_....bda[a#aZaZaKaMa1babK....bybgbJbia+a+a1..bUa`a#bta[aK....a_..............bkaoby....................................................................................................................................................................................................................................................",
"..............................................................................................................................................................................................................................................................a,aSaKa*a*....bha%a+a%aZbibxbibva,a,bLa}a]......bta+bda}a]a~....a+babha]aAaQa+a+aQa%....bIbzboa`bza]....bLbma#..a#a+......................bsa,....................................................................................................................................................................................................................................................",
"..............................................................................................................................................................................................................................................................bIaDaC....bd....bsaKa`a>a+bgbpbha[bgbaa1........a}a+bibLaC......aZbmbZ..bKa$btbLbXbzbxbhbLbabDbDbma}a#a#bLa]a1..aQa>........................a1a~..................................................................................................................................................................................................................................................",
"..............................................................................................................................................................................................................................................................a*aPa&a$....a[....bLbgbobgbia`boa>babDa]......bPa#a[a%bibs....bha%bq..........bxb7b)bLbJbhbpbSbxa`a+..bVbzbia+a}bba|........................aC....................................................................................................................................................................................................................................................",
"............................................................................................................................................................................................................................................................a~a_a_aKaHa*bkbPa]bybta,a>a}bzbza`a+a`bqbabg....a]aOa+a%aua}..bUbia,a#........b2bpbibzbJbibpbzbzbxa1aK..bLbzbmbababgbi....................bIaw......................................................................................................................................................................................................................................................",
"............................................................................................................................................................................................................................................................bk....a%ao....bdbda~aUa,bgbibibxbgaZbibpbgbHbabIa,aQa>aUa1aZa`a`a+a,bC......bta%a>bpbia`a`bDbSbLa+a]a>bqbpbza+aKaQaZbga+................aUao........................................................................................................................................................................................................................................................",
"..................................................................................................................................................................................................................................................................a*aQbh....bkbpbpaUaMbhbLbpbpa%a>bgbzbgbza>a[aZa`..bha]bDa>aMaU........a,a>aKaQaZaZa>bibUbza>bibibpaWaMbPbCaQauaZa%aZbh........a[ahaP..........................................................................................................................................................................................................................................................",
"..................................................................................................................................................................................................................................................................bha>a}bha+a+a+bdbdaMa#bpbybia[a%aQbmbza%bJa>a%a1bCa[a+bibgaC........a[bJa|a=aQaZa%a]bmbSbmbmbibza+a=......bya1a1aZa%bpa}auaKaKaZ..............................................................................................................................................................................................................................................................",
"........................................................................................................................................................................................................................................a~..........................a#a&aMaCaMa8bda}a[aZa}bxbybaa>baa>bJa`bJbJaZa|a`bmbpbaa]a,........bDbmaZbqa%a[bibababpbDbab2bS..........bta,a[a#bda,bh......................................................................................................................................................................................................................................................................",
"........................................................................................................................................................................................................................................aobG......................a~a#aCaCaCaOaUa&a,a[babqbebpa,babJbJa+a>a>bSbUbibxbSbpa$aKa`a`bibh..bUa`aZbcbxa}bDa>babmbLbibUba....babga#a`a#aUa$bhaU........................................................................................................................................................................................................................................................................",
"..........................................................................................................................................................................................................................................ac....................bhaoaMakaua]bbaC..btbLa}a|bhbda[aZbLbUa`baa>aKbJbJbtbXaZa*beauaKa\a+a#bUa>a|a>bpa,bxa>a+bxbxbabzbJ..bxboa~bqbia]a%ba..aua}bkb6....bUbqby........................................................................................................................................................................................................................................................",
"..........................................................................................................................................................................................................................................bsaCbh..............bsaMawamaMaPa#a1aQa,..bqa%a%a}bda%a1bxbga>bgbHa`a`bibJbza}a1....bta2a`a8bdaKaZa&a}babaa[a>bza`bzb7bJbtbpa}bibUbzbaaCbobW....a1bda,bd....aKbe......................................................................................................................................................................................................................................................",
"..............................................................................................................................................................................................................................................a_aCaua]bybyaWauaCaOava*a[a#a1a#a#a>a8bta[a]a%bhbia1a}bxa}a`bUbpbpbzbzbma}a+a,......a>a\a[aQa;a;bibdbga%bibabgbUb7bmbibgbgbzbzbza`bgbDbI..................ao......................................................................................................................................................................................................................................................",
"....................................................................................................................................................................................................................................................a]aUaoaDa=a_aMaW..a}a1aWa[bha]a;a,bxbqbqa`bia,a+bdbda%bpbpa`bLb7bDa>aQama]....bda\a;bxbca[a[a[a}aZbDbabibpbza+bDbibia}bzbga`bDbhbK..................a}......................................................................................................................................................................................................................................................",
"................................................................................................................................................................................................................................................................a1be....auaUa,baaUa#aUa}a}bdbmaZbda+a[bJa}a>bDa>bxbJbLbza,aoaj....bLbDbbbma,a+a+a[a+a`bya`baa%bibabJb7bLbabza>btbha;bV..................a#......................................................................................................................................................................................................................................................",
"..............................................................................................................................................................................................................................................................bdaj......byaMa]a1aUa#a]a1a]aUa`a+a}bga]bga}babha>bgaQbpbia>amama_..bDbmbaa\a}a[a,a+a1bia+bia`a%a`a>bzbDbgaZaU....aQaC..................btbG......................................................................................................................................................................................................................................................",
"........................................................................................................................................................................................................................................................bta=aMa~..........bha#a#a1a#a}a1a,aUaKa`a%babmbmbmbaa+a>baa+a+bia[amaoamaCa+aKa`a%a}a}a,aZa1biaZbga+aZbabza+aQaZaM....bIaCaQ............bIbJa[aW........................................................................................................................................................................................................................................................",
"..................................................................................................................................................................................................................................................aoa_bybka*..............bIaQa#a[a]a}a#aKa1aZa%a#aQbgbDbpa`bga+aZbzbabza,aMahaoaQaZa>bpaQa;a[a1aZa}a`a%a`aQaZbibia]bh......beaQa+bg........bWbibJa>a[..........................................................................................................................................................................................................................................................",
"................................................................................................................................................................................................................................................aubG......a,a+baa=........bWa`aUaKaCa,a#a[aQaQaZa}a`a%bzbzbabza>aQa`bzbxa]a]aKaKaUbibmaQaQa&a,a8aQa[a1bpa,aZa>bpa}bibq....a%a[bpbaa1....bhbpbhb7bga,............................................................................................................................................................................................................................................................",
"................................................................................................................................................................................................................................................aC..........a$a&bxbxbt......a;a>aQaKa*bda]a[aZa1a]bxbga+b7bgbpbgaQaQbzbpa]aZbda>a%a]a%aAa%a+a,a%aUa+a,a]a[a%a}a>a+bga}a}ama+bma%a1....bybia]a}a,................................................................................................................................................................................................................................................................",
"................................................................................................................................................................................................................................................a1..............a.a1a[a]bC....a1aMaZaua>a%a]a+aUaZaZbxaQbpbpaQa>a`a+bgbLa[aMa1aQa%a}a%aCa`a[a1aQaZaQa]aQaUa>a>a+a>bibDbia>a`bpbDb2bUbUbDbgaQbq..................................................................................................................................................................................................................................................................",
"................................................................................................................................................................................................................................................btaJ..............bkaoa&a]bdbVbya+a1a,a#a]a1a,aKa%aCbma[aCbDauaZaZa>aKbxbiaCaKaQaZaHaKaCa>a,aZaMaUaQa[aKaZa}babxaQbgbLbzbJbgbmbmbJbzb7bLa`a%....................................................................................................................................................................................................................................................................",
"..................................................................................................................................................................................................................................................bk................a~aCbwbpa8aQaZa]a[a1a#a#bya+aCaKa%a+aKbaaQaCa}baa`a[aKaCaCaCaQa%aKa%a,a%aUaCaQaKaQa1a+a}a}a>a%bmbzbgbJa`bgaKaCa,bxa}aC......................................................................................................................................................................................................................................................................",
"......................................................................................................................................................................................................................................................................aMaoaZaJauaKa,a,a[aMaZa}bdaCa%aKa%aKa%aZaCbibaa]baaCamaCamaUbma+a>a+aZa+aUaKaQaUaKbda]a[aQbgbxbLbJbgbzbia]................................................................................................................................................................................................................................................................................",
"..........................................................................................................................................................................................................................................................................bC....a~a+baa*a+a1a+bda%aQa+aQaQaZa]a+baa>aQaUaKajakamawa`a%a+aKa%a,a,aKaUaQa1a}aKaKa%a`bpbpa]a%bga>..................................................................................................................................................................................................................................................................................",
"................................................................................................................................................................................................................................................................................a}aDa;bda,aMa1bdbaaKa&bda[aZa\a,aZbaaKaMawamamaoaUa[aQa%aCa+a[a,aKaZaCa+a1aKa%a[bpbLaOauaoa>bh..................................................................................................................................................................................................................................................................................",
"..............................................................................................................................................................................................................................................................................b*aoamaWa;a,aUaCaQa]a8aKa[a>aQama\aCbga;auaHawaoaua8a%a+aCaKa}bta+aZa1aKa#a[aKa,a[a+aUaoa>a,aoa`..................................................................................................................................................................................................................................................................................",
"..............................................................................................................................................................................................................................................................................a~aoaPaSavaHaUaMaCa[a+aua+a8a&aAa8a&bgbba&beamalauaHaUa;aCa+aHa|bca,aZaKa[a+aMa[bqa>a8aOa&bhbha+..................................................................................................................................................................................................................................................................................",
"..............................................................................................................................................................................................................................................................................a&a$avaHa0aHaQaZa1aQa;a%aQama;bba&bwbcaPa&a?ahaiala=a|a=a&baaCaQaoaZaUaKa[aKaZa#a+a%bwb0bbaCbbbvbk................................................................................................................................................................................................................................................................................",
"..............................................................................................................................................................................................................................................................................a6aGaObcbua1aUa,a1a1aUa+aoaMa=bbbrbebFbba=a0alajala9aGaSa&a|a|a8auaQa;a1aQaua+a[a,bgbAb<brbNa;aGa;................................................................................................................................................................................................................................................................................",
"............................................................................................................................................................................................................................................................................b*araxaNbcbua,aUa#awaKaHaUaDa_bea{a!aVaOaNbca|aFalaAa9a!bnbbbNa=a&aSawa=bqanamaKaQbmbfbEb:bfa4a8a?bc................................................................................................................................................................................................................................................................................",
"............................................................................................................................................................................................................................................................................b#a<a<bRbOa^a(a&aQaPauaHawaPbBaBaAa<bAbBa(bnbraVavaTa:a(a|a0bnbja6aSawawawama;bobnb0bAbQchb`bobrb-bObe..............................................................................................................................................................................................................................................................................",
"............................................................................................................................................................................................................................................................................bPbja<bjb1bEbrbfaZblbHa9ahaPaIbbbra:a<brbFbMbbalalbba.aFaAa9aBavaxa0aSalaFboblblblbNb8cjchb-b3b8bAbwbG..............................................................................................................................................................................................................................................................................",
"..............................................................................................................................................................................................................................................................................a.bObEbObObXb|cCcAb3bNa9aOaIbcbFbba{a<bBbnbFavaha:a\a9bbb0a{a:a:a!aOaGblb(cVc5cXcAbSb-cqcccxcQbra&b|..............................................................................................................................................................................................................................................................................",
"..............................................................................................................................................................................................................................................................................bjb:b:b1b5cBcXc2c!cGbSbuaXaza8aTbna:aAa|a|bBaFahbnbcaSb0bnbrb!bFbcaVa!bNcUc!cXb8b?cvblb1cxcQcQb:a=b#..............................................................................................................................................................................................................................................................................",
"..............................................................................................................................................................................................................................................................................bOb:b$bub5a/a3cAc9cZb-b0blaOaOaSa0avaFaobcbbananbca=aOa=bcbnbra6aVa{bBb)cVcZb?apapcvb5bAchcKctchalbG..............................................................................................................................................................................................................................................................................",
"..............................................................................................................................................................................................................................................................................bEb1bEbFb3apa/cvcYcXb0bNbNbFa?aOa!blbTbbbwa$alakaVa^a9a0b0bTa0bfa(a^bnb(cAcXb?a/a3cocoa|chctctcQa/bh..............................................................................................................................................................................................................................................................................",
"..............................................................................................................................................................................................................................................................................b$b$bEbDb?bHb5cvcXb-bNaZbfa?aNa8aXa9aXbbbBaJakajaJbja0aSaTbwa{a{bfbca;bFb?b>cob?b?cob?bHcccKctcQb<a[..............................................................................................................................................................................................................................................................................",
"..............................................................................................................................................................................................................................................................................bYb$bFbFb7b5b5b?b9bDaNa|bfa?blbwa&bfbMbra!aoajagaobvbna;aTa8bFaXa8a?a|blb5b5bXb?cob?b5bHb?cKcBcvb`..a~............................................................................................................................................................................................................................................................................",
"............................................................................................................................................................................................................................................................................b&b1b0bcbabHb5a|bobpaKblbnblblbfblbMbRbbaOaJamajaiana9bFbFbnbbbwblblblbla8a&bHbHa`b5bHa%bHb?cAb8b?cGb[..............................................................................................................................................................................................................................................................................",
"............................................................................................................................................................................................................................................................................b&brb3bFa\a|bSb5a?amama|bfaOaxalaNalaFaTbcaFanaPajava!a&a?a|aVazaAaOa\bwbwazaFbHb5bHbJbfb3cAbAblbHcBb<..............................................................................................................................................................................................................................................................................",
"..........................................................................................................................................................................................................................................................................b*bFbna{bHa?bwa&b5b5ambwbSaIaNa{bNbNblb3b9bnanaSaWaiaPana&bTbFbcbFbFbla8a;b0b9aObFb(a?b5blbFbNblbQa\b<cBbX............................................................................................................................................................................................................................................................................",
"..........................................................................................................................................................................................................................................................................b&bFbxbna\bba|bnb3bSbwb7bTbbbNb3b3b3bNbTblbfa&aFauakaoazaSa=bca_bnb0b?b-bwbnb^b3a?b5bQbnbnbra?bFb?b8cvcob-............................................................................................................................................................................................................................................................................",
"........................................................................................................................................................................................................................................................................bNbFbwbubrbcbrbAbMbFbzbTbSbnbpb9b0bcaOaOaOaOa8a\aAa!aoaDava0a8bbaQaIbbb0b-bXa&bXbNbnbnb5bAbfb8b$b[b>bFblbnb5bT..........................................................................................................................................................................................................................................................................",
"......................................................................................................................................................................................................................................................................b0bga|aSbQchchb$bAbna&bFbJbBbFbFbBa;aOaSa8a9a|a?a8aOaDahaHayaIaSa|a&bnbcbDbMbNa\bSbXb-bFbfbQb$chcKcQcjbwa?bfb5co..........................................................................................................................................................................................................................................................................",
"......................................................................................................................................................................................................................................................................b5bFbpbfb9cxccb$b`b&bTbXbTbFa|bwa|a&bFb0bwa?a|bcaFaOawacaJaAaAaFaQbbbTb7b3b?b(a?bpbFbFbMb[cBccb1ccctb`b>b?b5b<b?b5........................................................................................................................................................................................................................................................................",
"....................................................................................................................................................................................................................................................................b>b5bNbHbNbOchb$b$b`b>bRbTa|a|a\bwbcbFb_b^bla;a&aOamalajaiajakavaAaAbgbTb-b(b?b<boaOa8b8b>b<ccchchcccKb$b?cAb?b?cScZ........................................................................................................................................................................................................................................................................",
"................................................................................................................................................................................................................................................................b_cwcEbSbwb3bXbcctctctb:cjcjb0bfa&a8bca\bnbXbla8a\a|a^aDavajaianauauaOaAa8bfbSbFblb3bHbnblbNcjb`ctcxcKcxcxbQbHcvb?cvc5c1cv......................................................................................................................................................................................................................................................................",
"................................................................................................................................................................................................................................................................blb?b_bwbNa{a`a<b:cxchb,b1cEb>bNa|bfbnbabbbwa&a;aOaDavawajaiafanakakavaCaFa;bnbMbwbFb(bNb(cAcXb?b<b$chchb<bQbobAa/cvc0cXa3a-....................................................................................................................................................................................................................................................................",
"..............................................................................................................................................................................................................................................................bja3bSb7bgbHbfa8a&bRbYbebObAb3b?bwbfbFbba.bwbBbcaUanalanaHaPaoadauaJaUaoaCaCa!bbbNbwbwbFbnb(cva/b5bAbOa7bfbnb?bobHbHb(cXcoaNaR....................................................................................................................................................................................................................................................................",
"..............................................................................................................................................................................................................................................................bua>bHbza+aSbfa|blbBa=a)brbraxa8bwa|bbaSaHa=bFa;aAakalaDa+aUagafagaua]a.akanaFa;bba;a?bla|bJbHaRbfbAb8aXa{b(cBb?bQb5b5cAcob5bH....................................................................................................................................................................................................................................................................",
"................................................................................................................................................................................................................................................................bSbDbiaQa+bNbNbRbTbnbebubnbna{bfbba9aFaSa&a|avalalaiaPa+akagafaiajaoa~awaPaua.bca;a{a&bnbfbobfa{b$b-a<blb^cEcBcvb5bHcocob>bX............cacEcGcqb9bBb4..........................................................................................................................................................................................................................................",
"................................................................................................................................................................................................................................................................b6bqa[aQbbb0b1b9bBa6a&bBa:bna?aXbna8a8aVbcbTaBa!avaiawaCaUakaeakaiaWaMananaCa9bBbdbbbnb3bna|a\bfbMbNbfa|b3b[cjb<bHbfbpbLbNbD....bZbrb>cjcqb0b`cUcQb9b&b<........................................................................................................................................................................................................................................",
"................................................................................................................................................................................................................................................................bzbobaaPa:bYbYbYa=aBaObbaOa!a(a|bna0a|a9a^bRbbaOalakajaUaIajaeaCawaDaPakakaPa.a&a$a]bFbNb3blbna9a8bNbHaXa{b3b`b<a?bfbHbob5b9b0bua-aRbubRb-b9b(cKcQb-a)bAbv......................................................................................................................................................................................................................................",
"..........................................................................................................................................................................................................................................bubnb$b$bvbMbubea~bjbubBboboaTa{bYbEbGa(anaLa\a;bca~a{a.aVbja&a6aVaXaOanananana!ajaca2aWaWauaoawawaPa:a!a.bFbrbMbMb9bwb-b(b3aXaBa-b$b<blbob5b?b8b8b0b[b&bubEbWb>b^bAcGcjb8cjb&........................................................................................................................................................................................................................................",
"........................................................................................................................................................................................................................................bsaObOb;bObubObrbra7aYbEbObNbla|bAbYbua4aJaBa<bwbnbcbea9aJa^b0a6a|a!bca$a0aPavanaDaiabaDa*aDaoavaPaPaHaIa8aVbwb!bAbrbFbFbHb8b3bObQa/b$b`b(b5bHb5b<b8b9bYbYb&a=a.b9b|bubRb&b&cGb`........................................................................................................................................................................................................................................",
"........................................................................................................................................................................................................................................a^bnbub$bRbEbMa{aOaVa6a$bYbMbcaXbAbOa)aYbAbAbcbnaNaua&aJalbBb*bbaVaFaIaIa;a!aAawaCagafadaCaJaJaoaHa!aCanaPa;a{bRb0aLa&aXalaXa{b:chbQb8b<blblbQb-cBb5a{a4aXaNa5aTa:b>bBbnb<bMcjbZ........................................................................................................................................................................................................................................",
"........................................................................................................................................................................................................................................bRb<bubBbubRa<ataEataEa=bubObFa0bcbEaRaYbEbEbna-aXaAaOaAalbPb|a<aLaOaIanaVaFanamaFaiafafaiauawanaDaDaCaDaJa$a=a<bRbvaVaOaSa{bAb:b:bEb8bQbfbQcjb8b5b<b>b3bra{a)aLaFbnbrbnb<b>b|bP........................................................................................................................................................................................................................................",
"........................................................................................................................................................................................................................................b#b&bubua=a~aIalaLa!a^bubnbrbTa<a{bRa)bjbYbua-a(aTayaFa$avbBb[a6aAaHaFaOaPalajamaPakafafahaoaAagaoaCaIaFa9a0a=a5a6bGbkaOa!bcbOb$b:bOb$bQbfb<bOaXblbQb9b1bOa{a4a4aOa!bnbXbTb|b^bv........................................................................................................................................................................................................................................",
"..........................................................................................................................................................................................................................................b!bGbEbca!aTataVa(a^bEbua<bna(a(a<a{a-bObjaYatataDaAaIaJbBbEaVaJawaCawajamalaka$akaeafaiawaWavakanaWaOaPaJa=a6bjbcbKa:a:aXa-bEbEbEbEbAbnbAbra|blbAbOb<braYbnaYbba{bBa|bnb)b_..........................................................................................................................................................................................................................................",
"..........................................................................................................................................................................................................................................b0bjbjbja6a.aEa(a^bEbObYbnbna)bRbubEaRa~a)aJavanawawayaVbPbjaOaWaJaJaPasakalaDbhaHabafaeawbeaManauaPaUaAaDa=aVbca(bcbvaOaIaVaVbEbrb<cKb9a(b-bFa(b$chb:b$bEa-aVa=bnb0bNbFb0b2..........................................................................................................................................................................................................................................",
"..........................................................................................................................................................................................................................................bBbca(bea^a9aFasa-bEbObEa/a^bBbYb&braXbca)asaJawaDa0aMaGb4a^aAa$aWaHavavawajaUa*aMabafakaCbda1aCaPaPavavala0bcbba5a<bBaTaGa!aHa<bEcGctbAbFb1bfa(b8b:chb:bjaqa*a$bNbNbcbwbTbh..........................................................................................................................................................................................................................................",
"..........................................................................................................................................................................................................................................bja:a:bebja9a6a6ata^bEa/a)a_bvbRbGa(aXaYa^aEataJa9a!aJa0bGa=aIaAawaoanakanalaja2aPabafa~a,a]amauaCaAauamamaSbBa|bbbfa{a5aFaJbbbrbEb[b0bcbMblbAbEbEb:b:bEalaVbea=bNbwbnbfbn............................................................................................................................................................................................................................................",
"..........................................................................................................................................................................................................................................bea9a=bca^bba0a6ataYaYaYaYa=a_a{a{ataOaEbba0awa0aPa.a!a0bca=aOaFaAaoaoavahalajaPaPabaeaJa$aWakakaDaHawaoakaObna&bbbMbAaOaTaSbFa{a6aVaTa;blbMbAbna/a/a/aq....a_bnbJbTbXbGa;............................................................................................................................................................................................................................................",
"..........................................................................................................................................................................................................................................bebca^bna~braPa_..aWananaraDaDbjbBaOaAaQa|aFavaFa8bca.aDa0a=aSavauauavaJanaFanajajafahaoakaDawaDaDaJa0aSaFaHa?a!a{bnb9bNbfaXblbwaXbfb-b3a;a{aNaXaEaYbj......a\b0bXbNbbbwa&............................................................................................................................................................................................................................................",
"..........................................................................................................................................................................................................................................a{a5bebubGbna.bv............a~bMbuaAa|bma8baa+bbbbbba0aPa8a.aPaAaCavaAaAaDaJauajakaiahacacakaDaPaHaPaIa8a:a&a:a0a:bcb0b(b-b5b5bNb(a\bwb^cobranaNalbnb&......bwb>b>b)bwa+a;............................................................................................................................................................................................................................................",
"..........................................................................................................................................................................................................................................a~bbbGbRbTbTbnb4............b4bMbFbbbJbJb7bJblaQa|a.aQaSa8a.aWaAaCaCayaAayavama0aUakacauaka1aHaJaDaOaHaOaFaTa.a!bca8bnbwbfb?cIcXcAb?b(b9bfa_a=bbaTaYa^....bVb)cAb^b9bXa{bn............................................................................................................................................................................................................................................",
"........................................................................................................................................................................................................................................b#brbXb>cjb&b9bFb+..............a=a:bLbSbHa?bwbza;a+aQaHa8a|a.a2aJaFaCavaFavalaKbma}awaHaUaKa}a.ajaJa&aCa&a8a&a?a?a|aIaSa+bab?b?b5b?b(bra|a]..bWaFaOaVa.....b7cjcEcEb3b>bMb-bk..........................................................................................................................................................................................................................................",
"........................................................................................................................................................................................................................................bRbnb0bPb&b!bua~be..............bPa$a9a|a4aha\bxa+aFaCa&a|a\a&a9a9aOaOaAaAaoanawaCa#a_a#a$bqaMauaoaoaQaMaQa9a&a?blbna%aZaSa`bpaXala7a&bnbp......anaBaSa^....bXcjb|b&bbb>cgb_bT..........................................................................................................................................................................................................................................",
"......................................................................................................................................................................................................................................b0bna^a^bja^a-aWaJaI................a2a;a8aSaFaKa8aZaZa;bbbnbFa\a;a9aIaAaHaAawawaoamakaWakaoa2aoauauauakaDaIa&a?blbFbDbHbpa?a`a`aOaNa+bFa}a=......aPaOaS....bsbba~bBbva=bwb9bUbwbs........................................................................................................................................................................................................................................",
"......................................................................................................................................................................................................................................a(a=a2bva_a<bva5aHai................bIaIa;a;a8aSaQa\a&a|bnbaa?a8a?a9aOaHaDaSaDawakajajaDawadananaoauawayawaJa\a(a|blbwbFbnbmbba;a%a&bna1a_........a_a5a:....bkaTa:a:aOa$aPa;bdbcaW........................................................................................................................................................................................................................................",
"......................................................................................................................................................................................................................................a2a&a=a~a=bebva:aZaD..................aIana*aDaAa{bwa$a_a&a\a;a9a&aIa&aPauaPa^aManamaja.aDahahanauaFaSaDanawa|a?a|bcbnbla|a|blbFbnaUaD............a_a6a^......a!bwb*bMa\bea.aHa+a$........................................................................................................................................................................................................................................",
"......................................................................................................................................................................................................................................a_bna,bebBa\aCa$a*....................a$ac....a~a$a=a2a0aOa;a|a.aUaFa;a0a$awawaDavanalakaAahalavauaHaPaJauawaOaTa9bfbwa;a;a?a|a?aOaP..............bkaSbv......a~aPbcbFbca.bba&aC..........................................................................................................................................................................................................................................",
"......................................................................................................................................................................................................................................a8bba&bKbcbabpa^aJ....................aVana_..........a*azaQbcbbaCaHaFaPaWawakalakanamakanaiajaDaHakaWa*aJalaAaOaOblbNaOaFa0a8aWaj................aWaObe......bCaDaCa9bca&aTbbaS..........................................................................................................................................................................................................................................",
"......................................................................................................................................................................................................................................a~a{bebrbUbNbFala~..................bBaJaPaV............aWa#bea&auaAawaDa2aoavaJavalauaWa=aWajaCaPaoawaDawaFaSaAaAbbbFavavawaoavak................aFa&a~........bea~bba?bnbTbcaH..........................................................................................................................................................................................................................................",
"......................................................................................................................................................................................................................................bja)b4bubUbNa1aw....................a~avaval..............a=a=aPawavaoaAauajaDaPaDaDaCaDaCaAaoa!aPauanawavakaAaAaua*bbalalagaJaVak................aXaOaObv........a=bybFa\bcbjaJ..........................................................................................................................................................................................................................................",
"......................................................................................................................................................................................................................................bebnbYb0bwbcaW......................a=anazaJ................a~a0anavavakakakaCaAamaCaCaoawa2bsa2aJaPavauanakakaoava;aPaMa8aw..a^aJaVa~............a&aJaIbb..........a~bna:bvaTa!..........................................................................................................................................................................................................................................",
"......................................................................................................................................................................................................................................a^bebebBbta$......................bsa!a$aIaU..................aOaDa0aPawakaDananamanaoaoaJ....aJaDaAauaJaPaoakawala!aPa_a+a#bea2aJa=aJa$..........a2aIa|bn..........a]bba=bRbZa9..........................................................................................................................................................................................................................................",
"....................................................................................................................................................................................................................................bKa{bja.a!bka]..............aPat..bjaVa6a_a6ac..................a$......aWaJa2alajauaibe..........aDavavaDaJa*aoaka~aJ....alaVa2aWa*....aD..........a2a!a~bva*......bea0a9a:bcbja~..........................................................................................................................................................................................................................................",
"................................................................................................................................................................................................................................a~a*bwbBaAavaWa9a=............bPaVatanaAaWaIavawbs....................bC....aobsbGaEaW..a^a$..........a=atananana?aJan......a*anaWa$a2..b4aW............beaIa=bvbtaHaJaSa<a;a?a^a!a2aJawaJbk....................................................................................................................................................................................................................................",
"........................................................................................................................................................................aj....awakajagao..........akagaf..............akagakaoa2aQaCaJaIaHaHaDaHaP........aPbna)asa?a!aJaoakanak......................a~aP....a*aDaJ....bca^............bsa~avakaTa~a*a^a~a^awawaPbja*a~..................avaCaPaHa.a=bra~aMaLa0a=aHaoaoanau....................................................................................................................................................................................................................................",
"....................................................................................................................................................adabababababababadagajajabadagafaganauakanauakagajagadafagafagadabawaJa=bka=aJaAaHaOaQanaWa=aCaoabadajaJaJafanaWaWaWasaFaOanak......................a=aDa2....aDbsbeag................bPa0ajana:....a^bkaPbebs........................aDanaJaHa^bebrakaHa=aFaOaOaoaCanaCa~bv................................................................................................................................................................................................................................",
"..............................................................................................................................................................akagadabababababababababababababababafagagagagafagafafaoaDagaJa~a*auaVaIauavava=aCaiawakafabababajakakanakajawakanajadababababababababababakanakakanawanaDaPawadabababababafagawakanan......................................a_anaJaJaJaWa~awaba0a|aGaAaAaHayaBaIaoabac............................................................................................................................................................................................................................",
"............................................................................................................................................................................................agababababababababadadafaDagadaoa2baaTa|a.aUavavaMajafaPaJagafadagakakafagafafagajajaoagadadajajafajagajagafadadagakajafagaJbkaWadagajajajajafafaf..aJ....................................................a$anaDanbba|atanaOaOanaDamadacai..........................................................................................................................................................................................................................",
"..............................................................................................................................................................................................................aoakakaDacahajala2a.aDawauaoawaOajakaPauadadabababababababababababadababababafadafadadadadabafakakafabababababababababababababagak......................................................aWabajaoa.a!aFavauaOanavahajaiac..........................................................................................................................................................................................................................",
"....................................................................................................................................................................................................................a2agagalalananakakajakaJa:ahajafaD................................................................................................................................................aDahajaoaDakajakaoaWaUaPakafajac..........................................................................................................................................................................................................................",
"......................................................................................................................................................................................................................agafagaf..............anadadaj..............................................................................................................................................ababajabafaj..............a2ajabab............................................................................................................................................................................................................................",
"................................................................................................................................................................................................................................................................................................................................................................................................................................................................................................................................................................................................................................................................",
"................................................................................................................................................................................................................................................................................................................................................................................................................................................................................................................................................................................................................................................................",
"................................................................................................................................................................................................................................................................................................................................................................................................................................................................................................................................................................................................................................................................",
"................................................................................................................................................................................................................................................................................................................................................................................................................................................................................................................................................................................................................................................................",
"................................................................................................................................................................................................................................................................................................................................................................................................................................................................................................................................................................................................................................................................",
"................................................................................................................................................................................................................................................................................................................................................................................................................................................................................................................................................................................................................................................................",
"................................................................................................................................................................................................................................................................................................................................................................................................................................................................................................................................................................................................................................................................",
"................................................................................................................................................................................................................................................................................................................................................................................................................................................................................................................................................................................................................................................................",
"................................................................................................................................................................................................................................................................................................................................................................................................................................................................................................................................................................................................................................................................",
"................................................................................................................................................................................................................................................................................................................................................................................................................................................................................................................................................................................................................................................................",
"................................................................................................................................................................................................................................................................................................................................................................................................................................................................................................................................................................................................................................................................",
"................................................................................................................................................................................................................................................................................................................................................................................................................................................................................................................................................................................................................................................................",
"................................................................................................................................................................................................................................................................................................................................................................................................................................................................................................................................................................................................................................................................",
"................................................................................................................................................................................................................................................................................................................................................................................................................................................................................................................................................................................................................................................................",
"................................................................................................................................................................................................................................................................................................................................................................................................................................................................................................................................................................................................................................................................",
"................................................................................................................................................................................................................................................................................................................................................................................................................................................................................................................................................................................................................................................................",
"................................................................................................................................................................................................................................................................................................................................................................................................................................................................................................................................................................................................................................................................",
"................................................................................................................................................................................................................................................................................................................................................................................................................................................................................................................................................................................................................................................................",
"................................................................................................................................................................................................................................................................................................................................................................................................................................................................................................................................................................................................................................................................",
"................................................................................................................................................................................................................................................................................................................................................................................................................................................................................................................................................................................................................................................................",
"................................................................................................................................................................................................................................................................................................................................................................................................................................................................................................................................................................................................................................................................",
"................................................................................................................................................................................................................................................................................................................................................................................................................................................................................................................................................................................................................................................................",
"................................................................................................................................................................................................................................................................................................................................................................................................................................................................................................................................................................................................................................................................",
"................................................................................................................................................................................................................................................................................................................................................................................................................................................................................................................................................................................................................................................................",
"................................................................................................................................................................................................................................................................................................................................................................................................................................................................................................................................................................................................................................................................",
"................................................................................................................................................................................................................................................................................................................................................................................................................................................................................................................................................................................................................................................................",
"................................................................................................................................................................................................................................................................................................................................................................................................................................................................................................................................................................................................................................................................",
"................................................................................................................................................................................................................................................................................................................................................................................................................................................................................................................................................................................................................................................................",
"................................................................................................................................................................................................................................................................................................................................................................................................................................................................................................................................................................................................................................................................",
"................................................................................................................................................................................................................................................................................................................................................................................................................................................................................................................................................................................................................................................................",
"................................................................................................................................................................................................................................................................................................................................................................................................................................................................................................................................................................................................................................................................",
"................................................................................................................................................................................................................................................................................................................................................................................................................................................................................................................................................................................................................................................................",
"................................................................................................................................................................................................................................................................................................................................................................................................................................................................................................................................................................................................................................................................",
};
