/* XPM */
static char *xpm[] = {
"320 180 256 2",
".. c None",
"ab c #000000",
"ac c #010101",
"ad c #010203",
"ae c #030404",
"af c #040405",
"ag c #080808",
"ah c #0b0b0d",
"ai c #0f0d0c",
"aj c #140f0e",
"ak c #151212",
"al c #161517",
"am c #181719",
"an c #1a1412",
"ao c #1c1a1c",
"ap c #1d1614",
"aq c #201a18",
"ar c #201e1f",
"as c #232223",
"at c #241c1a",
"au c #25211d",
"av c #252629",
"aw c #282525",
"ax c #292422",
"ay c #2a1f1c",
"az c #2a282b",
"aA c #2c2827",
"aB c #2d2a2d",
"aC c #2e2d31",
"aD c #2f231f",
"aE c #2f2a29",
"aF c #302927",
"aG c #302c2b",
"aH c #302f32",
"aI c #322e2d",
"aJ c #323134",
"aK c #332c2b",
"aL c #333335",
"aM c #342726",
"aN c #35302e",
"aO c #353438",
"aP c #362b2a",
"aQ c #36373a",
"aR c #372620",
"aS c #374044",
"aT c #383230",
"aU c #392f2f",
"aV c #393639",
"aW c #39393c",
"aX c #3a3332",
"aY c #3c2a25",
"aZ c #3c3534",
"a0 c #3c383c",
"a1 c #3c3b3e",
"a2 c #3c3d41",
"a3 c #3e3232",
"a4 c #3e3d42",
"a5 c #3e3f43",
"a6 c #3f2723",
"a7 c #3f2d27",
"a8 c #3f3736",
"a9 c #403d3e",
"a! c #404146",
"a# c #413938",
"a$ c #424142",
"a% c #424348",
"a& c #433737",
"a( c #44464a",
"a) c #453129",
"a* c #453c39",
"a+ c #46484c",
"a, c #47362e",
"a- c #473b39",
"a. c #48403c",
"a/ c #484647",
"a: c #484a4e",
"a; c #49352f",
"a< c #493d3c",
"a= c #4b342c",
"a> c #4b4641",
"a? c #4b4c51",
"a[ c #4c3c39",
"a\ c #4c4b4c",
"a] c #4e4f54",
"a^ c #4f4b45",
"a_ c #503b30",
"a` c #513b34",
"a{ c #515256",
"a| c #53302a",
"a} c #53555a",
"a~ c #544f4f",
"ba c #55382d",
"bb c #55423e",
"bc c #56575c",
"bd c #575043",
"be c #58362b",
"bf c #585b5f",
"bg c #594136",
"bh c #595555",
"bi c #5a4743",
"bj c #5b463c",
"bk c #5b5e64",
"bl c #5c595a",
"bm c #5d4c44",
"bn c #5e4641",
"bo c #5e534c",
"bp c #5f5442",
"bq c #5f5c5b",
"br c #5f6268",
"bs c #614a46",
"bt c #624b42",
"bu c #626563",
"bv c #63666c",
"bw c #643128",
"bx c #645f5f",
"by c #654137",
"bz c #654f4b",
"bA c #67473d",
"bB c #674e47",
"bC c #676a71",
"bD c #695853",
"bE c #6a5848",
"bF c #6a5f58",
"bG c #6a6362",
"bH c #6a6e74",
"bI c #6c6a6a",
"bJ c #6c7177",
"bK c #6f6f70",
"bL c #704d3b",
"bM c #705f52",
"bN c #70747a",
"bO c #721b22",
"bP c #726d65",
"bQ c #727574",
"bR c #735d58",
"bS c #73777e",
"bT c #745147",
"bU c #74695a",
"bV c #767b82",
"bW c #775338",
"bX c #786f60",
"bY c #7a7365",
"bZ c #7b736f",
"b0 c #7c655c",
"b1 c #7c7977",
"b2 c #7c8085",
"b3 c #7d6862",
"b4 c #7e5b3b",
"b5 c #7e6863",
"b6 c #7f776b",
"b7 c #805748",
"b8 c #808489",
"b9 c #83888f",
"b! c #85898d",
"b# c #86716a",
"b$ c #867e75",
"b% c #878c93",
"b& c #8a8279",
"b( c #8b6442",
"b) c #8b8886",
"b* c #8b9096",
"b+ c #8d7165",
"b, c #8d7e77",
"b- c #8e867b",
"b. c #8e939a",
"b/ c #907c73",
"b: c #91979d",
"b; c #925d4a",
"b< c #938a7e",
"b= c #957b76",
"b> c #957d73",
"b? c #958d87",
"b[ c #959ba3",
"b\ c #979ba0",
"b] c #998e82",
"b^ c #999fa7",
"b_ c #9a6c4a",
"b` c #9b837e",
"b{ c #9b928b",
"b| c #9b9fa5",
"b} c #9c8179",
"b~ c #9c8278",
"ca c #9e9b9b",
"cb c #9ea3ab",
"cc c #a1785c",
"cd c #a1a5ab",
"ce c #a2a8b0",
"cf c #a68a81",
"cg c #a68b7f",
"ch c #a6acb3",
"ci c #a78c85",
"cj c #a7a4a5",
"ck c #aab0b7",
"cl c #ac7e5b",
"cm c #ac9990",
"cn c #acadae",
"co c #aeb4bb",
"cp c #b1a197",
"cq c #b1b7be",
"cr c #b5bbc2",
"cs c #b68765",
"ct c #b6b4b4",
"cu c #b8afac",
"cv c #b8bfc6",
"cw c #b99686",
"cx c #bbbbbd",
"cy c #bcc2ca",
"cz c #bdb0a5",
"cA c #c0c4c8",
"cB c #c0c6cc",
"cC c #c1b1ab",
"cD c #c2b4a9",
"cE c #c3ab9d",
"cF c #c3c8d0",
"cG c #c4b7ad",
"cH c #c5956c",
"cI c #c6ccd3",
"cJ c #c7ae95",
"cK c #c8b1a2",
"cL c #c8b8b1",
"cM c #c8ccd1",
"cN c #cabfb9",
"cO c #cad0d7",
"cP c #cbb8ab",
"cQ c #cebeb4",
"cR c #cfd4d9",
"cS c #cfd5dc",
"cT c #d2a57b",
"cU c #d2bfb3",
"cV c #d2c8c2",
"cW c #d4a38d",
"cX c #d4dae1",
"cY c #d8dce2",
"cZ c #d8dde4",
"c0 c #dab79e",
"c1 c #dcc6bb",
"c2 c #dcdfe3",
"c3 c #dce1e9",
"c4 c #dde2e8",
"c5 c #dfd0c6",
"c6 c #e0c8b8",
"c7 c #e1b489",
"c8 c #e1d0c4",
"c9 c #e1d9d4",
"c! c #e3cebe",
"c# c #e4e9ef",
"c$ c #e7ebef",
"c% c #e9ecee",
"c& c #eaeff4",
"c( c #eceff3",
"c) c #efc199",
"c* c #f6caa2",
"c+ c #fbd5b7",
"c, c #ffe4cc",
"c- c #ffeedd",
"c. c None",
"ahahahahahahahahahahahahagagagagahakaoarararaoamalamaravazaBaHaJaOaWa5a+a]bcbvbJb8b!b!b*cjctcabIa8awawaFatata7a,a;a;a`a`a`a`a`a[a;a)a7a6aRaDaDaDaRaRa6a7aDatatapapanakakanakakakakakanakakakakakananakananananananananananalapalapamapamapapaoaoaqaoaqaoaqaoaqaratarararararararararaqararararararararaqaraqaraqataqaraqaqaqaqaqaqaqaqataqaqaqaqataqataqaraqaraqaqatataqatataqatatatatatatataqataqataqataqaqaqaqaqaqaoaqaoaoaqaoapaoapamapamapamanamapamapamapamapamapamapalapalanalananananapapapapapapapapapaqatatayaDaDa6a6a|aYa7a6a6a)a6a6a6aRaRaRaRaRaRaMaRaYa7a7a)a7a)a)a)a)a,a)a)a)a7aPaMaTbhb?cxcMcActcdb:b!b2bJbCbqa]a+a%a9aQaOaJaGavasarawazaCa0a9aCao",
"akakalalalalalalalaiahahahagahajamasasararaoamamaravaBaHaJaOaWa4a(a]bfbvbNb2b.b:b!b:chceb1a/ayaraPa3a,a3aYa,a;a;a;a;a;a)aPaRaDayatataDaRaYa_a>bpbpbUaT..a_a,auayauaqataqapapaqaqapaqapamaqaoaqaoaqaoarataratarauauasayasauasauaxauaxaxaxaxawaxaAaAaAaAaAaAaEaAaAaEaEaEaEaEaGaGaGaGaGaGaGaGaGaGaGaGaGaBaBaEaBaEaEaFaFaFaEaEaEaEaBaEaBaEaEaEaEaGaGaEaGaGaGaGaGaGaGaGaGaEaEaEaEaFaFaFaKaGaFaEaEaEaFaEaFaEaEaEaFaAaAaAaAaAaxaDaxaxaxawaxasayasayasayasauayarauaratauatarataratatarataraqatatatataqatatataqatatatayayaDaYa7a)bebXb+..bMbXb(b4bEbWbtbgbaaYaDayapapapapapapaqayayaDaRa7a7a3a)a7a)a;a)a&a7aFawaXbucacFcVcvcnb|b*b!bVbIbka}a]a:a5a1aQaLaIazawasaBaHaOa$a4",
"awavazazaHaLaQaHaoaiahahahaiaoasavavaraoaoamasavaCaHaLaWa2a$a\a}bkbHbVb%b|b\b!b*cecbbIaOayayaPa3a6a)a,a,a;a;a;a3aRayaqanaiaiapaYa_bE........................auayauaqaqaqaqaqaqaoaqaoaoaqaraqarararararauarauasayasaxaxawaxawaxawaxawaxawawawaAaAaAazaAazaAazaAaFaMaAaFaFaFaFaFaFaFaKaFaEaKaGaKaKaKaKaGaGaGaGaGaGaGaGaGaGaGaGaGaGaGaGaGaGaGaGaGaGaGaGaKaKaKaKaKaKaKaKaPaPaPaPaKaKaKaKaKaKaGaKaKaPaKaMaKaBaMaBaFaEaFaFaFaFaAaFaAaAaDaAawaDaAaxawaxaxawaxaxaxaxauaxayaxasauauauauauauatatauatataratatatatatatatayayaDaRaYa)bW........................b6bYb4bda_ayatapanajajajajanapayaDa6aUa7a3a)a)a&a;a&aUaDaMa\b)cucAcBctb|b.b9bSbHbrbkbca{a+a9a0aXaHaBavazaCaLa$",
"a2a$a+a~bcbka\asahahahahakavaBazavaraoaoaravaBaJaQa1a%a(a]bcbrbHb2b.cjcjb2b2cjcabGaIataMa3a&a;a;a3a;a;a)a3aDatanaiaiaiaDaXa>................................a)a7a)a7aRa6a6aRaRaDaDaDaDayaDayaDayaDayaDaDaDaDaDaRaDaRaRaRaRa6aYaYaYa7a7a)a)a=a|babababybAbAbBbLbDbEbDbEbMbMbEbEbEbEbtbtbAbjbgbebababaa=a=a)a)a)a)a7a7a7a7a7a7a7aYa7a7a7a7a7a7a7a7a7a7a7a7a)a7a)a)a)a)a)a)a)a)a)a)a)a=a)a)a)a;a)a,a,a,a,a;a)a)a7aYaYa6aMa6aMaRaMaRaDaRaDaDaDaDaDaDaDaDaDayaDayayayayayayayasayauatauatatatatatatatatatataqatatatayaDaRaRa)bg....................................bAa_a,aYaDaqananajajajanaqaDaYaUa7a7a3a)a;a[a7aMaDa/b1ckcFcMcob|b*bVbHbvbvbrbla{a/a$a0aOaHaBazaCaO",
"bNbVb2b!b*blaraiaiahahaoaHaHaCavaraoarasaCaJaWa5a(a?a{bcbrbHbVb%cbctb*bKb:cabIaTaDaFa)aZa7a,a[a_a;a)aMatanaiaiaiaRaTa...............................................ccb4b7b7bLbybybwbebea|a=a|a=a|a=a|baa|bebebabebgbybybybybLbLbWb7b7b;b_ccclcscHcWcWc7c)c+c+c,c-c-c-c-c-c-c,c,c+c+c*c)cWcWcHcHclclb_b_b;b7b7bTbAbAbybybybybybybybybybAbybAbAbAbAbLbLbLbWb7bWb7b;b;b;b_b_ccclcscscwcWcWc0c0c0cUc0c1c0cUc0cWcWcWcwcHcwcsclccccb;b;b;b7b7bLbLbybybybgbebaa=a=a=a=a)a)a6a7aYaRaYaRaYaRaYaRa6aRa6a6a6a6a6a6a7a)a|bebwbA..........................................bEbEbpbUbpbja_aYayaqakajajajajataRaYa6a7a7a7a;a-a)aRaFa~b$cecRcFceb.b8b2bNbJbvbxbha]a/a9aVaOaCazaH",
"ctcxcFcxbxamaiaiahaiavaOaQaJavararasaCaOaWa4a+a]bcbkbvbJb2b*b^ckcdbNbVcjb1a.aPaPa)a8aYaYa7a,a)a7ayapaiaiaianaP........................................................b(b(bWbLbLbLbgbybga_a_a_a_a_a_a_bgbgbgbgbgbjbgbybLbWbWbWbWb4b(b(b_clclcscHcHcTc7c)c)c*c+c,c,c-c-c-c-c-c-c,c+c+c)c)c7cTcTcHcHclclccb_b(b(bWbWbWbWbWbWbLbWbWbWbWbWbWb4b4b4b4b4b(b(b(b(b(b_b_ccclclcscscHcHcWc7c)c)c*c+c,c,c,c,c,c,c,c+c+c*c*c)c7c7cTcTcHcscsclb_b_b_b(b(b4bWbWbLbLbgbgbgbgbabaa=a=a)a)a)a7a)a7a)a)a)a)a=a,a,a,a_babababAbWb4cc........................................................bUbpbda-aPauapanajaiajapayaYaYa7a7a)a)a,a8aAaNbhb8ctcOcrcdb[b*b8bQbKbubka{a\a/a5a0aJaC",
"cMc2cVa{alaiaiahakaCa4a2aWavasasazaOa4a!a+a?a]bcbCbfbNb9b[cocvb*bCb*cabsaUaPa7a)a)a7a7a)aUa7auajagaganaua^........................................................................................................................................................................................................................................................................................................................................................................................................................................................................boa.aTaDaqanakajajanataRa7a7a)a;a7aUaUaPa/bvb9cAcFcocnb|b.b8b1bHbubfa]a?a+a!aW",
"c$cAa]amalakakakaHa(a+a5aBavazaOa2a!a?a{bfbrbCbJbVb2b!b|crcrbSbIcab$a4a3a7a)a)a7a7a)a7aNayakagahaK......................................................................................................................................................................................................................................................................................................................................................................................................................................................................................a^a3aDatapapakajanayaRa)a;aYa7a3a3a3a9blbCcocScBcxckb.bVb2bNbIbkbca{a?a(",
"cYbqaoamalalalaOa+a?a(aHaCaHa5a+a]bcbrbHbSb2b!b.b:b|chcFckbvbIcjbKa&aYa3a)a)a7a7a7a7aDapajahaN..............................................................................................................................................................................................................................................................................................................................................................................................................................................................................................boa&aPayapanajajapayaRa,a`a`a)a3a&a0bhbcb|cYcMcxcdb.b.b!b2bJbvbfa}a]",
"b%awalalalakaOa:bca]aOaCaOa(a}bfbCbNb2b!b*b\b|cdcecocFchbcbKcjbIa8a3a)a8a)a7a7a7aMaqajaiaqa^....................................................................................................................................................................................................................................................................................................................................................................................................................................................................................................boa&aMatapanajajapaDa)a`bba=a,a,a3bha]b%cOcBcxcocjb\b*b8b1bHbkbl",
"a~aoalalaiaCa]bfbra2aHaHa+bkbCbQb2b!b:b|cdchcocqcxcBcea}bQcjbIaZa)a,a)a)a)a)aNaDanakaiaE............................................................................................................................................................................................................................................................................................................................................................................................................................................................................................................bEaXaDaqajajajanata6a`a`a`a;a,a8bca:bVcFcOcMcxckcjb\b%b2bSbI",
"aQaoalakaoa]bkbHa]aQaOa(bvbJb2b!b:b\cecncocxcBcAcFckbfbIcubQa,a#a,aYa)a)a)aYauanaiapbl..................................................................................................................................................................................................................................................................................................................................................................................................................................................................................................................bdaPayapajajapapaRa;bba`a[a&a&a}a%bScMcRcOcFcxckcdb:b!b2",
"aHaoalaka!brbNbCa!a2a%bCbSb8b*b:cdchcocrcBcFcOcIcvbvbkctb*a`a,a,a,a,a,a)aMapanaia.........................................................................................................................................................................................................................................................................................................................................................................................................................................................................................................................bXa_aGarakajanataya=a[a`bba&a.bha$b8cRcScRcMcBcrchcab*",
"aCaoalavbHbVb2bca+a%bvb2b9b*b\cdckcrcycFcRcRcIcFb2a]cncubha)a,a;a,a,a,aMapanahbF..............................................................................................................................................................................................................................................................................................................................................................................................................................................................................................................................bpa3aFajaiapayaya6a[a`bba&a\a~a+b\cYcYcScRcMcAckcb",
"aBarala4bHb9bSbca]bcb9b%b.b\ceckcvcAcMcRcXcRcIcba]b%cAb$a3a,a_a,a_a,aAanakaka~..................................................................................................................................................................................................................................................................................................................................................................................................................................................................................................................................boa8aNanaiapayayaYa-bba[a-bla\blcxc#c2cYcScOcAcr",
"aBarambkb2b!bHbkbfb8b.b:b^cecocvcFcOcRcRcOcScvbSbCcycua^a,a-a,a_a,aRapanao........................................................................................................................................................................................................................................................................................................................................................................................................................................................................................................................................bFa.aTanaiapayaya7a;bba[a~bGa:b2c2c#c4c4cYcRcF",
"aBarasbVb2bSbNbCbSb^b^cbchcocvcFcOcScYcYcScFcbbrcdcMb-aRa7a=a;a`aYaqakax............................................................................................................................................................................................................................................................................................................................................................................................................................................................................................................................................bXbjaNanaiaqayaDa=a`bba<bKbcbqcyc#c#c#c2c2cR",
"aCaraJb9b9bVbVbHb[ckceckcocvcFcOcXcYc3cZcRcqb*bJcOcVa~ayayaRaYa7atanaq................................................................................................................................................................................................................................................................................................................................................................................................................................................................................................................................................bUa>aKajanayaya)a;bia<bIbNa{cac%c%c#c#c2c2",
"aCasa%b.b:b9bSbSchckcbcocrcBcIcScXcZc3cZcBceb8b:cZctaUaDayayaRaDapao....................................................................................................................................................................................................................................................................................................................................................................................................................................................................................................................................................bFa>axajapaRa3bzbha~bGb%blb8c4c2c%c$c#c2",
"aHava}b:b.b9bSb%cocococrcvcFcOcScXcZcZcZcob[bVcrc2b?aPaYaYaYa)ayakbU....................................................................................................................................................................................................................................................................................................................................................................................................................................................................................................................................................blbPa>atajaTa.a~bZbGbvcabCbScXc$c%c%c#c4",
"aHavbCb.b*b9bSb.cqcrcrcvcBcIcOcScXcZcXcOb[b[b8cScXbZa7a)a)a)a7aqa$......................................................................................................................................................................................................................................................................................................................................................................................................................................................................................................................................................b1bIbHa9alara]bqb.bQbIceb8bQcXc$c%c%c#c#",
"aLazbHb.b*b9bSb^cqcvcvcycFcIcOcXcXcXcXcBb*b^b:c4cRbRa7a)a)a=aYan..........................................................................................................................................................................................................................................................................................................................................................................................................................................................................................................................................................b2bQbvazambfbKb|b!bVcvcdb2c2c(c(c%c$c#",
"aJavbJb*b2b9bVcbcvcycycBcIcOcScXcXcXcXcvb%cbckc#cMbDa7a)a)a)aDaX..........................................................................................................................................................................................................................................................................................................................................................................................................................................................................................................................................................chb2bQa]ala]bVckb\b!cRcqb8c2c(c&c%c%c$",
"aHavbSb:b8b*bVchcycycFcIcScScXcZc3c3cZcrb*cecvc#cMbza3a)a7aYaya...........................................................................................................................................................................................................................................................................................................................................................................................................................................................................................................................................................cvcjb2bIava:b*cMcdcbc4cyb9cYc(c(c&c%c$",
"aJavbVb^b[b*bVckcBcFcIcScXcZc3c4c#c#c4crb%chcFc#cMbla7a)a7aFaua\cncu......................................................................................................................................................................................................................................................................................................................................................................................................................................................................................................................................................cycyb*bJa5a!b|cXchcrc$cBb!cYc(c&c&c%c$",
"aCavb2chb[b.b2cqcFcIcOcScXc2c#c#c$c$c$cob*cocIc$cMbxaMaDaKaFaGa{ctcn......................................................................................................................................................................................................................................................................................................................................................................................................................................................................................................................................................cMcFb|bNa}a!cdcZckcBc&cFb%cYc(c&c&c%c$",
"aCavb9ckb[b.b^cIcBcIcOcScXc4c#c$c&c&c&chb*cocRc$cObGaZaLaNaNaWbkcxct......................................................................................................................................................................................................................................................................................................................................................................................................................................................................................................................................................cMcFcbbSbra]chcXckcIc&cIb:c2c(c&c&c%c$",
"aCavb9ckb[b\b%cocIcOcOcScYc4c#c$c&c&c&ceb*cqcRc%cMb1bva~aOaLa9bucrcrcu....................................................................................................................................................................................................................................................................................................................................................................................................................................................................................................................................................cMcIcebVbkbcckcScqcRc&cOb:c2c(c(c(c%c$",
"aCavb9ckb[b\b!cqcOcOcOcScYc4c#c$c&c(c&cdb.crcSc(cFb9cdb8aLaQa(bHcvcvct....................................................................................................................................................................................................................................................................................................................................................................................................................................................................................................................................................cMcMcebVbCbCchcScrcXc&cIb^c2c(c(c(c$c$",
"aCavb%ckb^b[b%cqcOcOcRcScYc4c#c$c&c&c&cdb.cxcXc$cBb8cqb:aHa5a\bNcvcyct....................................................................................................................................................................................................................................................................................................................................................................................................................................................................................................................................................cOcMcdbVbSbNchcOcrcZc&cOb^c4c(c(c(c%c$",
"aCavb*ckb^b^b%cqcOcOcRcXcYc4c#c$c&c&c&b|b.cvcXc$cFb2cbb.a1a%a\bQcAcAcn....................................................................................................................................................................................................................................................................................................................................................................................................................................................................................................................................................cOcFcdbVbHbvcecOcycZc#cOcbc4c(c(c(c(c$",
"azavb.chb^b|b%crcOcOcRcXcYc4c#c$c&c&c&b|b*cAcZc&cMb2bVa+a5a(a\bScBcBcu....................................................................................................................................................................................................................................................................................................................................................................................................................................................................................................................................................cOcMcdbSbCbvcbcOcyc3c#cSb^c4c(c(c(c(c%",
"avavb*chb\b^b*cvcOcOcRcXcXc4c#c$c&c&c&b\b*cAcZc(cSb2b*bNa(a+a]b2cAcFcx....................................................................................................................................................................................................................................................................................................................................................................................................................................................................................................................................................cOcFcjbSbHbrb|cMcycZc$cSb|c4c(c(c(c(c$",
"avavb%chb\b\b*cvcOcOcRcXcXc2c4c$c$c&c$b[b*cAc2c(cXb9cBcAbca+a{b2cFcMcN....................................................................................................................................................................................................................................................................................................................................................................................................................................................................................................................................................cOcFcdbSbCbCb:cFcvcXc#cSb.cFcYcXcXcXcX",
"avavb9ceb:b\b.crcOcMcOcRcXc2c4c$c$c$c#b\b%cyc2c&cXb.cMcMbra:bcb8cMcIcx....................................................................................................................................................................................................................................................................................................................................................................................................................................................................................................................................................cMcFcebSbCbCb*cBcocSc4cOb^cOcYcYcXcXcR",
"avavb9cbb:b\b*crcFcMcOcRcXcZc4c#c#c#c#b:b!cycYc(cXb:cFcMbra?bfb9cMcOcx....................................................................................................................................................................................................................................................................................................................................................................................................................................................................................................................................................cMcFcdbVbCbCb9crcecOcZcIcec4c&c#c#c#c4",
"avavb9b|b.b[b*crcFcFcOcOcScYc3c4c#c#c4b*b!cvcYc(cXb.cycBbka?brb8cMcOcx....................................................................................................................................................................................................................................................................................................................................................................................................................................................................................................................................................cFcFcdbVbNbHb2chb|cIcYcIcdcZc#c#c#c4c4",
"avavb9b|b.b:b*cocFcFcIcOcScXcZc4c4c4cZb*b9cxcYc(cXb*cycybca?brb9cMcOcN....................................................................................................................................................................................................................................................................................................................................................................................................................................................................................................................................................cFcBcdbVbJbCbVcbb|cFcScIcdcZc4c#c4c4c4",
"azaCb8b\b*b*b%cocBcBcFcIcRcXcXcZc3c3cXb%b9crcYc&cSb!cvcqa]a]brb8cMcMcx....................................................................................................................................................................................................................................................................................................................................................................................................................................................................................................................................................cFcBcbbVbvbrbVb[b\cFcRcBcdcZc#c4c#c4c2",
"azaCb8b\b*b*b%ckcycycBcFcOcOcScZcZcZcXb%b8crcSc&cRb8cocta:a]brb8cMcMcG....................................................................................................................................................................................................................................................................................................................................................................................................................................................................................................................................................cBcBcbbVbrbvbNb:b[cBcOcycbcYcXc4c4c4cZ",
"azaCb8b[b%b*b9chcvcycqcFcIcOcScScXcXcRb9b8cocSc%cMb2ckcka+a:brb8cFcM......................................................................................................................................................................................................................................................................................................................................................................................................................................................................................................................................................cycyb\bVbkbrbNb.b\cBcOcycdcSc2c4c4c2cX",
"azazb8b:b%b%b9cecqcrcycycFcIcOcScScXcRb9b2ckcSc$cMbVcjcha(a:brb8cAcA......................................................................................................................................................................................................................................................................................................................................................................................................................................................................................................................................................cvcrb\b2bkbfbNb.b\cBcMcycdcRcYcZcZcXcS",
"aCavb8b:b%b%b2cecocqcvcvcycFcOcOcScScOb9b2chcRc#cFbScdcda!a:bfb8cycy......................................................................................................................................................................................................................................................................................................................................................................................................................................................................................................................................................crcrb:b2bfa}bJb*b\cBcIcvcbcMcXcYcXcXcR",
"aCavb8b.b%b%b2cecocqcrcvcycBcIcOcScOcOb8b2cecOc#cAbNb\b\a!a?bfb8cvcr......................................................................................................................................................................................................................................................................................................................................................................................................................................................................................................................................................crcrb:b2bfa}bJb!b^cycFcrb|cMcScXcRcRcM",
"aCavb8b.b%b%bVcecocqcrcvcycycFcIcOcOcIb8bVcbcOc#cAbJb%b%a!a:bfb2cvcr......................................................................................................................................................................................................................................................................................................................................................................................................................................................................................................................................................cqcqb:bVbfa}bJb9b^crcBcocbcFcRcRcOcOcF",
"aCazb8b.b9b%b2cbckcocqcvcvcycBcIcIcIcIb8bVb^cIc4cybHb8b8a%a:bcb2crct......................................................................................................................................................................................................................................................................................................................................................................................................................................................................................................................................................cqcqb.b2bca}bHb8b^crcvckcbcBcOcMcMcFcA",
"aCavb8b.b9b%b2b^ckckcqcrcvcycycFcIcFcFb8bVb^cFc3cvbCb2b2a%a:bfb2cocn......................................................................................................................................................................................................................................................................................................................................................................................................................................................................................................................................................cqcqb.bVbca}bHb2b^cqcrchcbcBcMcFcFcAcv",
"aCaCb2b.b9b9bVb^chckcocrcvcycycFcFcFcyb8bVb[cBcZcrbCbSbSa%a:bfbVckcn......................................................................................................................................................................................................................................................................................................................................................................................................................................................................................................................................................cocob.b2bca}bHbVcbckcrcecbcAcBcBcAcvcr",
"aHavb8b.b9b9bVb^chchckcqcrcvcycycBcFcyb2bVb:cycZcrbvbNbJa%a?bfbSckcj......................................................................................................................................................................................................................................................................................................................................................................................................................................................................................................................................................cochb.b2bca{bHbVcbchcocdcdcAcvcycycxcr",
"aHaHb8b*b8b9bVb[cechchcocqcrcvcBcBcBcyb2bSb:cvcZcqbvbJbHa(a?bfbVchcj......................................................................................................................................................................................................................................................................................................................................................................................................................................................................................................................................................ckchb*b2bca{bHbVb|cdchb\cdcvcvcvcxcrco",
"aCaJb2b%b8b9bSb[cecechcocqcrcrcycycycvbVbSb.cqcXcqbvbHbCa(a?bfbSchca......................................................................................................................................................................................................................................................................................................................................................................................................................................................................................................................................................ckchb%b2bcbkbCbVb^b|b|b\cdcvcrcrcrcqco",
"aCaJb2b%b9b2bSb:cbcececkcocqcrcrcycycvbVbNb*cocXcqbvbCbCa+a:a}bSceca......................................................................................................................................................................................................................................................................................................................................................................................................................................................................................................................................................ckceb%b8bca{bvbVb:b\b|b:cecrcqcqcqcock",
"aHaCb8b9bVb8bSb.b^cecechckcqcqcvcvcycrbVbNb%ckcScqbvbCbCa+a:a}bNceb:......................................................................................................................................................................................................................................................................................................................................................................................................................................................................................................................................................cncdb*b8a}a?bvbVb%b*b:b.chcqcocqcococh",
"aHaCb8b9bVbVbSb.b^b^cececkcocqcqcrcvcqbSbJb%chcScqbvbvbva+a:a}bNcdb:......................................................................................................................................................................................................................................................................................................................................................................................................................................................................................................................................................cucbb?b8a}a:bvbSb!b!b*b%cecockcocochch",
"aHaCb2b9bVbVbSb%b^b^cbcechckcocqcrcqcqbSbHb8cecOcqbvbvbva+a:a}bJcbb.....................................................................................................................................................................................................................................................................................................................................................................................................................................................................................................................................................cDczcab*b8bha+brbSb9b8b!b9chckckckckchce",
"aCaJb2b9bVbVbJb%b[b[b^cececkcococqcqcobSbHb2cbcOcqbvbvbva+a(a{bHb|b?....................................................................................................................................................................................................................................................................................................................................................................................................................................................................................................................................................cKcKcab?b!bca(brbNb8b2b8b8ceckchchchcecb",
"aHaCb8b9bVbSbJb%b.b[b^cbcechckcococockbSbCbVcbcIcobvbvbva+a%a{bCb\b!....................................................................................................................................................................................................................................................................................................................................................................................................................................................................................................................................................cEcKcab?b)bca:bkbNb2b2b2b2cdchcecececbb|",
"aHaCbVbJbVbVbJb9b.b.b[b[b^cechckckckchbNbCbVb[cBckbCbvbra+aSa{bCb:b!....................................................................................................................................................................................................................................................................................................................................................................................................................................................................................................................................................cJcEb{b?b)a]a%bcbNb2bVb2b2cbcecdcdcbb^b^",
"aHaJbNbVbVbSbHb9b%b.b[b[b[cbcechchckcebJbvbVb:cyckbHbvbra:a!a]bCb*b.bKa>................................................................................................................................................................................................................................................................................................................................................................................................................................................................................................................................................cJcKcib?b8bha{bcbNbVb1bQbScbcecbcbb^b^b[",
"aJaObJbSbNbSbCbVb%b.b.b[b[b^cecechchcebJbvbSb.crchbHbvbra?a!a]bvb%b*b5a>................................................................................................................................................................................................................................................................................................................................................................................................................................................................................................................................................cJcKcib?b)a{a?bcbJbSbJbJbJb|cdb^b^b^b[b:",
"aJaObHbNbJbJbCbVb%b%b.b.b[b[cbcecececebHbrbSb%cochbHbrbfa+aSa]brb9b%bGa>................................................................................................................................................................................................................................................................................................................................................................................................................................................................................................................................................cKcKcib)b`a]a?bcbKbSbHbKbJb|cbb[b[b[b:b.",
"aOaObHbNbHbJbrbVb9b9b%b.b.b[b^b^cecbcbbCbrbNb9cocdbHbvbfa(aSa]brb8b8bGa>................................................................................................................................................................................................................................................................................................................................................................................................................................................................................................................................................cJcJcfb)b&a~a?a}bHbNbIbHbHb[b[b[b:b:b:b*",
"aOaObCbNbCbCbvbVb9b9b9b%b.b.b[b^b^cbb^bCbkbJb8ckcbbJbka}a:a!a?bkb2b8bqa>................................................................................................................................................................................................................................................................................................................................................................................................................................................................................................................................................c7cEb]b`b2a~a?a{bIbJbCbCbHb:b:b:b.b:b.b*",
"aQaSbvbJbCbCbkbVbVb9b%b%b.b.b[b[b^b^b^bCbkbCbVceb^bNbfa(a!a!a]bkbVb2bla^................................................................................................................................................................................................................................................................................................................................................................................................................................................................................................................................................c0cEb`b-b,a{a?a{bCbJbIbCbIb.b.b.b%b*b*b*",
"aWaSbvbJbvbCbrbVb9bra+a}bkbkbSb.b[b[b[bCbkbCbNb^b[bSbfa?a%aSa?bkbSb1blbi................................................................................................................................................................................................................................................................................................................................................................................................................................................................................................................................................c7cEb`b)b,a]a~a{bCbKbvbCbHb*b.b.b*b*b*b*",
"aWaSbvbJbvbvbkb9b2a}aCaoavaoa%b9b[b[b:bvbfbvbJb[b:bSa}a!a%a!a:bkbNbNbza~................................................................................................................................................................................................................................................................................................................................................................................................................................................................................................................................................c7cEb>b,b2a~a?a]bvbJbvbvbvb%b%b*b%b%b%b*",
"a2a%brbHbrbrbka]bkbCbraoamaoaSb9b.b.b.bva}bvbCb*b%bJbca%a%aSa:bkbKbNbhbm................................................................................................................................................................................................................................................................................................................................................................................................................................................................................................................................................cJcEb/b$b1a~a]a]bGbHbvbubCb%b%b%b%b%b%b!",
"aSa%brbCbrbka}avamamamamamaoaSb2b*b.b*bva}brbvb8b2bHa]a(a%a!a+bkbCbKa~bm................................................................................................................................................................................................................................................................................................................................................................................................................................................................................................................................................c7cpb/b#b1a~a?a]bvbIbrbrbCb%b%b%b9b%b9b8",
"a5a(bkbCbkbfbcavamaoaoalamaoa+bVb9b%b.bCa}brbCb2bVbHa?a+a%a!a+bkbvbKa~bm................................................................................................................................................................................................................................................................................................................................................................................................................................................................................................................................................cJcwb/bZbZa~a\a\brbCbrbkbvb!b%b!b%b!b8b8",
"a+a(bfbvbkbfbcavamamamamamaoa+bVb9b9b%bva]bkbvbVbSbCa]a]a%a!a+bfbubCa~a~................................................................................................................................................................................................................................................................................................................................................................................................................................................................................................................................................cTcpb+bZbZbha/a{bvbIbfbfbvb!b9b9b!b9b2b2",
"a%a:bcbrbka}bkaOamamamamamava]bVb2b9b9bra]bfbrbJbJbCa]aSa5a!a+bcbrbCbibd................................................................................................................................................................................................................................................................................................................................................................................................................................................................................................................................................cTcmb#bZbZa~a%a{bGbvbfbfbrb8b9b9b9b8b2b2",
"a?bfbcbrbfa}bca%aoaoaoamama%bCbSbVb2b9bra?bcbkbHbCbCa{a!aSa%a+a}brbva\bm................................................................................................................................................................................................................................................................................................................................................................................................................................................................................................................................................cHcmb5bPbZa~a/a{brbvbfbfbrb8b8b8b8b8b2bV",
"bIbGbcbkbka]a}a+avamamaoaSbrbHbSbVb2b2bra?a]bkbCbCbva}a(a!a%a(a{brbGa/a^................................................................................................................................................................................................................................................................................................................................................................................................................................................................................................................................................cmcgb5bPbKa~a%a~bxbubfbcbrb2b2b2b8b2b2bS",
"b5b0bcbkbfa]a{a?aCaraoaObcbvbCbNbVbVb2bra?a]bcbCbvbra}a:a!a%a(a{brbxa.a^................................................................................................................................................................................................................................................................................................................................................................................................................................................................................................................................................cgcgb3bIbIbia%a]bkbrbfbcbcb2b2b2b2bVbVbS",
"b5bGblbqbfa]a?a]a(a%a(a}brbvbCbJbSbVbVbra+a?a}bvbrbra}a%a5a%a+a]bkbka<a>................................................................................................................................................................................................................................................................................................................................................................................................................................................................................................................................................cgb~b3b0bIa\a$a~bkbGbcbcbkbVb2bVbVbVbSbS",
"b0bGbfbqbfa:a:a?a]a}bcbkbrbvbCbJbSbSbVbka(a?a}bvbrbra}a!a!a(a+a]bfbxa*a>................................................................................................................................................................................................................................................................................................................................................................................................................................................................................................................................................b<b~b0bGbGa/a<a]bfbrbcbcbrbVbVbSbSbSbNbN",
"bRbGbfbfbfa+a+a?a?a}a}bkbrbrbCbJbNbSbSbfa(a?a}brbkbkbfa(aSa+a+a]bfbla#a.................................................................................................................................................................................................................................................................................................................................................................................................................................................................................................................................................b-b>bGbGbIa>a4a?bfbra}a}bkbSbSbSbNbJbJbJ",
"bRbxblbfbca+a+a:a?a{a}bfbkbrbCbHbJbNbNbca(a+a}bkbrbka?aSa5a(a+a]bcbha8a#................................................................................................................................................................................................................................................................................................................................................................................................................................................................................................................................................b/b/bRbFbGa/a1a\bcbka}a}bkbSbSbNbJbJbHbH",
"bRbqbcbcbca+a(a+a?a{a}bfbkbrbvbCbJbJbJa}a%a+a}bkbkbfa:aSa2a%a(a]bca}aZaE................................................................................................................................................................................................................................................................................................................................................................................................................................................................................................................................................b6b+bFbDbqa/a9a:blbka{a{bfbNbNbJbHbHbCbH",
"bDbxa}a}bca(a(a+a:a]a}bcbfbkbrbvbHbJbJa}a%a(a]bkbfbfa?aSa2a(a+a]a}a{aZaN................................................................................................................................................................................................................................................................................................................................................................................................................................................................................................................................................bYb#bDblbla/a9a\bfbka{a{bfbJbHbHbCbCbCbC",
"bFbxa}a{a}a%a%a+a:a]a{bcbfbfbrbvbCbHbHa}a!a%a}bkbfbfa?a!a2a(a+a]a}a{aXaI................................................................................................................................................................................................................................................................................................................................................................................................................................................................................................................................................bXb#blbobha%a9a:blbfa{a{bcbHbHbCbCbvbvbv",
"bFbxa{a{a{a!a%a+a:a]a{a}bcbfbkbvbCbCbCa]a%a%a}bkbcbfa?a5a2a(a(a?a}a{aTaZ................................................................................................................................................................................................................................................................................................................................................................................................................................................................................................................................................bUbZbla~bha$a5a:blbfa~a{bcbHbCbCbvbvbvbr",
"bDbqa]a{a]a!a%a+a:a]a{a}a}bfbkbrbvbCbCa]a%a%a?a}bcbka:a2a2a(a(a:a{a~aBa9................................................................................................................................................................................................................................................................................................................................................................................................................................................................................................................................................bUb5bla~bha!a2a/a}bfa]a]a}bCbvbvbvbrbrbr",
"bDbla\a]a]a!a!a(a:a]a{a{a}bcbkbrbrbCbCa]a!a%a?bcbcbka:a2a2a(a(a:a{a$a8..................................................................................................................................................................................................................................................................................................................................................................................................................................................................................................................................................bMb3bla~a{a$a1a(bhbfa]a?a{bCbvbvbrbrbrbr",
"bRbla\a]a]a$a!a(a+a?a]a{a}bcbfbkbrbvbva]a!a!a]a}a}bfa:a2a2a(a(a:a?a9....................................................................................................................................................................................................................................................................................................................................................................................................................................................................................................................................................bFbUbha~a~a5a1a(a}bha]a\a{bvbvbrbrbrbkbk",
"bFbha/a]a?a5a!a(a(a?a]a]a{a}bfbkbkbrbva]a!a!a?a}a}bfa+a2a1a(a(a:a9a^....................................................................................................................................................................................................................................................................................................................................................................................................................................................................................................................................................bEbGbza?a~a9aWa/a}bha\a:a{brbrbrbkbkbkbk",
"bGbha(a?a:a2a5a%a(a:a?a]a]a}bcbkbkbrbra]a!aSa?a]a}bfa+a1aWa%a(a:aG......................................................................................................................................................................................................................................................................................................................................................................................................................................................................................................................................................bpbGbha\a\a1aQa/a}a}a:a:a~brbrbkbkbkbfbf",
"bqa~a%a]a?a!a4a!a(a:a?a]a]a}bcbfbkbkbra?a!a!a+a]a{bca(a1aWa!a%a+aG......................................................................................................................................................................................................................................................................................................................................................................................................................................................................................................................................................bdbRa~a\a^aWaQa/a}a{a:a/a]brbkbkbkbfbfbf",
"bca?a!a?a]aQaQa!a%a+a?a]a]a}a}bcbfbkbka?a4a4a+a?a]a}a(aWaWa!a%a+aG......................................................................................................................................................................................................................................................................................................................................................................................................................................................................................................................................................a^bDa~a>a+aWa1a%a{a{a+a+a{bkbkbqbfbfbfbl",
"bca:a5a:a:aBaOa!a%a:a?a]a]a{a{bcbcbfbfa?a4a4a+a?a]a}a(aWaWa!a!a+aG......................................................................................................................................................................................................................................................................................................................................................................................................................................................................................................................................................a>bla~a/a>a5a$a%a~a{a:a?a:bfbfbfbfblbcbc",
"bca:a1a+a:aBaJa!a!a1asasavava2a{a}bcbfa?a4a4a(a:a]a{a%aWaWa!a%a+aG......................................................................................................................................................................................................................................................................................................................................................................................................................................................................................................................................................a>boa~a/a/a1aVa$a]a]a%a%a+bla{aHazavasas",
"a{a(aWa+a+aCaCa5a!aOararaBava2a{a}bca}a:a1a1a(a:a?a{a%aWa2a(a%a(aG......................................................................................................................................................................................................................................................................................................................................................................................................................................................................................................................................................a.bha\a/a/a0aVa!a\a]a%a%a:bfbhaLakakakak",
"a{a%a0a+a+aCaCa2a!aJayaDaUaza4a{a}a}a}a:a1aWa(a+a:a{a(aWa2a5a5a!aA......................................................................................................................................................................................................................................................................................................................................................................................................................................................................................................................................................a.boa\a$a>aWaOa5a?a?a%a!a:bfbla]asaoaoat",
"a]a(aQa(a/aCaBa2a9a)bObObOa|a%a]a{a}a}a:a1aWa(a+a:a]a%aWa2a2a5a!aA......................................................................................................................................................................................................................................................................................................................................................................................................................................................................................................................................................a*a~a\a%a$a1aOa5a?a:a!a5a+bfbca}aLasaDa6",
"a]a%aQa(a%aCava5a/a<bnbybybna/a]a]a}a{a?a1a1a%a+a+a?a2a1aWa!a5a!as......................................................................................................................................................................................................................................................................................................................................................................................................................................................................................................................................................a,a~a?a$a%a0aOa4a:a:a!a5a+bcbha}aLazaUa6",
"a]a%aWa%a%aCava$a{bKbVb8b2bVbGa:a{a{a{a:a0a1a!a+a(a:a!aWaWa!a5a!as......................................................................................................................................................................................................................................................................................................................................................................................................................................................................................................................................................a8a~a:a5a!a0aOa4a:a:a!a5a+bca}a{aLawaUa6",
"a?a%aWa%a!aCava5a{b1b*b|cab.bCa+a]a]a]a(aWa1a5a%a(a:a!aWaWa%a$a5as....................................................................................................................................................................................................................................................................................................................................................................................................................................................................................................................................................blaWa]a:a5a4aVaJa4a+a:a5a5a+a}a{a{aHasblbI",
"a?a!aQa!a5aHava!a]bCb1b2b)b%bKa:a?a?a?a(aOaWa4a%a(a:a5a0aWa%a$a5as....................................................................................................................................................................................................................................................................................................................................................................................................................................................................................................................................................bqaVa]a(a4a4aVaJa2a+a+a5a5a(a}a{a]aBasa]a$",
"a\a!aWa!a2aWaJavavaBaBaCaJaJaCa1a?a:a?a(aOaWa4a%a(a:a4aQaWa$a5a5as....................................................................................................................................................................................................................................................................................................................................................................................................................................................................................................................................................bqaVa?a(a5a4aOaJa1a+a+a5a4a%a{a{a]azalajak",
"a\a5aQa!a1a4a2avakakalalakakahaOa:a+a+a(aOaWa2a%a%a+a4aWaWa$a5a5as....................................................................................................................................................................................................................................................................................................................................................................................................................................................................................................................................................bqaVa?a(a4a0aOaJa1a(a+a4a2a5a{a{a?avalaoas",
"a?a5aQa5a1a4a4a4aralamaoaoaraoaQa(a(a(a%aVaWa5a%a%a(a4aQaWa$a5a4as....................................................................................................................................................................................................................................................................................................................................................................................................................................................................................................................................................bqaOa:a/a4a0aOaHaQa(a+a1a1a4a]a]a\asamazbh",
"a:a2aQa2a1a4a5a!avamaraJaJaCavaQa(a%a(a%aVaWa4a!a!a(a1aOaWa$a2a4as....................................................................................................................................................................................................................................................................................................................................................................................................................................................................................................................................................bxaLa+a(a4a0aLaHaQa%a(a1a1a1a]a]a:asamazbq",
"a+a2aWa%aWa4a5a5aBaoava$a%a1azaOa%a%a%a!aQaOa1a5a!a%a0aLaQa5a1a2as....................................................................................................................................................................................................................................................................................................................................................................................................................................................................................................................................................bqaQa/a%a1aVaJaJaQa!a(a4a1a1a?a]a\asamazbq",
"a(a1aOa4aWa1a1a4aBaraza%a(a2avaOa%a%a!a4aOaOa1a5a!a%a0aLaQa5aWa2as....................................................................................................................................................................................................................................................................................................................................................................................................................................................................................................................................................bxaLa/a%a0aVaJaJaQa!a(a2aWa2a+a]a:asaoazbq",
"a%a1aOaWaWa1aWa2aBaoaza%a%a2azaLa%a%a%a2aOaOa1a4a!a%a0aLaQa5a1a1as....................................................................................................................................................................................................................................................................................................................................................................................................................................................................................................................................................bqaOa(a5a0aVaJaJaQa!a(a1aQa2a?a?a/araoavbq",
"a%aWaJaWaWaWa1a1aCaoaza%a!a2azaHa]a:a$a2aLaOa1a4a5a%aVaOaQa2a1a1ar....................................................................................................................................................................................................................................................................................................................................................................................................................................................................................................................................................bqaLa%a5a0aVaJaJaOa5a%a1aOa1a:a:a%araoasbl",
"a%aWaJaQaWaWaWa1aCaraza%a%a2azaBasaBaSaWaHaLaWa4a4a%aQaLaQa2aWaWar....................................................................................................................................................................................................................................................................................................................................................................................................................................................................................................................................................bqaJa%a5a0aVaHaJaOa4a%aWaOaWa:a+a%asamarbl",
"a%aWaJaQaQaWaWa1aCaraza%a%a2azaCaBaLaSaWaCaJaQa2a5a%aQaLaOa2aWa1ar....................................................................................................................................................................................................................................................................................................................................................................................................................................................................................................................................................bqaJa%a5a0aVaHaHaOa2a!aVaLaWa+a+a%asaoasbh",
"a%aWaJaQaQa1aWaWaCaoaBa!a5aWazaLaSaWa2aWaHaJaQa1a2a$aQaLaOa2aWa1ar....................................................................................................................................................................................................................................................................................................................................................................................................................................................................................................................................................blaJa%a5aQaQaHaHaOa2a!aQaJaQa(a(a%asamarbc",
"a!aWaJaOaQaWaWaQaBaoavbvbva}a%aOaWa1a1a1aBaCaQa1a2a$aOaLaOa2aWaWar......................................................................................................................................................................................................................................................................................................................................................................................................................................................................................................................................................aNa$a2aQaVaHaCaOa2a!aQaJaQa(a(a%asamaobI",
"a5aQaJaOaQaWaWaWazamamasaBaCaCaQaWa2a2a1aHaCaLaWa1a$aLaJaQa2aQaLaW......................................................................................................................................................................................................................................................................................................................................................................................................................................................................................................................................................aNa9a1aOaQaHaHaOa2a5aQaHaOa(a(a$aralarbu",
"a5aQaHaLaOaQaWa1a1aQaOaHaHaJaOaWa1a1a1aWaHaJaLaWa1a$aLaJaOa2aQaJa$......................................................................................................................................................................................................................................................................................................................................................................................................................................................................................................................................................aIa5a1aOaQaHaHaJa1a4aQaHaOa(a(a!arakalas",
"a5aQaHaJaOaQaWa1aWa2a4a1a4a1aWaWaWa1aWaWaCaHaJaWa1a5aLaJaJaWaQaLa$......................................................................................................................................................................................................................................................................................................................................................................................................................................................................................................................................................aNa2a1aLaOaHaCaJa1a9aQaHaOa%a%a!arakalak",
"a5aQaOaOaOaOaQaWaWaWaWaWaWaWaQaWaWaWaWaWaCaHaJaQa1a9aJaHaJaWaQaLa$......................................................................................................................................................................................................................................................................................................................................................................................................................................................................................................................................................aNa9aWaJaLaCaCaJa1a9aQaHaOa%a%a%avamaoao",
"a5aQa1aWaLaJaOaOaQaVaQa0aWaWaWaWaWaWaWa0aCaJaJaQa1a4aJaHaJaWaQaLa$......................................................................................................................................................................................................................................................................................................................................................................................................................................................................................................................................................aza9aWaNaLaGaCaJaWa1aOaHaOa%a!a!a%a+a?a\",
"a5aQazaOaOaCaLaOaHaHaHaHaCaCaCaJaQaQaWaWaCaJaJaOa1a4aJaHaJaWaQaLa$....................................................................................................................................................................................................................................................................................................................................................................................................................................................................................................................................................bGaza$aQaNaLaGaBaHaWa1aOaJaOa!a5a4a1a1aWaW",
"a4aQaHaQaOaCaJaBaravavavavasasasaOaQaQaQaCaHaJaLa1a2aHaHaJaWaOaJa$....................................................................................................................................................................................................................................................................................................................................................................................................................................................................................................................................................blaAa5aQaJaLaCaBaHaWaWaOaJaLa5a4a2a1a1a1a1",
"a2aQaCaOaLaCaHazaoavaBavaBazavaraOaOaQaOaCaHaJaJa1a2aHaHaJaWaOaJa$....................................................................................................................................................................................................................................................................................................................................................................................................................................................................................................................................................blaBa4aOaHaLaCaBaCaQaWaLaHaJa4a1a1a1a1aWaW",
"a1aQaCaOaJaCaHazaoavaBavavazavaraOaOaQaOaBaHaJaJa1a2aJaCaOaWaOaJa$....................................................................................................................................................................................................................................................................................................................................................................................................................................................................................................................................................a/asa4aVaKaHaBaBaCaQaQaLaCaJa2a1aWaQaQaWaW",
"a1aOaCaOaJaCaHazaoavavavavavasaraOaOaQaOaBaHaJaJa1a2aJaHaLaQaOaJa$......................................................................................................................................................................................................................................................................................................................................................................................................................................................................................................................................................aAa0aVaCaUaBazaCaQaQaLaCaHa2a1aQaOaOaQa0",
"a1aOaCaOaJaCaHaBasaBaBaCaCaCaCaCaOaOaOaLaCaHaHaJaWa1aCaCaLaOaLaHa$......................................................................................................................................................................................................................................................................................................................................................................................................................................................................................................................................................aEaVaVaCaHaBazaIaVaVaLaHa0a5a1aOaOaQaQaV",
"a1aOaCaOaJaCaCa+b8b9b*b%b*b*b*b2aQaOaOaHaCaCaHaJaWa1aCaCaJaOaLaHa$......................................................................................................................................................................................................................................................................................................................................................................................................................................................................................................................................................aEaOaJaCaUaBazaCaVaVaJaJa$a!aWaOaOaQa0a4",
"a2aQaCaOaJaCaCa]cab\b|cacab|b|b!a0aOaLaHaBaCaCaHaQa1aCaCaJaOaLaHa9......................................................................................................................................................................................................................................................................................................................................................................................................................................................................................................................................................aEaVaJaBaHaBawaCaVaOaHaCaCaWaWaQaOa1a{a]",
"a1aOaBaOaJaCaCa%bKbKbKbJbJbKbKbCa0aLaOaHaCaCaCaHaQa1aCaCaJaOaLaCa9......................................................................................................................................................................................................................................................................................................................................................................................................................................................................................................................................................aEaOaLaBaKazawaCaOaOaHaCaHaWaWaQaJaQaOaJ",
"aWaOaHaOaJaHaHaCaBaBaBaKaHaHaHaHaJaJaJaJaBaCaHaHa0aWaCaCaJaOaLaCa1......................................................................................................................................................................................................................................................................................................................................................................................................................................................................................................................................................aEaOaJaBaBazawaCaOaLaCaCaHaWaWa1aHaJaHaC",
"aWaOaJaLaJaCaHaCaCaHaHaHaCaCaHaJaJaJaJaJaBaCaHaHaVaWaCaCaJaOaLaCa0......................................................................................................................................................................................................................................................................................................................................................................................................................................................................................................................................................aEaJaJaCaBaBavaCaOaLaCaCaHaWaWa1aWaQaLaL",
"aQaHavaLaJaCaCaGaBazawavavavavaBaOaJaOaOaBaCaHaHaVaWaCaCaJaOaLaCa0......................................................................................................................................................................................................................................................................................................................................................................................................................................................................................................................................................aEaJaLaCaBaBavaCaOaLaCaCaHaWaWaQaQaOaOaO",
"aQaHazaJaJazaBaCavaoarasasasasavaJaHaJaCaBaBaCaHaOa1aCaGaJaOaLaCa0......................................................................................................................................................................................................................................................................................................................................................................................................................................................................................................................................................aAaHaLaCaBazavaBaOaLaCaCaHaQaWaWaQaLaLaL",
"aQaHazaJaJazazaCasaQbrbrbkbvbHa?aBaJaHaCaBaBaCaCaOaWaHaBaJaOaLaCa0......................................................................................................................................................................................................................................................................................................................................................................................................................................................................................................................................................aFaHaJaCaBazavaBaOaHaBaHaLaWaWaQaOaOaLaJ",
"aQaHazaJaJavazaCasa4bka/a5a/bfbcazaHaHaHaBaBaCaCaLa0aHaBaJaOaJaCa1......................................................................................................................................................................................................................................................................................................................................................................................................................................................................................................................................................aFaHaHaBaBaBasaBaOaHaBaBaHaQaOaOaLaLaJaJ",
"aOaIazaJaJavazaCavaWbrbha}a}bla{aBaHaHaHaBaBaCaCaJaVaCaBaJaLaHaBa#......................................................................................................................................................................................................................................................................................................................................................................................................................................................................................................................................................aAaCaHaBaBaBasaBaLaHaBazaBaVaOaOaJaJaJaJ",
"aLaHaAaJaJavazaCavaWbxaQaJaWa}bcazaHaHaHaBaBaCaCaJaOaCaBaHaJaHaBaW......................................................................................................................................................................................................................................................................................................................................................................................................................................................................................................................................................aAaCaHaBaBaBasaBaJaCazazaBaVaOaOaJaJaJaJ",
"aOaHaBaJaJawaAaCawaOa\aVaIaWa\a\aBaHaHaHaBaBaCaBaJaLaCaBaCaJaHaBa1......................................................................................................................................................................................................................................................................................................................................................................................................................................................................................................................................................aFaBaCaBaBaBawaCaJaCaBazaBaVaOaOaJaJaJaJ",
"aOaCazaJaNawazaGawaJa#aHaTa1a$a/aGaHaHaHaBaBaCaCaHaLaCaBaCaJaHaBaL......................................................................................................................................................................................................................................................................................................................................................................................................................................................................................................................................................aFaCaHaBaBaBawaBaJaCaBazaBaVaOaOaJaJaJaJ",
"aLaBazaJaHawaAaBawaJa/a\a~a^a/a9aGaHaHaHazazaCaIaHaLaBaBaHaJaJaobY......................................................................................................................................................................................................................................................................................................................................................................................................................................................................................................................................................aAaCaHaBaBaCawaBaJaCaBazaCaVaOaOaJaJaJaJ",
"aLaBazaJaHawazaEasaJa~bhbqbha>aWaEaHaHaHazaBaCaCaHaOaGaBaCaJaLao........................................................................................................................................................................................................................................................................................................................................................................................................................................................................................................................................................aFaBaCaBaBaBawaBaJaCaBazaCaVaOaOaJaJaJaJ",
"aLaEazaNaHawazazasaoaoaoamaoasasaGaIaHaIavaAaGaGaIaOaGaBaIaJaTaq........................................................................................................................................................................................................................................................................................................................................................................................................................................................................................................................................................aAaBaHaEaBaGawaBaJaGaAazaGaVaOaOaJaJaJaJ",
"aLaEazaIaHawazazazawasasarasasaAaEaCaHaIazaAaGaCaGaOaEaBaGaHaLao........................................................................................................................................................................................................................................................................................................................................................................................................................................................................................................................................................aEaHaIaBaEaBawaGaJaGaAaBaIaVaOaOaLaLaJaJ",
"aJaGaAaHaHazavazazazazaBaAaBaEaGaGaGaHaIazaEaCaIaIaLaAazaEaCaNao........................................................................................................................................................................................................................................................................................................................................................................................................................................................................................................................................................aAaHaHaEaBaGawaIaLaGaAaBaIaVaOaOaLaLaJaJ",
"aJaGaAaHaHazavazazaBaBaBaEaEaBaGaGaIaIaHaAaEaGaHaIaLaAazaEaCaNaq........................................................................................................................................................................................................................................................................................................................................................................................................................................................................................................................................................bhaAaHaEaEaBaAaCaLaIaAaBaIaVaOaLaJaJaJaJ",
"aJaAazaNaCazawazazaAaBaEaBaGaGaGaGaHaIaIaAaEaNaIaIaNaEaAaGaHaLaq........................................................................................................................................................................................................................................................................................................................................................................................................................................................................................................................................................aTaIaIaEaEaGawaIaLaIaEaBaIaVaOaLaTaJaJaJ",
"aJaAaAaIaCazawazazaAaBaEaEaGaGaGaIaIaHaIawaFaNaIaIaNaEaAaGaHaLaq......................................................................................................................................................................................................................................................................................................................................................................................................................................................................................................................................................b$a>a-aAaAaEaGaAaNaTaGaBaEaIaVaOaLaTaJaJaJ",
"aJaAaAaIaGazawaAaAaBaEaEaGaGaGaGaIaIaIaIaAaBaKaIaIaJaEaBaGaHaTao......................................................................................................................................................................................................................................................................................................................................................................................................................................................................................................................................................b1a_a#aAaAaFaGaIaNaXaGaEaEaIaZaVaLaTaLaLaL",
"aJaAaEaIaGazaxazaAaEaEaEaGaGaGaIaIaIaIaIaAaEaIaJaIaNaBaEaGaHaLaq......................................................................................................................................................................................................................................................................................................................................................................................................................................................................................................................................................b1a=a&awaAaEaEaAaNaTaGaEaGaGaTaWaZaLaLaLaL",
"aIazaAaHaIaFawaAaAaFaFaEaEaEaKaIaIaIaUaIaAaEaKaTaKaNaEaAaGaHaLaq......................................................................................................................................................................................................................................................................................................................................................................................................................................................................................................................................................b1a=a;aMaMaAaAaxaCaTaBaEaGaIa8aVaXaZaLaXaL",
"aIazaEaNaIaFawaAaAaFaEaEaKaKaKaHaUaIaUaHaFaEaKaTaKaNaGaEaGaHaLaq......................................................................................................................................................................................................................................................................................................................................................................................................................................................................................................................................................b1a=a;aMaMaAawaxaCaTaBaEaBaIa8aVaXaZaLaXaL",
"aIazaEaNaIaAaxaAaAaFaEaGaKaIaUaHaUaUaUaUaEaKaIaTaIaUaKaEaGaHaLaq......................................................................................................................................................................................................................................................................................................................................................................................................................................................................................................................................................b1a=a;aMaMaEawawaIaXaBaEaBaIa0aZaZaXaOaXaO",
"aIazaEaNaIaAawaAaAaEaEaKaKaIaUaUaJaXaUaOaFaKaNaXaNaUaGaKaGaHaLaq......................................................................................................................................................................................................................................................................................................................................................................................................................................................................................................................................................b1a;a[aMaPaAawawaIaXaCaGaGaIa8aVaZaXaOaXaO",
"aIawaFaIaIaAawaAaBaEaEaPaPaUaNaUaXaUaXaUaEaUaJaZaUaTaKaKaCaNaLaq......................................................................................................................................................................................................................................................................................................................................................................................................................................................................................................................................................b1a=a`aPaPaAaxaxaIaXaGaIaIaIaZaWaZaVaZaOaX",
"aIaxaEaNaIaAawaAaBaEaEaPaPaUaUaUaTa3aXaXaKaUaUaZaUaUaBaPaHaTaOat......................................................................................................................................................................................................................................................................................................................................................................................................................................................................................................................................................b1a;bbaMaPaFaxaxaIaXaGaIaIaIaZa8aVaZaOaXaO",
"aIaxaEaNaIaAawaAaEaEaKaKaPaUaUaXa3aZaZa3aPaUaXa3aUaUaPaHaNaLaVar......................................................................................................................................................................................................................................................................................................................................................................................................................................................................................................................................................b1a=bbaMaPaAawaxaIaXaGaIaIaIaZaVaZaVaZaVaV",
"aIaxaGaNaNaBaAaBaEaKaIaUaUaUaXa3aZaZa8a3aPaUaXaVaUaUaPaHaUaLaZar......................................................................................................................................................................................................................................................................................................................................................................................................................................................................................................................................................b1a=bbaPaPaFaxawaIaZaIaIaIaIaZa8aVaZaZaZaV",
"aIaxaIaTaNaKaFaKaKaKaUaUaUaUaTa3aZa&a8a3aUaUaTa8aUaUaUaUaUaXa3at......................................................................................................................................................................................................................................................................................................................................................................................................................................................................................................................................................b1a=bbaPaUaFaAaxaNa8aNaIaIaIa0a8aVa8aVaZaV",
"aKawaUaTaTaKaGaPaNaUaUaUaUaXa3aZa&a&a&aZaUaUaTaZaXaUaPaUaUa3a0at......................................................................................................................................................................................................................................................................................................................................................................................................................................................................................................................................................b1a=bbaYaUaKaAaxaNa8aNaIaIaNa8a0a8a8aVaZaV",
"aGaAaUaXaXaNaPaNaUaUaUaUa3a3a3a8a&a&a&a&aUaPa3a8aTaUaUa8aXaVa&au......................................................................................................................................................................................................................................................................................................................................................................................................................................................................................................................................................b<bgbbaPaUaKawaxaNa8aNaNaNaNa8aZa8a8a8a8aZ",
"aIawaUa3aTaUaPaUaUaUaUaUa3a3aZa&a&a&a#a&aUaUaXa8aXaUaUaZa3a8a&au......................................................................................................................................................................................................................................................................................................................................................................................................................................................................................................................................................b<bgbba7aUaGaAaxaTa8aNaTaIaIa8a#a#a8a8a8aZ",
"aNaAaUa3a3aKaPaUaUaUaUa3a3a&a&a&a&a-a&a&aPaUaZa8aTaUaTa8a3aZa&au......................................................................................................................................................................................................................................................................................................................................................................................................................................................................................................................................................b$a`biaUaUaKaAaFaTa8aNaNaIaNa8a#a#a8a8a8a8",
"aNaAaUaZaZaUaUaUaUaUa3a3a3a&a&a&a&a<a-a&aUaUa8a#aUaKa3a0a8a&a#au......................................................................................................................................................................................................................................................................................................................................................................................................................................................................................................................................................b&bbbba3aUaTaDaFaTa8aTaNaNaNa8a#a#a8a8a8a8",
"aGaAaTa8aZaUaUaUaUa3a3aZa&a&a&a-a-a-a<a&a3aTa#a#aUaEa3a&a8a#a#au......................................................................................................................................................................................................................................................................................................................................................................................................................................................................................................................................................b$bjbiaUa8aTaxaxaXa8aTaTaNaNa&a&a&a3a&a3a&",
"aNaEaXa8a3aUaUaUa3a3a3a&a&a&a&a-a-a<a<a&a3aTa#a-aTaKaZa#a&a#a-au........................................................................................................................................................................................................................................................................................................................................................................................................................................................................................................................................................boa[a3a8aXaxaxaXa8aTaTaNaNa&a&a&a0a3a&a&",
"aTaEaXa8aZaTaXaZaZaZa8a&a&a#a&a<a<a<a<a&a3aTa#a-aXaPa#a8a&a-a<ay........................................................................................................................................................................................................................................................................................................................................................................................................................................................................................................................................................b1aPa&a8a3aDaxa3a8aUaUaUaNa&a#a&a&a&a&a3",
"aNaEaXa8aZaIaAauasaxaxawawaFaAaMaEaMaXaZa3a3a&a#a3aKa#a#a#a-a<ax........................................................................................................................................................................................................................................................................................................................................................................................................................................................................................................................................................bZaPa#a#a8aDaxa3a#aXaUaUaUa#a&a#a&a&a&a&",
"aIaEaZa#aZaEaqahaiaiaiaiaiajaiaiajahayaZaTa3a8a&aZaKa#a#a&a<a<ax........................................................................................................................................................................................................................................................................................................................................................................................................................................................................................................................................................bZaPa-a#a&aDaxa3a#aXaTaUaUa#a&a#a&a&a&a&",
"aIaEa8a#a8aEaraiahaiakanapaqaqatataqaxaTaTa3a8a*aZaKa#a*a&a-a.aD........................................................................................................................................................................................................................................................................................................................................................................................................................................................................................................................................................bZaPa<a*a#aDaxa3a#aXaTaUaUa-a-a&a&a&a&a&",
"aIaFa8a#a8aGauajaiakanaoatarauauauauaEaZaTaTa8a-aZaKa#a*a&a<a.aM........................................................................................................................................................................................................................................................................................................................................................................................................................................................................................................................................................bZaPa<a-a-ayaxaZa#aXaXaTaTa#a-a#a&a&a&a&",
"aNaAa8a#a8aIaxata/a^a\a~a~a~a~bhbxbhaAaXaUa3aZa*aZaKa#a*a&a<a/aM........................................................................................................................................................................................................................................................................................................................................................................................................................................................................................................................................................bYaPa<a-a-ayauaZa#aXaXaTaTa*a*a-a#a#a#a&",
"aNaAa8a#a8aNaxaKbhbxbqbxbxbxbxbFbGa~aAaXaTa8a8a*aZaPa#a-a&a<bbaF........................................................................................................................................................................................................................................................................................................................................................................................................................................................................................................................................................bZaUa.a<a-ayaxaZa#aXaXaXaTa*a<a9a-a#a#a8",
"aNaAa8a#a8aNaxaKbhbqblbqbqbqbqbxbxa^aEaTaXa.a$a-aUaFa#a-a&a<a\aM........................................................................................................................................................................................................................................................................................................................................................................................................................................................................................................................................................boa#a.a<a-ayaxa#a8aZaZa#a#a<a*a*a<bxbPbZ",
"aKaAa8a-a8aUaxaIbhbqblbqbqbqbqbqbGa/aEaXaXa<a-a#aFaDa#a-a&a<biaE........................................................................................................................................................................................................................................................................................................................................................................................................................................................................................................................................................aFa*a<a<a-ayaua8a#aZa8a&a3a*a*a#a<b$b,b8",
"aKawa&a*a#aNaxaNbhblblbqbqbqbqbqbGa>aEaNaXa<a*a8aAaDa#a-a&a<a\aM........................................................................................................................................................................................................................................................................................................................................................................................................................................................................................................................................................aTa[a<a<a-ataya0a#aZa8a&a3a*a*a#a<b,b)b`",
"aKaxa8a-a8aUawaTbhbhbqblbqbqbqbqbxa/aAaNa8a*a-a8axaxa&a-a8bia~aF......................................................................................................................................................................................................................................................................................................................................................................................................................................................................................................................................................a~aKa[a.a<a-atata#a#a3a8a#a3a-a<a&a#b)cjcp",
"aEaxa#a#a8aNawaXbhblbhbqbqbxbxbxbGa/axaUa#a-a*a#ayaxa&a#a#a<a\aD......................................................................................................................................................................................................................................................................................................................................................................................................................................................................................................................................................bhaUa<a<a<a-atata#a#aZa&a&a8a3a3a3a3b,cjcj",
"aEawa8aTaZaUaxaAa.a.a$a.a$a.a$a#a#aGawaTa#a-a-a#aDaMa8a#a-a-bbaD......................................................................................................................................................................................................................................................................................................................................................................................................................................................................................................................................................aGa0a<a<a-a&atata#a#aZa8a8a8a3a3a3a3a;a-a-",
"axauaXaZaXaNaxatasatatapakanaqaoaqasaAaXa*a*a-a-awaMa8a-a-a-bbaA..................................................................................................................................................................................................................................................................................................................................................................................................................................................................................................................................................a>aFaUa&a<a-a-a&ataqa#a#aXa8a8a&a8a3a&a&a3a&a3",
"asauaXaZaTaIaKaKaEaEaAaxasaAaFaFaEaEaAaZa*a*a<a<aMaMa8a<a-a<bbaPb6............................................................................................................................................................................................................................................................................................................................................................................................................................................................................................................................................a>azaqaPa3a#a<a-a-a&ataqa#a#aXa8a8a8a&a8a8a&a8a3a&",
"awauaTaTaNaKaEaEaEaEaEaGaIaIaIaKaGaEaEaZa*a<a<a-aMaMa8a<a<a<bba.a3bD....b{cpcpcpcpcpcpcpcpcpcmcmcmb{b{cmb{b{b{b{b]b{b{b{b]b]b]b?b]b<b?b<b?b<b?b?b?b&................................................................................................................................................................................................................................................................................................................................................................................................................................................b-b?cpcEcpcmb{b#aUa8a-a.a-a-a&aqaqa#a8aTaZa8aZaZa3a3a3a3a3a3",
"awauaNaIaKaEaAaAaAaAaKaNaKaKaKaKaGaAaFa8a-a-a-a-aMaMa&a<a[a[bba[a.cpc8c6c1cUcUc1cUcUcUcQcQcLcLcLcLcGcKcCcCcCcKcCcCcKcCcCcEcCcCcEcCcCcEcucEcucEcucCcucCcCcLcGcLcGcCcCcGcCcCcGcDcLcGcLcLcLcLcLcLcLcLcLcQcLcQcLcQcQcQcQcQcQcQcQcUcUcUcNcUcUcUcVcUcVc1cVc1cVc6c5cVc5c5c5c5c8c8c8c9c8c9c8c9c8c8c9c8c8c8c8c8c8c8c8c8c!c5c6c6cVc!c6c6c5c6c5c!c5c5c8c8c8c8c8c8c8c8c5c5c5c5c5c8c5c5c5c5c5c1cVc1cUcUcUcQcQcQcQcQcQcPcQcPcLcPcPcPcPcLcPcLcPcLcPcLcLcLcLcLcLcLcLcLcGcGcGcDcDcDcGcDcDcDczczcCczcDczczczczczczczcCczcDcDczczczcDcGcDcDcDcDcDcDcDcDcDcDcDcDcDcGcGcGcGcGcDcGcGcGcGcPcGcLcLcLcQcNcQcNcQcUcVcVcVc1cVcVc5cVcVcNcNcNcUcCa#a3a<a<a-a*a,apaqa8a8aNaZaZa3aXaTaTaUaUaUaU",
"asauaEaKaFaAaAaAaAawaGaGaFaFaFaFaAataxaZa-a-a-a-aMaPa&a<a[a<bba[a_bMbtb7cKc0cKcfbRbRbDbBbsbnbnbnbjbnbnbjbjbjbjbnbjbnbjbnbibnbnbnbnbnbnbsbsbsbsbsbnbsbnbsbmbnbmbnbmbnbmbsbsbzbmbsbmbzbzbzbzbobBbzbzbzbzbzbDbDbDbDbDbDbDbDbDbDbEbDbDbDbRbDbMbDbMbMbDbMbRbMbRbRb0bMb0b0bRb0b0b0b0b0b0b3b3b5b5b5b#b3bXb5b#b#b#b#b#bXb#bYb#b5b#b#b5b#b#b#b#b#b#b#b#b#b#b#b#b#b5b5b5b5b#b5b5b5b5b5b3b0b0b0bRbRbRbRbRbRbRbRbRbDbRbDbDbRbDbDbFbDbRbDbDbDbDbRbDbDbDbDbDbDbDbDbDbDbobDbDbDbzbDbDbDbzbzbDbBbzbzbzbzbzbzbzbzbBbmbzbtbzbzbsbtbsbsbsbsbsbsbnbsbsbmbmbibmbibmbibmbibmbmbibmbmbmbmbibnbmbsbsbsbzbtbzbzbmbsbsbzbzbmbobma^b-cUc1cQczb0aXa)a*a.a<a<a#apaqaZaZaUaZa3aTaUaUaUaUaUaUaP",
"ataraAaAawaxaxaxaxaxaxaxaxaxaxaDaxaxaxaZa*a*a*a*aFaPa#a<a-a-a<a-aDaRbDb`cmb>b7bDb~cmcfbobjbRbRbRbDbja`a`bjbjbjbjbja`bgbbbbbgbbbbbbbbbbbgbgbbbgbbbgbbbgbjbgbjbga`bbbba`bbbba_bbbbbbbjbbbjbjbibgbjbbbbbjbibjbbbbbbbbbbbgbnbAbnbnbAbsbnbnbnbibibibibsbmbsbsbtbtbsbBbtbtbBbBbBbtbtbzbBbtbzbzbzbsbsbzbzbsbsbnbmbjbjbibbbjbDbRbsbbbRb0b5bBbDb5b3b5bRbabnbBbTbBbTbDbTbzbTbzbTbDbTbTbDb7bTbBbBbBbBbAbsbBbBbTbBbzbBbBbzbBbzbBbzbBbtbBbBbsbBbnbzbzbzbsbsbzbBbzbsbzbBbBbsbsbzbBbzbsbsbsbtbBbsbsbBbsbzbsbnbnbsbsbsbsbsbsbsbBbzbnbnbnbnbnbnbnbnbbbnbibnbbbjbgbbbgbgbbbgbbbbbbbbbnbjbjbgbbbnbzbna`bzbDbDbza3bnb5b5b5b0bRbGb3b+bpaRaRa*a.a>a.a.a,anaya*aZaPaZaTaUaUaUaUaPaKaFaM",
"akajatauarauararataratauauauayasayauaxaXa#a*a*a*aFa3a.a.a-a&a-a-a)a;a)aYayaYb#cDcUcpbFb/cEcCcKcEb`b/b#b/b/b/b/b#b/b/b+b/b/b/b/b/b=b/b/b/b/b/b=b/b/b=b=b/b=b=b/b=b=b=b=b=b=b+b=b=b}b=b=b}b=b}b=b=b}b=b}b`b}b`b}b=b`b}b`b`b`b`cfb`cfb}b`cfcfcfb`cfcicicicicicfcfcfcicicicicmcicicmcicicicmcicicmcicicicmcicmb`b}b}b}b}cPc1cPcPc6c1c1cPc1c1c1c1cKb=b}cfcfcicfcfcib~cfcfcfcfcmcicicicicfcfb}cib`cfcfcfcfcfcfb`cfcfcfcfcfcfb`b~cfcfb~b~b~b}cfcfb}b=b`b`b`b`b`cfb}b`cfb`b`b}b}b}b}b}b}b`b`b}b}b}b}b=b>b}b}b}b}b}b>b}b>b}b}b>b>b}b>b>b=b=b>b>b>b>b=b=b=b}b=b=b=b=b=b>b=b/b=b/b=b=b>b}b~b~b}b`cmcEcEcpb~b/cwcKcKcEcmbDapapajaybba^bba>a.a,ajaMa>aZaFa3aTaUaUaEaAaxaxaxas",
};
