/* XPM */
static char *xpm[] = {
"320 180 245 2",
".. c None",
"ab c #000000",
"ac c #010101",
"ad c #010102",
"ae c #010202",
"af c #020201",
"ag c #020202",
"ah c #030303",
"ai c #030305",
"aj c #030403",
"ak c #040404",
"al c #050505",
"am c #060505",
"an c #060605",
"ao c #060606",
"ap c #070707",
"aq c #080808",
"ar c #090909",
"as c #0a0a0a",
"at c #0b0b0b",
"au c #0c0c0b",
"av c #0c0c0c",
"aw c #0d0d0d",
"ax c #0e0e0e",
"ay c #0f0f0f",
"az c #0f1010",
"aA c #101010",
"aB c #111111",
"aC c #121212",
"aD c #131313",
"aE c #141414",
"aF c #151414",
"aG c #151515",
"aH c #161616",
"aI c #171717",
"aJ c #181818",
"aK c #191919",
"aL c #191a1a",
"aM c #1a1a1c",
"aN c #1b1a1a",
"aO c #1b1c1c",
"aP c #1b1d1e",
"aQ c #1d1b1b",
"aR c #1d1d1d",
"aS c #1d2022",
"aT c #1d2225",
"aU c #1e1e1e",
"aV c #1f1c1c",
"aW c #1f1f1e",
"aX c #201f1e",
"aY c #202020",
"aZ c #202324",
"a0 c #212121",
"a1 c #222120",
"a2 c #222222",
"a3 c #232222",
"a4 c #232324",
"a5 c #242424",
"a6 c #252322",
"a7 c #252525",
"a8 c #262525",
"a9 c #262626",
"a! c #272727",
"a# c #282828",
"a$ c #292929",
"a% c #2b292a",
"a& c #2b2b2a",
"a( c #2c2a2a",
"a) c #2d2b2b",
"a* c #2d2c2d",
"a+ c #2e2a2c",
"a, c #2e2d2c",
"a- c #2e2d2e",
"a. c #2f2e2e",
"a/ c #302e2f",
"a: c #302f2f",
"a; c #313131",
"a< c #323030",
"a= c #323131",
"a> c #323132",
"a? c #333130",
"a[ c #333132",
"a\ c #342a2d",
"a] c #343232",
"a^ c #353333",
"a_ c #353435",
"a` c #363433",
"a{ c #373536",
"a| c #373636",
"a} c #383736",
"a~ c #392f2c",
"ba c #393637",
"bb c #393738",
"bc c #3a3839",
"bd c #3a3939",
"be c #3b3738",
"bf c #3b393b",
"bg c #3c3838",
"bh c #3c3839",
"bi c #3c3a39",
"bj c #3d3b3b",
"bk c #3d3c3c",
"bl c #3e3a3b",
"bm c #3e3d3d",
"bn c #3f3733",
"bo c #3f3e3d",
"bp c #403c3d",
"bq c #403d3e",
"br c #403e3f",
"bs c #403f3e",
"bt c #413e3d",
"bu c #413f40",
"bv c #424040",
"bw c #424140",
"bx c #433d3c",
"by c #433f3f",
"bz c #434142",
"bA c #434243",
"bB c #444242",
"bC c #454142",
"bD c #454342",
"bE c #454344",
"bF c #464242",
"bG c #474345",
"bH c #474445",
"bI c #474545",
"bJ c #484445",
"bK c #484546",
"bL c #484646",
"bM c #484647",
"bN c #494647",
"bO c #494748",
"bP c #4a4748",
"bQ c #4a4848",
"bR c #4b4949",
"bS c #4b494a",
"bT c #4c4a4a",
"bU c #4d4945",
"bV c #4d4b4b",
"bW c #4e4c4c",
"bX c #4f4c4d",
"bY c #4f4d4e",
"bZ c #504d4e",
"b0 c #504e4d",
"b1 c #52504f",
"b2 c #535150",
"b3 c #553e35",
"b4 c #554441",
"b5 c #55524f",
"b6 c #555354",
"b7 c #555452",
"b8 c #565452",
"b9 c #565555",
"b! c #57554e",
"b# c #585256",
"b$ c #585555",
"b% c #585858",
"b& c #585859",
"b( c #595656",
"b) c #5a5758",
"b* c #5a5855",
"b+ c #5b5958",
"b, c #5d5b59",
"b- c #605e5d",
"b. c #625f5e",
"b/ c #656262",
"b: c #666364",
"b; c #666462",
"b< c #67645e",
"b= c #686464",
"b> c #686565",
"b? c #696869",
"b[ c #6b6763",
"b\ c #6b6969",
"b] c #6c6a6c",
"b^ c #6d6c6a",
"b_ c #6d6e70",
"b` c #6e6c69",
"b{ c #6e6c6a",
"b| c #6e6e6f",
"b} c #716f6e",
"b~ c #717170",
"ca c #726f6d",
"cb c #736759",
"cc c #736f68",
"cd c #73706b",
"ce c #757066",
"cf c #757575",
"cg c #78736b",
"ch c #7b7978",
"ci c #7c766c",
"cj c #7c7a78",
"ck c #7e7c78",
"cl c #7e7c79",
"cm c #7f7d7a",
"cn c #806257",
"co c #807e7c",
"cp c #827f7a",
"cq c #837e73",
"cr c #866556",
"cs c #87827d",
"ct c #887a6a",
"cu c #898989",
"cv c #8f8d8a",
"cw c #918e89",
"cx c #948e87",
"cy c #95928f",
"cz c #968d75",
"cA c #96938d",
"cB c #97938e",
"cC c #979591",
"cD c #a1a0a1",
"cE c #a79976",
"cF c #ada59a",
"cG c #b0a07e",
"cH c #b27a64",
"cI c #b3a894",
"cJ c #bb866e",
"cK c #beb09b",
"cL c #c1ad91",
"cM c #c28f78",
"cN c #c3b59f",
"cO c #c6aa76",
"cP c #c7ac8b",
"cQ c #cba06b",
"cR c #cbb486",
"cS c #cc9461",
"cT c #cf8a6f",
"cU c #d18c6e",
"cV c #d5c397",
"cW c #d79173",
"cX c #d99172",
"cY c #d9c7a7",
"cZ c #dca776",
"c0 c #dec48d",
"c1 c #e0a588",
"c2 c #e19e7d",
"c3 c #e3c88f",
"c4 c #e4b28d",
"c5 c #e6a483",
"c6 c #e79d7b",
"c7 c #e7b77f",
"c8 c #eba383",
"c9 c #edb082",
"c! c None",
"................................................................................................................................................................................................................................................................................................................................................................................................................................................................................................................................................................................................................................................................",
"................................................................................................................................................................................................................................................................................................................................................................................................................................................................................................................................................................................................................................................................",
"................................................................................................................................................................................................................................................................................................................................................................................................................................................................................................................................................................................................................................................................",
"................................................................................................................................................................................................................................................................................................................................................................................................................................................................................................................................................................................................................................................................",
"................................................................................................................................................................................................................................................................................................................................................................................................................................................................................................................................................................................................................................................................",
"................................................................................................................................................................................................................................................................................................................................................................................................................................................................................................................................................................................................................................................................",
"................................................................................................................................................................................................................................................................................................................................................................................................................................................................................................................................................................................................................................................................",
"................................................................................................................................................................................................................................................................................................................................................................................................................................................................................................................................................................................................................................................................",
"................................................................................................................................................................................................................................................................................................................................................................................................................................................................................................................................................................................................................................................................",
"................................................................................................................................................................................................................................................................................................................................................................................................................................................................................................................................................................................................................................................................",
"................................................................................................................................................................................................................................................................................................................................................................................................................................................................................................................................................................................................................................................................",
"................................................................................................................................................................................................................................................................................................................................................................................................................................................................................................................................................................................................................................................................",
"................................................................................................................................................................................................................................................................................................................................................................................................................................................................................................................................................................................................................................................................",
"................................................................................................................................................................................................................................................................................................................................................................................................................................................................................................................................................................................................................................................................",
"................................................................................................................................................................................................................................................................................................................................................................................................................................................................................................................................................................................................................................................................",
"................................................................................................................................................................................................................................................................................................................................................................................................................................................................................................................................................................................................................................................................",
"................................................................................................................................................................................................................................................................................................................................................................................................................................................................................................................................................................................................................................................................",
"................................................................................................................................................................................................................................................................................................................................................................................................................................................................................................................................................................................................................................................................",
"................................................................................................................................................................................................................................................................................................................................................................................................................................................................................................................................................................................................................................................................",
"................................................................................................................................................................................................................................................................................................................................................................................................................................................................................................................................................................................................................................................................",
"................................................................................................................................................................................................................................................................................................................................................................................................................................................................................................................................................................................................................................................................",
"................................................................................................................................................................................................................................................................................................................................................................................................................................................................................................................................................................................................................................................................",
"................................................................................................................................................................................................................................................................................................................................................................................................................................................................................................................................................................................................................................................................",
"................................................................................................................................................................................................................................................................................................................................................................................................................................................................................................................................................................................................................................................................",
"................................................................................................................................................................................................................................................................................................................................................................................................................................................................................................................................................................................................................................................................",
"................................................................................................................................................................................................................................................................................................................................................................................................................................................................................................................................................................................................................................................................",
"................................................................................................................................................................................................................................................................................................................................................................................................................................................................................................................................................................................................................................................................",
"................................................................................................................................................................................................................................................................................................................................................................................................................................................................................................................................................................................................................................................................",
"................................................................................................................................................................................................................................................................................................................................................................................................................................................................................................................................................................................................................................................................",
"................................................................................................................................................................................................................................................................................................................................................................................................................................................................................................................................................................................................................................................................",
"................................................................................................................................................................................................................................................................................................................................................................................................................................................................................................................................................................................................................................................................",
"................................................................................................................................................................................................................................................................................................................................................................................................................................................................................................................................................................................................................................................................",
"................................................................................................................................................................................................................................................................................................................................................................................................................................................................................................................................................................................................................................................................",
"................................................................................................................................................................................................................................................................................................................................................................................................................................................................................................................................................................................................................................................................",
"................................................................................................................................................................................................................................................................................................................................................................................................................................................................................................................................................................................................................................................................",
"................................................................................................................................................................................................................................................................................................................................................................................................................................................................................................................................................................................................................................................................",
"................................................................................................................................................................................................................................................................................................................................................................................................................................................................................................................................................................................................................................................................",
"................................................................................................................................................................................................................................................................................................................................................................................................................................................................................................................................................................................................................................................................",
"................................................................................................................................................................................................................................................................................................................................................................................................................................................................................................................................................................................................................................................................",
"................................................................................................................................................................................................................................................................................................................................................................................................................................................................................................................................................................................................................................................................",
"................................................................................................................................................................................................................................................................................................................................................................................................................................................................................................................................................................................................................................................................",
"................................................................................................................................................................................................................................................................................................................................................................................................................................................................................................................................................................................................................................................................",
"................................................................................................................................................................................................................................................................................................................................................................................................................................................................................................................................................................................................................................................................",
"................................................................................................................................................................................................................................................................................................................................................................................................................................................................................................................................................................................................................................................................",
"................................................................................................................................................................................................................................................................................................................................................................................................................................................................................................................................................................................................................................................................",
"................................................................................................................................................................................................................................................................................................................................................................................................................................................................................................................................................................................................................................................................",
"................................................................................................................................................................................................................................................................................................................................................................................................................................................................................................................................................................................................................................................................",
"................................................................................................................................................................................................................................................................................................................................................................................................................................................................................................................................................................................................................................................................",
"................................................................................................................................................................................................................................................................................................................................................................................................................................................................................................................................................................................................................................................................",
"................................................................................................................................................................................................................................................................................................................................................................................................................................................................................................................................................................................................................................................................",
"................................................................................................................................................................................................................................................................................................................................................................................................................................................................................................................................................................................................................................................................",
"................................................................................................................................................................................................................................................................................................................................................................................................................................................................................................................................................................................................................................................................",
"................................................................................................................................................................................................................................................................................................................................................................................................................................................................................................................................................................................................................................................................",
"................................................................................................................................................................................................................................................................................................................................................................................................................................................................................................................................................................................................................................................................",
"................................................................................................................................................................................................................................................................................................................................................................................................................................................................................................................................................................................................................................................................",
"................................................................................................................................................................................................................................................................................................................................................................................................................................................................................................................................................................................................................................................................",
"................................................................................................................................................................................................................................................................................................................................................................................................................................................................................................................................................................................................................................................................",
"................................................................................................................................................................................................................................................................................................................................................................................................................................................................................................................................................................................................................................................................",
"................................................................................................................................................................................................................................................................................................................................................................................................................................................................................................................................................................................................................................................................",
"................................................................................................................................................................................................................................................................................................................................................................................................................................................................................................................................................................................................................................................................",
"................................................................................................................................................................................................................................................................................................................................................................................................................................................................................................................................................................................................................................................................",
"................................................................................................................................................................................................................................................................................................................................................................................................................................................................................................................................................................................................................................................................",
"................................................................................................................................................................................................................................................................................................................................................................................................................................................................................................................................................................................................................................................................",
"................................................................................................................................................................................................................................................................................................................................................................................................................................................................................................................................................................................................................................................................",
"................................................................................................................................................................................................................................................................................................................................................................................................................................................................................................................................................................................................................................................................",
"................................................................................................................................................................................................................................................................................................................................................................................................................................................................................................................................................................................................................................................................",
"................................................................................................................................................................................................................................................................................................................................................................................................................................................................................................................................................................................................................................................................",
"................................................................................................................................................................................................................................................................................................................................................................................................................................................................................................................................................................................................................................................................",
"................................................................................................................................................................................................................................................................................................................................................................................................................................................................................................................................................................................................................................................................",
"................................................................................................................................................................................................................................................................................................................................................................................................................................................................................................................................................................................................................................................................",
"................................................................................................................................................................................................................................................................................................................................................................................................................................................................................................................................................................................................................................................................",
"................................................................................................................................................................................................................................................................................................................................................................................................................................................................................................................................................................................................................................................................",
"................................................................................................................................................................................................................................................................................................................................................................................................................................................................................................................................................................................................................................................................",
"................................................................................................................................................................................................................................................................................................................................................................................................................................................................................................................................................................................................................................................................",
"................................................................................................................................................................................................................................................................................................................................................................................................................................................................................................................................................................................................................................................................",
"................................................................................................................................................................................................................................................................................................................................................................................................................................................................................................................................................................................................................................................................",
"................................................................................................................................................................................................................................................................................................................................................................................................................................................................................................................................................................................................................................................................",
"................................................................................................................................................................................................................................................................................................................................................................................................................................................................................................................................................................................................................................................................",
"................................................................................................................................................................................................................................................................................................................................................................................................................................................................................................................................................................................................................................................................",
"................................................................................................................................................................................................................................................................................................................................................................................................................................................................................................................................................................................................................................................................",
"................................................................................................................................................................................................................................................................................................................................................................................................................................................................................................................................................................................................................................................................",
"................................................................................................................................................................................................................................................................................................................................................................................................................................................................................................................................................................................................................................................................",
"................................................................................................................................................................................................................................................................................................................................................................................................................................................................................................................................................................................................................................................................",
"................................................................................................................................................................................................................................................................................................................................................................................................................................................................................................................................................................................................................................................................",
"................................................................................................................................................................................................................................................................................................................................................................................................................................................................................................................................................................................................................................................................",
"................................................................................................................................................................................................................................................................................................................................................................................................................................................................................................................................................................................................................................................................",
"................................................................................................................................................................................................................................................................................................................................................................................................................................................................................................................................................................................................................................................................",
"................................................................................................................................................................................................................................................................................................................................................................................................................................................................................................................................................................................................................................................................",
"................................................................................................................................................................................................................................................................................................................................................................................................................................................................................................................................................................................................................................................................",
"................................................................................................................................................................................................................................................................................................................................................................................................................................................................................................................................................................................................................................................................",
"................................................................................................................................................................................................................................................................................................................................................................................................................................................................................................................................................................................................................................................................",
"................................................................................................................................................................................................................................................................................................................................................................................................................................................................................................................................................................................................................................................................",
"................................................................................................................................................................................................................................................................................................................................................................................................................................................................................................................................................................................................................................................................",
"................................................................................................................................................................................................................................................................................................................................................................................................................................................................................................................................................................................................................................................................",
"................................................................................................................................................................................................................................................................................................................................................................................................................................................................................................................................................................................................................................................................",
"................................................................................................................................................................................................................................................................................................................................................................................................................................................................................................................................................................................................................................................................",
"................................................................................................................................................................................................................................................................................................................................................................................................................................................................................................................................................................................................................................................................",
"................................................................................................................................................................................................................................................................................................................................................................................................................................................................................................................................................................................................................................................................",
"................................................................................................................................................................................................................................................................................................................................................................................................................................................................................................................................................................................................................................................................",
"................................................................................................................................................................................................................................................................................................................................................................................................................................................................................................................................................................................................................................................................",
"................................................................................................................................................................................................................................................................................................................................................................................................................................................................................................................................................................................................................................................................",
"................................................................................................................................................................................................................................................................................................................................................................................................................................................................................................................................................................................................................................................................",
"................................................................................................................................................................................................................................................................................................................................................................................................................................................................................................................................................................................................................................................................",
"................................................................................................................................................................................................................................................................................................................................................................................................................................................................................................................................................................................................................................................................",
"................................................................................................................................................................................................................................................................................................................................................................................................................................................................................................................................................................................................................................................................",
"................................................................................................................................................................................................................................................................................................................................................................................................................................................................................................................................................................................................................................................................",
"................................................................................................................................................................................................................................................................................................................................................................................................................................................................................................................................................................................................................................................................",
"................................................................................................................................................................................................................................................................................................................................................................................................................................................................................................................................................................................................................................................................",
"................................................................................................................................................................................................................................................................................................................................................................................................................................................................................................................................................................................................................................................................",
"................................................................................................................................................................................................................................................................................................................................................................................................................................................................................................................................................................................................................................................................",
"................................................................................................................................................................................................................................................................................................................................................................................................................................................................................................................................................................................................................................................................",
"................................................................................................................................................................................................................................................................................................................................................................................................................................................................................................................................................................................................................................................................",
"................................................................................................................................................................................................................................................................................................................................................................................................................................................................................................................................................................................................................................................................",
"................................................................................................................................................................................................................................................................................................................................................................................................................................................................................................................................................................................................................................................................",
"................................................................................................................................................................................................................................................................................................................................................................................................................................................................................................................................................................................................................................................................",
"................................................................................................................................................................................................................................................................................................................................................................................................................................................................................................................................................................................................................................................................",
"................................................................................................................................................................................................................................................................................................................................................................................................................................................................................................................................................................................................................................................................",
"................................................................................................................................................................................................................................................................................................................................................................................................................................................................................................................................................................................................................................................................",
"................................................................................................................................................................................................................................................................................................................................................................................................................................................................................................................................................................................................................................................................",
"................................................................................................................................................................................................................................................................................................................................................................................................................................................................................................................................................................................................................................................................",
"................................................................................................................................................................................................................................................................................................................................................................................................................................................................................................................................................................................................................................................................",
"................................................................................................................................................................................................................................................................................................................................................................................................................................................................................................................................................................................................................................................................",
"................................................................................................................................................................................................................................................................................................................................................................................................................................................................................................................................................................................................................................................................",
"................................................................................................................................................................................................................................................................................................................................................................................................................................................................................................................................................................................................................................................................",
"................................................................................................................................................................................................................................................................................................................................................................................................................................................................................................................................................................................................................................................................",
"................................................................................................................................................................................................................................................................................................................................................................................................................................................................................................................................................................................................................................................................",
"................................................................................................................................................................................................................................................................................................................................................................................................................................................................................................................................................................................................................................................................",
"................................................................................................................................................................................................................................................................................................................................................................................................................................................................................................................................................................................................................................................................",
"................................................................................................................................................................................................................................................................................................................................................................................................................................................................................................................................................................................................................................................................",
"................................................................................................................................................................................................................................................................................................................................................................................................................................................................................................................................................................................................................................................................",
"................................................................................................................................................................................................................................................................................................................................................................................................................................................................................................................................................................................................................................................................",
"................................................................................................................................................................................................................................................................................................................................................................................................................................................................................................................................................................................................................................................................",
"................................................................................................................................................................................................................................................................................................................................................................................................................................................................................................................................................................................................................................................................",
"................................................................................................................................................................................................................................................................................................................................................................................................................................................................................................................................................................................................................................................................",
"................................................................................................................................................................................................................................................................................................................................................................................................................................................................................................................................................................................................................................................................",
"................................................................................................................................................................................................................................................................................................................................................................................................................................................................................................................................................................................................................................................................",
"................................................................................................................................................................................................................................................................................................................................................................................................................................................................................................................................................................................................................................................................",
"................................................................................................................................................................................................................................................................................................................................................................................................................................................................................................................................................................................................................................................................",
"................................................................................................................................................................................................................................................................................................................................................................................................................................................................................................................................................................................................................................................................",
"................................................................................................................................................................................................................................................................................................................................................................................................................................................................................................................................................................................................................................................................",
"................................................................................................................................................................................................................................................................................................................................................................................................................................................................................................................................................................................................................................................................",
"................................................................................................................................................................................................................................................................................................................................................................................................................................................................................................................................................................................................................................................................",
"................................................................................................................................................................................................................................................................................................................................................................................................................................................................................................................................................................................................................................................................",
"................................................................................................................................................................................................................................................................................................................................................................................................................................................................................................................................................................................................................................................................",
"..................................................................................................................................................................................................................................................................................................................................................................................a|a!bzb,....bkb}bda8..........................................................................................................................................................................................................................................................",
"................................................................................................................................................................................................................................................................................................................................................................cs..............b*aOa5bdck....a}chbOaUat........................................................................................................................................................................................................................................................",
"........................................................................................................................................................................................................................................................................................................................................................cBcxclcob{b~cfb~b^b;b`ccbMbcbfbfcAcCcycucDb9bba(a^......................................................................................................................................................................................................................................................",
"......................................................................................................................................................................................................................................................................................................................................................b1b/b[b=b]b_b|b_b:b?b/a}bYb>b$b$b#b$b+b9b/b-b&b6b%b6bZbI..................................................................................................................................................................................................................................................",
"......................................................................................................................................................................................................................................................................................................................................................a$a%a*a/a>a_bbbba&a%a+bcbXbua]a.a:a.a-a/a:a-a:a,a)a<a(a4aO................................................................................................................................................................................................................................................",
"......................................................................................................................................................................................................................................................................................................................................................a.a4a4aTaSaSaPaMaJaHaHa5a*a&a!a9a!a!a9a9a5aNaIaIaHaIaHaKaxax..............................................................................................................................................................................................................................................",
"......................................................................................................................................................................................................................................................................................................................................................a:a5aTaTaTaPaIaIaIaIaIaHaQa!a#a#a#a#a4aVaKaIaIaIaIaIaIaJaAap..............................................................................................................................................................................................................................................",
"......................................................................................................................................................................................................................................................................................................................................................a&a4a!aTaTaLaIaIaIaIaIaIaVa!a#a#a#a!aRaHaIaIaIaIaIaIaIaJayas..............................................................................................................................................................................................................................................",
"......................................................................................................................................................................................................................................................................................................................................................a#a2a#aTaTaJaIaIaIaIaIaIaKa8a#a#a7aUaIaIaJaIaIaJaJaJaBaHaAat..............................................................................................................................................................................................................................................",
"......................................................................................................................................................................................................................................................................................................................................................a,a2a#aZaTaJaIaIaIaIaIaIaJa9a#a7aLaJaIaHaHaIaIaHaHaIavaBaAav..............................................................................................................................................................................................................................................",
"......................................................................................................................................................................................................................................................................................................................................................a5a4a#aSaMaIaIaIaIaIaIaIaJa9a#aNayaAavararasavararavaqaxaAar..............................................................................................................................................................................................................................................",
"......................................................................................................................................................................................................................................................................................................................................................biaQa#aUaHaIaIaIaIaIaIaIaHaYa#aIaqapaqaqaqaqaqaqaqaqapaAaAaq..............................................................................................................................................................................................................................................",
"........................................................................................................................................................................................................................................................................................................................................................aXa2aUaIaIaIaIaIaIaIaIaHaYa#aIaraqaqaqaqaqaqaqaqaqapaAaAaq..............................................................................................................................................................................................................................................",
"........................................................................................................................................................................................................................................................................................................................................................a)a9a8aEaJaIaIaIaIaIaIaHaYa#aJaraqaraqaqaqaqaqaqaqaqarasaq..............................................................................................................................................................................................................................................",
"........................................................................................................................................................................................................................................................................................................................................................a9bDbva4aMaJaIaIaIaIaIaHaYa!aKaCaDaIaDaqaqaqaqaqapaqaqarao..............................................................................................................................................................................................................................................",
"........................................................................................................................................................................................................................................................................................................................................................boa(bfbSa:aRaIaIaIaIaIaHaYa#aJaJaJaJaKaCaqaqaqaqaxaqaqasasa.............................................................................................................................................................................................................................................",
"..........................................................................................................................................................................................................................................................................................................................................................aRa6bdbTa>aKaHaIaIaIaIaNaUaIaHaHayayasaqaqapawaIataqaxala7............................................................................................................................................................................................................................................",
"..........................................................................................................................................................................................................................................................................................................................................................aKaFaCbca=bba#aLaIaIaJaUaYa0a0a0aOaUaYaYaYaWa9a5aWaRa2aCaR............................................................................................................................................................................................................................................",
"..........................................................................................................................................................................................................................................................................................................................................................aHaWaKa$a!brbEa<aYaHaMa!a)a:a`a_a{a>a<a:a-a=babaa{a{a^aHar............................................................................................................................................................................................................................................",
"..........................................................................................................................................................................................................................................................................................................................................................aOaIa3a7aRa!bcbva_a!aJa4a$a#a/a:a:a/a<a:a:a:a^bba^a<a$a]..............................................................................................................................................................................................................................................",
"............................................................................................................................................................................................................................................................................................................................................................aoaAa,aLaPaRa/bjbha:bkbAbrbrbubububNbObNbXbIbCbAbEbAbmbI............................................................................................................................................................................................................................................",
"..............................................................................................................................................................................................................................................................................................................................................................ata=a4aLaIaNa)a^bbbqbObQbPbPbPbObTbSbNb1bTbNbObPbPbIa5a9..........................................................................................................................................................................................................................................",
"..............................................................................................................................................................................................................................................................................................................................................................a|axaUaJaIaHaNa6a)a-a^bybNbPbObNbMbNbPbSbMbNbObObIblbbaB..........................................................................................................................................................................................................................................",
"................................................................................................................................................................................................................................................................................................................................................................aEaHaIaIaIaIaJaQaIaXa*bhbrbKbObPbTbSbTbObMbzbjbba<a9av..........................................................................................................................................................................................................................................",
"................................................................................................................................................................................................................................................................................................................................................................a^aDaJaIaJaIaAayaHaKa1a8a3a:bcbubqbubrbpbca<a)a$a2axap..........................................................................................................................................................................................................................................",
"................................................................................................................................................................................................................................................................................................................................................................b7ayaKaIaIawapapavaAaGaEaHaWaYa1a8a*a0a1a6aWaQaIauagaE..........................................................................................................................................................................................................................................",
"................................................................................................................................................................................................................................................................................................................................................................bia#aRaGaEaqaqaqaqaparaqasaxaxaCaIaIaIaIaHaGarapaob1............................................................................................................................................................................................................................................",
"............................................................................................................................................................................................................................................................................................................................................................cKb5a4b2bva)aJaoaoapapapapapapapapaqaraqawawararaqaga`..............................................................................................................................................................................................................................................",
"......................................................................................................................................................................................................................................................................................................................................................cYcLctbUa]brbQbQb6b0a<aHaCaxasasaraqapaoalajahahakalanalaebBcsb*..........................................................................................................................................................................................................................................",
"................................................................................................................................................................................................................................................................................................................................................cVc3cPcbbxbea-babxbHbOb6b,b1bSbObHbHbFbvbca|btbTbTbAa_a#aUaRaYa-bTb)b2bLb+ca....................................................................................................................................................................................................................................",
"..............................................................................................................................................................................................................................................................................................................................................c0c7c4cna\bQa]a:bebgbCbQbTbHbEbObQbSbSbXb+b.b=b}b]b>b:b+bYbObNbTbZbzbubFbwblbtbvbga`..............................................................................................................................................................................................................................",
"............................................................................................................................................................................................................................................................................................................................................cRc9c5cMbna/a[blbNa]a(bibCbkbabCbPbNbKbSb9b)bTbQbRbLbEbEbHbMbNbObWb6b9b2bZbZbZb1bSbMbba#a`b,........................................................................................................................................................................................................................",
"..........................................................................................................................................................................................................................................................................................................................................cGcZc8c1cra1a`a[a^a,a[bfa]a-a[bebJbCblbCbObTbHbvbHbMbMbNbNbPbPbObPbPbTbYbYbZb0bVbXbSbNbNbybabpb*b5....................................................................................................................................................................................................................",
"..........................................................................................................................................................................................................................................................................................................................................cOc6c2cMb3a5a/a#bfa,a!bca:a9a#bablbaa{blbGbFbFbNbJbNbNbObLbubrbzbvbIbMbKbKbKbKbMbMbNbNbObFbgbzb-b,aUa?b[..............................................................................................................................................................................................................",
"..........................................................................................................................................................................................................................................................................................................................................cQcWcXcHa~a.a/a&bfa#a)a-a!a#a|a=a=a^bbblbiblbFbtbMbNbObHbja{a{a|bfbAbPbPbPbObNbNbKbHbPbNbHbpbrb,b\bXa[bBb8............................................................................................................................................................................................................",
"..........................................................................................................................................................................................................................................................................................................................................cScTcUcJb4a*a!a:bma#a!a#a!a!a_bca#a#a/a:a{bhbMbIbMbNbNbja{babaa|bbbcbrbrbrbCbIbMbgbgbrbybzbVbgbWb=b=bBblbPb1..........................................................................................................................................................................................................",
};
