/* XPM */
static char *xpm[] = {
"320 180 251 2",
".. c None",
"ab c #000000",
"ac c #000001",
"ad c #00003a",
"ae c #010101",
"af c #030202",
"ag c #040303",
"ah c #060405",
"ai c #080607",
"aj c #0a0808",
"ak c #0d0657",
"al c #0d0908",
"am c #0d0b0c",
"an c #0e080f",
"ao c #0e090f",
"ap c #0e0a0c",
"aq c #0f0a0d",
"ar c #0f0a0e",
"as c #0f0a0f",
"at c #0f0c12",
"au c #100b0b",
"av c #110c1e",
"aw c #110f10",
"ax c #120b12",
"ay c #120d11",
"az c #130d12",
"aA c #130f12",
"aB c #130f14",
"aC c #140f0e",
"aD c #140f11",
"aE c #150443",
"aF c #15131c",
"aG c #161314",
"aH c #17151c",
"aI c #181215",
"aJ c #181312",
"aK c #181419",
"aL c #191418",
"aM c #1a1718",
"aN c #1b151c",
"aO c #1c1323",
"aP c #1c1614",
"aQ c #1c1619",
"aR c #1e1a1b",
"aS c #201917",
"aT c #20191c",
"aU c #201a22",
"aV c #211a20",
"aW c #221824",
"aX c #221a27",
"aY c #221c24",
"aZ c #221d1e",
"a0 c #23142a",
"a1 c #231c20",
"a2 c #231f2e",
"a3 c #231f30",
"a4 c #241c1a",
"a5 c #251826",
"a6 c #25202b",
"a7 c #252323",
"a8 c #26154f",
"a9 c #261629",
"a! c #262224",
"a# c #271f1c",
"a$ c #272127",
"a% c #272129",
"a& c #282126",
"a( c #292022",
"a) c #2a2629",
"a* c #2b2024",
"a+ c #2b231f",
"a, c #2d2a2b",
"a- c #2f2522",
"a. c #2f252c",
"a/ c #2f262f",
"a: c #302924",
"a; c #31252b",
"a< c #312629",
"a= c #31262e",
"a> c #312d31",
"a? c #332339",
"a[ c #332d28",
"a\ c #343033",
"a] c #352723",
"a^ c #362930",
"a_ c #37302b",
"a` c #382a27",
"a{ c #383337",
"a| c #392d34",
"a} c #3a332f",
"a~ c #3b383b",
"ba c #3c2e2a",
"bb c #3d3135",
"bc c #3e3249",
"bd c #3e333b",
"be c #3e3833",
"bf c #40312d",
"bg c #403239",
"bh c #40333e",
"bi c #403c40",
"bj c #413538",
"bk c #423c37",
"bl c #433530",
"bm c #443943",
"bn c #454144",
"bo c #47393d",
"bp c #47403b",
"bq c #493935",
"br c #493e45",
"bs c #494549",
"bt c #4b4641",
"bu c #4c3d45",
"bv c #4e3d3a",
"bw c #4e4b4f",
"bx c #50424b",
"by c #504b48",
"bz c #51433f",
"bA c #533a42",
"bB c #535267",
"bC c #54384b",
"bD c #545353",
"bE c #554850",
"bF c #564040",
"bG c #56525a",
"bH c #57514e",
"bI c #585056",
"bJ c #594749",
"bK c #5a4c60",
"bL c #5b4654",
"bM c #5b5a5b",
"bN c #5b5b5b",
"bO c #5c5767",
"bP c #5e4d57",
"bQ c #5e5a56",
"bR c #5e6077",
"bS c #5f4d54",
"bT c #5f4e4f",
"bU c #60536d",
"bV c #60585d",
"bW c #616162",
"bX c #626262",
"bY c #635e74",
"bZ c #655562",
"b0 c #65625f",
"b1 c #656269",
"b2 c #66545d",
"b3 c #674a4e",
"b4 c #675557",
"b5 c #695e68",
"b6 c #696767",
"b7 c #6b5d6b",
"b8 c #6c5355",
"b9 c #6c5b6c",
"b! c #6c6c6f",
"b# c #6e5e61",
"b$ c #6f6572",
"b% c #6f6d6a",
"b& c #747475",
"b( c #756e88",
"b) c #757574",
"b* c #765055",
"b+ c #76595e",
"b, c #766568",
"b- c #76736f",
"b. c #786371",
"b/ c #7b7a7a",
"b: c #7c7976",
"b; c #7d7390",
"b< c #7e506c",
"b= c #7e7080",
"b> c #806c74",
"b? c #817171",
"b[ c #817b9e",
"b\ c #818180",
"b] c #836164",
"b^ c #83747a",
"b_ c #886f71",
"b` c #887e8a",
"b{ c #897f7f",
"b| c #898989",
"b} c #8a8195",
"b~ c #8a83a8",
"ca c #8f8f8f",
"cb c #906a71",
"cc c #908586",
"cd c #929292",
"ce c #939193",
"cf c #94908d",
"cg c #958ca5",
"ch c #967a8c",
"ci c #9793be",
"cj c #97999b",
"ck c #989898",
"cl c #9c9b99",
"cm c #9c9c9b",
"cn c #9d7579",
"co c #9e96af",
"cp c #a17f7f",
"cq c #a19cce",
"cr c #a29a97",
"cs c #a2a3a1",
"ct c #a3a2a0",
"cu c #a3a3a3",
"cv c #a6a1a5",
"cw c #a78889",
"cx c #a791a1",
"cy c #a9a5d3",
"cz c #a9a9a9",
"cA c #aca09e",
"cB c #aca9ac",
"cC c #adaaa9",
"cD c #aea2c0",
"cE c #afafaf",
"cF c #b0afaf",
"cG c #b3b3b3",
"cH c #b6b6b9",
"cI c #b7b7b7",
"cJ c #b88d8b",
"cK c #b9b9b8",
"cL c #b9b9b9",
"cM c #babab9",
"cN c #beb1d4",
"cO c #bfb6b2",
"cP c #bfbeed",
"cQ c #bfc0c0",
"cR c #c1c1c1",
"cS c #c4c3d6",
"cT c #c4c4c5",
"cU c #c6c2c1",
"cV c #c9c8c8",
"cW c #cacaca",
"cX c #cba6a5",
"cY c #cccccc",
"cZ c #cdcece",
"c0 c #cec9df",
"c1 c #cf9680",
"c2 c #d0cfce",
"c3 c #d4d4d4",
"c4 c #d7aca4",
"c5 c #dadbda",
"c6 c #dddddd",
"c7 c #e1e1e1",
"c8 c #e5d7d9",
"c9 c #e7e6e6",
"c! c #ebecec",
"c# c #eff0f0",
"c$ c #f3f3f3",
"c% c #f8f8f7",
"c& c #fdfdfd",
"c( c #ffffff",
"c) c None",
"................................................................................................................................................................................................................................................................................................................................................................................................................................................................................................................................................................................................................................................................",
"................................................................................................................................................................................................................................................................................................................................................................................................................................................................................................................................................................................................................................................................",
"................................................................................................................................................................................................................................................................................................................................................................................................................................................................................................................................................................................................................................................................",
"................................................................................................................................................................................................................................................................................................................................................................................................................................................................................................................................................................................................................................................................",
"................................................................................................................................................................................................................................................................................................................................................................................................................................................................................................................................................................................................................................................................",
"................................................................................................................................................................................................................................................................................................................................................................................................................................................................................................................................................................................................................................................................",
"................................................................................................................................................................................................................................................................................................................................................................................................................................................................................................................................................................................................................................................................",
"................................................................................................................................................................................................................................................................................................................................................................................................................................................................................................................................................................................................................................................................",
"................................................................................................................................................................................................................................................................................................................................................................................................................................................................................................................................................................................................................................................................",
"................................................................................................................................................................................................................................................................................................................................................................................................................................................................................................................................................................................................................................................................",
"................................................................................................................................................................................................................................................................................................................................................................................................................................................................................................................................................................................................................................................................",
"................................................................................................................................................................................................................................................................................................................................................................................................................................................................................................................................................................................................................................................................",
"................................................................................................................................................................................................................................................................................................................................................................................................................................................................................................................................................................................................................................................................",
"................................................................................................................................................................................................................................................................................................................................................................................................................................................................................................................................................................................................................................................................",
"................................................................................................................................................................................................................................................................................................................................................................................................................................................................................................................................................................................................................................................................",
"................................................................................................................................................................................................................................................................................................................................................................................................................................................................................................................................................................................................................................................................",
"................................................................................................................................................................................................................................................................................................................................................................................................................................................................................................................................................................................................................................................................",
"................................................................................................................................................................................................................................................................................................................................................................................................................................................................................................................................................................................................................................................................",
"................................................................................................................................................................................................................................................................................................................................................................................................................................................................................................................................................................................................................................................................",
"................................................................................................................................................................................................................................................................................................................................................................................................................................................................................................................................................................................................................................................................",
"................................................................................................................................................................................................................................................................................................................................................................................................................................................................................................................................................................................................................................................................",
"................................................................................................................................................................................................................................................................................................................................................................................................................................................................................................................................................................................................................................................................",
"................................................................................................................................................................................................................................................................................................................................................................................................................................................................................................................................................................................................................................................................",
"................................................................................................................................................................................................................................................................................................................................................................................................................................................................................................................................................................................................................................................................",
"................................................................................................................................................................................................................................................................................................................................................................................................................................................................................................................................................................................................................................................................",
"................................................................................................................................................................................................................................................................................................................................................................................................................................................................................................................................................................................................................................................................",
"................................................................................................................................................................................................................................................................................................................................................................................................................................................................................................................................................................................................................................................................",
"................................................................................................................................................................................................................................................................................................................................................................................................................................................................................................................................................................................................................................................................",
"................................................................................................................................................................................................................................................................................................................................................................................................................................................................................................................................................................................................................................................................",
"................................................................................................................................................................................................................................................................................................................................................................................................................................................................................................................................................................................................................................................................",
"................................................................................................................................................................................................................................................................................................................................................................................................................................................................................................................................................................................................................................................................",
"................................................................................................................................................................................................................................................................................................................................................................................................................................................................................................................................................................................................................................................................",
"................................................................................................................................................................................................................................................................................................................................................................................................................................................................................................................................................................................................................................................................",
"................................................................................................................................................................................................................................................................................................................................................................................................................................................................................................................................................................................................................................................................",
"..............................................................................................................................................................................................................................................................................................................................................bQ................................................................................................................................................................................................................................................................................................................",
"..............................................................................................................................................................................................................................................................................................................................................bt....................bn..........................................................................................................................................................................................................................................................................................",
"..........................................................................................................................................................................................................................................................................................................................................................a:........by..........................................................................................................................................................................................................................................................................................",
"......................................................................................................................................................................................................................................................................................................................................................btbk..........bH..........................................................................................................................................................................................................................................................................................",
"..................................................................................................................................................................................................................................................................................................................................................bQbt................a}bQ......................................................................................................................................................................................................................................................................................",
"..............................................................................................................................................................................................................................................................................................................................................bka}bH................bQbHa]......................................................................................................................................................................................................................................................................................",
"..............................................................................................................................................................................................................................................................................................bl............................................bQa]....................baa[........................................................................................................................................................................................................................................................................................",
"..............................................................................................................................................................................................................................................................................................blbp..........................................aC..................bya]ba..........................................................................................................................................................................................................................................................................................",
"..............................................................................................................................................................................................................................................................................................byba........................................bpa4................bka_bqbk..........................................................................................................................................................................................................................................................................................",
"............................................................................................................................................................................................................................................................................................bHbqa-......................................a_b0by..............bQaSa+btbf..........................................................................................................................................................................................................................................................................................",
"..........................................................................................................................................................................................................................................................................................a}a+bqa:bp..................................a}b0..by........beaSbkbea:..blbk..........................................................................................................................................................................................................................................................................................",
"........................................................................................................................................................................................................................................................................................b6a#bfbyba..bk..............................blbp....bk........aM..a}aPa}..ba............................................................................................................................................................................................................................................................................................",
"............................................................................................................................................................................................................................................................................bt..........bea-bzbfbk....a:bt..........................a+....bkbz......a#..........b%bq............................................................................................................................................................................................................................................................................................",
"............................................................................................................................................................................................................................................................................btbk..........bpbzba..........aS......................bHa[by....bpby..bpa}..........bzbqby..........................................................................................................................................................................................................................................................................................",
"..............................................................................................................................................................................................................................................................................a[..........bla+bH............aJ..........a}bk......bla:....bybpbqbaaJalaPa}b0b-bQa_bqa}..........................................................................................................................................................................................................................................................................................",
"..............................................................................................................................................................................................................................................................................bq........b%bfa]................aJ....bQa#....bf....a#..bD....bHbfa:....bka)aPa+a#a:bHbz..........................................................................................................................................................................................................................................................................................",
"..............................................................................................................................................................................................................................................................................b)bH......b0blba..................bebya-....bQbqa#a#a_bk..b0bla4a[................btbpbTbH........................................................................................................................................................................................................................................................................................",
"................................................................................................................................................................................................................................................................................bk......bvbzbzbt................a[bebtbebfbza:a:aPbe..b6bfaS......................b0bqbq........................................................................................................................................................................................................................................................................................",
"................................................................................................................................................................................................................................................................................btbe....blbfbqaCaJbH..b0b0..a-aSbla_a}bka`bHa+aP..a[bkbza_..........................a]bJ........................................................................................................................................................................................................................................................................................",
"..................................................................................................................................................................................................................................................................................a]....bHa]a]bt..a:aSaSa]a+bkbtbqa+a}a#..a_aP....bpa4a]a}............a\bpbW......b-bzbl........................................................................................................................................................................................................................................................................................",
"..................................................................................................................................................................................................................................................................................bpau..b-a#a]............bQbJbza+a+a4..byaS....bQbqa[a#a4a#aSa[baa+alaRaMaJaPa#aPbvbvbp........................................................................................................................................................................................................................................................................................",
"..........................................................................................................................................................................................................................................................a}........................a4bkb0baa]bl............bva[a[bk....a+a}..bea:aPaPa:aRaZbDbQbebzby..........bpa`a+bk........................................................................................................................................................................................................................................................................................",
"..........................................................................................................................................................................................................................................................bl........................bHa-babfa-a+a#bQb%bQbpbla+a[bka+b0a}a:a-a_a}a}a[a:............a[bq..........bta]a4..........................................................................................................................................................................................................................................................................................",
"..........................................................................................................................................................................................................................................................bt....................bk....a_a:a-blblbablblbvblbfbqa#a4a:bfa7a[a+bybpbQbqa`ba..........bta+a:......bQa]a-bt..........................................................................................................................................................................................................................................................................................",
"..........................................................................................................................................................................................................................................................b%b%....................bHbta_a:a[a_a[a]blblbqbea`bvbfa4a_a+aSa_a]a4a#bqbablbvbH....bHbt..a+blbfbQbHbzblbq............................................................................................................................................................................................................................................................................................",
"................................................................................................................................................................................................................................................bW..........a4................a>beaSaPa-a+a:a_aCa4btbqbfbvblblbaa_..a:a4a-a[aPaJaSa+aSbabeb0b?a-aJbebfbHbvbzbqbla#bQ............................................................................................................................................................................................................................................................................................",
"..................................................................................................................................................................................................................................................a[........a+............................bpa}a#a:a}bHbza]bHbvbpa-btbta_a#a_btaP..bea[bka:bzbzbaa#a#bkbfa[blbHbqa_..............................................................................................................................................................................................................................................................................................",
"..............................................................................................................................................................................................................................................bebpa+bH......bt..............................a+bea}a:a]bzbla]bzbzbqbaa+a]a`bt..aZbta[bpbpaSbzbla#a-blbeblblbybqbvby..............................................................................................................................................................................................................................................................................................",
"................................................................................................................................................................................................................................................bDa:a:......bQbQ..................b6....bHbtbpa:aSa_bfa[bla`a]bybza]a_a:bzbaa_bpaZbpbqbkbpa]a[a+babpa_bqbabzbfbHblbabpa[a,bsby..................................................................................................................................................................................................................................................................................",
"..................................................................................................................................................................................................................................................a~b0a[......a}..............a4a_a~a)aPa#a#a-a[a:a_a]a-bfbzbqa]bHbfblbzbzbla+a-a:a_bqaCa+a4a:a]a]bzbfa[bvbtbabva]bk..........bk................................................................................................................................................................................................................................................................................",
"..................................................................................................................................................................................................................................................bD..bebp....aP............aP............bebka_a+a:bka+a_a+bqblbfbfbqbabqbfa_a#a+baa#a+a_a#a4aCa+bkbla#blblblbablby........b0bz................................................................................................................................................................................................................................................................................",
"................................................................................................................................................................................................................................................be......a`a}..a7..........a7................a:a:a:a+bea[a+a+a]bzbaa]a+bablbla[a[aSa#aCa]bla-a:aSa]a:baa-baa:bpbla]a_b%......bqbH................................................................................................................................................................................................................................................................................",
"........................................................................................................................................................................................................................................................bka+a_a[bD......aw..........b6bHa}bpa:a_a_a#a+bpa+aSa+bva#a]a4a]a]bqbyaSaSaPaSa]a+bqbpbya_bfbla4a+bqbla]a:a]bH....bla+..................................................................................................................................................................................................................................................................................",
"........................................................................................................................................................................................................................................................btaSa+a4a:..a{a,..........a7aPa+bsa#a[a]a#aSaSbHblaSbababaa]a]aPa-blbqa_..bta:a+bpbkaPa_a+bpa+aPa:bfa:a+bzbqblbta+a[....................................................................................................................................................................................................................................................................................",
"..........................................................................................................................................................................................................................................................aSa+a+aPaPaP......a,aSaJby......a[bebka-a+aCa_bya+a+bla_bla:aCa:a]a:bea+a4aSa4bka#aPaSbqbta+aPa:a]bqa]bybla#aSa:bebe..................................................................................................................................................................................................................................................................................",
"..........................................................................................................................................................................................................................................................a+a)bta4a_a[a#a_................a}a-a:aSa#a+aSbla#a]blbkbqbfaSblbvbpa#aSaCa4a:a+a4a+a:a_a_a:a#a[a:bfblbaa[a#bt....................a:aMa#..............................................................................................................................................................................................................................................................",
"..........................................................................................................................................................................................................................................................bna:bpaJ....bkaPa:b6bHbea7a4aJa4a+a:a[a+aJa#aPa4baa#babpbza:a[blbva]bka[a:a+a:a+a_bpbla+blbta:a[a]a:baa+bqa#a_................beby......a\............................................................................................................................................................................................................................................................",
"..............................................................................................................................................................................................................................................a}..........b%a+bka4bk......a_a4aPaPaPaSaSaRa4aCa:a:aSaCaPa+a[a]a`bza+a+aSa4a]a4....a#a4a#aCa:bpa]a#a4blaPa[a[a]a]bfbabea[................a,........a:............................................................................................................................................................................................................................................................",
"............................................................................................................................................................................................................................................bya\............a#a_a4a,....btaJaPalalaJaPaCaCaJa:aSa[a+aSaPa}a[a_a]blaJa:bzbqbqa-bka:aCaJa#a#a+a]aSa+aCbla_bla]a]a+a#aSbp..aS............bt..........bp............................................................................................................................................................................................................................................................",
"............................................................................................................................................................................................................................................a[a~............a+a+aP....a4aCauaCaPa4a+a-a#a4a#bpa#a4a+aSa+a+a[a#a4aJaSa}brbibra`aGaPalaSbpa[bpa+a_a#a}a+baa]a:bzaSa+a[a[..bk............bkbQ........bp............................................................................................................................................................................................................................................................",
"..............................................................................................................................................................................................................................................aC............bHa-a#a}a)aCalaCaSaRa+a4a#a+a:a_a#aSaSa+a4a:auaSa:beauaMaBaYa{a|a\a#aPalaSa[bablbkbobnblaJa4a-a]bla+bfaJbe..................a#......................................................................................................................................................................................................................................................................",
"..............................................................................................................................................................................................................................................baby............a:a+aJaCalauawa7..a[a)a7a4a+a+a+a4a#a[a,a*aJafalahayaZa~bEbra6a(a^a`aGaIa*a<boa~bIbIbIbQaua-a_a]baa:a4bl..................bea[....................................................................................................................................................................................................................................................................",
"................................................................................................................................................................................................................................................ala#..........a[aZaSa#aJa-....beaSa-a:a+aJalalaJa-a?akbCcXb}bra*aIaUbrbVbxa{aYbobbafaubbaQaQaWa*a&bjbyaua_a+aCa#a4a#bf....................au....................................................................................................................................................................................................................................................................",
"..................................................................................................................................................................................................................................................a}a#bp..btaZaPaJa#a:a+a}bWa#aSa#bka-aPaCafapaZb8b<a8cbc8c%cxbVa;aIa=bga|aUanbjbxaCaPbJa1a;bEbma$aIa)ayahalafaJa]bfa:a#..................aJbW..................................................................................................................................................................................................................................................................",
"......................................................................................................................................................................................................................................................a}aPauaiaPa#a+a-a+a+a#a-a#a#a_aJaJaJaebxbTcfc1cpc4c8cOb>bubobAbua;boa|boa;bxala;bSa;a;a<bxb5bEa{aDa1bub^cXb<aNaPa+bQ................au....................................................................................................................................................................................................................................................................",
"................................................................................................................................................................................................................................................................b6auaSaPa#a+a+aJaJaSalaCafbwb=cpb{cccwcwcpb2a<a*b3bLa;a|bxa<bxbrbragbjbua(aNbxb2bEbia.a1bEcAc(c8b<aka9a]bf..............a}bk....................................................................................................................................................................................................................................................................",
"................................................................................................................................................................................................................................................................bkaJa-a+a+aSaJaJaSaCahaJa{b$a{byb]b]b+b3bqaJa*b*b>a#aIaQa;awbrbGa|aga`bnaVa*a;bxa)a(a1a^a|b#cUc9c4b<b]b3a#bf..........a}aC......................................................................................................................................................................................................................................................................",
"................................................................................................................................................................................................................................................................aDa+a`a4a4aJaPaCaPahala7bnbBa(a`aSbFbFcpb4aIbvb,aTauaxaIaQaza1a(a!aeaZa{bib,bEaRafa&a|bva^aQb*cJc4cXc1cpa-a+a+bH..bka+a[........................................................................................................................................................................................................................................................................",
"..............................................................................................................................................................................................................................................................aSa7biaPaS..a[..btauaCala)b$b>b_bPbJb]bFcpbSb4b6b4bgb3b8bLa*anbjbrayajaDaDa&bia.aianahaha|b3aTaIb3b?ckcwcpbqa:aPaPa[bebQb6bpa_....................................................................................................................................................................................................................................................................",
"..................................................................................................................................................................................................................................................b0a+bHbXa+aCa\....aCau......a}aCaJa1bBbZbLcnbubub9b+b2bTb#b0bTbFbJb3bAa*aTa^a(apajaiaZbja>araDbSb3bAa1bTbSagbAb]b]b*blba......btbHb-bz........................................................................................................................................................................................................................................................................",
"................................................................................................................................................................................................................................................bka4aSaZa#a:a)......a#aPa_..bya+a4aQbdbGbAbvbcbUbKbSbxb2bSb%bubqbFb,b>b_b_bEa*aVapaJaCaLa(a(a#bbb+cwb^b3a`b>bJbFb{bqboa]bT....bqbfbv............................................................................................................................................................................................................................................................................",
"..............................................................................................................................................................................................................................................bpaZ........a,aSa4by..a}a4a-a#a7brbFbda^bib7bYb~cycDcDcxb!b.b2a|bgb+cwb,bxb,bubobraMaDaGaPa(a!bxb8b,cpcpb+bgb4b+bJb]b]b2bCcpb^bFblaP..............................................................................................................................................................................................................................................................................",
"..............................................................................................................................................................................................................................................aC..............ayaSa_bpa+a4a:a7bwbObKa?bEcocPcqcicDc0cDcxb.b9b+bub#b]a{aRa1bmbxbnaCaualaMa-bba}brbTb>cwb>a<bjb,bSbFb+bhbhcwb3bFa#................................................................................................................................................................................................................................................................................",
"............................................................................................................................................................................................................................................b%be................aCaSa#a+aua>aZa,bRb(bbbEcocycqcPc0cNb_chcJcpb+b2b>bSa1aDaxbhbSbjamaCaCaMa,bbbea*a!a&a^b4bfa^bJb2b+b9bZb7bxb3babH................................................................................................................................................................................................................................................................................",
"............................................................................................................................................................................................................................................a}......................bsbebMbiaGaTbYbVa|bGcocPc0cPcDb}b2a8b3cXbSb#bTa*aIa^bbbxbraDapajauaJa1a;bIa]aqalbSb.bJb+b3chchcNcDcDb;bZbpa+a4a[............................................................................................................................................................................................................................................................................",
"............................................................................................................................................................................................................................................bNby..........................bnala)bVa{a^a~b(cocibRb}b(bJbFb]b_bSbSaVbrbEb,bAbbbsa4aya-aJajaVa(bna^aLaVb+b]b#b]cpcJchcNcNb~cqcNb?....bta+..........................................................................................................................................................................................................................................................................",
"..............................................................................................................................................................................................................................................a7..........................bsaTb8bja)bEa\bwa~a,a>b[cobPbFbLbAbPbha.b1bsbFbba1aTa-ahaDajaDaIaDa<bba^aVa^bSbIb+cXbcbCb=cPcNcqcDb,......a+..........................................................................................................................................................................................................................................................................",
"..............................................................................................................................................................................................................................................a}........................b1a\a/b3bFbSbxa`a>aUa)bmb$cob9a^a5bjb2bma)aYaCa\a<aMalagaiala#ahajayaZbja(aQa>bGb!b$cnbLb3b<cqcNcNcNchb6....bDbH........................................................................................................................................................................................................................................................................",
"........................................................................................................................................................................................................................................................................bwa{a)bFbLb*bga^bjbGbVbIb!b$b2bEbZbEbma>a(aJaQaDajaiapa#ahama!aMaiauaGa>a-aLaMa<bibwb,b]bCb$b[bUcgcobZbobV....be........................................................................................................................................................................................................................................................................",
"........................................................................................................................................................................................................................................................................a~aHa~b+bcbha^bJbgbobxa+bVa{a^b$b>bxa|a,bIbva1aRaGaja4aualaGaRaRalaiaga~a(aya,b#b>bxbha^bKcNb;aWa/brb>b3bA..bp..........................................................................................................................................................................................................................................................................",
"........................................................................................................................................................................................................................................................................bmbwb7b+b*bqbAb#bPbfa(aua>a{bob^b5a{a>bdbHbobga!afa4bkacafalaga-a_aiama~bjaTa^b4b^b.bxbcb=cxb7bdaLa^b+cnb+bJa:..........................................................................................................................................................................................................................................................................",
"......................................................................................................................................................................................................................................................................cwcOc9cwbJa]bAb`b=b`bEa<a+a1a=bVbDa|a$aTa|boa=bxb4aGauafafafaiaeawamaLaJa(bwbubobHb,b=b>bPbxb$b,b,bZb>b3cnb.a\............................................................................................................................................................................................................................................................................",
"....................................................................................................................................................................................................................................................................bRbcc1c$cAb*cbchb~b(b5bEa1a^bjbgbra}aQaVa>bjbnbSa.aLaqa4a-amagahaCa4alataRa(a\a`bEbJb#b>b^b7aTbna<bga^chcbb*b<b4............................................................................................................................................................................................................................................................................",
"....................................................................................................................................................................................................................................................................akaEcnc8c4b3b.b=cgb1bma/atbgb*bba+a7aIasaTaRa\bxbma*aua4a4amagaua_bza-ahaMaQa,a^bta<a)bIb$b#a{aSaza*b+cxchb]b3b+b+crc7......................................................................................................................................................................................................................................................................",
"....................................................................................................................................................................................................................................................................a?b*cJc4cAbFbxb7cqbOava3bcbEbPanaNa#a)a%aKaHaYbdbbbbboaMaeaeaiajaiaCaCalawaTaIa{brbja)bbbna~a;b3b]bob+chchchb*b]cbb]c%c4....................................................................................................................................................................................................................................................................",
"..................................................................................................................................................................................................................................................................cfb*cbcJctb0bqbAbBcNb;bcbBb;bha*a5a*aPa|bna(aLaya)bdbIbEaLa7auajaja7a-aiaLaZaLaLbmbsaNazaQaTbAcpb]b3a|bLb7b(cDcxchcnb3cUc8b3..................................................................................................................................................................................................................................................................",
"..................................................................................................................................................................................................................................................................b0b-bQb-b-bvbva|a|b[b[bcbUb[bma$a*a;bga^bma&aTaTaQa<bGbra1amaGaeaiauaDalaVa&aQaNbia|a5a|a^a]bgaEb3b+a?a5a/bxb[cDchcbb8cncVcb..................................................................................................................................................................................................................................................................",
"..................................................................................................................................................................................................................................................................bzb#bzbqbFbFbFbFa*bKb[bRbRbRbca>bha|a=aIbsbbaQaTa1bja=bEaZa#awaeaubpalaiaTa(aZa1a~a|bhbnbgbfa`a*a*bgb<b(bma0bYcPcxbgb8b3cAcp..................................................................................................................................................................................................................................................................",
"................................................................................................................................................................................................................................................................b6bnb2b]b*b*bFbAbLbCbxb~b;bBbia>bKbZbEayaqboa.aZa-a<a`a.bsa>auagafaja[aCauaQa!a1a(bibdbEa{bobFa5a*bga|b(cyb[bUbUcqcDbgbAblb:b&..................................................................................................................................................................................................................................................................",
"................................................................................................................................................................................................................................................................b&a{a?a^a^bgb]bJbLbCbbb$bRa{bca~bxbYbLa*a*bjbIa)aIaPa*auaIa\ahajaiaiagajapaiaPaQaZbna|bxbEaBa(a;a|bmbKb;cgcobKbUb~cibCbqbFb3b0..................................................................................................................................................................................................................................................................",
"..................................................................................................................................................................................................................................................................a\bBb(b<b(b=b`b+b3aWa7a\brbsa3a>bubgbAaTa*bVaRaLa#a,a(alaIaSajaeajbaagahafaQa(aPbnbba|bTa^aua|bEbLbrbRb(cgbUb;cib~b>cnbCb*cp..................................................................................................................................................................................................................................................................",
"..................................................................................................................................................................................................................................................................bGbRb~cDb}b$b`cgcha^aIa)a2a/aUanbmb2bZa^a1a~a<aua#a`a{a!aTauafafaha#aDawama(bbaQa\a<bwbvbubAa;bobha>bcbBbEa3b(cicichcnbCbo....................................................................................................................................................................................................................................................................",
"....................................................................................................................................................................................................................................................................bBbOcpcwbha$bsb;bLbIbYbma6a)aNa|b>b=bxa;a,bja1aZaLaPaTauaGabaeagaSaGaMaGaQa(aLa4a1bnbba^b3bma*aWaMaRa)bsbxb[b.bYbmbgb*b,....................................................................................................................................................................................................................................................................",
"....................................................................................................................................................................................................................................................................bRbBbLcAbEaBa)aLa|bOb}cDb(bLbrbjbLb>b7a|a,bia\a(a>a,a~aMaCaeacaha[auaDaRaGaRa4aQaDa>a.bLb9b^b.a<anasaNbca{a{a{aNa5bgchcocf..................................................................................................................................................................................................................................................................",
"....................................................................................................................................................................................................................................................................b(bRa?b.b}a^bua(aVaZa{bGb(b=b9a|aNb7b,bubna>bsbmbda>aLamaiaeaeahaJagaDa7aRaZaRaTaZaZa*bPb.b$bPboa%a=a/a>a/brbKb9bLb9cgbZbJ..................................................................................................................................................................................................................................................................",
"....................................................................................................................................................................................................................................................................b(bRbRbucBb,bxb#bua>a)aJa|bLbEaTa*bSb#bjbJbpa~a)aMa1aDa#aPagaialbtaPaGaZaMaZaZaLaZaZa)bSb.b=bua.bxbPb5b9b(b[cgcNcNb$bia1bl..................................................................................................................................................................................................................................................................",
"..................................................................................................................................................................................................................................................................bkbOb(b(bmbIbobbb`b^bjaCa>a<bLb*bAb2b4b4bjbrbja>aIaLauaga-a-ahafaCbQa+aiaialapawauaQa)a[bxb4b=bSa^aNa;bEb$bUb=b(b9bGaZa^ba....................................................................................................................................................................................................................................................................",
"................................................................................................................................................................................................................................................................b?bmbcbwbRbYa|boa<brbxbJbvbubSb*bAb*bJbSb+a{bbbubmb2bEa(aLa4aCaiaiaublaPafauamaLaMaRaZa\a|bsbJb,b]b>bSa]bAb.b+bLbua1aPbobZbq....................................................................................................................................................................................................................................................................",
"................................................................................................................................................................................................................................................................b4a$bmbBa{biaQbxbSaDa|bTb#a<a*cpc8cJb+a`a<a1b3bEa<a(aQaTaVaMaSahabaSa[ahauaqayaGa#a+a1a{bjbjbJbSb>b+b+b*b]bAcnbha5bqa#b#bPbH....................................................................................................................................................................................................................................................................",
"..............................................................................................................................................................................................................................................................b}b=bGb=b$bcbca%bPb`bSb.a^a<bxb8cJbCcbcpbqayaTboa`bgbPbubxbxa)aCaeafa4aSaqaRa1a1aTaTaTaZa/bvb2bja(babjbfb]cJc4cnb+bJb3bJbja^bw....................................................................................................................................................................................................................................................................",
"............................................................................................................................................................................................................................................................b1bRbObGb(b~cicqb[bUb=b>bPa^bxb^b8b*aEa`cnbzaPa]bFb3b.cbbPbZb2a|a}aiaebpauaDa,a>a&a;bjbja=a;a^bba<auaPa^bfb_c4b<cpcJbAa`bJa*bhbZb$b7a>brb=ck........................................................................................................................................................................................................................................................",
"........................................................................................................................................................................................................................................................b!bma/a6a/bUb;cycPcycibxbca>aIbJbza+a#bfbab*b+bvbfbAb+b*b2b2bPb8bEbbajafafaMaJaQa,a&a^a^bJbEbAbAbAbFb8bga5baa]b_b]ada8b]b*bTbgb9bxb=b`b`bKa6bOb}b^chce..................................................................................................................................................................................................................................................",
"....................................................................................................................................................................................................................................................b1b}b(b5a6a6bmbcbBcqcqcqb~bRbca.a1baaTaJaPa`baa`a#b3b8b3bJbzbga*a|bSbbayafagagaeaRa(aRa&a^a^a1aQa^bgbqbTb+b]b*b3babFb3bfbAa]a*bTbob$bob7bubdbEbhb9bPb7bLcDb]b%..............................................................................................................................................................................................................................................",
"................................................................................................................................................................................................................................................b`b$bdb`cgbPa/aFa\bsbRb[bRbRbBb;bYbha;aTa4bba^a1a|bjaTbJb8b4bqb4buaPa4a<ayalalahaiajamajawa#a(a*aDaDa*a(a`bzb8b]cncnb+a#a]bfa;a*a4a*a,bxb=b9bEa/aFa/bEb$b#bxb`cxb7b\............................................................................................................................................................................................................................................",
"............................................................................................................................................................................................................................................b`b`bRcgbEbsb|bOaUaHa3a3aOa?a8a8bcbca|aWa*a(a-bTbZbua-babAbpb,bba`b,bTbgaQa&a)aGagagaiamaCamaMa)aJaIalaJa(a`a`b4bybqb,b,bJa#bqa5a`b3bEaSa*bYcqb~b;bra|a.bbb5bEb>cDb^bYb$............................................................................................................................................................................................................................................",
"..........................................................................................................................................................................................................................................cDbRbnbBb}b$a^bdbGbhatamajavaHa>bia3aHaFaLa4a|bJbTb,b>b#a|bFbtbza(a<bJb#b2bda$aMagaeafahaJaMahaQa1a!aCaDa*a(a)blb4blaTbob,b3bFaTb3b>b^bfaTa%bUb[b[bca3aFasa&bVbdb7b=bxbmbw............................................................................................................................................................................................................................................",
"........................................................................................................................................................................................................................................cab;bcb$bhbwb`bxbEa&bna{anatawataHaRa7aRayaIa`a*a`bobTb#b#bPbbbbbja<a*bTb>bSbbaGalagaiafafaGaSaPa!aQa,aJaTa^a+a*bJb#bvaTa*bob,bhbxb^b>b3au....a3bcbBbRbcaHaTa>bxbbbGa|b.a/a,............................................................................................................................................................................................................................................",
"........................................................................................................................................................................................................................................b=bObYcob;bib5bIa{bwbVb#biaxafaiaiaiaHa)aIauaTbfa*a<bfa`bdbxbjaSa<a(aQbzb,biaZaJaCafawaCagaJbeaJama!a<aRaTa*a(aTbbb#bza`a*a-bxbEbEbJbJa!........a{aOaFaFa/bda|bEbrbmb5b1................................................................................................................................................................................................................................................",
"........................................................................................................................................................................................................................................b1bZb1bVb`b!b`b!bJa>bsb>b{b2aTaiataGapaQboa(aDa;a*a4a*a*a*bba;aJa1aJa1a~b?a~aya+a<abaiawaiaJbzaPajaDaQaTa#a\a<aQa^b4boboa1aTbubxa.a^a*..........bwaHa/a>a|a~brbobub5bIbt................................................................................................................................................................................................................................................",
"..........................................................................................................................................................................................................................................ama\bsbsbyb1b^b>bsa>bVcecvcxb\..a7ayaMala<a<aDa1aVaQa*a^babja)aQaCaZa\b#a>azaya#abajawaia[aPafama7aZaLa*a*a+a|bjbna`bja<a)bjboa|a.bI..........aXa.bubxbVbwa4aIbLb,a>..................................................................................................................................................................................................................................................",
"............................................................................................................................................................................................................................................a)a)a}bia}bnbVb,bnbIb{cxcNcacgb6a\aZa{aPbra]a<a1a1a|a]a`a\aRaDauaZa{b0a^aQa*aZacababaSa_aSajamaya#a*a>a^a#a|bJbiaTaJa,bpbja\a|bxbw........aYa^bub2bSbbaSa|bJbsaS....................................................................................................................................................................................................................................................",
"..............................................................................................................................................................................................................................................bta#a~aZaMa,bVa^a{b,b1b5b1bGbsbwa(aQa#aIa<a\bia-a(aZaJaCaDaLaGaCa1bVbma*a.ajaeabaha#aSahaDaGayaDa+a<a)a1a>a,bwa(aIawaDaSa1bbbGby......bnbSb4b2bxboaQaTbobfaZ......................................................................................................................................................................................................................................................",
"................................................................................................................................................................................................................................................bDalaGa!aMa)bia)bsb0bVa~a\bda{biaZaDbia:aIa|a,ayaGawawaCayaIa\a^a=a|aYaTamafaGaja:aqaGamauauawaTa&aLaTa&aGaJaDayapaJaIa\bIbIby....b0b>cpb^b>b,bba#a^aZbH........................................................................................................................................................................................................................................................",
"....................................................................................................................................................................................................................................................a~aRaRa>bwbia{bkbHbbaZbDbVbVaZaGaha)bjaJa(aZa{aMajamaPa.bua*a&a1aLauahaRa+aRaPajalaDawawaRaLa.aVaLaVapauaDawala>bia~bsbba\..a\b6b{chb^b^b#a[aTa*............................................................................................................................................................................................................................................................",
"..........................................................................................................................................................................................................................................................bnbwbjaZaZbsbsbjbabbbQa!ara~..a~a~aDaua~a,ajaLa!a;bbaBa(a>aPalama[a#bpagajamaGaCawaLa1a.a.a!aYaCaIayaGawbnbibpbfa|bnbya(a~bHb#b>b,bVa#aqbt............................................................................................................................................................................................................................................................",
"............................................................................................................................................................................................................................................................a|a{aLaJa!brbJbobybsaYaI........a,auaLaMa!a)aZa<a&awa)a>aPajaia7aRbeaiawawaZaGawayaZa(a!a)aLaJaDajawaMbia}bebnbTbna{a*a7a1bibIb2bJa&aR..............................................................................................................................................................................................................................................................",
"............................................................................................................................................................................................................................................................a>a>a,a)aGa!b#b#bTbian............aRaeafa<a{aMaQaGaua>a)aCapagaw....a7aiaKa7aLapaua+aZaKaGajauajalaGat..bta<a+a]a)bsbobia,aNa>brbza|................................................................................................................................................................................................................................................................",
"............................................................................................................................................................................................................................................................a#awaZbia$a,b0bWbxbza>................bsaZaDa!aIaPauaua,aLaDaGaR......aLarayaMalamaJaJaCam..bDaga,a>at....bwa#a#a)bna-bkbwaJa{bsbbbj................................................................................................................................................................................................................................................................",
"............................................................................................................................................................................................................................................................bnagaua>bda)a>bIbsa>....bn..............aM..bDaRaMaiapawamau................byaRbi..aGawama_a>aD..a~aNa)....bna-a4a!aJaMa,a\a_aIaZbj................................................................................................................................................................................................................................................................",
"..............................................................................................................................................................................................................................................................a,aGaMaRaMaVbibsa%aTa)a7a{............a7....a,aM..axasa7amaZ....................a,a~aRab..a,awa~a,aRa{a4bw..aKaMa,a+aCa4a)a!ala(a,................................................................................................................................................................................................................................................................",
"................................................................................................................................................................................................................................................................a7abagaRa<a)a1aIa/a{aTa{bw..........aM......ah..a)aGbi..ac....................ab........ayawaRaZaw....a>....aZa,a`a-a>aCaDauaw..................................................................................................................................................................................................................................................................",
"................................................................................................................................................................................................................................................................aKaeahaMa,a<aQaIa^a/a6a~aKa\..........aGbs....aMama7....af....................a~a7....a>awaRaGa\....bia7....a7a_bbbpa\aCaZaR....................................................................................................................................................................................................................................................................",
"..............................................................................................................................................................................................................................................................b!ahacamawawaTaSaQaNa)a/awabaL............a\aGby..a~aZ..aMa{..........................aRajaGaw....a,a)......bea)a{bja{a(a7aDbX....................................................................................................................................................................................................................................................................",
"................................................................................................................................................................................................................................................................aGabajaiaGauaqalaza\ayaeacaM................a>....a\aGa>..............................a7aZa,............bsa#a)bibnbsaJalapaZ....................................................................................................................................................................................................................................................................",
"..................................................................................................................................................................................................................................................................ahapaRa)aTauaIaMa7aiafabaM..........................a)................................................bkbmaGa,a~bnaT..byaGaI..................................................................................................................................................................................................................................................................",
"..................................................................................................................................................................................ajaiagagam................ab..........................................a\a,..bDa{aRaraIa1aRaGayajaDamafaca,..........................bsb%............................................bXa}bpa1aIaIaLa>....aZaZa{................................................................................................................................................................................................................................................................",
"..........................................................................................................................................................ababafafababai..........amajaeafabaeahajajamajafababaeaeagahagafagajawahabaiahaiajaiagabawa>aMaBaMaNaMajaGajaiaiajalalaiah..aKab............................................................................awaLaTa1aDalayaPa#bsbibda>....bDaV........................................................................................................................................................................................................................................................",
"..........................................................................................................................................................................amaiababafaeaeafagagafababaeafaeabababababababababaeahafababababababawaCa{a\awa)a>a!a\a~aZaMamahajawajaiaiawawaeamahamamajajahababababafai................................................a>a~aJaCa(aQauaGaJaSa~bnaXaYaIapaIa/bs......................................................................................................................................................................................................................................................",
"....................................................................................................................................................................................ababababababababababaeabababababababababababababababababafaMa{a\awama>biawawaGawa\aZamawaMaGajagaeaiafababababababababaeaeagaialamaw..........................................aiaca\a1a*aqaDauawawaja)bsaUa=aDaTaKa>bxb!bn..................................................................................................................................................................................................................................................",
"..................................................................................................................................................................................................amafababababababababababababababababababababahaBagagagaMaGabahaiajaRawamama7ajababababababababababababababababababababababababab..............aiajaiagajaj....a7abahaCa|braTaAalaJajacaGa!a%a=a1ayaw..bObGam..................................................................................................................................................................................................................................................",
"........................................................................................................................................................................................................amagabababababababababah............................aMamaeaea7ajaiaham................................aiag........................................ahabagajacafama~aTapauarauahafaiajamawauaj......a~....................................................................................................................................................................................................................................................",
"......................................................................................................................................................................................................................................................................afamai..................................................................................awaiababaiaDamaZawajayaeafacaj....................................................................................................................................................................................................................................................................",
"............................................................................................................................................................................................................................................ahababababab..............aiagaw....................................................................................................a7aMa7a7aM......................................................................................................................................................................................................................................................................",
"......................................................................................................................................................................................................................................................................aMah......................................................................................................................................................................................................................................................................................................................................................................................",
"................................................................................................................................................................................................................................................................................................................................................................................................................................................................................................................................................................................................................................................................",
"................................................................................................................................................................................................................................................................................................................................................................................................................................................................................................................................................................................................................................................................",
"................................................................................................................................................................................................................................................................................................................................................................................................................................................................................................................................................................................................................................................................",
"................................................................................................................................................................................................................................................................................................................................................................................................................................................................................................................................................................................................................................................................",
"................................................................................................................................................................................................................................................................................................................................................................................................................................................................................................................................................................................................................................................................",
"................................................................................................................................................................................................................................................................................................................................................................................................................................................................................................................................................................................................................................................................",
"................................................................................................................................................................................................................................................................................................................................................................................................................................................................................................................................................................................................................................................................",
"................................................................................................................................................................................................................................................................................................................................................................................................................................................................................................................................................................................................................................................................",
"................................................................................................................................................................................................................................................................................................................................................................................................................................................................................................................................................................................................................................................................",
"................................................................................................................................................................................................................................................................................................................................................................................................................................................................................................................................................................................................................................................................",
"................................................................................................................................................................................................................................................................................................................................................................................................................................................................................................................................................................................................................................................................",
"................................................................................................................................................................................................................................................................................................................................................................................................................................................................................................................................................................................................................................................................",
"................................................................................................................................................................................................................................................................................................................................................................................................................................................................................................................................................................................................................................................................",
"................................................................................................................................................................................................................................................................................................................................................................................................................................................................................................................................................................................................................................................................",
"................................................................................................................................................................................................................................................................................................................................................................................................................................................................................................................................................................................................................................................................",
"................................................................................................................................................................................................................................................................................................................................................................................................................................................................................................................................................................................................................................................................",
"................................................................................................................................................................................................................................................................................................................................................................................................................................................................................................................................................................................................................................................................",
"................................................................................................................................................................................................................................................................................................................................................................................................................................................................................................................................................................................................................................................................",
"................................................................................................................................................................................................................................................................................................................................................................................................................................................................................................................................................................................................................................................................",
"................................................................................................................................................................................................................................................................................................................................................................................................................................................................................................................................................................................................................................................................",
"................................................................................................................................................................................................................................................................................................................................................................................................................................................................................................................................................................................................................................................................",
"................................................................................................................................................................................................................................................................................................................................................................................................................................................................................................................................................................................................................................................................",
"................................................................................................................................................................................................................................................................................................................................................................................................................................................................................................................................................................................................................................................................",
"................................................................................................................................................................................................................................................................................................................................................................................................................................................................................................................................................................................................................................................................",
"................................................................................................................................................................................................................................................................................................................................................................................................................................................................................................................................................................................................................................................................",
"................................................................................................................................................................................................................................................................................................................................................................................................................................................................................................................................................................................................................................................................",
"................................................................................................................................................................................................................................................................................................................................................................................................................................................................................................................................................................................................................................................................",
"................................................................................................................................................................................................................................................................................................................................................................................................................................................................................................................................................................................................................................................................",
"................................................................................................................................................................................................................................................................................................................................................................................................................................................................................................................................................................................................................................................................",
"................................................................................................................................................................................................................................................................................................................................................................................................................................................................................................................................................................................................................................................................",
"................................................................................................................................................................................................................................................................................................................................................................................................................................................................................................................................................................................................................................................................",
"................................................................................................................................................................................................................................................................................................................................................................................................................................................................................................................................................................................................................................................................",
};
