/* XPM */
static char *xpm[] = {
"320 180 255 2",
".. c None",
"ab c #000000",
"ac c #010101",
"ad c #020202",
"ae c #030102",
"af c #030303",
"ag c #040336",
"ah c #050305",
"ai c #050404",
"aj c #060302",
"ak c #070608",
"al c #080106",
"am c #0a0706",
"an c #0b0508",
"ao c #0d090c",
"ap c #0d0a09",
"aq c #0f0d15",
"ar c #10081a",
"as c #100d0e",
"at c #110c0b",
"au c #110c11",
"av c #110c13",
"aw c #130d10",
"ax c #130d12",
"ay c #130f0e",
"az c #131019",
"aA c #140c18",
"aB c #141019",
"aC c #141210",
"aD c #151113",
"aE c #151116",
"aF c #160530",
"aG c #161114",
"aH c #171015",
"aI c #171018",
"aJ c #171517",
"aK c #18100f",
"aL c #181019",
"aM c #191514",
"aN c #1a0e19",
"aO c #1b1317",
"aP c #1b131c",
"aQ c #1b1418",
"aR c #1b181a",
"aS c #1d1412",
"aT c #1e1916",
"aU c #1e1b1e",
"aV c #1f171d",
"aW c #20171a",
"aX c #221714",
"aY c #221c17",
"aZ c #221f21",
"a0 c #231a1f",
"a1 c #232131",
"a2 c #251f1a",
"a3 c #252032",
"a4 c #252323",
"a5 c #261a17",
"a6 c #261c22",
"a7 c #27232d",
"a8 c #272332",
"a9 c #272626",
"a! c #282124",
"a# c #28221d",
"a$ c #291d1a",
"a% c #29232a",
"a& c #2a2123",
"a( c #2a2227",
"a) c #2a2229",
"a* c #2b2427",
"a+ c #2b2521",
"a, c #2b282a",
"a- c #2c211c",
"a. c #2d2426",
"a/ c #2f2823",
"a: c #2f2b2e",
"a; c #301945",
"a< c #30231f",
"a= c #32262b",
"a> c #322b25",
"a? c #32302f",
"a[ c #332623",
"a\ c #332e33",
"a] c #35292f",
"a^ c #353335",
"a_ c #362925",
"a` c #362f28",
"a{ c #382c32",
"a| c #39322c",
"a} c #3b2c28",
"a~ c #3b3739",
"ba c #3c2f35",
"bb c #3c3b49",
"bc c #3d3630",
"bd c #3e302a",
"be c #3e353b",
"bf c #3e3c3d",
"bg c #3f3b40",
"bh c #3f3d3c",
"bi c #413b35",
"bj c #42332f",
"bk c #423940",
"bl c #424241",
"bm c #433341",
"bn c #434045",
"bo c #443237",
"bp c #45323e",
"bq c #45413c",
"br c #46333b",
"bs c #473933",
"bt c #48323d",
"bu c #493834",
"bv c #493d48",
"bw c #494949",
"bx c #4a363c",
"by c #4a3f39",
"bz c #4a4742",
"bA c #4b445a",
"bB c #4c2d52",
"bC c #4c3d42",
"bD c #4c464b",
"bE c #4d4a46",
"bF c #4e3d38",
"bG c #4f3435",
"bH c #4f4550",
"bI c #4f4e4d",
"bJ c #504548",
"bK c #514540",
"bL c #534d5a",
"bM c #535251",
"bN c #55434c",
"bO c #564242",
"bP c #564d4a",
"bQ c #564d52",
"bR c #565654",
"bS c #574b56",
"bT c #585463",
"bU c #5b4a4a",
"bV c #5b5a58",
"bW c #5d5265",
"bX c #5d555b",
"bY c #5e4854",
"bZ c #5e5e5d",
"b0 c #5f494d",
"b1 c #5f5550",
"b2 c #615c67",
"b3 c #616160",
"b4 c #625259",
"b5 c #625e59",
"b6 c #654e59",
"b7 c #65525d",
"b8 c #656565",
"b9 c #66625f",
"b! c #66626c",
"b# c #674249",
"b$ c #685154",
"b% c #695968",
"b& c #6a6a6a",
"b( c #6c5d5d",
"b) c #6c6a66",
"b* c #6e647f",
"b+ c #6f6573",
"b, c #6f706f",
"b- c #705f6d",
"b. c #73656c",
"b/ c #73716f",
"b: c #737373",
"b; c #766564",
"b< c #766d80",
"b= c #78565a",
"b> c #787879",
"b? c #794762",
"b[ c #796d6a",
"b\ c #797395",
"b] c #797979",
"b^ c #7a7775",
"b_ c #7a7a78",
"b` c #7b6c73",
"b{ c #7f7e7f",
"b| c #81737f",
"b} c #818181",
"b~ c #827774",
"ca c #82817f",
"cb c #846065",
"cc c #86676c",
"cd c #867279",
"ce c #867a9a",
"cf c #867d82",
"cg c #877e7d",
"ch c #888887",
"ci c #8a7a8a",
"cj c #8a8988",
"ck c #8c859c",
"cl c #8d8e8d",
"cm c #8f6f71",
"cn c #8f8488",
"co c #91908f",
"cp c #929292",
"cq c #948094",
"cr c #9589a0",
"cs c #959595",
"ct c #967576",
"cu c #968c91",
"cv c #969797",
"cw c #989794",
"cx c #989898",
"cy c #9a8b8c",
"cz c #9b9b9b",
"cA c #9c8eba",
"cB c #9c939b",
"cC c #9f8fa3",
"cD c #9f9f9f",
"cE c #a1a1a1",
"cF c #a3a1a0",
"cG c #a47a8a",
"cH c #a49ca6",
"cI c #a69bbd",
"cJ c #a6a5a5",
"cK c #a78e8d",
"cL c #a9a9a9",
"cM c #aaabab",
"cN c #ababac",
"cO c #aca6ad",
"cP c #acacab",
"cQ c #b0acac",
"cR c #b1a4c3",
"cS c #b2b2b3",
"cT c #b3b3b3",
"cU c #b5b5b5",
"cV c #b6aec3",
"cW c #b8b8b8",
"cX c #bbafaf",
"cY c #bdbdbd",
"cZ c #bfbfbf",
"c0 c #c0c0c4",
"c1 c #c0c1c1",
"c2 c #c1c1c1",
"c3 c #c28585",
"c4 c #c6c6c6",
"c5 c #c9c9c8",
"c6 c #cdcdcd",
"c7 c #d0d0d0",
"c8 c #d5d5d5",
"c9 c #dadada",
"c! c #e0e0e0",
"c# c #e4e4e4",
"c$ c #e6e7e7",
"c% c #eaeaea",
"c& c #ededed",
"c( c #f1f1f1",
"c) c #f5f5f5",
"c* c #f9f9f9",
"c+ c #fdfdfd",
"c, c #ffffff",
"c- c None",
"................................................................................................................................................................................................................................................................................................................................................................................................................................................................................................................................................................................................................................................................",
"................................................................................................................................................................................................................................................................................................................................................................................................................................................................................................................................................................................................................................................................",
"................................................................................................................................................................................................................................................................................................................................................................................................................................................................................................................................................................................................................................................................",
"................................................................................................................................................................................................................................................................................................................................................................................................................................................................................................................................................................................................................................................................",
"................................................................................................................................................................................................................................................................................................................................................................................................................................................................................................................................................................................................................................................................",
"................................................................................................................................................................................................................................................................................................................................................................................................................................................................................................................................................................................................................................................................",
"................................................................................................................................................................................................................................................................................................................................................................................................................................................................................................................................................................................................................................................................",
"................................................................................................................................................................................................................................................................................................................................................................................................................................................................................................................................................................................................................................................................",
"................................................................................................................................................................................................................................................................................................................................................................................................................................................................................................................................................................................................................................................................",
"................................................................................................................................................................................................................................................................................................................................................................................................................................................................................................................................................................................................................................................................",
"................................................................................................................................................................................................................................................................................................................................................................................................................................................................................................................................................................................................................................................................",
"..............................................................................................................................................................................................................................................................................................................................................................................bE................................................................................................................................................................................................................................................................................",
"..............................................................................................................................................................................................................................................................................................................................................................................a?................................................................................................................................................................................................................................................................................",
"..............................................................................................................................................................................................................................................................................................................................................................................a>................................................................................................................................................................................................................................................................................",
"..............................................................................................................................................................................................................................................................................................................................................................................a`................................................................................................................................................................................................................................................................................",
"..............................................................................................................................................................................................................................................................................................................................................................................bRbI..............................................................................................................................................................................................................................................................................",
"................................................................................................................................................................................................................................................................................................................................................................................a/..............................................................................................................................................................................................................................................................................",
"................................................................................................................................................................................................................................................................................................................................................................................bzbh............................................................................................................................................................................................................................................................................",
"..................................................................................................................................................................................................................................................................................................................................................................bE..............a|............................................................................................................................................................................................................................................................................",
"..........................................................................................................................................................................................................................................................................................................a?......................................................a9..............a_............................................................................................................................................................................................................................................................................",
"..................................................................................................................................................................................................................................................................................................a9......bl....................................................bi..............b5a<............................................................................................................................................................................................................................................................................",
"..................................................................................................................................................................................................................................................................................................bR....a>......................................................a|..............by..............................................................................................................................................................................................................................................................................",
"......................................................................................................................................................................................................................................................................................................a4........................................................ama2..........b5a`..............................................................................................................................................................................................................................................................................",
"..................................................................................................................................................................................................................................................................................................a+a9............................................................b1b5......bMb5................................................................................................................................................................................................................................................................................",
"................................................................................................................................................................................................................................................................................................a+bl................................................................a+....b1a`..................................................................................................................................................................................................................................................................................",
"..............................................................................................................................................................................................................................................................................................biap..................................................................bMbPbPaKa?..................................................................................................................................................................................................................................................................................",
"..............................................................................................................................................................................................................................................................................................a$bc......................................bI..........................b5bya_a`....................................................................................................................................................................................................................................................................................",
"............................................................................................................................................................................................................................................................................................b5a5......................................bibq....................a?....bVbKbcbi....................................................................................................................................................................................................................................................................................",
"............................................................................................................................................................................................................................................................................................aX......................................b)a`......................aR......bdbyaS....................................................................................................................................................................................................................................................................................",
"....................................................................................................................................................................................................................................................bi..................................bEa>a/bc....................................bc........................a4......a|a}a-....................................................................................................................................................................................................................................................................................",
"....................................................................................................................................................................................................................................................b9by................................bq....a+..................................aY..........................a>........a+bc....................................................................................................................................................................................................................................................................................",
"......................................................................................................................................................................................................................................................a}..................................bc....aT..............................bi........................bqa?bdbI......bia>....................................................................................................................................................................................................................................................................................",
"......................................................................................................................................................................................................................................................a|a+..................................aTbia#a|..........................bPa#......................a,....bc........a_a#....................................................................................................................................................................................................................................................................................",
"........................................................................................................................................................................................................................................................a<......................................bzbc..........................a#....................bEa|......a}........a}bl....................................................................................................................................................................................................................................................................................",
"........................................................................................................................................................................................................................................................bibz................................bEa`a|bybE........................aM..................bca/........a|......b1a_......................................................................................................................................................................................................................................................................................",
"..........................................................................................................................................................................................................................................................a`......asaRa?bca~bR..bzbEbhaMamajajamayaKbd..bi..................a+bl..................bR..........bc......bPa>..........bcat........................................................................................................................................................................................................................................................................",
"..........................................................................................................................................................................................................................................................bqa/............blbdaUa2aTaMaZbE..........a}a[aZ..................a/bha#..............bl............b1bKa>a>bya`b1..bzbiaY............................................................................................................................................................................................................................................................................",
"............................................................................................................................................................................................................................................................bcbi......b)b5bEbdbz....................bPa2a+................bqbq..blap............b8..........bzbsaSataXbcbya>aXaYbi..............................................................................................................................................................................................................................................................................",
"..............................................................................................................................................................................................................................................................a#a|....a`a`bybybj....................biaTa-bz..............a2......bfaC........a9..........bVbda5......bybUa+....................................................................................................................................................................................................................................................................................",
"..............................................................................................................................................................................................................................................................bcaT......bqa2bsbUbc................bMa-..aXa<............a`a:........a?ay....a^..........bPa<a$......b1bya|....bE................................................................................................................................................................................................................................................................................",
"................................................................................................................................................................................................................................................................a2am........bcbda<..............bVae....bzaXbu........bPaY............bhapa`..........bPa[at..........a>aS....bqa|bV......bM....................................................................................................................................................................................................................................................................",
"..................................................................................................................................................................................................................................................................apay......bza<a$............bVaK........a_bda[......bca#..............a:aCa>......b5a_aM............a_a-........a`......bi....................................................................................................................................................................................................................................................................",
"....................................................................................................................................................................................................................................................................apa9....bIbda/..........bRaX..........b9a_a_bc....bqa+............a^bI..a+aSbfbPa`a`..............bybd........a/....bsbM....................................................................................................................................................................................................................................................................",
"....................................................................................................................................................................................................................................................................a/ata4..b1biby..a^bc..bRaKa>............bCbua.....a+at............a4......bEaXaKataYa,a:a,a:......bjbubq......a`....bu......................................................................................................................................................................................................................................................................",
"......................................................................................................................................................................................................................................................................a/aSa4bKbda/....bia#aSap..............byboa>..b1a$a<............aC........bsa$a+a/a4amatapaMbcb1a|bKby......a`....a$......................................................................................................................................................................................................................................................................",
"........................................................................................................................................................................................................................................................................a#aCa|bsa#a2a#aKa/....a4bl........bIbsbca2bqbPa_a<bM..........aM........bsa2............bEa`bda`bUbd......by..bMa/......................................................................................................................................................................................................................................................................",
"..........................................................................................................................................................................................................................................................b5aY............a`a}byaYa/a^..........bzaM......bia>bcbca>bca-a-a>........bVbc........a/bs..............a-a<a}bdbo......bq..bza2......................................................................................................................................................................................................................................................................",
"................................................................................................................................................................................................................................................a?........b&a?..............a.a/a#..................a2....a>a`bFa|..bPaTaCaMa`......a?..........a[bj..........bMa>a>bwa.a-bo......a+..bqaX......................................................................................................................................................................................................................................................................",
"..................................................................................................................................................................................................................................................aY......b,bf............b^a`a5a2a2................b,bI..bybsa`a|..a2a2..a/aYa/....a2......bqa>a$a}by......a&a$bdbq..baa}a_......a#..bCa}......................................................................................................................................................................................................................................................................",
"....................................................................................................................................................................................................................................................a|......a>............b3a/a-a<ay..................a~..bFbya>bhaYa^bs....aCa5a5bsbE....a4a9..b5bjbd....a<aKa.bybV..a|a-a+......a\bEa}bz......................................................................................................................................................................................................................................................................",
"....................................................................................................................................................................................................................................................a~a`....a`............b5a<a[a`a-a/................aR..bjbsbya-aZbza-....aY..bhbPbK..bPa+bEbca/bFa[bwb1a<....a/....a<a<a`......a_a_a}........................................................................................................................................................................................................................................................................",
"......................................................................................................................................................................................................................................................a-....by..............bsbda|bsa_................aTbhbda_bdaybEbsbc....bIbqa>a:bPbsa5a|a`aTa#a_aKa<bubd..bPa>bhbca-aK....bRbca>a}bj........................................................................................................................................................................................................................................................................",
"......................................................................................................................................................................................................................................................bca`..b1bl......a^....bca>bia|a}a4................aMa|bja<a5a`a2......bMa>a,a|bsa0aoatapayaYbwbia)bjbFa5aXaTa$a<a5at..bR..bVa/bdbq........bc..............................................................................................................................................................................................................................................................",
"......................................................................................................................................................................................................................................................a,a[....a`............bEa5a-bqbFa/..................a5bubja$a`bq..bzb1a>bda|bda[a9..............bEbObPbqa`a|a>a&aKa~a+aT..bEbsa<........b5b1..............................................................................................................................................................................................................................................................",
"........................................................................................................................................................................................................................................................a^a/..a_........bwa^a|a<aXa>a<bj..................bGa{a_a}a|bybqa/aYa`bFbcbja|..................b1bU..a#a^a/a$aXbq....bibya-a/........bi................................................................................................................................................................................................................................................................",
"..........................................................................................................................................................................................................................................................a#a9bibl............a$a/a}a-a}bM........bqa|bybua]a,aKa>a|a/bi......a`a-a<a>a`a~..............b1a<bibca~a`a<a?......bMa|a-a+..blblbKa>..........a?bcaM................................................................................................................................................................................................................................................",
"..........................................................................................................................................................................................................................................................a?a$bqbca|a4........bca$a<a_bja|bq......a4bIa_a|....bMaXbcbda_......a`a<a}a-aMamaSaK..........bObUbPa|bca2aY....bcbha+a>a-bc....bsaS........bha>......a#..............................................................................................................................................................................................................................................",
"............................................................................................................................................................................................................................................................a5a`a>bqbja?a~a/bZbqa-a+a$a-a_a4bE....a?bqa+........a2bsa_a[a#......a}bjbda^bMbcbqbd........b1bFa_bda_aY....bq....a,a+a2bE..bdaS..........a,..........a|............................................................................................................................................................................................................................................",
"............................................................................................................................................................................................................................................................a/a+aYbzbla+......bcaYaXa-a$a5a`bjbKa|bibKbl........a>bda<a<aT......a<bsa`aYa/bqb1b[b1....b)bdbsbFbsa2....bEbc..bVbIa`a&aSaSa}..........bqbh..........a~............................................................................................................................................................................................................................................",
"..............................................................................................................................................................................................................................................................aKa$bc..a5aY........a}bjbjbdbja_a2a5bjbsbq........bVbja-a<a9....a`a}bya>aSaKbcbFbsbFb1bdbdbsbFbKa}a|bz..bybzbc..bRa[a-a<a$a/............a2bl......................................................................................................................................................................................................................................................",
"..............................................................................................................................................................................................................................................................aYa5a`aTaTa#a-a|a`..bqa-a>a_bcbKa`a$bdbsa_bq......bRa-a/bsa:..bRa5bKbcbiaQaTa>bdbcbda_a>bKb1bFbsbdbKa`a|bibz..bca5a5a5....................aCa>....................................................................................................................................................................................................................................................",
"..............................................................................................................................................................................................................................................................bca2aybc......a-a<aSa2a_a-a`bybsbya<a[a$bFbda`....a/a-a-a[a?bMbja<a`....a^a?a-aXa-a-aXa-bsbKbFa}a<a-aYbia|..b1a<a+a5a}......................a<a9..................................................................................................................................................................................................................................................",
"................................................................................................................................................................................................................................................................aSapa+......bna^bza/a<a-a-bsbKbya`a<a2bPbja_bEbqaKa-a+a_a}bda2a$a`....bMbsa}a-aSaYa2a_bdbKbdbda/a-bybd..bRa`bca`a5bs......................aM....................................................................................................................................................................................................................................................",
"..............................................................................................................................................................................................................................................................a~aTa#a2bc..bRa?a+bca-a$a5a5a|a|bKa/a/bsbsbya_bKa`a/aXa2a-bua}a#a2....bIa|bFa[a_a/a>bdbda<bsbsa-bdbsbda`bybca>a#a+a}bs....................bEaC....................................................................................................................................................................................................................................................",
"..............................................................................................................................................................................................................................................................aUbEaSaCbz..a:a~bRa-a]a-aYaSa/bsa|a_aYbKbUbda<bdbca_a$a<bda}bdaYbz....a>b5bda5a-bKa[bya>a-bjbKa<bPb1bjbja`aXaTaSaXbda+..................a:ab......................................................................................................................................................................................................................................................",
"..................................................................................................................................................................................................................................................................a5aXaM..........a?a_a`a_aXa|bsa2a5bubda-a}a<aXa}bKbybOa[a_aY....bi....a[a<a/bsa>a>a[aYbsbKbdb1bFbjaSaY..a#aKata5a-aC............biayaT........................................................................................................................................................................................................................................................",
"..................................................................................................................................................................................................................................................................bla$aC..bEa[a2a^a/bdbKa_a>a2bybdaYbdbFa_a`bKa<a[bFbKbsaSaMa_a}bdbd....a[aya$a-bsbca-a-bsa_bKbFbKa/........a/aYaKaXa2a_bsa>a|bha$ay............................................................................................................................................................................................................................................................",
"....................................................................................................................................................................................................................................................................a+a2a$aKaXaSaYaXa-a<a2a}bya`bja>a2bsbda-bFbjbsbubFa`..bIaSaKa2a/aSb1a~a<a:bda:a`aYa`bdbdb1b1bd............a`aXa5a_a/a<aSa<a/a?..............................................................................................................................................................................................................................................................",
"..........................................................................................................................................................................................................................................a#........................a+aYaXayama/a!aYaYbca|a`bcbja2bsa/a/bKa[bdbya}bUb1bs....a/bqaYa-a2a/bybsa/a/a+a>a$bPa_bda[bKa_....a_a<a$bda[aTa5a+aC........................................................................................................................................................................................................................................................................",
"........................................................................................................................................................................................................................................a~at......................a>aTawatap....a0bj..bcbca`aXa_a<a>bjbcbja_bjbja[bjbdbz..bh......b1bya`a>a`a-a>a[a#a}a}a_bda$bsa-b1bKbGby..bMa}a[aXa>aq........................................................................................................................................................................................................................................................................",
"..........................................................................................................................................................................................................................................am....................blakaKapayaTbqbya6a5....a-a/aYaXa`aXa/bcbybda_a<a<a_aXbib5a/......cga|a`aYa`a/a`a$a$bsa$a<a_a-a>a>bdbja}a}..bPbsbua.bqa,aCa/bz....b)bz..........................................................................................................................................................................................................................................................",
"............................................................................................................................................................................................................................................am................bZaZayamaCa#aYa5aXa2a<a2a2a-a5a$aXa2a<aXbdbsbda/a}aXa`bda_a_aKam....b5apa/a2bia_a-a5a[a}aXbdaSaYa_bdbcbsbdbdbKbUbya#a<a}......bMa/aMbR..apa?......................................................................................................................................................................................................................................................",
"..............................................................................................................................................................................................................................................apata+......bEaRaKaWawaTa|a+a-a2a<a2a/a5a2a2aXaYa5aYbcbsaYbybFa}bjaXa2bybFa|aCapaj..b9a`a|aXa/a-a+aXa<a5bda>a-a-bdbca_b1bKbdbdbdbya`aXaX..................aj......................................................................................................................................................................................................................................................",
"..................................................................................................................................................................................................................................................bcaTaXaCamapaUaRas....aTa#a2a_a-aYa<a`a/a`a_aXa-a-bcbda<bPa$bda_aKa/bKbca2ajaj..b5a`aXaSa#a/a/aXa-a-bda/a2a/bda`a}bKbKbdbsbsa/bia#a/aM................bh......................................................................................................................................................................................................................................................",
"................................................................................................................................................................................................................................................................bfaC....bhata2a+a$aWa[a~a_a-a>aXa2aSa$bsaXbda/a$a-a_a<bsa|a#apamaSbda-aKa5a+a-aYaSaXa_aXa5a2a`a/a-a_a5aSaSaXaKa`..bia`a4................bq......................................................................................................................................................................................................................................................",
"................................................................................................................................................................................................................................................................a9aM......a,aYa+a-a<bda>a_a$a>a>aXaYaKbsa5a<a#ayaYa-aXa_bjaXa2aXa5a$aSapa2a>a#aYaYaSa<aXaXa`a-a-a-a}a<a&aTa#a:....bFbc..................aY......................................................................................................................................................................................................................................................",
"..............................................................................................................................................................................................................................................................a|aj..........a:a2aYa2aYaTa+a/a+bKa2ataSa2aXa2a#ama-a<a>a/byaSaXa5aXaSaSaCa+a2a2aTaTaSaSaYa5bda#byaYa[a+..........bRa#a$..........................................................................................................................................................................................................................................................................",
"..........................................................................................................................................................................................................................................................a|aYbh............bqaCa#ayaCbla?aSa2a|a`aKa-aTaYaSaYaKa<bsbda|a5aKayaSaTbca-a$a/a$a+aXaSaTaXaXbda>bja>aXa5a$..........biaTa<............b1bEa/........................................................................................................................................................................................................................................................",
"..................................................................................................................................................................................................................................................a2a4a/a|a~bl..............b9a<a&bh....bRaMa#a:a|aXa2a+a/aXa`bia[a`a2a$a5amaKatata>a#a<a5aYa|a.aSaXaXaYbda<a<aSa`a}bja`......a^aYa/a|........bzbsbyaTa`........................................................................................................................................................................................................................................................",
"................................................................................................................................................................................................................................................a^ai........bzaya[bcbc........a}a5aOa,bqa#aTaMa5a>a#aSa>bda-aSa/aXa>a5aSaSajapapaKa`aXa2ataXa`a+aKaXaSa2a#aKaSa$a$bjbsbFbEbqa-bua`a2a^....a`bcbdbPa#............................................................................................................................................................................................................................................................",
"................................................................................................................................................................................................................................................ay............bhaCbcbca<a/....a+aTa9a2a9a+aYaMaDaYa>aSaXa_a=asaMa&a5bdaKaKajapamaYa>a0aXaKa2bia_aTa$aSa2a-aSa/aXbdbjbKbFa_a[bdbFbjbc....bca_a$a>a|..............................................................................................................................................................................................................................................................",
"................................................................................................................................................................................................................................................aM................a?aYaSa<aT....a~a$aWa*a?a5a0aXaXa`aSa$a$aQa6aKa=a}bjaSa<aOapayaCaMa&aKa&aXa/baa<a2aKa<a<aXa-a<a_bKa$aKa5bdbdbubFbPbKb$bFa<a2..................................................................................................................................................................................................................................................................",
"................................................................................................................................................................................................................................................aM....................aYa0a`a/a-a+aKaOaSaNa5aXa5a$a5a?a$auawa{a~bjbJa(a6bJaoaiapaZa,a_a!a_aOaXata5aYaSa[aXaXa-bja_aKataKapa$bda_aSa$bjbFbsaKbq..................................................................................................................................................................................................................................................................",
"..................................................................................................................................................................................................................................................aM....................ata#a,a_a2amaHaKanaSa[a$aYaSa!aEaCa,a^bea{a\baa=a=ahajaiaZaWaUa.a?a_a$auaRaUa5a2aSa-a$a}a$awana$a2apbsa-a|a|bca|aT......................................................................................................................................................................................................................................................................",
"..................................................................................................................................................................................................................................................a^......................aCaUa?aXaTaVaVa0aUa#aKaRata6aJa^a4a!a*a*a6aNa=a{aHataoa0a4a~a{bXa{a.a0aua~beatata$bda5a&boa<a-bya-aXbi................................................................................................................................................................................................................................................................................",
"................................................................................................................................................................................................................................................................................a*aCaPbba]a#aXa0aKaOawaoa:a0aDa,babXa]bmbgaWasaWa!a6a!a0babea6a0awa0aTanaKa5a5a[babvb|bKama}bybq................................................................................................................................................................................................................................................................................",
"..............................................................................................................................................................................................................................................................................bMaoaMa{bAa{a~a[babxa]amaHaUa.bQbea6a!bobXa^aGaoa[a.aGaOa6aPavaAa6aGajaOa5a]a[bdb$bxbAcebxbUa{a4a/................................................................................................................................................................................................................................................................................",
"..............................................................................................................................................................................................................................................................................bIaoa:bWb%b7cncXcXcfbNbeaWaHa!a^a\bka!bkbobJawaea.a{a0bnbXa]a]a7a)aOaKbab$cKcKccb7b6cicrb%a]aVaNaS................................................................................................................................................................................................................................................................................",
"..............................................................................................................................................................................................................................................................................b!a=bMb<b%b-bBc3c(c)b`b(a{aHaOaQa*a0alaOa=bDaRaebfa]a5bXa=bLb!bva]aQbab=c#c%cGb?cGb6b+cIb.bpbtb7ba................................................................................................................................................................................................................................................................................",
"..............................................................................................................................................................................................................................................................................bMbbbabAb0a;agb?c8c&cdb6bQa{a&a0a0aQa{a0a=beaoana~a.a6a)bLbkbaa0a6babQcyc&cXbBagbBcmbxb<b7b%bYb%beb!..............................................................................................................................................................................................................................................................................",
"..............................................................................................................................................................................................................................................................................bgbWb\bAb=bBbBctcXcHcbbkbCbCa]aQa)bkbQbkbCa=ahaia.a:aWa!b7bka=a{a)bebrcmcXc3b?a;bGc3b0bNcIcIcIbva%bg..............................................................................................................................................................................................................................................................................",
"..............................................................................................................................................................................................................................................................................bTb\b!bvb;b(b=cgcyb=a_aOa=a6a6a=aVaNaVa{bCa6ahaja*bCa6a&a6bCa)babaa]a*b$cmcgctcbcmc3b0btcIcRcVb*a0bH..............................................................................................................................................................................................................................................................................",
"..............................................................................................................................................................................................................................................................................b<b*bLbybUb1bFbUbUa_a&bCbta]a{bxbCb2bXbaa6anahacaJbQbka&aWbaboa6a6a{a{bcb0b$b;cgctb;b#bCcRcAcAcAa=bW..............................................................................................................................................................................................................................................................................",
"..............................................................................................................................................................................................................................................................................b}b*bfa+a_b#b#a<a$ana)bxa=a0aNaxaPaVaAaOa0anahamaTa4bebJbea0a&a=babobaaSa<bGbGb#b=bGa<bYcrcRcAcRa=bT..............................................................................................................................................................................................................................................................................",
"..............................................................................................................................................................................................................................................................................b-bSb8a}bebob#b$aNaKbSa=aoaNa6bta=btbCbCaPalamadaCa!a:a{a0a0a0aWaWa{b0a{aOa=b#b#bGa.a{cbctcccmcIbpa%..............................................................................................................................................................................................................................................................................",
"..............................................................................................................................................................................................................................................................................bNa]b=bjbabobCb;a]b0b8babobNb$bCbNbXb4beaPaWa,akaMaybebJbabob6b$bCa]bJcfbaa]cma$b#bYbacGbNbGbGcccea=..............................................................................................................................................................................................................................................................................",
"............................................................................................................................................................................................................................................................................b(bCbxa{bhbCbNb0bCb0bXbnbobUb(bOaOaKaWaVa!a]aQaDaiapaWa!a?aUaZbCcdcdb4a.b;b(a=b$b#bYa]bCbObxb#btb6cHb`..............................................................................................................................................................................................................................................................................",
"..........................................................................................................................................................................................................................................................................b:bDbkbHbbbAbvbYa]babHbCbQbrbJbaa5a&a$a!a&a(a{aQaZapasaWaUa=a0a]brb$b-b0a&bKbFbCbdb0bNa]bva]bab(bxbtcCb~..............................................................................................................................................................................................................................................................................",
"..........................................................................................................................................................................................................................................................................bQbkbHcrcIcrb+bSbNbSb5bJbkbobCa=bxb(bOa]baa{a6aHaGamataRaWa0bab0bXb$ccb6a_bUbVb;b0babvbWceckcicqb;b;cncmb(............................................................................................................................................................................................................................................................................",
"........................................................................................................................................................................................................................................................................bRa=aVbLcIckb*crcub-bHboa:a[bxbFbub.cnbUa&a{beaQa*aRaiaRawaWaRbabQb`b=cdcca=a$bjbCbNcdcCckb\cAcRcIb0a{a}bOb6b)..........................................................................................................................................................................................................................................................................",
"........................................................................................................................................................................................................................................................................bEbaa]b2cAb\ckb\cjckcibaa=a5brbubebUbCa$a.a)aQamaoanaiayaoaHaGa]bxb4b0b6b-a}a.a6b-cicdcIckb\b\cAcrb$bGa=bjb=b1..........................................................................................................................................................................................................................................................................",
"......................................................................................................................................................................................................................................................................b1bObObNbLcIcIcVcrckcqcmb0bCa=bCbabibCa&a$a.a\baaMayaiahakamaQaHaUa(bCbDa{b$bCbJbCb6cGcicCcIcIcAcRcqcbccccbCcmcc..........................................................................................................................................................................................................................................................................",
"....................................................................................................................................................................................................................................................................cgbYbCb6b$a8ckcIb\b<bHccctb(bmbJbka=bMa,a:a_aQaGaDasapamafaoaDawaxaHa!a*bXbCbOb$bNcccOc3cbb<crcIcIcAb%btcGcGb$c3b=cf........................................................................................................................................................................................................................................................................",
"................................................................................................................................................................................................................................................................b;cycBbUbNa)a_a]bLbAa\bLbvaFa$bYbaa^a0bea^a:bJa*asakahaRamaeafaoatapaoaHa,a!a]a{bjbFa=cbb=aFb#bYb%bWb\b%bYa{cbb?cbcic)c!........................................................................................................................................................................................................................................................................",
"................................................................................................................................................................................................................................................................a6cbb[bkbOa]a$a=bNa:a1bwbbbra=bUa{a.a\a^a:bIa=awaoahawasaiajafakamasaJaoaQa^a6bja=bebjbObGa=bBbHb!aAa3a=b-bGbxbmbNcQc%c3bN......................................................................................................................................................................................................................................................................",
"..............................................................................................................................................................................................................................................................bba6bPbUa}a=boa=bxb0bna^bMbebkbaa6a]a&bCa,a\a(awaoanaxaRaTa4aiadaMa9a>apakaoa\aQbebJa(bJa]btbobpb|b<a)bpbCcGb$bGb#bocKc5cbaFa~....................................................................................................................................................................................................................................................................",
"..............................................................................................................................................................................................................................................................bHbGbFbuaXa&bYbYb4b4a]a(bDa\baa=a6baa:a^a\a.aGawaOakaoa,a#ajaeaeamaCa>aUayaua(a!a*bkbUb2a{a=a6bHb+b%a=btb%cKcGb#b=bGctc3cbaNbN....................................................................................................................................................................................................................................................................",
"................................................................................................................................................................................................................................................................b(bya}aXbob!b2b!bkaWa6a]a0a,bea=a\bMbnaWaUa=a]a=aoaeaRayatajadajapaMaRakaRaZa!a!bCbJb4bDbrbaa]bxbxa&a]cccqcCcGcibdcbcKcmb=b;....................................................................................................................................................................................................................................................................",
"................................................................................................................................................................................................................................................................bZbha_a5a:b+b!b2a*ava6a{a$bgbna%bQb:bea:a:a(aPauahamama2aRahaeadaCa4ajakaRa!a:a*bnb(bDbQb6bSa0a6b#bNa=bvb%cecqb$bobOb[ctb[b5....................................................................................................................................................................................................................................................................",
"................................................................................................................................................................................................................................................................baa}a}aWa^b+bHbnaUanaVbobNbzbea:cfbXa&a,a]a]baa0awawamaSaMakadapapaMamaDaoaRa!a6a\b.bVbDb4b-bOcbb=bxaNa0bAb*cibxa[bGa_bobG......................................................................................................................................................................................................................................................................",
"................................................................................................................................................................................................................................................................bMbGa_a)bnb+bbaPa6aVbabva=aIa6bMb!a:a&a\aZaWa6a0a,a!awasa4aeaeasaTaTakaRaUaOayaZa!bgbVa)a=a{bCb=cbb*a{aNaLb*ckbta{bGb#b#b#......................................................................................................................................................................................................................................................................",
"................................................................................................................................................................................................................................................................b.bJa}babLbTa8a8bAbAa{a{aPala{b2aVaRa:a:a&aRaKaMbnaZayasapahacaUatayamaEa4aGataZa?a!bDbgaVa-aNaNbBbGb*b*bYbWckb#b?bGb?b#b-........................bMb&..........................................................................................................................................................................................................................................",
"............................................................................................................................................................................................................................................bVbZb&bZbZbMbI......b|bHa{aNbSbna3a8bLbAbba3a0aPb%a:axaHa,a.a0aQaGaWa#aOaoamaRaeaba9a9aCawaxaJawaSaUa:a!aZbXa>a6a0aNa6bmcecebAbWb\cbbtb#bGccceb2b!b,b!a~a\b%crcncdcRcVcGbAb`........................................................................................................................................................................................................................................",
"........................................................................................................................................................................................................................................b8bmb2b<bAbbbDbvbeaVa\bHbLbLbSa6bvbTa\bAbWbba8a7aPbabvaZaPawaWa&a0awaSa:aTaoajaKawaeacaoaUaCapayaRaKaWa0a,a(aZbgb9a)aWa=btbWb\b\bWb*b%bmbabNcib\cGb7b-b<b<bSa0bLb4b|bNb-cRcRb.b2b%......................................................................................................................................................................................................................................",
"........................................................................................................................................................................................................................................bma{b<b!bvbLbHa^a1a6a1a,a~bwbJa(babna\bbbLbba0azaLbnaQaQa!aRa6a\a!aVaRawanamasapaMaeadacakaMamamasaQaHaWa,a(a^bebDa0a&a]a]bLb*b\bAb*b<a3b#cqb!brb=b.b7bSb%b+bLbLb%b|b%cccVcHbAa]bb......................................................................................................................................................................................................................................",
"......................................................................................................................................................................................................................................bwa]bbbTb2bvbTa^aRaDazaRa^bna/a^a6a:a8bna1bba7azaqaqaQasaDa!aZa=a=a:a:a0aMaoanamataUajadadaeaMataoaoa!aHawa(a*a!bQa]aWa6a,aPa3bAbAbAbWbma=bWb%a0a<bvccbWbma6aVbaa8b4cqb2bvcCb-b<cCb4......................................................................................................................................................................................................................................",
"........................................................................................................................................................................................................................................b!bWbHbHbbbLaJasaRa1a\bHbba^a{bkb!bXbbaUbnaRazaEauawaRaRaOa{a~aQa*bza0aGauaoanasa`amaeadaea2asaoaUaUawaoa!a\a=a=a6a&aUaQaLaVa1bLbBbTb<b+baa{bxa]bvb*b-bXbva%a)a)a,b`b+bob%b%cicCb9......................................................................................................................................................................................................................................",
"........................................................................................................................................................................................................................................b!bTbnbga=a,auaoaUa8a\bAbWbbbabLb!bTa^aVa\a,axaEaHa0a!aWaSa,a=a0aWa^a&anasasana+biapacadaca/aZaGaRaRaoaoa0a~baa{babga\aSaPaZaRa:bbckcRb|a]bHb%a=babAb-b+bLa]aVaOaxbQbQa(b7b(bScnbh......................................................................................................................................................................................................................................",
"........................................................................................................................................................................................................................................b8b2bwbfa\a6a!aEa,a\bAbTbWbba8bDbQa:aUa0a8a{aVaGaZa)a6a6aWa0a,a.aUa$a~ataoaoanaXa_aDacadada+a#ayaDaDaoaoaQa\a!a.bkbCa^a!aJaVa]bkbWckcCbebSbSbxa6bAceb\b*a3a8a=aVaPa{bebkbQb|cfb`........................................................................................................................................................................................................................................",
"..........................................................................................................................................................................................................................................bVa^bgbea6a,axaza1bbbAbba8a^a^a=a7aLaPaPbaaHaxaOaVbaa*aVaZaUa&aUaKa!awanahalapa/aRabadama,atamawauapaoaOa*aVa.bkbXbvaVa!a)bSbbbma\a:a6bCbobpbvbWcecAb\bWbba3aVaUa\a(bUbCb4cib1........................................................................................................................................................................................................................................",
"........................................................................................................................................................................................................................................b8bZa:a,bCa=a0aLazaqa1bba;a1a\aZbDbkaOaOa!a.aNawaWa&baa!aRa4a4aWaGawaoawaJanaoaiaYaRacada#a:ajamaoaGaMaDaxaUaVa=babSb%a{aNaPbvbaaVa0a{bea{bQbNbLbWb*b\b\bAaFazaUa:a:a^bQa6bUb.b(........................................................................................................................................................................................................................................",
"........................................................................................................................................................................................................................................bEbJa)bea~a~aUaPaRakarazazazazaVbDbaaKbea{a$a}a=babja?aWa4a?a,a6aKaKatawaDaQaUaoamakadaca?aUasaMaRaRa!a*a,a0aZa&a]bCb7cbb=bobob0baa{b+b-a6a=a=a8a;bAbAbAagafa~a+a+a,bQbQbCbQb4b,........................................................................................................................................................................................................................................",
"........................................................................................................................................................................................................................................bRa]a=a~a\a\a*aVaR....aJa4a,a,a~b!bJbdbKbKb(bOa}a0a|a&aMa.a?a.aTaKawaKaOaDaGaJapajakadacaCasaJaTaRaZaGaWa6a*a!a]a{a{b$bNb0b=ccb;cca]a$cdcdbYawa&a:a3aFaUa^....bfaTbcbQbCa]bCbh..........................................................................................................................................................................................................................................",
"..........................................................................................................................................................................................................................................bnbvbga~bea:aQaZ........b>bbbRblbsb1bUbJa]boa}a=a!aKaKa.a~a.aUaWaGayasaDaDasamayamadadamakaoaUaQaMaOaWaQa0a!a]aZaya$a]bocmcXcXcGctb;b-bJbaawbaa8a8ckcM......bna$bsbHbobkbabc..........................................................................................................................................................................................................................................",
"........................................................................................................................................................................................................................................bRa:bab.b:bJa]a0bh........b}bTbnbDa%a-boa0ala5a]a.aKaGa-a=a[a]a:a!aMaDasaDaDama#a/ayafadaeakaCaoaWaUaya&a&a)a=a{aZaWa5a$a}b=bGa;b=b$bua=boa_awaWanaNb*ck......bga[bkbUbNbYbDa9..........................................................................................................................................................................................................................................",
"........................................................................................................................................................................................................................................bIa=bJcfcpb`bKa=..........cnbTa\a!a^a=a0a)aNaSa<a6a$bobobxbJboa\a&aSaDaCaEaoapaMa|a+amacapapa^aTaTa,aOaQa(a.bobebCa{a&a5a=a}arara[a$brb$bQa2bMatauaNb7b3......a\bkb-bQbCa=baaT..........................................................................................................................................................................................................................................",
"........................................................................................................................................................................................................................................bVa~b(cncBchcfbF..........cBbTbebnawa[a.a6a0a5aXa.bCb$bOa]baa=a{a$aQaDayauakaoaya$a/aCaMaTaTa+ayanaMaMawa6a]babCbNb0bNbda_a<aOaNa$bCb$bJa^....aWa=a0a=bw......bcbPcdb`b;a.a=a]..........................................................................................................................................................................................................................................",
"........................................................................................................................................................................................................................................bDbDb3bTb,b<b`bJ............bna9bPatawa.a,a2aTa:bybabJbaa<a.baa{a&a0aSaGaHawayaoahaCa`a+a2byatapayasata6a]a.a]bobxbNbCbCbja-a5a&b#bSbxa&......aKa(aVa0........bMctcub`b(bNboba..........................................................................................................................................................................................................................................",
"......................................................................................................................................................................................................................................bCa^bgbgbna\a:a^a:a^..........bnaRbIa0as..aTaCaTa|bfbda_a0a[bda{a&a&a6aGawaQaDaDaoakaha2amama5apatatasawaUa]a.a=bsbxa_a?bjbJbUa]a=a]a0aGaZ......a+aAaOa6........b7cucCcKbSb`bQb.bZ........................................................................................................................................................................................................................................",
"....................................................................................................................................................................................................................................a~a^a%a:bDaRbea]a7ayaJ..........bIauayanaU....a~aCa>bea0a0aQaZbja,a5a=a6aUawa0a!aDamamaiapayaeanapaoaDaCaData0a5a.bjbCa<a`a?bjbDbaaQawaxah..........awa6a9......bIbVcnb|b2a{b~cgb;bN........................................................................................................................................................................................................................................",
"....................................................................................................................................................................................................................................bla,a0a^a:a*bDbha=ao..............ayanaeaR........a9ayaZa0aQaJa\a$a$a{aWaRawaJa,a0atamaja4aCajaiaoataUaUaCataHaWaZbJbsaDaMaZaQaWaUaVaxaoas..........awa*bh......a,a,a?bnbka:a~b1bUba........................................................................................................................................................................................................................................",
"....................................................................................................................................................................................................................................bRa?a]a:bnbhaTaWa5aZ..............a,analaZ..........a?asaDaJaUa.aWa&a.aZa*a,aEaoawasatanayaCafaiamasayaRaRayaDaRaUbEa,aoapaoasaJaMayaoaJ............a6a6........a^aZa:a*aVa*aTa&a^a/a?......................................................................................................................................................................................................................................",
"......................................................................................................................................................................................................................................a:a%babIa:a>a,aMaR..............b/aJalbC............a~amaoasaUaUa4a0aGa*a*avaoaoamaoamaianahakaCasaia4a9aJaoaGaUbnaRanaoaDa9aZaGaxap..............aZa6..........aZbDb`bHa,bha*aQaW........................................................................................................................................................................................................................................",
"......................................................................................................................................................................................................................................a:a:bnbJbJbya#ab..................a?albn..............a9apaDaZa{aRaEaQaHaPaoapasaoaoaoaDaDaoanataRaoaJaMaJaxaJaOa\aJawaDaDaRaRa0aua\..............axa*bl........a,a0a^bCbaa,a\a(at........................................................................................................................................................................................................................................",
"......................................................................................................................................................................................................................................a:bgbQbQbQa<ada?..................a\anbg................a:aRa,a~aUayaJaHaZaoaEaZaRataoa4a%a]aoaOa6aDasauaoawawaDa\auasawawayatauan..............bnaAa=bg........a?aMaSa&baa)a6a]aD........................................................................................................................................................................................................................................",
"......................................................................................................................................................................................................................................a:bLb,bgbqaSa?....................a8ava4..................a?aMaQaPaJaDasaoakasaJasaMaMayaDawamaRaQaHaDawawasaUaDaUanaoaoauafaiauaD..............a^aPa0aE..........a?bja{a:beb4a]aU........................................................................................................................................................................................................................................",
"......................................................................................................................................................................................................................................a\bgbDbha*at......................aJasa2......................aUavaqapamakakasasamapayasawaT..bIa0a6aOaoayaoamaoaQa:apaJapaJ..a0aO..............bMa)avaUa~..........aZbUbka=bebeaU........................................................................................................................................................................................................................................",
"....................................................................................................................................................................................................................................bDa\bna:a,bebq....................a~aUaRaC........................bIaPakaDasaJaxamamapapanao......aRaVaoaGaRaCapamaiaoaJa~aUbMbwasaTaDaM............aVaPa{ba..........bwa?bea*bgaJa?........................................................................................................................................................................................................................................",
"..................................................................................................................................................................................................................................bla{a7aZaDaVaW......................a:aEaoan........................a!bf..a4aZaDauakapahaR..........bIaJazaGaJaCayaoataw..a%aIaJa,aUa9..aT............a6a)bebea9....a,bh..a\baa,bXbMa9........................................................................................................................................................................................................................................",
"..............................................................................................................................................................................................................................bha,aZa]a.aOaWa!aR....................bwa7aCaDaZ........................aZ......atblaJaRa^..ak............a~aNanaoatapa4......aIasa:aRa?....aC............aRa!a?bQbaaDaZa0a~bwaTa&a,a~bga/........................................................................................................................................................................................................................................",
"........................................................................................................................................................akapas..........afaiaCaCasaiacaiakap..........akapapam..........apapaRa2axawaOaxaOaDaDaRaM........a^aOaZ..a^a6a!a9aJaU........................a4b3....aMa,aJa:....ah..............bMbJaCapapaRblbwa,aoapa,aUa9bfbl................aoaRaUa0a=a\bna\a~a#a+a:a*aZaData#a2..................................................................................................................................................................................................................................",
"....................................................................................................................................................abababababababababadakaiabadaiaiaiamasasakadadafaiabacadadadabafakapaTa4a|a&aQaGaQa6aDaMa\aRaYakadafaZa:avaJaJaua6a!a7aCai..........................aJapa,....aZaZ..aZaC..................aZakaoaZ....aya,a9..........................akauaRaRbebkbaaeaJaZaCaSa:aQasatatat..................................................................................................................................................................................................................................",
"....................................................................................................................................................................afadababafababababababacadadadafafadafafafafaiaiaUayaJa~a~aHaOa0awatanaZaJaiapasasa%bHaRa,a1ayaEaEasaEaRapapacabaiadadacacadabababaiamapasasayasapaMayayapacabababababababapaCasaJ....aT..............................aZayaUaCaJaUa?....aYaUa!aQaVayaDataKa?bIa?............................................................................................................................................................................................................................",
"............................................................................................................................................................................................ababacabababababacadafamaCalafaRa?a!a(a,a!ayasaCakada:aUaJa,aJafaRa^a9aJasayaEaoaiamaiadadadadadadadacabacafaiasamaiacacacapa^a,asacaiaiadacadacadas..........................................................a4acada,aRawaDaJayayaoaJababaC........................................................................................................................................................................................................................",
"..............................................................................................................................................................................................................apaiapakalalakaVa=aZaDapaoapaJakaia9ayakafacabacafasacakakadaiamafacabacaiaiafakakacacadababacacabababababacacababababaiakap......................aiap......................................apasaCaCa,aWaoaQa0awauaDadababbf......................................................................................................................................................................................................................",
"....................................................................................................................................................................................................................ahalalalaoaoamaDasayasa4akaiakaJ....................................................................................................................................................a^adajahasa*aOamaoaUauatapaiadaeae......................................................................................................................................................................................................................",
"....................................................................................................................................................................................................................aDaqakavaZ............aJakacap....................................................................................................................................................aiasafacahasapasa9aCakaCaYaCadafafad......................................................................................................................................................................................................................",
"..................................................................................................................................................................................................................................................................................................................................................................................................................................aZaU..........................................................................................................................................................................................................................",
"................................................................................................................................................................................................................................................................................................................................................................................................................................................................................................................................................................................................................................................................",
"................................................................................................................................................................................................................................................................................................................................................................................................................................................................................................................................................................................................................................................................",
"................................................................................................................................................................................................................................................................................................................................................................................................................................................................................................................................................................................................................................................................",
"................................................................................................................................................................................................................................................................................................................................................................................................................................................................................................................................................................................................................................................................",
"................................................................................................................................................................................................................................................................................................................................................................................................................................................................................................................................................................................................................................................................",
"................................................................................................................................................................................................................................................................................................................................................................................................................................................................................................................................................................................................................................................................",
"................................................................................................................................................................................................................................................................................................................................................................................................................................................................................................................................................................................................................................................................",
"................................................................................................................................................................................................................................................................................................................................................................................................................................................................................................................................................................................................................................................................",
"................................................................................................................................................................................................................................................................................................................................................................................................................................................................................................................................................................................................................................................................",
"................................................................................................................................................................................................................................................................................................................................................................................................................................................................................................................................................................................................................................................................",
"................................................................................................................................................................................................................................................................................................................................................................................................................................................................................................................................................................................................................................................................",
"................................................................................................................................................................................................................................................................................................................................................................................................................................................................................................................................................................................................................................................................",
"................................................................................................................................................................................................................................................................................................................................................................................................................................................................................................................................................................................................................................................................",
"................................................................................................................................................................................................................................................................................................................................................................................................................................................................................................................................................................................................................................................................",
"................................................................................................................................................................................................................................................................................................................................................................................................................................................................................................................................................................................................................................................................",
"................................................................................................................................................................................................................................................................................................................................................................................................................................................................................................................................................................................................................................................................",
"................................................................................................................................................................................................................................................................................................................................................................................................................................................................................................................................................................................................................................................................",
"................................................................................................................................................................................................................................................................................................................................................................................................................................................................................................................................................................................................................................................................",
"................................................................................................................................................................................................................................................................................................................................................................................................................................................................................................................................................................................................................................................................",
"................................................................................................................................................................................................................................................................................................................................................................................................................................................................................................................................................................................................................................................................",
"................................................................................................................................................................................................................................................................................................................................................................................................................................................................................................................................................................................................................................................................",
"................................................................................................................................................................................................................................................................................................................................................................................................................................................................................................................................................................................................................................................................",
"................................................................................................................................................................................................................................................................................................................................................................................................................................................................................................................................................................................................................................................................",
"................................................................................................................................................................................................................................................................................................................................................................................................................................................................................................................................................................................................................................................................",
"................................................................................................................................................................................................................................................................................................................................................................................................................................................................................................................................................................................................................................................................",
"................................................................................................................................................................................................................................................................................................................................................................................................................................................................................................................................................................................................................................................................",
"................................................................................................................................................................................................................................................................................................................................................................................................................................................................................................................................................................................................................................................................",
"................................................................................................................................................................................................................................................................................................................................................................................................................................................................................................................................................................................................................................................................",
"................................................................................................................................................................................................................................................................................................................................................................................................................................................................................................................................................................................................................................................................",
"................................................................................................................................................................................................................................................................................................................................................................................................................................................................................................................................................................................................................................................................",
"................................................................................................................................................................................................................................................................................................................................................................................................................................................................................................................................................................................................................................................................",
"................................................................................................................................................................................................................................................................................................................................................................................................................................................................................................................................................................................................................................................................",
};
