/* XPM */
static char *xpm[] = {
"320 180 255 2",
".. c None",
"ab c #000000",
"ac c #010101",
"ad c #010204",
"ae c #020202",
"af c #030304",
"ag c #040405",
"ah c #050507",
"ai c #070608",
"aj c #08080a",
"ak c #0a090c",
"al c #0a0a0c",
"am c #0c0c0e",
"an c #0e0e0e",
"ao c #0f0f10",
"ap c #131213",
"aq c #151415",
"ar c #161616",
"as c #171617",
"at c #171717",
"au c #181818",
"av c #191919",
"aw c #1c1b1b",
"ax c #1f1e1e",
"ay c #21201f",
"az c #242221",
"aA c #262424",
"aB c #272524",
"aC c #292627",
"aD c #2a2828",
"aE c #2b2929",
"aF c #2d2a2b",
"aG c #2e2b29",
"aH c #2f2c2c",
"aI c #312f2e",
"aJ c #323030",
"aK c #33302e",
"aL c #343231",
"aM c #353333",
"aN c #373533",
"aO c #383635",
"aP c #3a3837",
"aQ c #3b3836",
"aR c #3c3836",
"aS c #3d3a38",
"aT c #3f3c3a",
"aU c #403d3c",
"aV c #413632",
"aW c #423e3d",
"aX c #424040",
"aY c #45403e",
"aZ c #45413f",
"a0 c #454242",
"a1 c #46413d",
"a2 c #464343",
"a3 c #464442",
"a4 c #474341",
"a5 c #474545",
"a6 c #484341",
"a7 c #494644",
"a8 c #494647",
"a9 c #494746",
"a! c #494747",
"a# c #494748",
"a$ c #4a4948",
"a% c #4b4848",
"a& c #4c4847",
"a( c #4d3d36",
"a) c #4d4a48",
"a* c #4d4b4a",
"a+ c #4d4b4b",
"a, c #4f4541",
"a- c #4f4d4d",
"a. c #514e4a",
"a/ c #514e4c",
"a: c #514f4f",
"a; c #524641",
"a< c #524942",
"a= c #533e35",
"a> c #534e45",
"a? c #54514f",
"a[ c #545150",
"a\ c #564138",
"a] c #56534c",
"a^ c #565351",
"a_ c #565353",
"a` c #575451",
"a{ c #585654",
"a| c #585655",
"a} c #5a5756",
"a~ c #5a5857",
"ba c #5b423b",
"bb c #5b5653",
"bc c #5b5755",
"bd c #5e4b2d",
"be c #5e5b59",
"bf c #5e5b5b",
"bg c #5f5b58",
"bh c #624d42",
"bi c #62544d",
"bj c #625f58",
"bk c #625f5c",
"bl c #625f5d",
"bm c #625f5f",
"bn c #645935",
"bo c #656262",
"bp c #656360",
"bq c #676260",
"br c #676565",
"bs c #696767",
"bt c #6a6764",
"bu c #6a6766",
"bv c #6c584f",
"bw c #6c5f5b",
"bx c #6c675a",
"by c #6c6a68",
"bz c #6c6a6a",
"bA c #6e6a66",
"bB c #6e6c6c",
"bC c #6f6d6b",
"bD c #715544",
"bE c #716f6e",
"bF c #726e68",
"bG c #73706e",
"bH c #737171",
"bI c #755924",
"bJ c #767473",
"bK c #777473",
"bL c #786449",
"bM c #796756",
"bN c #7a5e52",
"bO c #7a7670",
"bP c #7b7977",
"bQ c #7b7a79",
"bR c #7c6d42",
"bS c #7e7664",
"bT c #7e7d7d",
"bU c #7f7a72",
"bV c #807b78",
"bW c #807f7f",
"bX c #838485",
"bY c #856354",
"bZ c #858483",
"b0 c #868686",
"b1 c #878787",
"b2 c #88837e",
"b3 c #8a8a8b",
"b4 c #8b8b8a",
"b5 c #8c6137",
"b6 c #908f8f",
"b7 c #94867d",
"b8 c #949393",
"b9 c #966a55",
"b! c #969696",
"b# c #98603f",
"b$ c #996f47",
"b% c #9a948c",
"b& c #9a9b9b",
"b( c #9e7761",
"b) c #a18950",
"b* c #a4725d",
"b+ c #a59571",
"b, c #a5a3a1",
"b- c #a8774a",
"b. c #a88574",
"b/ c #aa8774",
"b: c #aba9a6",
"b; c #ada591",
"b< c #ae806a",
"b= c #b07960",
"b> c #b28f54",
"b? c #b37658",
"b[ c #b58875",
"b\ c #b5a074",
"b] c #b67d6a",
"b^ c #b69559",
"b_ c #b87c63",
"b` c #b8b4ae",
"b{ c #b98368",
"b| c #bb8a73",
"b} c #bbaa86",
"b~ c #bc856e",
"ca c #bc8d77",
"cb c #bca36c",
"cc c #bca67c",
"cd c #bcab8e",
"ce c #bd7d5a",
"cf c #beb39f",
"cg c #bf856c",
"ch c #c28f77",
"ci c #c2b18c",
"cj c #c2b499",
"ck c #c3af8b",
"cl c #c49177",
"cm c #c59278",
"cn c #c7a085",
"co c #c7a475",
"cp c #c9957d",
"cq c #cc886c",
"cr c #cc9073",
"cs c #ccb282",
"ct c #cfbb91",
"cu c #d4977a",
"cv c #d4b678",
"cw c #d69c86",
"cx c #d8aa91",
"cy c #d8af72",
"cz c #ddbb77",
"cA c #deae91",
"cB c #e0aa90",
"cC c #e1ac96",
"cD c #e29275",
"cE c #e29976",
"cF c #e2a67f",
"cG c #e2c384",
"cH c #e4c797",
"cI c #e4d0a8",
"cJ c #e69880",
"cK c #e79f7d",
"cL c #e9b69b",
"cM c #eac1a2",
"cN c #ec9d81",
"cO c #edba8d",
"cP c #eea88a",
"cQ c #efbb9c",
"cR c #f1b38f",
"cS c #f1c4a5",
"cT c #f2ae8d",
"cU c #f2c3a4",
"cV c #f5b595",
"cW c #f5c794",
"cX c #f9b897",
"cY c #f9bf9b",
"cZ c #f9c19b",
"c0 c #f9dbb6",
"c1 c #fabe9d",
"c2 c #fac19c",
"c3 c #fac596",
"c4 c #fac796",
"c5 c #fac89b",
"c6 c #fbc79b",
"c7 c #fbc7a1",
"c8 c #fcc6a4",
"c9 c #fcc899",
"c! c #fdddb5",
"c# c #fecda8",
"c$ c #fed6a9",
"c% c #fed6af",
"c& c #fed6b0",
"c( c #fee8be",
"c) c #ffd2ad",
"c* c #ffd6b0",
"c+ c #ffe1b8",
"c, c #fff5cf",
"c- c None",
"................................................................................................................................................................................................................................................................................................................................................................................................................................................................................................................................................................................................................................................................",
"................................................................................................................................................................................................................................................................................................................................................................................................................................................................................................................................................................................................................................................................",
"................................................................................................................................................................................................................................................................................................................................................................................................................................................................................................................................................................................................................................................................",
"................................................................................................................................................................................................................................................................................................................................................................................................................................................................................................................................................................................................................................................................",
"................................................................................................................................................................................................................................................................................................................................................................................................................................................................................................................................................................................................................................................................",
"................................................................................................................................................................................................................................................................................................................................................................................................................................................................................................................................................................................................................................................................",
"................................................................................................................................................................................................................................................................................................................................................................................................................................................................................................................................................................................................................................................................",
"................................................................................................................................................................................................................................................................................................................................................................................................................................................................................................................................................................................................................................................................",
"................................................................................................................................................................................................................................................................................................................................................................................................................................................................................................................................................................................................................................................................",
"................................................................................................................................................................................................................................................................................................................................................................................................................................................................................................................................................................................................................................................................",
"................................................................................................................................................................................................................................................................................................................................................................................................................................................................................................................................................................................................................................................................",
"................................................................................................................................................................................................................................................................................................................................................................................................................................................................................................................................................................................................................................................................",
"................................................................................................................................................................................................................................................................................................................................................................................................................................................................................................................................................................................................................................................................",
"................................................................................................................................................................................................................................................................................................................................................................................................................................................................................................................................................................................................................................................................",
"................................................................................................................................................................................................................................................................................................................................................................................................................................................................................................................................................................................................................................................................",
"................................................................................................................................................................................................................................................................................................................................................................................................................................................................................................................................................................................................................................................................",
"................................................................................................................................................................................................................................................................................................................................................................................................................................................................................................................................................................................................................................................................",
"................................................................................................................................................................................................................................................................................................................................................................................................................................................................................................................................................................................................................................................................",
"................................................................................................................................................................................................................................................................................................................................................................................................................................................................................................................................................................................................................................................................",
"................................................................................................................................................................................................................................................................................................................................................................................................................................................................................................................................................................................................................................................................",
"................................................................................................................................................................................................................................................................................................................................................................................................................................................................................................................................................................................................................................................................",
"................................................................................................................................................................................................................................................................................................................................................................................................................................................................................................................................................................................................................................................................",
"................................................................................................................................................................................................................................................................................................................................................................................................................................................................................................................................................................................................................................................................",
"................................................................................................................................................................................................................................................................................................................................................................................................................................................................................................................................................................................................................................................................",
"................................................................................................................................................................................................................................................................................................................................................................................................................................................................................................................................................................................................................................................................",
"................................................................................................................................................................................................................................................................................................................................................................................................................................................................................................................................................................................................................................................................",
"................................................................................................................................................................................................................................................................................................................................................................................................................................................................................................................................................................................................................................................................",
"................................................................................................................................................................................................................................................................................................................................................................................................................................................................................................................................................................................................................................................................",
"................................................................................................................................................................................................................................................................................................................................................................................................................................................................................................................................................................................................................................................................",
"................................................................................................................................................................................................................................................................................................................................................................................................................................................................................................................................................................................................................................................................",
"................................................................................................................................................................................................................................................................................................................................................................................................................................................................................................................................................................................................................................................................",
"................................................................................................................................................................................................................................................................................................................................................................................................................................................................................................................................................................................................................................................................",
"................................................................................................................................................................................................................................................................................................................................................................................................................................................................................................................................................................................................................................................................",
"................................................................................................................................................................................................................................................................................................................................................................................................................................................................................................................................................................................................................................................................",
"................................................................................................................................................................................................................................................................................................................................................................................................................................................................................................................................................................................................................................................................",
"................................................................................................................................................................................................................................................................................................................................................................................................................................................................................................................................................................................................................................................................",
"................................................................................................................................................................................................................................................................................................................................................................................................................................................................................................................................................................................................................................................................",
"................................................................................................................................................................................................................................................................................................................................................................................................................................................................................................................................................................................................................................................................",
"................................................................................................................................................................................................................................................................................................................................................................................................................................................................................................................................................................................................................................................................",
"................................................................................................................................................................................................................................................................................................................................................................................................................................................................................................................................................................................................................................................................",
"................................................................................................................................................................................................................................................................................................................................................................................................................................................................................................................................................................................................................................................................",
"................................................................................................................................................................................................................................................................................................................................................................................................................................................................................................................................................................................................................................................................",
"................................................................................................................................................................................................................................................................................................................................................................................................................................................................................................................................................................................................................................................................",
"................................................................................................................................................................................................................................................................................................................................................................................................................................................................................................................................................................................................................................................................",
"................................................................................................................................................................................................................................................................................................................................................................................................................................................................................................................................................................................................................................................................",
"................................................................................................................................................................................................................................................................................................................................................................................................................................................................................................................................................................................................................................................................",
"................................................................................................................................................................................................................................................................................................................................................................................................................................................................................................................................................................................................................................................................",
"................................................................................................................................................................................................................................................................................................................................................................................................................................................................................................................................................................................................................................................................",
"................................................................................................................................................................................................................................................................................................................................................................................................................................................................................................................................................................................................................................................................",
"................................................................................................................................................................................................................................................................................................................................................................................................................................................................................................................................................................................................................................................................",
"................................................................................................................................................................................................................................................................................................................................................................................................................................................................................................................................................................................................................................................................",
"................................................................................................................................................................................................................................................................................................................................................................................................................................................................................................................................................................................................................................................................",
"................................................................................................................................................................................................................................................................................................................................................................................................................................................................................................................................................................................................................................................................",
"................................................................................................................................................................................................................................................................................................................................................................................................................................................................................................................................................................................................................................................................",
"................................................................................................................................................................................................................................................................................................................................................................................................................................................................................................................................................................................................................................................................",
"................................................................................................................................................................................................................................................................................................................................................................................................................................................................................................................................................................................................................................................................",
"................................................................................................................................................................................................................................................................................................................................................................................................................................................................................................................................................................................................................................................................",
"................................................................................................................................................................................................................................................................................................................................................................................................................................................................................................................................................................................................................................................................",
"................................................................................................................................................................................................................................................................................................................................................................................................................................................................................................................................................................................................................................................................",
"................................................................................................................................................................................................................................................................................................................................................................................................................................................................................................................................................................................................................................................................",
"................................................................................................................................................................................................................................................................................................................................................................................................................................................................................................................................................................................................................................................................",
"................................................................................................................................................................................................................................................................................................................................................................................................................................................................................................................................................................................................................................................................",
"................................................................................................................................................................................................................................................................................................................................................................................................................................................................................................................................................................................................................................................................",
"................................................................................................................................................................................................................................................................................................................................................................................................................................................................................................................................................................................................................................................................",
"................................................................................................................................................................................................................................................................................................................................................................................................................................................................................................................................................................................................................................................................",
"................................................................................................................................................................................................................................................................................................................................................................................................................................................................................................................................................................................................................................................................",
"................................................................................................................................................................................................................................................................................................................................................................................................................................................................................................................................................................................................................................................................",
"................................................................................................................................................................................................................................................................................................................................................................................................................................................................................................................................................................................................................................................................",
"................................................................................................................................................................................................................................................................................................................................................................................................................................................................................................................................................................................................................................................................",
"................................................................................................................................................................................................................................................................................................................................................................................................................................................................................................................................................................................................................................................................",
"................................................................................................................................................................................................................................................................................................................................................................................................................................................................................................................................................................................................................................................................",
"................................................................................................................................................................................................................................................................................................................................................................................................................................................................................................................................................................................................................................................................",
"................................................................................................................................................................................................................................................................................................................................................................................................................................................................................................................................................................................................................................................................",
"................................................................................................................................................................................................................................................................................................................................................................................................................................................................................................................................................................................................................................................................",
"................................................................................................................................................................................................................................................................................................................................................................................................................................................................................................................................................................................................................................................................",
"................................................................................................................................................................................................................................................................................................................................................................................................................................................................................................................................................................................................................................................................",
"................................................................................................................................................................................................................................................................................................................................................................................................................................................................................................................................................................................................................................................................",
"................................................................................................................................................................................................................................................................................................................................................................................................................................................................................................................................................................................................................................................................",
"................................................................................................................................................................................................................................................................................................................................................................................................................................................................................................................................................................................................................................................................",
"................................................................................................................................................................................................................................................................................................................................................................................................................................................................................................................................................................................................................................................................",
"................................................................................................................................................................................................................................................................................................................................................................................................................................................................................................................................................................................................................................................................",
"................................................................................................................................................................................................................................................................................................................................................................................................................................................................................................................................................................................................................................................................",
"................................................................................................................................................................................................................................................................................................................................................................................................................................................................................................................................................................................................................................................................",
"................................................................................................................................................................................................................................................................................................................................................................................................................................................................................................................................................................................................................................................................",
"................................................................................................................................................................................................................................................................................................................................................................................................................................................................................................................................................................................................................................................................",
"................................................................................................................................................................................................................................................................................................................................................................................................................................................................................................................................................................................................................................................................",
"................................................................................................................................................................................................................................................................................................................................................................................................................................................................................................................................................................................................................................................................",
"................................................................................................................................................................................................................................................................................................................................................................................................................................................................................................................................................................................................................................................................",
"................................................................................................................................................................................................................................................................................................................................................................................................................................................................................................................................................................................................................................................................",
"................................................................................................................................................................................................................................................................................................................................................................................................................................................................................................................................................................................................................................................................",
"................................................................................................................................................................................................................................................................................................................................................................................................................................................................................................................................................................................................................................................................",
"................................................................................................................................................................................................................................................................................................................................................................................................................................................................................................................................................................................................................................................................",
"................................................................................................................................................................................................................................................................................................................................................................................................................................................................................................................................................................................................................................................................",
"................................................................................................................................................................................................................................................................................................................................................................................................................................................................................................................................................................................................................................................................",
"................................................................................................................................................................................................................................................................................................................................................................................................................................................................................................................................................................................................................................................................",
"................................................................................................................................................................................................................................................................................................................................................................................................................................................................................................................................................................................................................................................................",
"................................................................................................................................................................................................................................................................................................................................................................................................................................................................................................................................................................................................................................................................",
"................................................................................................................................................................................................................................................................................................................................................................................................................................................................................................................................................................................................................................................................",
"................................................................................................................................................................................................................................................................................................................................................................................................................................................................................................................................................................................................................................................................",
"................................................................................................................................................................................................................................................................................................................................................................................................................................................................................................................................................................................................................................................................",
"................................................................................................................................................................................................................................................................................................................................................................................................................................................................................................................................................................................................................................................................",
"................................................................................................................................................................................................................................................................................................................................................................................................................................................................................................................................................................................................................................................................",
"................................................................................................................................................................................................................................................................................................................................................................................................................................................................................................................................................................................................................................................................",
"................................................................................................................................................................................................................................................................................................................................................................................................................................................................................................................................................................................................................................................................",
"................................................................................................................................................................................................................................................................................................................................................................................................................................................................................................................................................................................................................................................................",
"................................................................................................................................................................................................................................................................................................................................................................................................................................................................................................................................................................................................................................................................",
"................................................................................................................................................................................................................................................................................................................................................................................................................................................................................................................................................................................................................................................................",
"................................................................................................................................................................................................................................................................................................................................................................................................................................................................................................................................................................................................................................................................",
"................................................................................................................................................................................................................................................................................................................................................................................................................................................................................................................................................................................................................................................................",
"................................................................................................................................................................................................................................................................................................................................................................................................................................................................................................................................................................................................................................................................",
"..............................................................................................................................................................................................................................................................................................................................................................................b6bPb6b%..........................................................................................................................................................................................................................................................................",
"........................................................................................................................................................................................................................................................................................................................................................................b`b:b!b!b8b8b8b6bW......................................................................................................................................................................................................................................................................",
"......................................................................................................................................................................................................................................................................................................................................................................a*bXb`b,b!b!b!b!b!b8b0bW..................................................................................................................................................................................................................................................................",
"......................................................................................................................................................................................................................................................................................................................................................................aUa2b0b:b,b6b4b6b6b8b!b3bW................................................................................................................................................................................................................................................................",
"......................................................................................................................................................................................................................................................................................................................................................................a0aIa$b0b:b&b1b0b3b4b4b4b4bX..............................................................................................................................................................................................................................................................",
"......................................................................................................................................................................................................................................................................................................................................................................a0aIaOa+b6b,b6b1bWbWbWbWbTb0braS..........................................................................................................................................................................................................................................................",
"......................................................................................................................................................................................................................................................................................................................................................................a%aMaOaNa[bXb&b&b6bXb1b1b0b0b1bra7........................................................................................................................................................................................................................................................",
"......................................................................................................................................................................................................................................................................................................................................................................a0aMaOaNaIa:b4b!b!b3b0b0b0b0bXbXbTb3......................................................................................................................................................................................................................................................",
"......................................................................................................................................................................................................................................................................................................................................................................aHaGaPaOaFaNa[bWb!b6b0bXb1b1b0b1b0b1b3bO..................................................................................................................................................................................................................................................",
"........................................................................................................................................................................................................................................................................................................................................................................aKaNaOaLaFaJa|b1b!b1bWbTbTbZbXbXbXbWbTbJ................................................................................................................................................................................................................................................",
"........................................................................................................................................................................................................................................................................................................................................................................aWaKaOaJaCaDaMbebTb1bXbPbObQbWbWbXb1b0b0bOby............................................................................................................................................................................................................................................",
"........................................................................................................................................................................................................................................................................................................................................................................aHaJaQaIaDaDaDaNa[bJb1b1bTbKbPbQbTbQbTbTbXbpbtb4........................................................................................................................................................................................................................................",
"........................................................................................................................................................................................................................................................................................................................................................................beaIaMaDaDaDaDaDaHaUbKb3bTbKbPbsaKaEbrbPbWa_a)blaxaA....................................................................................................................................................................................................................................",
"........................................................................................................................................................................................................................................................................................................................................................................btaPaPaDaDaDaDaDaCaAaWbHb0bPbBa+aAawbpbQbTbea}bHaBao....................................................................................................................................................................................................................................",
"..........................................................................................................................................................................................................................................................................................................................................................................aKa:aNaCaDaDaEazasaxaWboa)boa0aPaIa}b8b8b4b6bGaWaIaw..................................................................................................................................................................................................................................",
"..........................................................................................................................................................................................................................................................................................................................................................................a4a+a&aEaDaDaEayarauaEaOa/bTbPbCbEbBbHbJbJbHbEbJbJbEbpbp..............................................................................................................................................................................................................................",
"..........................................................................................................................................................................................................................................................................................................................................................................braPaSaMaDaDaEazauataraBa^bCbsa[a[a[a:a:a:a:a:a/a/a[a~a!aU............................................................................................................................................................................................................................",
"..........................................................................................................................................................................................................................................................................................................................................................................a3aEaOa%aHaDaDaCauatarawaSa:a5aLaIaIaFaFaJaIaHaDaGaHaHaCaqaJ..........................................................................................................................................................................................................................",
"............................................................................................................................................................................................................................................................................................................................................................................apaxa|a2aCaDazauatatataxaGaHaDaCaCaDaDaCawauatatatatatanan..........................................................................................................................................................................................................................",
"............................................................................................................................................................................................................................................................................................................................................................................aDakaSa_aOaEazatatatatatazaDaDaEaEaDayavatatatatatatauaoan..........................................................................................................................................................................................................................",
"..............................................................................................................................................................................................................................................................................................................................................................................amaIa|a|aBawatatatavaxazaEaDazaAaxaratatatatatatatauaoan..........................................................................................................................................................................................................................",
"..............................................................................................................................................................................................................................................................................................................................................................................aMaAa0a[aDaratatatavaxazaEaAauatatauatatauauanapataqaoam..........................................................................................................................................................................................................................",
"................................................................................................................................................................................................................................................................................................................................................................................axaOa3aNaOawatatavaxayaEaAatauauaranaoauapajanaqapapam..........................................................................................................................................................................................................................",
"................................................................................................................................................................................................................................................................................................................................................................................aLaOaTaSa+azaratavazaAaFayataqaoalajakalakakajaoamaman..........................................................................................................................................................................................................................",
"..................................................................................................................................................................................................................................................................................................................................................................................aQaUaEa_aLaratauaDaEaDawapakajakakakakakakakakakajam..........................................................................................................................................................................................................................",
"..................................................................................................................................................................................................................................................................................................................................................................................aNaPaxa2a+aGatauaCaDaDawanakalalakakakakakakakakajao..........................................................................................................................................................................................................................",
"..................................................................................................................................................................................................................................................................................................................................................................................a5aFaJaJa!a2aBavaDaDaDawaqasataralakakakakakakakakam..........................................................................................................................................................................................................................",
"..................................................................................................................................................................................................................................................................................................................................................................................btaDaFaDaSa:aPaAaDaDaCatararataqajajajaiamapajaiajai..........................................................................................................................................................................................................................",
"..................................................................................................................................................................................................................................................................................................................................................................................cdaOazaCaFa9a)aHaDaDaDayazawayaxapapasawayaAawawasai..........................................................................................................................................................................................................................",
"................................................................................................................................................................................................................................................................................................................................................................................cGcOa(aBaDaCaHa-aUaDaCaDaLaOaNaJaLaNaNaMaJaJaMaOaQaDaj..........................................................................................................................................................................................................................",
"................................................................................................................................................................................................................................................................................................................................................................................cGc2bDayaEaDaCaPa+aPaHaHaHaOaOaNaJaMaQaOaOaOaOaQaQayaH..........................................................................................................................................................................................................................",
"................................................................................................................................................................................................................................................................................................................................................................................czcXbYauaAaDaDaEaWaZa0a0aXaXaXa!a-a-a!a!a8a8a5a5a8a0aE..........................................................................................................................................................................................................................",
"..............................................................................................................................................................................................................................................................................................................................................................................cIcycKbMayaBaEaDaCaCaMaSa2a#a+a-a+a[a|a[a+a)a#a8a!a8a%aOaz........................................................................................................................................................................................................................",
"..........................................................................................................................................................................................................................................................................................................................................................................c,c,c,c+c8b7aIaCaBaDaAataAaIaLaWa!a-a+a+a_a-a5a8a8a#a#aXaPaJaza4......................................................................................................................................................................................................................",
"..................................................................................................................................................................................................................................................................................................................................................................cIc0c(c+c+c!c)cScnbba&aXaMaAapapatawaAaHaNaXaXa8a%a%a#a8a8aWaSaOaHawaybqa?....................................................................................................................................................................................................................",
"................................................................................................................................................................................................................................................................................................................................................................cGc$c$c$c#c#cQcpbNaWaSa&a:a|a)apahamararataxaAaHaIaPaXaXaSaLaFaCayapaoa#b2a7a:..................................................................................................................................................................................................................",
"..............................................................................................................................................................................................................................................................................................................................................................ckcRc3c3c1c1cgbDa)a1aTaWa1a5a8a~a)asakaiaiajalaqarasaxayayayarapaoaoaCa^bVb2bAa/a`................................................................................................................................................................................................................",
"..............................................................................................................................................................................................................................................................................................................................................................cvcTcXcXcXcPa\aYa?aRaWa6a1a7a5a+bea:aUaHaAatamamalaiaialanauaxaNa-bebBbBbqbfbrbBa9a5..............................................................................................................................................................................................................",
"..............................................................................................................................................................................................................................................................................................................................................................cycTcRcVcTb=aCaWa1a-a0aRaYa8a#a#a!a%a%a[a~a^a_a:a*a2aPa2a|bBbJbJbya+aUaXa%a2a9a_bJa!a&............................................................................................................................................................................................................",
"..............................................................................................................................................................................................................................................................................................................................................................cFcPcPcPcJa=aDa1aOaUa%aJaTa!a5a5a8a8a8a)a:a/a%a:a[bfbBbEbHbEbma~a}a}a|a|a|a:a[a[a~bCa5aS..........................................................................................................................................................................................................",
"............................................................................................................................................................................................................................................................................................................................................................cccNcKcKcKb{aGaKaRaOaJaIaXaWaTaSaZa#a8a8a8a8a8a)a_bebobsbJbHbsbfbfa|a-a3a9a)a:a`a_a:a^bJbla*........................................................................................................................................................................................................",
"............................................................................................................................................................................................................................................................................................................................................................cbcDcucucucha=aNaKaKaLaDaOa:aIaLa5a#a8a8a8a8a5a-a`a}a|a[a-a%a8a8a5a5a0aUaSaRaSaWaWaTaNaTbcbEa.bg....................................................................................................................................................................................................",
"............................................................................................................................................................................................................................................................................................................................................................b^cqcqcqcrcrbNaVaFaUaLaJaWaSaLaLaWa5a5a8a8a8a#a#a#a!a#a8a0a5a8a8a8a8a!a#a!a5a5a5a8aSaOaNaLa[bsaEaL..................................................................................................................................................................................................",
"............................................................................................................................................................................................................................................................................................................................................................b>cgb{cqcqcrb*aVaDaWaOaDaKaIaIa9aUaMaWa8aYaXa0aYa8a8a8a8a!a8a8a8a8a8a#a#a8a8a!a!a8aRaOaOaNaSbsa)ataI................................................................................................................................................................................................",
"............................................................................................................................................................................................................................................................................................................................................................b)b-b=b_b?b{cga\aBaTaMaDaCaKaIaIa0aFaKa#aZaQaOaTa2a#a8a8a8a8a5aWaSa2aXa0a!a8a8a!a8aTaOaOaNaTa|bfaGaOa]..............................................................................................................................................................................................",
"..............................................................................................................................................................................................................................................................................................................................................................bRb5b$b$b?b{bDaBa0aJaCaDaDaFaDaEaHaDaMaSaPaOaWaXa5a8a!a8a0aYaRaNaYaSaQaYa8a8a!a0aRaOaOaRaTa:braWaJa?bc............................................................................................................................................................................................",
"................................................................................................................................................................................................................................................................................................................................................................bFbnbIb5b#b$aNa0aKaCaDaDaFaEaCaEaSaFaCaIaZa#aXaYa5a2aYaYa5aTaUa!aZaSaZa8aYaTaSaOaOaQaUaQa%bobmaLa5a|a{..........................................................................................................................................................................................",
"....................................................................................................................................................................................................................................................................................................................................................................bxbdbdbLaNaPaNaDaDaDaDaCayaDaNaNaAaIa-a$a!a5a5aWaWa5a8a8a8a8aUaOaUa7aUaOaOaOaOaPa2aOaWbobEaQaUa|a~a`........................................................................................................................................................................................",
"............................................................................................................................................................................................................................................................................................................................................................................bFaBaIaDaDaDaDaCawaLaOaHaAaFaXa5aXaSaRaSaSaZa#a#a8a8aTaMaNaUa7aRaOaOaOaOa5a5aMa%bla6aOa/bybkbk......................................................................................................................................................................................",
"............................................................................................................................................................................................................................................................................................................................................................................cIbMaIaEaDaDaDaDaBaHaHaCaHaHaFaSaOaOaNaMaQaTaWaXa8a#a8aQaIaKaUaTaOaOaOaOaSa~aWaTa~a/aLa1bfbEbebk....................................................................................................................................................................................",
"............................................................................................................................................................................................................................................................................................................................................................................c$cMa(aIaDaDaDaDaDaDaDaDaHaUaHaHaOaOaOaRaUaWaZaPa2a0a5a0aMaDaIaNaOaOaOaNaNbtbqaTa&bgaKaHaYbybybqa~..................................................................................................................................................................................",
"..........................................................................................................................................................................................................................................................................................................................................................................cHc9c#b[aKaGaDaDaDaDaDaDaDaCaOaUayaQaQaOaRaTaYa8a5aTaOaSaWaWaHaCaFaNaNaNa0aSa~bPa)a%bGa[aDaSbla_bmbjbr................................................................................................................................................................................",
"..........................................................................................................................................................................................................................................................................................................................................................................cWc3c3c2bYazaDaDaDaDaDaDaDaDaDaWaHaBaQaRaOaOaTaSaRa4aPaHaOaWaOaDaIaRaIaXbqa)a6bHbla5btbPaRaMbza7aSbcbb................................................................................................................................................................................",
"..........................................................................................................................................................................................................................................................................................................................................................................c4c7c6c#cAaVazaEaDaDaDaDaDaDaDaFaZayaEa2aZaTaWaOaHaTa0aIaFaIaIaEaOa&aPaZbrbcaWa9a~a&a/a~a/aUbAa[aNa2bfa/..............................................................................................................................................................................",
"..........................................................................................................................................................................................................................................................................................................................................................................c9c)c#c7c#b.aBaCaDaDaDaDaDaDaDaCaHa5aAaIaWaUaSaQaMaDaWa+aOaIaDaDaSa-aLaHa2a4a|a6aZa4aYaWa2a$a6a)a|bfa3bga.............................................................................................................................................................................",
"..........................................................................................................................................................................................................................................................................................................................................................................c5cYc%c)c#cUbvayaDaDaDaDaFaMaLaDaCaSaPayaFaNaOaSa1aUaIaXa7aTaCaBaNa}a_a~a~a:aUa9bcbAbba^a*aWaRa0a*bma+aZa`aY..........................................................................................................................................................................",
"..........................................................................................................................................................................................................................................................................................................................................................................c6c1c!c+c!c)cxaVaBaDaDaCaIaPaJaCaDaEaXaHaDaIaIaMaQa0aMaEaQa`a7aKa^bObfa/aRaOaPa}bubHbHbBbsbuboa}a/a&a8a[blaWa1........................................................................................................................................................................",
"........................................................................................................................................................................................................................................................................................................................................................................b}cOc2c!c(c+c)c#b(azaCaDaDaMaOaMaIaCaCaIaTaDaCaCaFaLaXaUazaHa5aZblbPa5aSa3a[bcbea`bobrbobrbrbqbsbsbsbsbebubVboa)a4......................................................................................................................................................................",
"..........................................................................................................................................................................................................................................................................................................................................................................cyc8c+c(c(c%c#cLaVaBaDaDaLaOaOaMaHaDaCaUaWaCaDaDaDaOa%aNaMaAa0b6aPaKa9a[a/a/a{a_bgbqbqbsbsbrbsbsbsbsbBbKbQbWbUbla:....................................................................................................................................................................",
"..........................................................................................................................................................................................................................................................................................................................................................................cbcRc*c(c(c%c#cQa&azaDaDaLaOaOaPaIaCaDaFaTaIaDaDaDaCaFaJaJaSbQa*aMaWa1a8a+a`a|a|a|bkbrbrbrbrbrbsbsbsbzbublblblbybca/..................................................................................................................................................................",
"..........................................................................................................................................................................................................................................................................................................................................................................cscKcVc&c!c)c8cLa/aGaDaDaLaOaOaOaLaDaDaCaHaMaDaDaBaCaCaCaDbla8aHa8a1a8a#a_bebfblbfa`a{a[a%a#a5a+a~bmbma~a`a%a5a)bfa~bk................................................................................................................................................................",
"..........................................................................................................................................................................................................................................................................................................................................................................cGcNcDcPcYcXcVcwa;aLaDaDaDaEaLaOaOaIaCaDaDaLaHaHaMaMaLaCa)a+aEa0a#a6a5a)a|a_a^a[a`a_a_a^a$a2aXaNaSa2a-a/a-a8a8a5a2a$bebl..............................................................................................................................................................",
"..........................................................................................................................................................................................................................................................................................................................................................................cOcXcVcTcPcJcJb~aYaOaFaDaDaDaDaMaOaOaHaDaCaIaNaFaPaNaTa`a-aGa0a%a8a8a)a~bma|bebla|blbmbfa+a5aXaOaMaOaUaWaZa5a8a#a5aTaUa+bk............................................................................................................................................................",
"........................................................................................................................................................................................................................................................................................................................................................................cscVc2c#c#c8cTcPb]aRaNaEaDaEaDaDaFaOaOaOaLaDaDaIaFaCaFaSa?aKaTa!a8a8a!bbbga`bobzbHbebmbzbBa_a#a2aMaEaGaLaNaNaPaTa4a7a4aXaYa$a^bp........................................................................................................................................................",
"........................................................................................................................................................................................................................................................................................................................................................................ckcRc#c)c*c*c8cXcgaIaNaEaDazaCaDaDaHaNaOaOaIaxaTaYaNaIa9aEaRa7a8a#a$a8a~bqbobzbHbPbKbzbCboa+a#a#aWaHaEaWa-a)a-a_blbybHbKbKbfa0a?bb......................................................................................................................................................",
"........................................................................................................................................................................................................................................................................................................................................................................cccFc1c8c&c*c)c8cwaVaMaLaDawaxaDaDaDaEaDaIaQaDaEaWa&aXaBaCaOa4a#a[a[a!bfbsbsbBbzbGbKbzbla5aUaWaTaPa0bmbHbrbfaWaWaZaPaJaHaDazawaJaXa~....................................................................................................................................................",
"..........................................................................................................................................................................................................................................................................................................................................................................cocJcTc)c*c#c#cCa6aLaQaJayataCaEaDaDaDaMaMa/a7aMaLaEaBaDaIaYa%a[a/a~bBbJbBbsbsbsboa|a/aXaNaHaHa`bWblaPawavatarasamaiaiahaoamanauaLa$..................................................................................................................................................",
"..........................................................................................................................................................................................................................................................................................................................................................................b+crcXc#c#c8c#cVbhaKaPaIaCauavazaDaDaDaPaJaPa[a5aUaFaDaDaDaNa8a-bcbBbPbQbrbobobsbsbra{aNaMa-a[a5aOauanaoaqaqaqasaqagahahalakalapaqaxaI................................................................................................................................................",
"............................................................................................................................................................................................................................................................................................................................................................................b)cPc7c#c8c#cVbhaIaOaEaEaxapatawaBaDaFa!aMaJaOaOaEaDaDaDaDaLa:brbVbObJbKbma)a~bua9aWa|bAbfaIauapapapapayaGaKaVa=baa<babibgaLanararapaq..............................................................................................................................................",
"............................................................................................................................................................................................................................................................................................................................................................................b\cecRc#c7c1cBa,aKaOaEaDaAauatarawaEaCaMa[a#aNaMaEaDaDaDaDaCaPbfbGbHbHbBbsa_a-a)aWbHbuaJaoaoapatataza\b9b<cacacpcwcucmclcmb/a]aoamapanal............................................................................................................................................",
};
