/* XPM */
static char *xpm[] = {
"320 180 256 2",
".. c None",
"ab c #0b090b",
"ac c #0d0907",
"ad c #0d0b0e",
"ae c #0f0e0f",
"af c #110b08",
"ag c #110d0b",
"ah c #131112",
"ai c #150c09",
"aj c #16100d",
"ak c #171415",
"al c #1a0e0a",
"am c #1a1310",
"an c #1a1717",
"ao c #1d1a1b",
"ap c #1e1613",
"aq c #1f110c",
"ar c #201d1e",
"as c #221513",
"at c #221915",
"au c #231f21",
"av c #241b18",
"aw c #252224",
"ax c #26120b",
"ay c #261713",
"az c #261e1a",
"aA c #262120",
"aB c #262326",
"aC c #272323",
"aD c #272528",
"aE c #281a18",
"aF c #292524",
"aG c #292729",
"aH c #2a201f",
"aI c #2a2625",
"aJ c #2b282b",
"aK c #2c1913",
"aL c #2c2a2d",
"aM c #2e1f19",
"aN c #2e2424",
"aO c #2e2827",
"aP c #2e2c2f",
"aQ c #2f2a29",
"aR c #302f32",
"aS c #312c2b",
"aT c #321d16",
"aU c #32231d",
"aV c #322626",
"aW c #323235",
"aX c #333437",
"aY c #342e2d",
"aZ c #352928",
"a0 c #353033",
"a1 c #372119",
"a2 c #372620",
"a3 c #373335",
"a4 c #37373b",
"a5 c #382c2b",
"a6 c #38302e",
"a7 c #39393d",
"a8 c #3a3538",
"a9 c #3b3230",
"a! c #3c2a24",
"a# c #3c3c41",
"a$ c #3d231b",
"a% c #3d2e2c",
"a& c #3d3533",
"a( c #3d383b",
"a) c #3d3c3e",
"a* c #402722",
"a+ c #40312e",
"a, c #403e41",
"a- c #413836",
"a. c #422e26",
"a/ c #423332",
"a: c #423b3c",
"a; c #424044",
"a< c #43332e",
"a= c #434348",
"a> c #444446",
"a? c #45261a",
"a[ c #453635",
"a\ c #462b25",
"a] c #463937",
"a^ c #473531",
"a_ c #47484c",
"a` c #493329",
"a{ c #494242",
"a| c #4a291d",
"a} c #4a3833",
"a~ c #4a3c3a",
"ba c #4a4748",
"bb c #4b4a4e",
"bc c #4c3129",
"bd c #4c3834",
"be c #4d3b35",
"bf c #4e4d51",
"bg c #4f362c",
"bh c #4f3e3b",
"bi c #512e21",
"bj c #513b37",
"bk c #515054",
"bl c #533930",
"bm c #53423e",
"bn c #535356",
"bo c #543d39",
"bp c #55362a",
"bq c #563529",
"br c #563d37",
"bs c #565659",
"bt c #574944",
"bu c #58403c",
"bv c #58585c",
"bw c #593c31",
"bx c #5b4138",
"by c #5b413b",
"bz c #5b5b5f",
"bA c #5c4e4a",
"bB c #5d3122",
"bC c #5e5653",
"bD c #5f463e",
"bE c #5f5f63",
"bF c #60392a",
"bG c #606368",
"bH c #61443e",
"bI c #623d2f",
"bJ c #63433b",
"bK c #645c5a",
"bL c #64676d",
"bM c #654a42",
"bN c #674942",
"bO c #67524c",
"bP c #676163",
"bQ c #686c72",
"bR c #6a483d",
"bS c #6a6567",
"bT c #6b402d",
"bU c #6d4f46",
"bV c #6d7177",
"bW c #6e5952",
"bX c #6f4e47",
"bY c #6f6a6c",
"bZ c #714e42",
"b0 c #724531",
"b1 c #72777e",
"b2 c #746f70",
"b3 c #74777b",
"b4 c #75554c",
"b5 c #77554a",
"b6 c #775c53",
"b7 c #794a36",
"b8 c #797d85",
"b9 c #7a5441",
"b! c #7a7d81",
"b# c #7b7474",
"b$ c #7d5f56",
"b% c #7e594f",
"b& c #7e5a4d",
"b( c #7f848b",
"b) c #808488",
"b* c #824f39",
"b+ c #825e50",
"b, c #826259",
"b- c #845947",
"b. c #846960",
"b/ c #848a91",
"b: c #868b90",
"b; c #886254",
"b< c #887a77",
"b= c #8b665b",
"b> c #8b9097",
"b? c #8c563a",
"b[ c #8c6758",
"b\ c #8d7f7d",
"b] c #8e624d",
"b^ c #8f6c5f",
"b_ c #908787",
"b` c #908f91",
"b{ c #91969d",
"b| c #936c5c",
"b} c #947165",
"b~ c #969597",
"ca c #979ca3",
"cb c #985e3e",
"cc c #9a7160",
"cd c #9a776a",
"ce c #9da3aa",
"cf c #9e6749",
"cg c #9f6f55",
"ch c #9f7c6e",
"ci c #9f8b85",
"cj c #a09b9b",
"ck c #a37762",
"cl c #a3928d",
"cm c #a3a8af",
"cn c #a58173",
"co c #a6acb3",
"cp c #a7a1a1",
"cq c #a86b47",
"cr c #aa7f6c",
"cs c #aab0b7",
"ct c #ad724f",
"cu c #ada8a7",
"cv c #aeb4bb",
"cw c #af8771",
"cx c #b2b8bf",
"cy c #b37b5a",
"cz c #b5afb0",
"cA c #b7bdc3",
"cB c #bbbabc",
"cC c #bbc1c7",
"cD c #bc835f",
"cE c #bc8f73",
"cF c #bfc5cb",
"cG c #c3c2c4",
"cH c #c5977b",
"cI c #c5cbd1",
"cJ c #c68c64",
"cK c #c9a087",
"cL c #ccc9ca",
"cM c #cd936b",
"cN c #cdb3a5",
"cO c #cdd2d8",
"cP c #d0a88e",
"cQ c #d29c77",
"cR c #d5d1d0",
"cS c #d6dadf",
"cT c #dba37d",
"cU c #dbdfe4",
"cV c #ddaf91",
"cW c #ded8d6",
"cX c #dfe3e7",
"cY c #e0baa1",
"cZ c #e1ac85",
"c0 c #e5c2ac",
"c1 c #e6e9ed",
"c2 c #e7e0dc",
"c3 c #eab68e",
"c4 c #eccab2",
"c5 c #eceef2",
"c6 c #eee7e4",
"c7 c #f0c19b",
"c8 c #f3d4bb",
"c9 c #f3eeec",
"c! c #f4f4f6",
"c# c #f6c9a3",
"c$ c #f6e3d4",
"c% c #f6f4f3",
"c& c #f7f8fa",
"c( c #f9d1ac",
"c) c #f9dcc1",
"c* c #fbf8f6",
"c+ c #fcf2e7",
"c, c #fde2c7",
"c- c #feead5",
"c. c None",
"adabadabadadadadabadacababababacabahaoarararaoanakanauaDaGaPaRaWaWa4a,a_bfbzbGbVb(b/b/b>cpcxcjbSa(aFaOaVataza+a}a^a}a^bjb,clcuc0c2c-c+c+c$c2c4cGcPcEbua$a2aKavasamamamajajahajajahamakajakajakamakakamakamakamakamakamakakakanakananananapanapanataoaoavaoaoavararazararauarauararararavararararararararararavaravaravaoavaoavaoavaoavaravaoataoazaoavaoavaoavaoavaoavararavavaravavaravazaravaravavaravavarataoataoaoaoataoatanapaoapananananananamananananananananakakakakakakamakakamakamakapananapamanapapatataEaHaMaTa$a\a*bgc0c+c*c*c*c*c*c*c9c2cRcuclcib<b$bma.a%a.a+a<a<a<a<a<a^a<a.aZaZa9bCb`cBcRcFcvceb{b/b8b3bQbEbka_a;a#a4aXaWaRaIaAaraGaQaRa8a)aQao",
"akakakakakakakakakaeadababababaeaoauauararananaoaraDaLaRaXa4a#a,a=bfbvbLbVb(b{b>b/b>cscmb!a{aCaHaZa9a[a+a%a<a}a<a}bjbyb.cGc8cYcNcHchb[b-b-b-b]b]b0bTbxb6bta.aUaMavatataoanapaoaoapaoapaoaoaoaoaoaoaoaravarazarazauazauaAaAaAaAaCaAaCaCaFaFaFaIaIaIaOaOaOaOaOaOaOaQaQaQaQaQaSaSaQaQaSaSaSaQaQaQaQaQaQaQaQaQaQaQaQaQaQaQaOaQaQaQaQaLaSaQaQaQaQaQaSaQaQaQaQaQaSaSaSaSaSaSaSaSaSaQaQaQaSaSaQaQaQaQaQaQaQaOaOaOaVaIaVaIaVaIaIaFaFaFaCaFaHaCaHaCaAaAaAaAaAaAauazauarazauarazararavarararararavavaravaravaravavavazaAaHaOa2a%a\bpb^b#b|b9ctcKcYc0cWc$c$c-c9c-c+c+c+c*c*c*c0aIasaMaUa2a!a.a.a.a.a<a^a^a}a%aVaNa&bPcjcLcIcCcmcab{b)b3bQbEbsbfa_a)a#aXaXaRaGaAawaLaSaXa,a:",
"aDaDaGaLaRaWa4aWaraeadadabaeanawaDaBauaoaoanauaGaLaRaXa7a,a=bbbnbEbQb!b:cacab)b{cmcebLa0aEaHa5a.a2a^a^a<a^a^a}bebhbhbhbwbwa`bibibTb?cwcPc4c)c-c-cwa1aTaMaMazaUa2azazazatavaoataoavaoaoavaoaravararararazaAaAaAaAaCaCaCaCaCaFaFaFaFaIaIaIaIaOaOaJaOaOaOaOaQaOaOaOaOaOaOaOaOaOaOaQaQaQaQaSaSaQaSaSaSaSaSaSaSaSaSaSaSaSaSaSaSaSaSaSaSaSaSaSaSaSaSaSaSaSaYaYaYaYaYaYaYaYaYa5aYa5aSaZaYaYaSaSaSaSaSaZaSaZaSaQaQaQaQaQaOaQaOaOaOaIaOaIaIaIaNaIaNaFaIaFaFaFaFaCaCaHaCaAaCaAaAazaAazaAazaAazazazazazavazavazavavavazazaMaUa2a!a\b9cEcDcJcJcMcQcTcTcTcMcEcDcgcfb]b?b-b+b]b}b.a`axasapavazazaUa2a%a+a.a+bca^a^a[a5aHaVbfb_czcLcGcvceb`b/b3bVbGbzbsbka_a,a4a3aRaQaFaGaQaWa;",
"a)a;a_bkbsbzbbawaeadadabahaBaLaJaBararaoaraDaPaWaXa#a=a_bfbsbGbVb!b~cecpb)b)cpcjbPaSavaVa%a}a]a<a.a}a^a}bdbda}a<a!a2a1aTa1a|b0cbcycQc7c,c-c-c)c8cPa|axatapaqaqaMaUaTa1a2a2a1aUaUaMaMaMaMaMaHaMaMaHaMaHaUaNaMaNaUaUaUaVa2a2a2a2a!a!a!a!a.a.a`a`a`bgblbwbxbDbMbAbUbAbObObObObObMbObMbDbDbxbwblblbgbga`a`a.a<a.a.a!a!a!a!a!a!a!a!a!a!a!a!a!a!a!a!a!a%a!a.a.a!a.a.a.a.a.a\a.bca\bca<bca`a`a`a`bga`bga`bga`a}a`a<a<a+a.a%a%a!a!a!aZa2a2a2aVaVaUaVaUaVaUaUaNaUaNaNaHaNaHaNaHaHaHaHaHaHaHaHazazaHazazavavavaEazaEazaHaMaUa2a?bib9cfcfcgcycDcEcJcMcHcJcEcycbb*bTbFbBbia|a|a|a|a?a1a1a1a1aUaEaEaEaMaZa.a%a.a+a^a}a[a%aNaNbab<cocIcFcvcab`b3bQbLbGbEbsbkbaa,a4a3aRaLaGaPa3",
"bVb3b!b_b`bvauaeadadadaoaRaRaRaDararaoaBaPaWaXa#a=bbbkbvbGbVb8b:cecvb`bVb~cjbLa9aFa2a+a<a+a^a}a}a}bebebea+a2aTaMaKaTa$a?a|bFbTb7b*b?b]b?b&b0bFa?a1aTaKaxaxatataMa1aKaKaTaTaTaKaKaKaKayaKaKaKayaKayayayaKaKaKaKaKaKaTaTaTaTa1a1aTa1a$a$a?a?a|bibibBbFbTbTb0b7b9b-b&b%b-b-b-b-b-b9b-b9b7b0bTbTbFbFbBbBbia|a|a?a$a$a1a1aTaTaTaTaTaTaTaMaTaTaTaTaTa1a1a1a1a1a$a$a?a?a?a|a|bibibBbFbFbFbTb0b0b7b*b*b*b9b?b*b-b7b7b0b0bTbBbFbBbBbia|a|a?a?a1a1aTaTaTaKaKaKaxaKaxayaxasaxasaqamaqamaqaqalaqaqamaqaqalaqaqaqaqaqaqaqaqaxaxaKaTa?a1axaxaKa1aTa$a?a?a?a?a$a?a?a*a?a?a?a?a?a?a?a?a?a\a\a|a?a1aTaTaKavayaEaUa5a%a.a.a+a^a}a<aVaVbkb<cocOcFcob>b)b!b1bVbLbEbvbka_a,a4a3aRaLaR",
"czcxcGcAbEanaeaeadadaDa4a4aWaDararaBaPaXa4a#a_bbbvbzbLbVb8b/cecvcmbVb8cpb!a~aZa5a9a<a!a!a.a<bebWbWbxa<a1aKayaKaMaUa2a$a!a!a.a?a1aTaxaxaxa1bib0b]cycka|a1aTaKaxa$a.a!aKaMa1aUaMaUaMaMaMaMaUaMaUaMa1aUa1a!a!a!a!a.a\a.bcbcbcbcbqbpbpbFbIb0b7b]cfckcrcDcHcKcPcNcYc0c0c4c0c4c0c0c0cYcVcVcQcKcHcEcDckctcfb]b?b9b0bRbTbxbIbFbpbpbpbpbgbqbgbqbgbqbcbqbgbqbpbpbFbwbFbTb7b*b?b?cfctcycDcMcQcTcPcVcYcYc0c4c0c4c4c0c0cYcVcVcTcTcHcJcDcycqcfcbb*b*b0bRbIbFbpbqbibia\a\a\a*a$a!a2a$a2a1aUaMaMaMaMaMaMazaMaMaMazaTaMaTa1a1a$a?bibFbIbFa?bBb9b]b|b?b9bIbia?a1aTaTaKayaqaqalalaqaqaqaxaKaKaTa$a?bibca|a$aKaKayavavaMa2a!a.a.a.a^a}a<aOa6bvb)cvcLcAcmcab>b)b3bVbSbEbsbfa=a,a7aWaP",
"cIcUcFbsanahaeaeaeaPa,a,a7aDawaBaDaXa#a=a=bfbkbvbLbvb1b(cacscCb>bLb>b~bAa0a!a+a+a+a.a%a.a.a`brbObDa!aKaKaKaMaTaMaMaUa1aUaMayaxaxaKa?bFcbcJc7c)c-c+c(b[bqa|a?a$aKa$a.a*a1a$a!a*a!a!a!a!a?a!a.a?a.a.a.a.a`a`a`bgbpbgblbwbwbIbIbxbRbRb7b9b]cgcDcEcTcTc3c7c4c)c)c-c+c+c+c+c+c+c+c$c,c)c(c#c7cZcZcQcMcDcycqcfb?b-b7b7b0b0bTbIbIbIbFbFbFbFbFbFbFbFbFbFbIbIbIbTbTb7b7b?b]cfctcycMcTcZc3c7c(c8c)c,c-c+c-c+c+c-c-c$c,c)c8c4c7c3cVcTcQcJcDctcqcfb?b-b7b0b0bTbIbIbwbwbqbpbgbibgbcbcbca.a.a.a.a.a.a.a.a.a.a.a.bcbcbgblbFbTb7b]cbb7b?cEc#c-c-c-c-c,c(cPcyb9bia?a1aTaMaMatapaqalalalaqaqaxayaKaTaTaTa$aTaKayayatayatazaZa%a.a+a<a!a5a6aSa{bLb:cFcLcxcucab`b)b3bVbGbvbnbfa_a,a7",
"c1cLbkanakahaeahaWa>a_a,aLaDaJaXa#a=bbbkbzbGbLbVb1b8b`cecAcxb1bLceb\a;a%a%a`a<a.a.a.a.a`a`a`a.a!aTaTaMaTaMaKaKaMaEavayaqaxaxa1bBb7cqcDcZc#c,c-c+c-c-cHbIa|a|a|a$a1a!a.a2a1a!a!a!a!a!a!a!a!a!a.a!a.a.a.a.a`a`a`a`bgbgbgblbwbpbwbIbRbRb7b-b]cgcycEcHcQcVcVc0c4c8c)c$c$c$c$c8c)c8c8c4c0cYc3cVcQcHcDcycgcfb-b-b9b0bRbTbIbIbwbwbqbqbpbpbpbqbgbgbqbqbqbqbFbwbFbIbTb0b9b?cfcgcycEcHcQcVcYc3c0c4c8c8c8c2c)c)c8c8c8c4c4c0cYcVcTcQcHcDcrctcgb]b?b9b7b0bJbIbIbwbpbpbgbca`a`a`a`a.a.a.a.a*a.a!a!a.a!a!a!a!a.a.a\bcbcbqbwbTb9bTbFb?cDc#c)c,c-c,c,c,c)c7cPcyb9bFa?a$aMaKazayayasaqalalalalalaxaKa1a$a$a1aKaKaKaKaKayayayaKa2a+a^a!a5a+a/a9a:bzbYcvcScFcBcsb~b!b)b3bQbEbsbkbfa=",
"cSbEaoakakahakaXa_bba_aRaLaRa#a_bfbvbGbVb1b(b/b>b{cacocFczbLb2cpb2a[a%a<bca+a.a.a.a<bcbca.a*aTaTa1aUaKayasasasapalalaqaxa$bib0b-cbcgcycDcEcEcwcwb^b9bxa`a?a$a*a2aUaMaMaMaMazaMaKaMaMaKaMaMaMaMaMaMaMaMaTaMa1aUa1aUa1a2a1a$a$a$a$a$a$a*a?a|bibibBbBbFbTbTb7b*cbcbcfctctcyctcqcbb?b?b*b7b0b0b0bTbTbFbFbBbpbqbqbia`bibibgbia`bia`a`bibgbpbwbpbpbpbgbia`bia`bgbgbqbpbFbFbIbTbTbTb0b*b?b?cfcqctcycDcDcDcwcDctcgcfcbb?b?b*b7b0bTbFbBbBbBbibibia|a|a?a?a*a$a$a2a1aUaUaUaUaMaUaUaMaMaMaHaMaMaMaMaMaMaMaMaMaMaMa1aUa1a2aTaTbibIb7b9b+b]b]b]b]b]b9b9b0bTbpbia?a1aTaMaKayasaqasasaqaqaqaqalaqaqaxa1bcbibca$aTaKaKaTaEayasaMa!a]bjbda<a<a[a(bsbscjcUcIcBcmb`b>b:b8bVbLbzbsbk",
"b:aIanahahahaXbbbsbnaWaRaXa=bkbzbQbVb(b/b>b{cecmcmcvcFcobzb#cpbYa/a+a<a<a.a.a.a<a`a`bca\a1aTa$a2a2aKaqamamalajaiajaqayaTa$a!a|a|a\a?a*a$a1a1aMazaMaUa1a2a2a2aVaUa2aUaVaUaVaUaOaUa2aIaUa2a2aOa2a2a2aZa2a!a!a!a!a%a5a%a%a.a.a.a+a.a<a^a`a}bdbgblbwbJbJb0b7b?b]cgcycDcQcZc3c3cZcHcyctcbb?b*b*b*bZb7bZbRbRbRbDbxbDbxbDbxbxbxbxbxbxbxbDbRb9b$b9bRbDbIbxbwbIbwbIbwbIbDbTbMb0b0b0b7b*b-cfcgcycEcMcTcZcZcZc3cZcTcMcJcycqcfb?b-b7bXbTbIbFbqbqbqbgbcbcbcbca.a\a+a.a.a%a!a!a!aZa!aZaZa!aZa2aZa2a2aUaUaUaUaUaUaUaUaUaUaUaUa1a$a1a2a2a$a1a$a$a?a!a2a2a$a2a$aTaTaMaKaEayayasasaqaqalakaqaqaKa*bia?aTaxaxa$bBbTbTbqa$aKa1a1aTaEayaMa^bhbha}a<a[a/bnbfb>cOcGcAcvcmcab`b(b1bVbGbz",
"bkaoakakaeaPbfbzbGa#aPaWa_bzbLb1b!b:b~cececocvcxcBcFcmbsb3cpbYa<a.a<a`a`a.a<a`a`a`bca$a$a\bca.a2asalalajaiajajajamapapapatatatavaEaAazaHaMaMazazavavatatatatapapapaqapamamajamajamajamajamamamamamapapapapapapapapapatasatayatavayavaEaEaEaEaMaMaMaUa1a1a2a.a.a`bgbwbxbJbJbJbJbybwbqbcbcbca\a.a.a.a!a!a!a.a!a!a!a!a!a!a2a2a2a2a2a!a!a!a!a!a!a!a2a!a2a!a!a!a!a.a!a?a.a.a.bcbcbcbcbgblbwbIbIbRb0bRbRbRbRbRbRbIbIbqbqbqa\bia\a\a*a*a*a*a2a2a1a2aUaUaVaUaUaUaUaUaMaNaMaMaMaMaMaMaHaMaMaHaMazaHaEazazazaMaEaMaMaHaMaMaMaMaMaMaMaUaMaUaUaUaMaUaTaUaMaEaHaEaEaEaHaMaMaMaMaEaEayaxaqaxa*bFb0b0bTa?axaxa?bTb?b]b?a|aTa$a1aMaEaEa!bjbjbda}a}a8bvbbb!cFcOcLcCcscmb~b>b!b3bQ",
"a4aoakaharbkbEbQbka4aXa=bGbVb!b/b`cacmcscvcCcGcFcFcsbzbQczb#a^a}a^a!a`a`bebgbgbga|a$bibIbxbgaKalalalajajajajajamamamakamamamakajamajagajajaiagafafafafafafafafafafafafafacacacacacacacacacacafacacafafacafafacafacafafafacafafaiafaiaiaiaiaiaiafaiafaiaiaiaiaiafafaiaiafacafaiaiaiadalaiaiaiaiaiagagaiagagaiaiaiaiaiajagagagagafafadacacafacafafafafafafafafafafafafafafafafaiaiaiaiaiaiaiafaiafaiaiafafafaiaiadaiaiaiaiaiaiaialaialaialaiaiaiafafafafaiafagafagagagagaiafafaiaiafafafafafafafafafafafafaiafafaiaiaiaiajaiajaiagagaiaiaialaiaeaiahalalalamaqasaEaHa1a2a2a1aUaKaxaTa|bTb7b*b7bBaTaTbTctcMcQcgbiaTa$a$a2aKa1a^bjbobea]a(bsa>b3cIcOcRcFcAcsceb~b:b!",
"aParanaha=bGbVbLa=a#a;bLb1b(b>b{cecocvcAcFcIcOcIcAbLbzcvb`bea`bea}a`bjbDbebebpa|bTcrckb&bqaxaxasamalajajajahajajagagagafacacadagafafafafafagagagaiafafaiagaiagaiafagaiafafafafafafafafafacagajajajajajamamamamamamamamaqaqaqasaqapasapasasasasayatasasayavayaEayaKayaKaKaKaKaKaEaKaEaEaKaKaEapagaiagajajaiahajajajajajahajagagahagagaiajapapasatatatatatasatatamaiaiamapayasayaEaEaEaEaEaEaEayaEayaEaKaEayaEaEaEaEaEaEayaEaEaEasayasasasasapapapaqapapamapamamamamamamamamamajamajajalajajajalajalajajamalamalalajamaqamalajajajaiajafadadadadadadadadadafadadagajamaEaUa*a!a.a*a1aTaTa|b?cycQcJb?a|a|b?cMc#c3cfa?a$a?a!aHaTa^bebobha[a~bza>b)cOcScOcIcGcBcocab>",
"aDarakaJbQb1b(bsa_a=bGb(b(b>cacmcscAcCcIcOcOcIcIb(bkcuczbAa<bebga`btb.bAbJbFbBckc#c)cEbiaKaTaTayasanakajahafadacacababacacacacajajagaiagalavapamasasataEaEaMaEaEatapamamamamamapasapajafafajamapapapapapapapapapapapasatatayatayataEaEaEaEaEazaMazaKaMaMaMaKaMaMaKaMaMaMaKaMaEaMaMaTaMaTaEaMasaiajajajakamakapamanamanakajajaeakajagaiamavaEaEaKazaMaEaMazazazapaiaiataEazaEaMaMaMaMaMaMaMaMaMaMaMaMaMaMaUaUa1a1a1a1a1a2a1a1a1aUaUaTaMaMaMaMaKaMaKaMaEaEaEavaEavavatayatayayatatayaEatatayayavayaEaEavaEaEaKaKaTaKaMaUaUaUaEasapapamagagadadadadadagadafadadacacadafafaiasaMa!bgbqbia|a?bib*cDcZc#c3ctbBbBcDc#c,cVbRa1a?a^aVaKa.bebmbma]btbna>cacUcUcScOcIcCcvce",
"aJaraka#bVb(b1bvbkbvb(b/b{cacmcvcAcFcIcOcScScIcmbnb:cFb\a<a}bga`bKb`bYb9b9b9cPc,c,cEa?aTa$aTaTaEaEamaeafababacabacabacabacabacagajajajaialatapamayaEazaHaMaUaMayapaqaqamamamamapatavamaiajajapasapasapapapapapapapapamasapamaqapaqamasapapapapapapatatatatavaKavaEaEaEaHaMaHaEayaEaEaEaEaEaHapaiajamanapapananapanapapakajahagaoamagaiapavaEaEazazaMaEazazazazapaiajaEazaEavaMaMaUaUaUa1aUa1aUa1aUa1aUa1a1a2a$a*a*a*a\a*a?a*a*a*a$a1a1a1aTaTaMaMaMaMaMaEaEatatatatasatapatamamamamamapamamamapamasasasayayaEaMaKaMaMaUa1avatatapapapagagagadagagagagaeaeaeagadaeaeadagadafaiaqaTbcbwbTbTbTbBbFcqcTc#c,c(cDbTcbc#c-c(b[a?a.a`a2aKa!bdbmbma]bKbfbKcCcXcXcScScLcFcx",
"aLauaobzb8b/bQbGbzb(b>b{cecmcvcCcFcOcOcScOcScAb1bLcCczbta^bea-bPcub<bWb+cgc4c-c)cka?bibibia|a*aEalacacababacababababacabacabacagajajalajajaiaiaialalamaqajamalaqamalalalajamamalamalajamapamapasasasasasapapasapapamamamamaqakalakaqajamamakamamakamapamamapatatatatatavavavatatavavazaEazazasaiajapataoataoaoataoataoaoamaiajaramagagapazaHaEaMaHaMaHaMaMaHaHasajalaEazaMaEasayaMaVa!a*a*a!a*a!a*a*a*a*a\a\a\bibcbqbqbibibibibia\a?a*a$a$a$a1a1a1a1a1aUayasatapasatayaoasakamamapamapamamamamamakamaqataHaMaMaUaUa2a2a2aKaqaqamatapagafagagaeagaeagaeaeaeaeaeaeaeaeaeadadafadaiaqa1bFb*b]cbb7bBb7cycZc)c-c)cwb?cKc,c,cka?a.bga!aKa%bebma~bAbPa_b)cUcXcXcXcUcOcI",
"aLaBaBb1b8b1b1bLb1cecacecocvcCcIcOcOcUcScOcFcebGcecRb\aVa%a6bCcucibUb&ckc#c-c)cfbBb7b7b7b0biayaiacacacadacababababababababaeagafajasaMaMaMaTaUa*a!bcbdbjbxbxbJbxbJbxbxbwblbgbca`a\a?a*a$a2aUaUaMaEaHaEaEavaEaEavavavavatasatatasasasasatapasatatatatatatatatavavavavayavatatatavavazazaHazaHapajapatatavavavavaraEauaEavamajajaAatagajatazaNaMaNaNaNaUaNaNaHaUatajalaEaMaMaEa2a^a.a!a.bca\bca.a\bca\bcbcbibqbwbFbIbIbTbTbIbFbBbqbibia\a\a*a*a*a$a$a2a*a1aEaEaEaEaEaEaEazaEasasasatatayatayatayavayaEaEa1a2a*a\a+bcbcbcbga`ayaxatatapajafagagaeaeaeaeaeaeaeaeaeaeaeaeaeagadaeadadadacala|b-cycycycbbTb7cDc7c,c+c#cgcyc(c,cya?a`beaMaUa+bjbma{bYbvbvcGc1c1c1cXcScS",
"aPaBaXb/b(b8b8bQcacscocscvcAcFcOcScScUcUcOcxb>bVcOcLbAataya+cpcjbNb0cbc3c)c(cfbTctcyctcbbBaxalafacabacacacadacababacababadacaeafajavaMa2a!a!a.bcbcblbwbwbwbIbxbIbxbxbwbwbwbebgbgbcbca\a\a*a2aUaMaEavavatatatatatatatatatatatatatatatatatatatatatatatatatatatatatatasatapapapapatapatatatatatamamatavavavavavauaEaAazazavamajamaHatagajavaHaNaVaNaVaVaVaUaNaUaHazajalavaEaHaMa!a^a.a!a.a.a.a.a\a.a!a\a\bcbcbcblbwbIbybIbFbFbqbqbcbia\a\a*a*a*a2a2a1a1a1aMaTaHaEaMaEaEaEaEaEaEayaEayaEaEaEaKaEaKaKaMaMaTa1a2a2a*a2a*a2a*a*a2aKapamamamaiagagagaeaeaeaeaeaeaeaeaeaeaeaeaeadaeaeaeagadadadafaqbFcgcJcMcJcbb0cbcMc(c-c-cQcgc3c#b-a?a`aOaTa%bdbta:bYbVbkcac1c5c1c1cUcS",
"aRaDa=b>b{b/b1b8cocscecvcAcFcIcOcUcUcUcUcIcmb8b{cUcza6aUazb<cub4bwb0cycTc3cbcbcTcZcTcMbTaxaqafabadacacababacabacabacabadadacadacafacafacafafafafafafafaiafafafafafafaiafafafafafafafafafacafafaiaiaiaiaiaiafaiagaiaiaiajajajajajajajajajajajajajajahajamamajamajamamamamamamamamamamamamapamapapavaravazazaHaHaHaHaHaHazapajamaAavajajaraHaZaVaVaQaVaNaNaHaNaNavamamamasamasaqamamapaqamamamamamamamaqaqaqaqalaqaqaqalalalalaqalalalalalalalalalaiaiaiaiaiaiaiaiaiaiaiaiaiaiaiaiaiaiaiaiaiaiaiaiaiaiagafafafaiaiafaiafafafafafacafadagagagagagagagagadagadagadagadagadagadadadadadadaeaeadacaqbFckcMcMcDcqb?ctcQc#c,c3b?cDcrbibga9aVa+bAbCbbbSb`bsb)cUcUc1c1cXcX",
"aPaDbvb{b>b(b1b/cscvcvcxcCcFcOcScScScUcScscab8cxcUb`aZaUbtcub<a\bFbTcbcyb?cyc#c#c7c3b7axaiafababacacacacababacabacacadadagadagagaiajalalaqaqaqaxaxayaKaKaKaKaKaKaKaKaKaKaKaKaKaKaKaKaKaKayayayayasasasasapasapasasasasasasasasayasayayayayayayaEaEaEaEaEaEaEaEaEaEaEaEaEaEazaEaEaEaEaEaEavaEavazaHaHaNaNaVaVaVaVaVaVaVaOavamamaOazajamazaIaZa5a5a6aZaZaVaZaZaVazamasaEaEaTaEaHaEaEazaEaEaEaEaEaEaEaEaTa1a*a*a\bibqbqbIbFbwbFbwbpbqbibca?a$a1aTaTaTaEaKaEayayayasayasasasasasasasasasasasasasasasayayavaEaEaEaEaKaKaKaEaEayayasasasaqamajamajahajajajaeaeaeaeaeagadagadagadagadadadadaeaeagadacacaqbTctcJcMcDcycqcqcDcQb]a?b0bia.a0a6a{bfb#bKbScebYb3cSc1c5c1cXcX",
"aPaDbGb{b>b/b1b>cxcxcAcFcFcIcOcOcScScScIb{cab(cOcSb#a!a%b<cjbmbcbBbTb7b0ctc#c#c#c#cgaqalacadadadacabababacafacadacagagagagajamapasayaKaMaTaTa1a1a*a?a*a?a*a?a\a?a\a|a\a|a\a?a?a*a*a$a$a$a$a$a1aUaUaMaMaMaTaMaMaTaMaMaUaTaTaUaTaUa1aUa1a2a$a2a*a*a!a*a.a\a%a\a+a/a^a~bhbmbtbtbAbAbCbObCbCbCbCbAa8a+a{bmbabmbabma{a{a~a:a[aNapapa&aOajapa9bhbmbtbtbtbmbma{bhbha~a5aEaVbhbububtbubtbubybtbububmbobmbobubybybJbJbRbJb0b0bRb7b0b0b0bTbTbIbIbFbqbca\a\a*a*a2a2aUa2aUaUaUaTaUaMaMaMaMaMaMaMaTaMaTaKaTaMaUaUa1a2a2a*a*a*a*a2a2a$a2a2a2a1aTaMaEaEasapapamamamahajahajahaeaiaeadagadagadagadagagadagagafafafacaxbTctcJcJcDcycbbTbBa$aKaTa^aYaobnbEb~b3bLcub)b!cScXc5c1c1c1",
"aRaLbQb>b>b/b1cacAcAcCcFcFcIcOcScScScScFb>cacacUcObPa+a^btbKb.bNbibFbBb7cTcZc3c3cMaTalaiaiadadadacababacacadacagagagaiajapasataEaKaMaUa1a1a$a$a*a?a!a?a?a\a?a?a\a|a|a\a?a|a\a?a?a*a?a*a$a$a$a2a1aUa1aUaUaTaUaTaUaTaUaMa1aUa1a1aUa1a2a2a$a!a!a!a.a^bgbjbmbAb6b2b#b<b_cib~cpcpcucuczczczczczczczbYbYcucuczcucucucucpcpcjb~bCaBaNbYbaajavbKb\b\b\b\b<b<b#b#b#b2b#btaNa{b\cib`cicicib`cicib_cib_b\b_b\b\b<cdb<b}b.b.b$b$b4bUbNbHbybwbrbqbdbca\a\a%a*a!a*a2a!a2a2a2a2aUaUaUaUaMaUaMaMaMaHaTaMaMaMaUaUaUaUa2a$a2a*a!a*a!a*a2a*a2a2a2a2a1aVaTaMaMavatapapamanamakamahahajahaeadagadagadagadagagagagagagagadadabaxbTctcJcJcDcba|aTaxaMa-a4ahbvb2cjb:b!cBceb!cUc5c5c5c1c1",
"aWaLb1b>b(b/b8cecCcCcCcIcIcOcOcScScScScCb>cacoc1cIbKa+a<a.a.a}bgbibia|cfcJcJcMcQbTaialaiagafagafacacacacafafagagajamapasaEaEaMaMaTa1a1a1a|bia?a?a*a?a*a?a\a\a?a\a|a?a\a?a\a|a\a?a*a?a*a*a*a$a$a$a$a2a1a2a1aUa1a2a1a2a2a2a$a2a*a!a*a%a\a+bcbjbubDbWb6b2b<cicpczcNcGcLcRcRcWcWcWcScRcWcUcUc2cXc1b~cpc5c5c1c5c5c5c5c5c5c6c5b~aRa)cGb\akaYcBc6c6c1c2cUc2cWc2cWcWc2b)aSb#cWcUc2cScUcWcWcScRcRcLcLcGcGcNcBczczcucpclcib_b\b}b.b,bWbWbNbMbHbubrbjbdbcbcbca.a.a.a%a!a!a!a2a2aZa2a2aVaUaNaUaUaUa1aUaUaUaUaUa1a1a2a$a2a*a*a*a*a*a*a*a*a!a2a2a$aUa1aUaTaMaEaEatapapamamamakahahahaeagadadadadadafadafagagagagagaiaiadaiaKbTcfcycycbbBaKaKa:bkahbkb!csb~b>cOcxb)cSc!c5c5c1c1",
"aRaLb1b{b(b/b8cocCcFcFcIcOcScScUcUcUcUcxb>cmcAc1cIbCa+a.a<a!aUbjbga|bBb?cqctcDcgaxalaiagagadagadacacadadagagamamapasavaEaMaMaUaTa1a1a$blbgbgbga.a1a1aUa1a1a1aVa1a1a2a1a2a1a1a2a1a$a1a1a1aTaUaTaHaTaHaHaHaHaHaHaHaHaNaHaUaNaVaVa2aZaZa%a+a^bdbhbmbAbObWbPb2b#b\b_b_b`b`b~b`cjcLc1c5c5c9c5c5c5c!cecmc%c!c!c!c!c!c!c!c!c&c&b~a4bacRb~ara)cLc*c%c%c%c%c%c&c%c%c*c*b~a6b)c9c%c!c%c%c!c!c!c%c9c9c9c9c6c1c6cRclcib_b\b\b#b.bYb$bPbWbWbObAbAbtbmbobja]a}a[a<a+a+a%a%a!a5aZa2aVa2aVaNaNaUaHaUaMaMaMaMaMaUaMaNa1aUaUa1aUa2a2a2a!a2aUaTaMa\a%a*a$a2a$a2a1a1aUaHaHaEapapapakamahahahahaeaeagadadafadafagagagaeagagaiaiadaiaiaxbIcfctcba$aEa:bQaBbbb>cIcececUcGb(cUc5c5c5c1c1",
"aRaLb1cecab>b8cscCcFcIcOcScUcXcXc1c1c1cxb>cocFc1cIbCa/a.a+a2a2bmbwbibibFb0b?cfbTaialafafacadacadacadaeaeajamapatayazaTaMa1a1a1a$a$a\bca!ayasapatapapapapapapapapamapamapapamapapasasasapamasasanasasapasaoapasaoavavavazazaHaAaMaOaUaZaZa5a9a^a]bhbtbAbObWb6bYb.b#b<b\b_b`b2bnb)cWc*c%c!c!c!c&cmcoc&c!c!c!c!c&c!c!c&c&c&cja,bkcRb~aFa{cLc*c!c%c!c%c%c%c%c%c%c*cpa-b\c9c&c%c%c&c%c&c%c&c&c%c!c%c*c5cja;a:bPbYbSbSbSbWbKbCbAbtbma{a~a]a/a/a%a5aZaZaOaOaNaNaNaHaHaHaHaHaHauaEauaEaEaraEaoayavataEaoaEayatatavavatatatatatasasasayaEa\bja\a*a*a*a*a2a2a2a2aUazazavapakamahahahahahaeaeaeagadadadadadagagagadagaiaiaiafaibBb|cfa|aHa,bVa#a,cacUcocxc5cFb/cSc5c5c5c5c1",
"aRaDb8cocab>b8cxcIcIcOcOcScUc1c1c1c5c1cvb>cscOc1cIbPaZaVa!aZa%btbwbqa|bibibIb7a$aiafafafacababadagaeahamamasaEaKaMaTa1a$a$a$a*a\bca!aEasataoatananapapapatatapatapatatatatatatatavavavaEaraEaraEauauaHaHaHaHaHaNaNaNaVaOaZaZa5a%a+a[a}bebmbtbMbObWb,b.b}b<cnclcpcNcLc*c*c*c%cWb`bPb~c2c&c&c!c&czcvc&c!c!c&c&c&c&c&c&c&c&cpa>bkcWb~aObacLc*c!c%c!c%c%c&c%c&c%c*cua7b_c9c&c%c!c%c&c%c&c%c&c%c*c!cubfbab~c2c%c6cRcGcNczczcpclclchb<b.b,bWbObObtbtbmbha~a]a[a/a+a%a%a5a5aZaZaZaVaVaVaUaNaNaHaHaHaHaHaHaHaHaHaMaHazaHaHaHaHaMavaFa<aHaya2bdbla.a\a\a*a!a2a2a2aUaHazavatamahahajaeahahahaeagadagadadagadagagagagagajajafaialb7b|a*aHa:b3bna=cmcScscFc5cFb:cSc5c5c5c5c1",
"aPaDb(cscab{cacIcFcIcOcScScXc1c1c5c5c5cob>cvcOc5cIbYa8aYaYa9a~btbxbga|bia|bibpaKaiafafadacadadagaeahamasayaKaMa1a1a$a*a\a\bibga.aTasasaoaoapajamasapasapatatatapatataoavataravavavavazazaHazaHaHaHaHaHaNaNaNaVaVaZaZa5a5a5a%a+a/a^bdbjbjbubybMbMbXbOb4b6b,b=cdcnclcNcWc%c%c!c*c*cUb`bLcec1c*c&cBcGc&c!c&c&c&c&c&c&c&c&c*coa{bkcWcjaZbtcLc&c*c%c&c&c&c%c&c&c*c*cua)b_c9c&c!c%c&c%c&c%c&c*c&cvbna>b~c6c*c%cRczcEcib_cdb}b^b.b$b6b6b4bObObObMbtbtbmbmbmbha~a]a[a[a/a/a/a+a%a5a5aZaZaZaZaVaNaNaHaNaHaHaHaUaHaMaHaMaHaHaMaTa$aTasatatavayaya.bxbra`a.a.a!a!a!aQaVaUaCazavanajahajajajajajahagagagagagadafadadaeajamajajalaia1bWaKaHa7b1bEbkcmcScvcIc5cIb{cUc5c5c5c5c1",
"aPaDb(cscacab:cvcIcOcOcOcUcXc1c1c5c5c5cmb{cxcOc5cLb!bPbfaWa3a{bAbxbga\bca|a1a2aqafafagadadadaeajahamasaEaTa1a$a?a\bcbibqbrbpa2ayatataoamalaKbga!axaya+aUaEavavatavatavatavavavazazazazaHaHaHaHaCaNaNaNaNaVaZaZa5a5a6a%a8a/a/a]a]a~bhbmbubtbtbMbObOb6b,b2b}b\b_clclcucLc2c%c%c&c&c*c*cXb`b2cpc1cGcGc*c!c&c&c&c&c&c&c&c&c*cua=bkcWcpa9bbcLc*c!c&c*c%c&c%c&c*c&c*cua,b`c9c&c%c%c&c%c!c*c*cGbPbab:c2c&c5cWcGczczcpclclcnb\b\b}b#b.bYb$bPbWbKbCbCbCbAbkbtbfbta{bma{a:a~a:a]a]a-a/a9a9a%a6a6a5aZaZaVaZaVaVaUaUaVaUaUaNaMaMaKbIccbZa1axayavatasaKa`bDbra`a`a+a.a!aZaZaUaNaHazaoamakajajajajajahajahagagagadadagagakapamamajalasa]aEaza4b1bzbncscOcxcOc5cIcacUc!c5c5c5c1",
"aLaLb/cocecab/cxcOcIcOcOcUcXc1c1c5c5c5cmb>cxcSc1cIb(cmb)aXa4babAbxbga.bga`a$aUalafafagagagaeajajamataKaTa$a?bcbibqbFbwbra*aKapatapapaqa1bZb]bTaKaxayayaZa2ayavavavavaoaEaEaEaHazazaAaAaHaHaNaNaNaNaVaJaVaSaYaYa0a9a8a(a&a(a,a;a{btbfbAbvbPbYb#b#b\b>b~b~cjcpcuczczczcBcRcUc%c&c*c&c&c*c*cXcpb#b)cGc*c%c&c&c&c&c&c&c&c&c*cubabncWcpa+btcLc&c*c&c&c&c&c%c&c&c&c*cua:b`c%c%c%c%c%c%c*c6b2btb`cWc&c&c5cUcRcRcLcGcGcBczcucpb~b`b_b\b<b#b#b2bYbYbPbPbKbzbCbnbAbkbtbaa{a{a{a~a~a:a-a/a&a/a9a9a5a5a5aZaZaZaZaZaZa2aUa2aOa2aUaTaKbFcycwb-a?axaxatasasaMbobMbobca.a.a%a!aZaVaVaNaHazaoamajajagajaeajahagagaeagagagagapatapapaqamaHaNataua4b1bLbQcocOcxcSc5cOcacUc!c5c5c5c5",
"aLaDb/cscacab:cxcOcOcOcScScXc1c1c5c5c5ceb{cAcSc1cFb(cxb~aRa,bfbtbxbga`bpbga`a`ayacafagagagahajapasaKa1a$a\bibqbFbFbIbgaTasataoamaqa?b?crcfa|axatayaKaMaEavavavavaraEavauaHaHaHaHaAaAaCaCaCaIaGaJaLaPaYa0a3a)a,a{a_bfbnbvbEbSb2b3b)b_b`b~cpcuczcxcBcGcGcLcLcIcLcOcOcRcSc2c1c9c%c&c&c&c&c*c*c*cRbncBc*c%c&c&c&c&c&c&c&c&c*cubabncWcpa9bbcLc*c!c&c%c&c*c!c&c*c&c*cua~b`c+c%c%c%c%c%c*cGb#c2c*c*c&c!c9c5c1c6c1c2c2cWcOcLcFcGcBcscucecjb`b:b)b!b3b2bQbSbSbEbzbsbnbkbfbabaa{a{a{a~a:a:a-a8a/a8a9a0a5a5a5a5a5a5aZaZa2aOaUa2a2a1aKa1b7cEcDb-a?axasapanamaUbubDboa^a.a%a5a!aZaVaNaHaHavanamajahajajajaeagahamajajaiayaMa*a1axaza2aoaoaraXb1b1bVcmcOcAcSc5cIcacXc!c5c5c5c5",
"aGaDb/cscaceb>cxcOcIcOcScScXc1c1c5c5c5ceb>cCcSc1cIb)ceb>a7a>bnbAbrbga`bpbwbpblaTacafagaiagajapasaMa1a*a\bcbqbFbybla$ayapapamaqa$b+cJcDb9aTaxaKavaHaUazavavaraEavazavazauaHaBaCaIaOaQaSaRa0a4a)a;bbbkbvbEbGb2b3b!b)b:b`b~cacecoczcvcBcGcFcFcOcOcScScScUcScXcUcXc1c1c5c!c!c&c!c!c&c&c*c&c&c&c*cUbsczc*c&c!c&c&c&c&c&c&c&c*cua{bAcWcja-btcGc*c!c&c%c*c&c%c&c*c&c*cua-b_c9c%c%c%c%c&c%cWcLc*c*c*c&c&c!c!c!c9c!c5c9c5c1c1cXcUcScOcOcFcCcxcscuceb{b~b:b)b!b3b2bYbSbEbzbvbsbkbkbbbabaa{a;a:a:a(a8a&a9a9a6a6a6a5aYa5aSaZaQa2aZa2a2a1aKa?b*cJcEb-a?aqapapaqaqaVbobtbja^a+a+a%a5aZaVaNaHaAavapakamahajajagakapapalajaTblbIa?aTa!azapaoaraXb3bQbGcmcIcCcUc1cOcacXc!c5c5c5c5",
"aDaDb>cscaceb>cxcOcOcOcScScXc1c1c5c5c5cab>cFcSc5cIb(b!a_a#a>bkbAbmbgbibxbIbwbwa*acafagaiajapayaMa1a*a\bcbpblbga*ayakakakala$b*cJcTcga|axaKaEaNaHazavavavauaHaHaCaIaOaSa6a3a(a:a{a_bfbnbvbEbGbQb2b1b!b)b/b/b`b{cacecmcocscxcBcCcGcIcLcOcOcOcScUcUcXc1c1c1c1c5c!c!c&c&c&c&c&c!c!c&c*c&c*c&c&c*cWbncuc*c&c&c&c&c&c&c&c&c*c&cua;bkcRcpa-bbcGc*c%c%c&c%c*c&c&c%c&c*cua]b_c+c%c%c%c%c%c%c2cLc+c%c*c&c&c&c&c%c&c&c&c%c%c!c9c5c5c1c1cXcUcScOcOcFcGcAcvcocmcab~b>b/b)b!b1bQbYbGbEbvbsbkbfbbbaa>a{a,a:a-a&a8a&a9a6a0a6a5a5a5aZa5aZa!a!a$a1aTa?b?cEcJb-a?axalasamaqa5bubtbja[a/a+a%aZaVaVaNaHaHataoamamajajakapasasala?bZbTbBbca1asaoaoaoaXbVbLbGcecIcCcUc1cOcecXc5c5c5c5c1",
"aDaLb/cocacab>cAcOcOcOcScScXcXc5c5c5c5cab>cFcUc5cOb8b{b1a=a_bnbAbebgbgb0bRb0bRa\acaiajajamataKa2a*a\a`bca<aUatalajamalaybTcDcTcwbTaKaKaTaMaUaUaAaHaUaOaZaYa9a&a&a-a;a{babfbAbnbvbzbPbLbQbVbVb3b8b(b/b:b`b{cacacmcscscvcBcAcFcIcIcOcOcOcUcUcXc1c5c!c5c!c!c!c&c&c&c&c&c*c&c*c!c!c&c&c&c&c*c&c*cWbncuc*c*c%c&c&c&c&c&c&c&c*cpa>bAcRcpa-btcGc*c!c!c%c&c%c*c%c&c%c*cua-b_c9c%c%c%c%c%c+cWcLc+c%c&c&c&c&c&c&c&c&c&c&c!c!c!c!c5c5c5c1c1c1cXcUcScScOcIcIcCcBcvcocmcecab`b:b(b8b!bVbYbLbEbzbsbnbfbbbaa{a;a~a(a(a/a8a&a9a%a6a6a5a5a5a5a!a!a|a$aTa|cbcMcJb9a1aialapamasa!btbtbha[a^a+a%a!aZaVaMaHazavapapajamatayayaxbFb*b*b*biayamapanaoaWbVbLbGcecIcCcUc1cOcacXc!c5c!c5c5",
"aDaDb/cocacab>cAcOcIcOcScScUcXc1c5c5c5cab>cFcUc5cSb/cFcFbsa_bnbAbebgbgb7bZb9bZbcacajajamasayaMa$a\a.a*aUasajahahajaxbicfcMcMb9a?aKaTa1a!a.a6a6a6a9a9a&a-a-a:a:a;a{babfbtbnbsbCbEbGbSbQbVbVb!b8b)b:b`b>cacacecmcscvcBcAcCcFcIcOcOcScScUcXc1c5c5c!c&c&c&c&c&c&c&c&c*c*c*c*c&c9c!c&c&c&c%c%c*c*cRbAcpc*c%c&c&c&c&c&c&c&c!c&cpa>btcRcpa-bacBc*c%c!c%c%c&c%c&c%c%c*cpa`b_c9c%c%c%c%c%c+c2cLc+c9c!c&c&c&c&c&c&c&c&c%c&c!c!c!c!c!c5c5c5c1c1c1cXcUcScScOcOcIcIcCcBcvcscmcecab{b>b:b(b!b3bVbYbLbPbzbvbnbfbba{a{a:a:a(a[a8a+a9a9a6a6aYa5a!a`blbca1aTbBcfcQcJb7aTaiajamalaEa/bAbtbja^a^a+a%a!aZaNaNaHazatamamatatayaKb7b|cgb?a1aqapananaoaWbVbLbLb{cFcAcScXcOb{cFcScScScScS",
"aLaDb/cmb{cab>cAcIcIcOcOcScUcXc1c1c1c1cab>cCcUc5cSb{cIcIbGa_bvbAbhbgbgb9b*bRbZbcafaiajasaEaMaUa\bcbxa*aUajaialaqa$b7cycJcbbiaTaTa1a`a`a<a<a&a9a&a&a&a&a-a:a:a;a{babbbfbnbCbvbzbPbGbQbVbVb3b!b)b:b>b~b{cececocscvcBcCcFcIcIcOcScScUcUcXc1c1c5c9c!c!c&c!c&c&c*c&c&c*c*c&c&c!c5c9c!c%c%c%c!c%c*cRbfcpc*c*c%c&c&c&c&c&c&c%c*cua,bfcRcpa<bacBc*c!c!c!c!c%c%c&c%c%c%cua<b_c9c%c%c%c%c%c+c2cLc+c9c!c&c&c&c&c&c&c&c&c%c&c!c!c!c!c5c!c5c5c5c1c1c1cXcUcUcScScOcOcIcFcCcAcvcscmcecab{b>b:b/b!b!b3b3bQbYbPbEbzbCbkbfbta{a{a~a~a:a[a&a9a9a+a9a%a<bxbxbqa$a?bBcycQcDb0aKaiamamamaHa^btbMa}a^a.a%a!aZa2aUaHazapapatayaxaKb9ctcgb9a$aqapapananaXbQbQbLb:cCcvcOcXcOcacOcScScScOcS",
"aLaDb/ceb{cab{cxcIcIcOcOcScUcXcXc1c1c1b{b/cCcUc5cSb{cFcIbGbfbEbnbrblbpb9b%bTb0a.afajamavaEaUa*bcbFb4a|alalaxa$bTcbcDcqbFaTaTaTa?bebga<a<a+a&a&a&a&a&a-a-a:a;a{bababbbkbnbvbzbEbGbLbQbVb8b!b(b/b>b{b{cececocscvcAcCcFcIcOcOcScScUcUcXc1c1c1c5c5c!c!c!c!c!c!c&c&c&c&c&c&c&c9c1c9c%c%c9c%c9c!c&cLbacjc*c%c&c%c!c&c%c%c!c&c&cpa)bacLcja<bmcBc%c%c!c!c%c!c!c%c!c9c%cpa<b\c9c%c%c%c%c%c9c2c0c!c9c!c!c!c!c&c&c&c%c&c&c!c!c!c!c!c!c5c5c5c5c5c1c1cXcXcUcScScScOcOcIcFcGcAcxcscocmcab{b~b>b:b)b)b8b3b1bVbYbSbGbKbzbCbnbAbbbaa{a{a~a:a[a[a/a/a+a.a`bRbRbFa?a?b0cycPcybIaqalaqapalbdb,bra}a<a.a%aZa2aOaNazatapayavaxaKb-cgcfb-a?aqapananaoaWbQbLbQb(cAcecOcXcIcmcXc1c1c1c1cX",
"aGaGb/cab{b{b{cxcIcIcIcOcScScUcXcXc1cUb>b/cCcSc5cSb{cFcIbzbkbEbAa{bwblb9b-b*bXa?acajamavazaUa*bcbJb6bcaqaqaxbicbcbbTa$aKaTa?bgbwbga<a<a<a/a&a&a&a-a(a-a:a,a{a=a{bbbfbkbsbvbzbGbLbQbVb1b8b8b/b:b{b{cacecocscxcAcCcFcIcOcOcOcScScUcUcXcXc1c1c5c5c5c!c!c5c!c!c!c&c&c&c&c&c%c9c6c1c%c9c9c9c9c%c*cLbhclc*c%c%c!c%c%c!c!c!c!c*cpa-bacLcja9a~czc*c9c%c!c%c!c%c9c!c9c9cpa<b\c6c*c%c%c%c%c+c2cRc9c9c5c!c!c!c!c!c&c&c&c&c&c&c!c!c!c5c!c5c5c5c1c1c1cXcXcUcUcScOcOcOcIcFcCcAcxcscocmcecab>b>b:b/b)b8b8b3b3bVbYbLbGbEbzbvbsbkbtbba{a{a~a:a]a-a-a/a/a<a`blb4bRbia?a?b0cDcMcgbialaxala}b.bHbea^a+a!aOaNazatapamamatavayaTb-cgcfb-a`aqapapanaoaWbQbVbQb8cocacIcUcIcmcUc1c1c1cXcU",
"aGaGb/cab>b{b>cxcFcIcIcOcOcScUcUcXcXcSb>b/cAcSc5cSb>cGcFbnbfbGbnbhbrbpb*b%b7bJa*acafagajajamaqaKaUa.aNaqasayaKa$a1aKa1a1a?bRbxbgbga^a^a/a[a&a-a-a&a-a:a:a;a{a=babbbkbkbvbzbEbLbYbVbVb8b8b/b:b{b{cacecmcocvcxcCcCcFcLcIcOcOcScScScUcXcXcXc1c1c5c5c5c5c5c5c5c!c!c!c!c!c!c9c!c6c6c9c9c9c5c9c5c%cGa]b~c9c%c9c!c!c%c!c!c!c%c!cpa7a{cGcla9a~czc%c9c9c9c!c9c5c!c5c9c9cja^b<c9c%c%c%c%c%c9c2cRc$c5c5c1c5c9c!c!c!c!c!c!c!c!c!c!c5c!c5c5c5c1c1c1cXcXcUcUcScScOcOcIcIcGcAcxcvcococeceb{b{b>b:b/b)b8b8b3bVbVbYbLbPbEbKbvbsbnbkbtbaa{a{a~a~a:a]a-a[a[bdbgbpb9bMbia.a?a|b*cyctbIaxala2bya*aMayapamajajajajajajakataEaya1b]cgcfb-bpapamamakakaRbVbVbLb8cecacIcScIcecUcXc1cXcXcX",
"aGaGb/cab>b{b:cxcFcIcIcIcOcScScUcUcUcSb>b(cAcSc5cOb/cAcAbfbfbEbnbhbrblb0b0bJbFa$afajaoauaAaCaCaHaCazaoaEavaKa1a$a!bca|a1bpb9bJbwbwbgbda^a[a-a(a-a-a:a:a:a{a>a>bbbfbkbsbvbEbGbYbQb1b1b8b(b/b:b{b{cacecmcocscxcAcAcGcFcIcIcOcOcScScScUcUcXcXc1c1c5c5c5c5c1c5c5c!c!c5c!c!c5c9cXc6c9c5c6c6c5c6c%cBa/b_c9c9c5c%c9c9c!c9c5c9c!cpa&a{cGcla2a-cuc9c9c5c9c5c9c5c9c5c9c9cja^b<c6c%c%c%c%c+c9c2c4c5c9c1c1c1c5c5c9c!c!c!c!c!c!c!c5c5c5c1c5c1c1c1cXcXcUcScScScOcOcIcIcGcCcxcvcscocmcecab{b>b>b/b)b)b!b1b3bVbQbQbSbGbEbzbsbsbkbAbbbabaa{a{a;a~a]a]a]bdbhbybJb+b4a.a.a.a|a?bibRb9a.axamamapatatavavataoapahajajamavaEaKaTb]ctcgb]bwalaiavaOaWa#bQbLbGb1cacacFcOcIcecUc1cXc1cXcU",
"aGaGb/b{b>b>b:cvcCcCcFcIcIcOcScScScUcOb:b/cxcSc1cOb(cvcvbbbfbEbnbmbxbpbJbIbqbca1asaQa-a3a{bnbYb~cjbPa:a-a/bmbrbpbpbqa|a1bFb;bRbJbIbjbdbda[a-a-a:a-a:a:a;a;a{a_bfbkbsbvbzbGbLbQbVb1b3b8b(b/b/b{b{cacececococvcxcAcCcCcFcIcIcOcOcOcScScUcUcUcXc1c1c1c1c1c1c1c5c5c5c!c5c9c5c9c2cXc9c6c6c6c6c1c9cBa%b_c6c9c9c9c9c5c9c5c9c5c9cja&a:cGciaQa-cuc6c6c5c6c5c9c5c5c5c6c9cla&b#c6c%c%c%c%c%c9c2cRc9c6c1c2c1c1c5c5c9c!c5c!c5c!c5c5c5c1c1c1c1cXcXcXcUcScScOcOcOcIcIcFcAcBcxcvcocmcmceb{b{b>b:b)b)b8b!b1bVbQbYbLbGbEbEbvbvbsbkbkbtbbbaa{a{a~a~a:a~a~bmbHbNbXccb$bca.a.bia\a.a?a`bKbYb#b#bsbkbCbCbsbtbaa-auajahamavavaKa1b[ckcgb|bWb6b)b_b!bzbfbVbGbLb1b{cacFcOcCcecScScUcXcUcU",
"aGaGb(b{b>b>b/cscAcCcxcIcIcIcOcScScScOb/b(cxcOc5cOb!cscsa_bfbEbnbmbtbgbIbqa*a*aMazapanapaHa9bCb<b<bCa{bhbmcnb}bFb0bRbia?bTccb9b0bJbrbjbda]a]a:a:a:a:a,a;a>a_a_bfbnbsbzbEbLbLbQbVb1b1b8b(b(b/b>b{b{cacecmcocscvcxcAcCcCcFcIcIcOcOcOcScScUcUcUcXcXc1c1c1c1c1c1c5c5c5c5c5c9c5c2cXc9c6c6c2cXc6c6cua9b_c6c6c1c6c5c6c1c6c1c6c5cja9a:cBciaUa&cpc6c6c1c6c1c6c6c1c6c6c6b~a+b2c6c9c%c9c%c+c9c2c4c6c6cXcUcXcXc1c1c5c5c5c9c5c5c5c1c1c1c1cXcXcXcUcUcScScOcOcIcIcFcCcCcAcxcvcococececab{b>b:b:b)b)b8b3b1bVbYbQbSbPbEbzbvbsbnbnbtbfbabaa{a{a~a:a~bhbobHbNbZb&cwb[bqa|bwbRbFbia!bmb_b~b3b!b)b)b!bPbvbnbta,a6azakamarazaMaTb^chcwclb#bAa{aOaYbfbkb2bEbEb1b{cacFcOcCcmcScScUcUcUcS",
"aGaLb(b{b>b>b(cmcxcCcCcFcIcIcIcOcOcScOb(b8cvcOc1cOb3cocma_bbbEbkbtbtblbwa\a$aUazazamagamamatazaIa9aSapalaEa^bRb0b?b-bFa?b0cwb]b*bRbIbobdbda:a:a-a,a;a;a{a>a_bbbkbnbvbzbEbLbLbQbVb1b1b8b(b(b/b>b>b{cacecececocscvcxcxcCcCcFcIcIcOcOcOcScScScUcUcXcXcXcXcXcXcXc1c5c5c5c5c6c5c2c2c6c1c2c2cWc2c6cpaSb!c2c6cXc6c6c1c2c6cXc6c2cjaSa]cBb_aUaScjc2c2cXc2c1c2c1c6c2cXc2cla6bYc2c9c9c9c9c9c9c2cRc6c9cXcScUcXcXc1c1c5c5c5c5c1c1c1cXcXcXcXcUcUcScScOcOcIcIcIcFcCcAcxcxcscocmcececab{b{b:b:b/b)b8b!b1bVbVbQbSbGbEbzbzbsbnbnbkbfbbbta{a{a{a:a~a~bhbubHbXb%b[cKccbqbib7b]b7bBa$a2bbbPbEb:cjcab~bGbYbSbCa-aYaAapapazaHaMaTb.cucpb_bPa6azaYa&a&aXbVbEbvbVb>cacFcOcAcmcOcScUcUcScO",
"aLaLb(b{b/b/b(cmcxcAcCcCcFcIcIcOcOcOcOb(b8cocOc1cIb3cecea=bbbzbkbtbMbrbwa\aTaMasajafagajapaza-bCb#bKalacaia$bTb?cqckbTa?b*cKckb-b7bHbrbjbda:a:a:a:a;a,a;baa_bbbkbsbvbzbEbGbLbQbVb1b1b8b8b(b/b>b>b{b{cacececmcocscscxcxcAcCcFcFcIcIcOcOcScScScScUcUcUcUcXcXcXc1c1c6c1c1c6c1c2c2c6c2cUcWcWcWc2cjaQb#c2c2c2cUc2cUc2cXc2cUc2b~aQa&czb\aUaQclcUcWc2cUc2cUc2cUc2c2cWb`a!bPc2c6c9c9c9c9c6c2cRc$c6cXcScWcUcXcXcXc1c1c1c1c1cXcXcXcUcUcUcScScOcOcOcIcIcFcFcAcAcxcvcscocmcecab{b{b{b:b/b)b(b!b8b1bVbVbVbLbSbPbEbzbvbsbnbkbkbtbbbabaa{a{a~a~a~a{bybNb&b]cycVcrbFbBb-ctb?bFa?axanakaWb3b)b:b)bsbba{a~a)aYaAapaoazaHaNaIbPcNb~bYa{a6aAazaraoaJbVbzbvbVb>cacCcIcAcecIcScScScScO",
"aLaLb(b{b/b/b(cmcvcxcAcCcFcFcIcOcOcOcIb(b8cmcOc1cFbVcab~a=bbbvbfbtbObDbxa`aTaKamaiagamapapaza6btbKbKaHacaxbBb?cqcDcDb0bBb?cYcHcbb9bRbybjbda:a:a(a:a,a,a;baa_bbbkbnbvbzbEbGbLbQbQbVb1b1b8b(b(b/b/b>b{b{cacacecmcococvcvcxcAcCcCcFcIcIcOcOcOcScScScScScScScUcXcXc1c1c1cXcXc6cUc2cXc2cWcRcWcWcWb~aFb2cWcWcWcUcWcUcWcWcWcUcWb`aOa&cub\aMaOb~cWcWcWcWcUcWcWcScWcRcWb\a2bKcWc6c2c6c1c6c6cWc4c1c2cUcScOcScScUcUcXc6cXcXcXcXcXcUcScScScOcOcOcIcIcFcCcCcxcxcvcscocmcececab{b>b>b>b/b(b(b!b1b1b1bVbVbQbYbGbGbEbzbsbsbnbkbkbfbababaa{a{a{a~a{bmbybUb+cgcEc4cwbIbFcfcDcfb0a|axamakbQcjb~b/bYa3azapamatavaoapaoaEaAaNaObKcucub_bea6aIaHaHaraPbVbzbsbVb/cacCcFcAcecIcOcScOcOcO",
"aLaGb(b>b/b/b(cecvcxcxcCcCcFcFcIcOcOcIb(b!cecIcXcFbVb:b:a>a_bvbfbAbObWbObcaTayalaiafagamapazaQbabPb#bKa\a1b0cfcDcMcMb7bBcbc(cPckb-b0bIbja]a:a(a(a:a;a,a;a=bbbbbkbnbsbvbzbEbGbLbQbQbVb1b1b8b8b(b/b/b>b{b{cacacececmcococscvcxcAcAcCcFcIcIcIcOcScOcScScScOcScScUcUcXcXcXc2c1cWcWc2cUcRcRcRcRcRb_aFbScRcRcWcWcWcRcScWcRcWcRb_aOa9cub<aMaIb`cRcRcScRcWcRcScRcRcRcRb\aYbKcRc2cXc2c6c6c6cWcRc2c2cScRcOcOcOcScScUcUcUcUcUcScScScOcOcOcIcIcFcFcCcAcxcvcscscocmcececacab{b>b>b/b/b(b8b!b8b1bVbVbQbQbLbLbGbEbzbvbsbsbkbkbfbtbbbaa{a{a{a{a~bhbmbDb9b]ckcQc(cEbJbIcgcMctb*bBaKaMbsb#b3b2bSbSbEbaaSazatamajajapazaHaNaQbCczcRczb6a.aUaMaEaHaJbVbzbsbVb/cacAcFcvcecIcOcOcOcIcI",
"aPaLb(b>b/b/b(cecscvcxcAcCcCcFcIcIcOcIb(b1cecIcXcCbQb)b)a;bbbzbbbAbWbObUbcaTayamajagafajapaHa6bAb<b_bKbtbIb9cqcDcQcQb*bBcgc)c3cwcbbZbybja]a:a-a(a:a;a;a;a=a_a_bfbkbnbvbvbzbEbGbLbQbQbVbVb1b8b8b(b(b/b>b>b>b{b{cacececmcecocscscvcxcAcAcFcFcIcOcOcOcOcOcOcOcOcScScUcUcUcWcXcWcScWcWcLcLcLcLcRb\aAbPcLcRcLcOcRcOcRcOcRcOcRb)aOaYcpb#azaHb_cIcLcOcRcLcRcLcRcLcLcLb<aSbCcLcWc2cWcUc2c2cWc0cWc2cOcIcIcIcIcOcOcScScScScRcOcOcOcOcIcIcFcCcCcxcxcvcscocmcecececab{b{b{b>b/b(b(b(b8b1b1b1bVbVbQbQbLbGbEbEbzbvbsbnbnbkbbbbbababaa{a{a{bha~a{bmbMb9b]crcVc8cHbRb0cycTcyb?bTa?bSb<bzbKbEbzbna{a-aSavamamajajatazaHaNaZbCcNcLcpb.a.a2aMaEaHaLbVbvbsbQb(cacAcCcscecFcOcIcIcFcF",
"aLaLb(b>b/b/b(cecscscxcxcCcCcFcFcIcIcFb(b1cecIcUcCbQb8b(a;a_bza_bAbWbOb4bgaKaEamafagamapavaHa]bKb#bSbma+a?b0ctcJcQcQb?bFcyc,c#cHcfbZbJbja-a-a(a-a)a,a;a;a=a>a_bbbfbkbnbvbvbzbEbGbLbLbQbQbVbVb1b8b8b(b(b/b/b/b>b{b{cacecacecmcmcococvcvcAcCcCcIcFcIcIcIcIcIcOcOcOcScScScWcUcWcRcWcRcLcGcLcGcLb#aAbKcGcLcLcLcLcIcLcLcLcLcGb\aCaScpb2aEaAb)cLcLcLcLcLcLcLcIcGcFcLb#aObCcGcRcWcWcWcWc2cRcRcRcWcOcGcFcFcFcFcIcIcOcIcOcIcIcIcFcFcCcAcAcxcvcscocmcmcececab{b{b{b>b>b/b(b(b8b8b1b1bVbVbVbQbQbLbGbGbEbzbvbvbsbkbkbkbfbbbababaa{a{a{a{a{a~bhbmbMb%cfcwcYc)cKb7b7cDcTcDcbb0biatakbEb`b`b)bYbCbfa]aOatajaiajavaHaHaNa5bCb<b9b^bxa2a$a2aUaoaObVbvbsbVb8cecxcAcocecIcLcIcIcCcC",
"aPaLb(b>b/b/b1cacscscvcxcAcCcCcIcFcIcFb(b1cacFcUcAbLb1b1a=bbbza_bCbWbUb4bgaTaEamaiakavaCaZa-bKb_cucjb#bla|b*ctcJcTcTb?bTcyc,c(cHcgb7bJbja]a[a(a-a:a,a,a;a=a=a_a_bbbfbfbkbnbsbvbzbEbGbGbLbLbQbVbVbVb1b8b8b8b(b(b(b/b/b>b>b>b{b{cacacececmcmcscvcAcFcFcGcFcFcIcIcOcOcRcOcRcScRcRcRcLcGcBcGcBcGb#arbzcBcLcGcFcLcGcGcFcGcGcGb!aCaScjb2avaub!cGcGcFcGcGcGcGcGcCcBcGb#aNbAcGcLcLcRcRcWcWcRc0cRcRcLcCcAcAcAcCcCcFcFcFcFcCcCcCcAcvcscscocmcececacab{b{b>b>b>b/b/b(b(b(b8b1b1bVbVbVbLbLbLbLbGbGbEbzbzbvbsbnbkbkbfbfbbbabtbabaa{baa{a{a{bhbhbtbNb&cgcEc0c)cPb7b7cDc3cJcbb7bia%bnb`czcub~b)b2bPbCa{aQapajamavaHaHaNa!bOb$b&chbIa!a2aKamaiaNb3bvbnbVb8cecvcAcmcecFcFcFcGcCcA",
"aRaLb8b>b/b/b8cacococscxcxcCcCcFcIcIcCb8b8b{cCcUcAbLbVbVa=bfbvbabOb6bUb4bgaTaEasaiamavaNa5a]bPcicucjb}bMbBb*cycJcZcTb?b0cDc-c(cKcgb9bJbwbdbda~a/aZaCawawaCawaCawawaBaBaDaDaDaDaDaJaJaJaJaDaLaLaLaLaRaPaRaRaPaRaRaRaRaRaRaWaWaXaWaWaXaXaXaXaWa4a#bsb>cxcAcAcFcFcFcIcIcOcLcOcLcLcOcGcBcBcBcBcGbYaobvcBcBcGcAcGcCcCcBcCcBcBb!aAaOcjbYavaub!cBcCcGcCcGcCcAcBcAcBcBbYaIbkcBcGcLcIcLcRcRcRcRcLcRcGcBcxcxcvcxcxcAcAcAcxcxcebVbna=a=a=a=a;a;a,a,a,a#a#a7a7a7a7a4a4a4aXaXaXaWaWaRaRaRaSaPaLaLaLaLaLaLaJaJaGaJaOaOaVaVaOaIaVaOaOaOa9a~a{bhbubDbMb+cgcEcYc)cPb*b7cJc3cMcqb7b[bYbScjczcub~b<b2bPbCa]aYatajamazaHaUa2a`cwcYcHbOa?avaqapapajaJb3bvbnbQb8cacmcvcececFcCcCcCcAcA",
"aRaLb(b>b(b/b8cacmcocscvcxcAcAcFcFcFcCb8b8b{cAcScAbGbVbVa=bfbva>bOb$b4b4bgaTaMasaianaEaVa6bhbScicucjb<bRbFb*cycMcZcZb?b7cJc-c)cKcgb7bJbIbgbUcNbgaKayaxamamakakakakakakakakakakakahakakakakakakakakakakakaoakakaoakanakaoakanananananaoaoaoanaoananawb:cxcxcxcAcCcFcFcIcGcLcIcGcLcGcBczcvczcBbPanbnczcvcBcBcxcBcBcxcxcBczb3auaGb~bSatarb3cvcBcBcBcxcBcxcxcvczcvbYazbaczcAcCcGcFcLcRc0cLc0cLcAczcscscocscscscvcvcvb{aPaoaraoaoaoaoaoaoaoaraoaoaoaoaoaoaoaoaoaoaoananaoananananananananananananananakapanapapapapamapapapasataKbtbObDbMbUb&cgcEc7c)cPb*b*cJc3cMcqb*b.bObScjczcsb~b)b2bSbAa~a!atamapaMaUa2bcb;b|b|bZa1axaKaUaNapajaGb3bvbkbLb8cacecocacmcCcAcAcAcxcx",
"aRaLb(b/b(b(b1b{cmcmcocvcvcxcAcCcFcFcCb8b1b>cxcScxbGbQbQa_bfbva=bOb,bOb4bga1aUaEaiasaHaZa%bmbYclcpcpcdbRbFb?cycMc3cZcbb7cEc-c)cQcgb9bRbIbpb+c8b]bTbTbla*aTaEaoavaoatararararararauauauauauauaBaBauaBaDaDaBaDaDaDaDaLaJaLaLaLaPaPaPaRaRaRaRaWaWaRaBanbVcocscvcxcAcCcCcCcGcFcGcGcCcxczcscocucvbEakbkcmczcsczcvczcvczczcsczb2araCb`bSapaub2cscscvcvcvczcscscscocubQara>cucxcxcBcCcGcLcLcGcGcGcBcmcmcmcmcmcmcmcmcmcmb8aBauaBaLaPaRaRaRaWaRaWaRaWaWaWaRaRaRaRaRaRaPaPaLaLaJaJaJaGaGaGaDaBaCaBaCaCaAaAauazauazaHaEaHaMaMaUa1a1a1aTchcnbRbUbZb+ckcEc7c)cPb*b*cHc7cTctb7bibtbYcjczcob`b)b2bSbOa]a5avaqataMaUa*b4b5bRbiaTa?a.a6avaqamaiaGb3bsbzbQb3caceceb{cmcAcAcxcAcxcv",
"aRaRb(b/b(b(b1b{cecmcocscvcxcxcCcAcCcAb1b1b>cscScxbLbLbQa_bfbva=bOb.b5b4bqa1a2aEalataNaZa/bmb2clcucpchbRbFb?cycTc3cZcbb*cMc-c)cKcgb9bRbIbwb+c8b]b0b*b5bNa\aVaHaHaCaAaFaOaJaLaJaJaLaPaPaPaPaRaWaWaXaXa4a4a4a7a#a#a#a#a=a;a=a=a_a_a_bbbfbfbfbkbkbkaPanbQcmcecocscvcxcAcAcAcGcBcAcBcvcucmcpcecobzakbfcecmcocucococococzcocubQaraCb_bPanarbQcmcococzcococmcmcmcmcmbPara>cecscscvcxcBcBcNcGcNcBczcmcecececacecacecaceb1aBaBaXbkbsbnbnbnbkbkbkbkbkbkbfbfbbbba_a=a=a;a;a#a#a:a(a(a8a8a3a3a0a0a0a0aYaYaSa5a5a5a5a5a5a!a+bdbjblbcbca|cHcEbXbZb5b;ckcHc7c,cVb*b?cQc7cTcyb*bibrbOcjczcob~b<b2bSbOa]a!azaqaEaUa2a\brbia?a|a?aTaTaxalajajajaPb3bvbnbQb3b{b{cab{cmcAcxcxcxcvcs",
"aRaRb(b/b8b(b1b{cececococvcvcxcAcAcCcAb1bVb>cscOcxbLbLbLbbbfbva,bWb[b9b5bqa$a2aMalaEaUa5a/bmb2clcucpchbRbTb?cDcTc3c3cbb?cKc-c)cKcgb9bRbIbwb]c8b]b0b*bXbJa\aZaNaNaCaFaIaQaOaLaLaLaPaPaRaRaRaWaWaXaXa4a7a7a#a#a#a=a;a=a=a=a_bbbbbbbfbfbkbkbkbnbnbnaRarbGcacacmcmcocscvcvcvcBcvcBcxcocecpcacjcebnaka_cacpcecmcpcmcmcmcpcmcebYaraDb)bKanarbLcpcmcmcmcucmcmcecececjbGara,cacecmcucscvcBcBcNcBczcscecacacacacacacacacab1aoaDa=bLbGbEbzbvbvbnbsbnbkbkbkbfbbbba_a_a{a=a=a;a;a,a#a(a(a(a8a8a8a3a3a3a0a0a0a5aRa5aYa5aYa%a^bjbwbrbgbibccHclb7b9b9b]ctcHc7c,cVb-b?cQc#cTcyb?bBa|bJcjczcub`b\b#bSbAa~a5azasaKa1a*a*a|aTbBb-b]b0a.aqalajajaja5b3bvbfbLb!b:b>cab>cocxcvcxcvcscs",
"aRaRb(b/b8b8b1b>cacececocscvcxcxcAcCcxb1bVb/cmcOcxbLbGbLa_a_bsa:b4b^b9b5bqa$a$aMalavaUaZa/bmb2clcucpchbRbTb?cDcTc3c3cbb?cKc+c)cPcgb9bRbIbwb&c4b9bBbJbTbua\aVaNaNaIaOaQaPaPaPaPaPaPaRa0aWaXaXa4a4a7a7a#a#a#a=a=a=a=a_a_bbbbbfbkbkbkbnbsbsbvbvbzbzaXaobzb{cacacececmcscscscvczcvcvcucacjcacacjbkaha_b{cacacececpcececececjbLaraGb!bKanarbLcacecpcecececpcecacjcabEara)b`cecececmcoczczczczczcmcacab{b{b{b>b{b{b{b{bVauaBa_bVbVbQbLbGbEbEbEbEbzbvbvbsbnbnbkbkbfbfbbbba_baa=a=a;a,a,a)a)a(a7a(a8a3a3a9a3a6a6a6a6a%a^bjbobjbca\a\cpcEbRb9b9b]cycHc7c,cVb?b?cTc#cTcDb?bBbBbXcjczcub`b)b#bSbAa~a5azayaTa2a*a*a|bBb0b9b]b]b[a.alajahala%b#bsa_bLb3b/b:b>b>cmcxcscvcscsco",
"aRaWb8b(b8b8b1b>cacacecmcscvcvcxcxcxcxb1bVb(cecOcvbLbGbLa_a_bna(b4b|b-b7bqa$a*aMalaEaUa!a/bmb2clcucpchbRbTb?cDcZc7c3cqb?cPc+c)cQcgb9bRbIbwbMcibIa*a.bca^a%a5aSaSaYa0a3aXa4a7a(a7a#a#a;a=a=a_bbbfbfbnbnbvbvbzbEbGbGbLbLbQbQbVbVbVb1b1b1b8b8b8b(b(bbaebvb>b{b{cacacecmcmcmcocmczcocpcacab~b{cabfaha_b>b~cab~cacacacacjcacabPaoaDb!bCakaobGb{cacjcecacacacacacab~bzaoa#b`b{cacacecpcuczcucucpcecab{b>b>b/b/b/b:b:b/bLaoaBa_b1bVbQbLbLbGbGbEbEbEbEbzbvbvbnbnbnbkbfbba_a_a=a=a=a;a;a,a,a,a)a)a7a(a4a8a8a9a3a6a6a9a9a/a}a[a<a!a*bccicdbMbZb&b]cycHc4c,cVb]b?cTc#cZcDb?bBbFb5cjcBcub`b\b2bSbAa~a6aMasaMa$a*a*a|bIb7b7b9b-b+blalamakala.b#bva_bGb3b)b/b:b)cocvcscscscocm",
"aRaWb(b(b8b1bVb>b{cacecmcocscscvcxcxcvb1bQb(cecIcvbLbLbGa_a=bka(b5ccb-b5bFa$a*aMaqaEaUa!a/bmb2clcucpchbZbTcbcDcZc7c3cqb?cPc+c)cQccb9bRbIbobobda}a^a<a6a6a5aYaSaSaRaWa3a4a4a7a7a#a,a;a=a>a_a_bbbfbfbkbsbvbvbzbEbGbLbQbVb1b1b1b8b8b8b(b(b(b>b>b>b{b>b/cvcxb{b>b{cacacecececpcecmcmcab~b~b{b~b~bbaha=b:b{b{b{b~b{b~b{cab~b~bEaoaBb3bvakaobEb{b{cacacjcacab~b{b{b~bvara4b/b~b{cacacacpcpcucpcecjb{b>b/b(b(b(b1b/b/b(bnaBaRbGb8b8b1bVbVbQbLbLbGbGbGbGbEbzbvbsbnbkbfbba_bba_a>a=a=a=a;a;a,a,a)a)a(a(a(a4a8a8a9a3a9a3a+a9a+a%a%a[bobDbDbDbZb-b]cycQc4c,cYb?b]cTc#cZcDcbb0bTb%cpczcub~b\b#bSbAa~a5aMasaMa$a*a*a?bFb7b*b-b-b+bwalaqamala`b<bsa_bEb1b)b(b)b(cmcscocococmce",
"aRaWb(b(b8b8bVb/b{cacacecmcocscvcvcxcsb1bLb8cacIcvbQbGbGa_a=bka#b5cgb-b*bIa?a|a1aqaKaUa!a/byb2cjcPcpchb0b0cbcJcZc#c7cqcbcVc+c)cQcgb9bRbxbjbea]a[a-a&a&a-a)a,a;a>babbbfbkbnbsbvbzbEbGbGbQbQbVbVbVb1b8b(b(b>cacocvcAcCcCcFcFcFcIcIcIcIcOcOcOcOcOcScUc1cUcxb/b>b>b>cacacacacecacmcecab{b>b`b`b>a>aka;b/b`b>b>b{b{b>b{b>b>b>bzaoaBb3bCakaobzb>b>b>b~b{b{b{b{b{b>b`bvaoa4b!b>b>b>b{b{cacjcjcjb{cab>b/b(b(b8bVb1b{cacxcIcIcIcOcOcOcIcIcIcIcFcFcGcFcGcCcCcCcAcxcAcvcpb!bsbkbkbfbfa_a_a>a_a=a>a=a>a;a,a,a#a#a(a(a8a8a&a9a9a8a/a8a/a}bdbjbHbZb&b]crcQc#c,cYcbcfcTc(c3cJcbb7bTb]cucBcucib(b2b6bAbha6aMapaTa*a?a$a$bFb7b*b-b]b;bFaqamamala<b<bva_bzb1b!b(b!b(cecocmcocmcece",
"aRaWb1bVb8b8bVb/b>b{cacacececocscscvcob1bLb8cacFcvbQbLbGa_a=bkbGb^ccb]b-bTbibqa?axaKa1a.bebOb^clcucKchb7bTcbcDc3c#c7ctcbcYc+c(cKcgb9bRbrbja}a]a/a-a-a:a>babbbkbnbnbCbzbzbEbGbGbLbQb2bVbVb3b3b!b8b!b(b8b(b:b1b/b>b>b{b>b{b{b{b{b{b{cab{cacacacecacecacab{b(b(b(b/b{b{b{b{cab{cecab~b>b>b:b:b>a=aha;b(b:b:b>b:b>b>b>b:b>b:bsanawbVbsakanbzb:b:b>b>b>b>b>b>b>b:b:bsanaXb!b/b:b>b>b>b~b{cjb~b{b{b>b(b8b8b1bLbVb8b8b>cvcAcvcvcocscocscocococococococmcmcmcecmcecmb:b~b(bLbVbYbLbGbzbGbEbsbvbvbsbkbfbbbba_babaa{a{a{a;a,a:a-a&a/a[bdbobxbZb-cfcrcQc4c,cYcfcfcZc#c3cMcqb7b7cfczcNczclb\b.bKbAbea!aMaxaMa?a?a|a|bTb7b*b?b|b-bIaxamamaqa`b<bna;bsb1b!b8b!b!cmcmcecmcececa",
"aRaXbVb8b1b1bQb(b>b>b{cacececmcocscscob1bLb1b{cFcsbQbLbGa_a=bkbQb<cccbb]b*bFbTa|axaKaTaTa$a|bibFbZb&b+b*b0cbcJc3c#c#ctcfc3c+c)cKcgb9bRbubjbda[a8a-a(aSaPaSaRaSaYaWaWa4a7a7a7a)a)a)a)a;a;a;a;a>a>a>a>a>a>a;bnb1b(b(b(b(b)b/b)b/b/b:b:b:b>b/b>b>b{b{b{b{b/b1b1b(b(b>b>b{b>cab{b~b{b>b:b:b:b:b:a;aha#b(b(b/b/b/b:b:b:b:b(b/bsanaubVbnakaobvb/b/b:b:b:b:b:b:b:b:b/bnanaXb3b)b/b/b/b:b`b`b>b~b`b>b:b(b1b1bVbLbzbzb1b(b(b/b/b/b/b(b/b/b/b/b/b:b:b:b:b:b:b:b:b:b(b/bGa_bvbzbEbEbsbba>a>a>a>a>a>a>a=a;a;a;a,a)a(a(a4a3a9a3a(a&a-a]bda~bubDbZb&b|cycQc4c,cYcfcfcVc(c3cMcqb*b?cMcPcwcgb9b0bTbIbIbFa`a$axa1a|bibFbTb0b*b*b?b?b-bZaKaqapaqbgb<bsbfbsbVb!b1b1b3cecmcecececaca",
"aWaWbVb1b1bVbQb8b>b>b{cacacecmcocococebVbGb1b>cAcsbVbLbEa_a=bfbLb<ckctcycfb0b]bZaxaTa?a?bBbFb0b-b9bTb?cbb*cqcMc3c#c#cDcfcYc+c8cKcgb9bRbJbobha~a]a,a8arawanahaeabadagaeagahahahagaeagaeajaeahahahahakakakaea_b1b!b!b8b(b)b(b)b/b)b/b/b/b:b8b/b>b>b>b{b>b/b(b8b8b(b/b>b>b>b{b>b{b{b:b:b/b/b(b/a#aha#b8b(b(b)b(b(b(b/b)b)b)bnanaubQbkananbvb(b/b/b/b/b/b/b)b/b)b)bkakaWbVb)b)b(b(b)b:b_b`b`b/b:b/b8b1b1bVbEbzbGbQb8b(b(b/b(b1b1b/b/b/b/b/b/b/b/b/b/b/b/b1b1b8b)bkadahahahakakakakakakakakakakakakanakanakakanakauauawaoaYa{bhbobmbybMbZb-cgcwcQc#c,cYcfcgc3c(c7cMctcbcqc7cEcgb?b*b*b0bTbTbTbTb0a|bibTbBbBb0b*b*b*b*b?b*b*bcaxasaxbgb\bkbfbsbVb3bVbVbVcecececacacab{",
"aWaXbQb1bVbVbLb8b/b/b{b{b{cececmcecocebVbGb1b/cxcobQbLbza_a#bfbGb<cwcDcHcJb]cVcKbTb0bTb0b0b?cfcDcyctcJcfb?cqcMc7c(c#cDcqc4c+c)cHcgb-b7bRbuboa{a:a{a3a;bEa>aoaharaoahahahajamahakajajajajajajajajakakanakaha_b3bQbEb3b)b)b(b(b(b(b(b(b/b/b)b8b:b>b>b>b>b8bVbVb8b(b/b/b/b/b>b:b{b>b/b/b(b(b)b)a7aha#b1b8b8b(b8b(b(b(b(b8b(bkakaubQbfakanbsb(b(b)b)b)b)b)b)b)b!b!bkakaXb2b3b!b8b(b(b(b)b\b(b)b)b(b1b1bVbQbzbLbzbLb1b(b8b8b8b(b8b(b(b(b(b(b(b(b(b(b(b8b8bQbQb8b1bnaeahahakananakakahahahahakanaraoanakakananakakbsbLbkawa0bCbmbubybMbRb9b-cgcDcKc8c,cYcgctc3c(c#cTcDcqcDc(c4cZcHcycyctcbb?cbcJcYcEcfcycfcbb?b*b?b*b?b*b*b*bRa$ayaxbpb\bkbfbnbVb3bQbVbVcacecacab{b{b{",
"aWaXbQb1bVbVbLb8b(b/b/b>b{b{cacececmcebQbGbVb/cscmbQbGbza=a#bfbvb<cDcQcZcTcgc4c,c(cgb0b0bTb7cqcQc(c)cMb?cbctcTc7c(c(cJcgc4c+c)cKckb]b9bRbybmbta{bka&bnb:bYaQaoa)aWaeanarararavaAa^bmbmbtbObWbCbta2apaoanahbbb3b3b3b!b)b)b)b)b)b)b)b/b:b:b/b/b/b/b/b/b/b(b1bVb8b8b/b(b/b(b/b/b:b>b(b(b(b(b)b8a4aea#b1b8b8b8b8b8b8b8b8b8b!bfakaubLbbakanbnb8b(b)b8b)b8b)b8b8b!b!bbakaWbYb3b3b8b8b8b8b<b(b(b!b)b8b1bVbVbQbvbLbEbLb1b8b8b1b1b1b1b8b1b8b8b8b8b8b!b8b1b!b1b1b1b1b3bsakakaBaLaDaDawauaraoanakaoaraDaDarawaWaRaGaoaobLb8bEaJa8bKbtbybDbMbXb9b]ctcDcTc8c,c0ctctc3c)c#cTcJcDcTc8c+c+c3ctb?b?b?b?ctc(c-c,cTcZcMctcqcbcbb?b?b?b*b*b7bFaTaxbxb<bkbfbnbQb3bQbYbVcacacab{b{b{b>",
"aXa4bQb1bQbQbLb8b(b/b/b>b>b{cacecececabQbzbQb(cscebQbEbna_a#bfbvb<cEcTc3cVckc8c-c)ctb*b*cbctc7c-c+c,cKcbcbcDcZc7c(c(cJcyc8c*c)cKcyb]b9bRbMbtbtbkbCa8bvb~b!aWana)aRahaoaXaYaQauaAaYa6a6a`a.a`a`aSazavavaraka)bzbEbGbGbLbLbLbQbQbLbYbQb2bVbVb!b)b)b(b(b(b(bQbVb1b8b8b(b(b(b/b(b/b/b(b(b8b8b8b8a4aea#bVb1b1b8b1b8b8b8b1b8b3bbakarbLbaakakbkb8b8b!b8b!b8b!b8b!b!b3a_akaWbLbVb3b1b1b8b8b8b<b!b!b8b8bVbVbVbQa_bnbkbGbVb1b1b1b1bQbLbQbQbVbVbQbVbQbQbVbQbQbQbQbQbQbYbkakanaoawauauararaoaoanakakakakanaoaoaoaoauauarbVb(bLaJa8bSbtbDbDbNbXb-b]ckcJcPc8c,c7ckcyc7c)c#c3cMcMc3c,c+c+c8cJcbcbcbcbcTc,c+c,c3c(c7cDctctcqcqcbcbb?b?b*b0aTaxbxb<bAbbbkbQb2bQbQbYb{b{b{b{b{b>b>",
"a4a7bLbVbLbQbGb1b(b/b>b/b>b{b{cacececabLbGbQb1cmcab1bva=a=a=bfbvb<cHc3cYc3crc8c-c)cyb?b?cbcJc(c-c+c-cTcfcqcJcZc#c(c(cMcDc)c%c,cPcycfb&bZbMbAbtb_cpa8a>b)b2a7aCaPaQaDaFaIaGaIaFaIaFaIaIaIaIaYaXaOaOaOaIaGaFauauauarauarauararararauauauararaGa_bVb(b(b(bQa_bvb1b1b8b(b8b8b(b(b/b(b(b8b8b!b!b1aXada7bVbVb1b1b1b1b1b1b1b1b1a_akaobGbbakakbfb1b1b!b1b!b8b!b!b1b3b3a>ahaWbSbQbVbVb1b!b#b#b3b<b8b8b1bVbQbQbVa_aRaLa_bQbVbVbQbfaLaBaBaDaDaDaDaDaDaDaDaDaDaDaDaDaBaDaDauaDaGaLaPaWaWaRaPaRaWaPaPaLaPaRaRaRaPaPaWaRaXb!b_bsaua~b#bAbMbMbMbXb-b|cycEcTc8c-cYctcyc7c,c(c7cZcTc7c-c*c+c(cJcfcqcqcqcZc-c+cNb9cwcycMcJcJctcyctcqcqcbb?b7a$axbJb<bfbbbkbQb2bLbQbQb{b{b{b:b>b>b>",
"a7a;bLbVbLbLbGb1b(bGa_bvbGbvb1b{cacacabLbzbQb1cacab1bza_a_a=a_bvb\cKc3c0c3cwc8c-c)cycbcqcqcMc(c+c+c-cPcqctcJcZc#c(c(cQcwc)c*c,cVcycfb-bZbXbNbDbPcpcub2baa3aXaWaXaXa4a4aXa4a3aXa3a3a&a4a7a7a7a&a7a4a4a4aXaWaLaDaDauauauarauaraBawawaBaBarararanaubbbEa=a4bkbQb1b1b1b8b8b8b8b8b(b(b8b!b!b!b1b1aWada#bQbVbVbVb1bVb1b1b1bVbVa_aharbGbaakakbkb1b3b1b1b3b3b1b1b3b1bVa;ahaWbGbQbQbVbVb1b1b2b3b2b3b!bVbVbLbLbLbsaXaoara7bvbnaPaoakararararararararararaoararaoararaCaXa)a>a>a_a_bbbbbbbfbbbbbba_a_a>a>a>a>a>a>a>a=a{a{a0aHa{cib\bAbMbObUb5b+cfcycJcZc8c-c0ctcDc#c,c(c#c3cZc#c-c*c*c8cMcqcqcqcqcTc-c+c4cjc,c)cTcJcMcJcDcycqcqcbcbb*a?aKbIb<bkbkbkbQbVbLbLbVb`b>b>b>b>b>b>",
"a7a=bLbVbLbGbzb(b(bvaRakaraBa=b/b{b{cabLbzbLbVb{b{b1bva=a=a=bfbvb\cKc7c0cYcEc)c-c)cycbctcJcQc)c+c+c-cTcqctcMc3c(c,c(cTcEc)c*c,cVcwcgb-b9bXbNbNbybhbKb`cpb)bbaLaJaJaJaGaJaLaLaOaLaPaLaSaPaPaPaPaPaPaRaPaRaPaPaLaLaGaGaDaDaDaBakahakaoaBaDanaoawawaoaPbkbQb1bVb1b1b1b8b8b1b8b8b8b)b8b3b3b1b3bVaWaea4bQbVbVbVbVbVbVbVbVbVbQa=akaobEa>ahahbfbVbVbVbVb3bVb1b1b1bVbQa;ahaWbGbLbQbQbVbVbVb2b2b2b3b!bVbQbLbGbGbLbLbfaRakanakakakaranakanakahaeahakanananananananararauauauauawaBaBaBaBaBaBaBaBaBaBawawawaBaBaBaBaCaCaObab<b_bPbDbAbXbUb4b9b;b|cycMcVc)c-c4cycwc#c,c)c#c7c7c(c-c*c+c(cMcqcqctctcZc-c+c8cNc+c-cTcMcJcJcDcDctcqcqcbb*a?axbwb<bkbfbkbGbVbSbGbLb:b:b>b:b>b:b>",
"a#a=bGbQbGbGbzbnbzbQbGarakara=b(b{b{b{bLbvbGbQb/b>bVbka=a=a=a_bvb<cPc7c#cYcEc)c-c,cycqctcDcTc)c+c+c-cPctcycMc3c(c(c(cTcEc,c*c$cVcEcgb]b7bXbNbNbHbmbha~bfb#b3bnbfbfbfbbbfbbbfbfbkbkbnbnbsbsbsbvbvbzbzbEbEbEbEbEbGbGbGbGbGbQb(b(bkarahanaJaWaBaoa4bsbLbVbVbQbVbQbVb1b1b1b1b8b3b!b!b3b3b3b3bVbVaRada4bQbQbVbQbVbVbVbVbVbQbQa=aharbza>ahanbfbVbVbVbVbVbVbVb1bVbVbQa,ahaWbEbLbLbLbVbVbVbYbVb2b#b3bQbQbGbGbGbGbGbLbGa_aDakaraXa4aParakaoa=bGbvbnbnbnbsbsbsbzbEbGbEbGbGbGbGbEbEbGbEbEbEbEbzbEbzbzbzbzbzbzbzbzbzbEbKbPb2bKbmbtbtbNbObUb4b&b]cgcDcHcVc)c-c0cycDc(c,c)c(c#c7c(c+c*c*c)cMcqctcDctcZc-c+c8cuc-c-cTcMcJcJcDcDcqcqcqcbb*a?axbIb#bkbfbkbGbQbGbGbLb:b:b:b:b:b>b:",
"a#a=bGbQbGbzbvauakaoakaoakaoa=b8b>b>b>bLbvbGbLb(b8bVbfa=a=a=a_bzb<cPc4c#cYcEc$c-c)cycqcqctcTc)c+c+c-cTctcDcMc3c(c,c(cTcEc,c*c-cVcJcgb]b5bXbRbHbHbmbma{a{a;a;a>baa=a>a>a_a_a_bbbbbfbfbkbkbkbnbnbsbsbvbvbzbzbzbzbEbzbEbEbGbGbEb1b{cabEaDanaBa_bGbLbQbQbQbQbQbQbVbQbVbVb1bVb3b#b3b3b3b1b3bVbVbQaPaea4bQbQbQbQbQbQbQbVbQbQbQa=aharbza;akanbbbQbVbQbVbQbVbVbVbQbQbYa,ahaWbzbGbLbLbQbQbVbYb2bYbVb3bLbLbGbGbEbEbGbGbGbLbza#aDauaraoaBbzb{b{b!bQbLbLbLbGbGbGbGbGbEbEbEbzbzbzbzbvbvbvbvbnbsbkbnbnbnbkbkbfbfbfbbbbbbbbbaa{a{btbtbAbNbOb4b5b-b]ckcDcHc3c)c-c4cycwc(c,c)c(c#c7c(c+c*c+c8cQcqcqcDcycZc-c+c4cPc-c,cTcJcJcJcDctctcqcbcbb*a?aKbFb#bkbbbkbGbQbGbEbQb/b:b/b:b:b/b(",
"a#a=bEbQbGbvbvaDaoaoaoakakaoa_b8b/b>b>bGbkbGbLb8b8bQbfa_a=a=a_bvb\cTc#c0c3cEc$c-c)crcqcfcqcTc)c+c+c,cTcqcycMc3c#c(c(cTcEc,c*c-cVcEcgb]b*bXbRbHbybmbmbha{a{a{baa>a=a>a=a>a=a_a_bbbbbfbfbfbkbkbkbnbnbsbsbsbvbzbzbzbzbzbEbEbEbEbzbEbVb(bQbvbGbGbLbGbGbLbLbLbQbLbQbQbQbVbVbVbVb2b1b1bVbVbVbVbVbLaLaea4bLbQbQbLbQbLbLbQbLbLbLa,aharbza;ahana_bQbYbQbQbQbQbQbQbQbQbLa#ahaRbzbEbGbGbLbQbQbSbYbYb2bVbLbGbEbGbEbEbGbGbGbGbGbLbva=a7bzb{cab8bLbGbGbGbGbEbEbEbEbEbzbzbzbvbvbvbvbvbvbsbnbnbkbkbkbkbkbfbfbfbbbbbbbbbabbbtbabmbabtbtbHbNbXb4b&b+b]ctcDcQcVc,c-c0cycDc8c,c,c(c#c7c(c+c*c+c)cMcqcqcDcDcTc-c+c4cuc-c,cQcJcJcDcDctcqcqcbcbb*a?axbBb#bkbbbbbGbQbEbEbLb/b:b/b:b/b)b(",
"a_a_bvbLbGbvbvaDakaoaoaoaoaoa_b8b(b/b/bLbkbGbGb8b1bQbfbka=a=a=bsb\cPc#c4cYcEc$c+c8ckcfcbctcTc)c+c+c,cPcqctcMc3c(c(c(cQcEc,c*c,cVcEcgb]b5bRbNbHbybmbha{a{a{a{a>a>a;a;a;a=a=a=a_a_bbbbbbbfbfbfbkbkbkbnbnbnbnbsbsbvbvbzbzbvbzbzbEbEbzbEbGbGbGbEbGbEbGbGbGbLbGbLbLbLbQbQbQbQbVbYb1bVbVbVbVbQbQbLaJada4bLbLbLbLbLbLbLbLbLbLbGa#aeaobva,ahana_bQbSbQbYbQbQbQbQbLbLbLa)aeaPbvbEbEbGbLbLbLbSbSbSbYbQbGbGbEbzbzbzbEbEbEbEbzbGbGbGbQb8bQbGbGbGbGbEbEbEbzbzbzbzbzbvbvbvbsbsbsbnbsbnbnbkbkbkbkbfbfbfbfbfbba_a_bbbaa{bbbabmbabhbmbtbHbMbXb5b&b-b|ckcDcQcVc,c-c0cycDc(c,c)c(c7c7c(c-c*c+c8cMcqcqctctcZc-c+c4cHc-c)cMcDcJctctctcqcbcbb?b*a$axbqb2bnbabnbSbLbEbzbLb)b:b/b/b)b(b!",
"a=a_bvbGbEbsbva4akaoaoakaoaBbkb8b8b/b/bLbfbvbGbQbVbQbka#a=a=a_bnb\cTc#c0cYcEc$c+c8cqcbcbcqcQc)c+c+c,cQcqctcMc3c#c(c(cQcEc)c*c-cVcDcgb]b7bXbRbHbubmbha{a{a{a{a{a;a;a;a;a;a=a=a>a_a_a_bbbbbfbfbfbfbkbkbnbnbnbnbnbvbsbsbvbvbvbvbzbEbzbEbEbEbEbEbGbEbEbEbGbGbGbGbGbLbLbLbQbLbYbQbVbVbVbQbQbVbQbLaJaea4bGbGbLbLbGbLbLbGbGbGbGa#aeaobsa)ahana_bLbLbYbLbQbLbLbLbLbLbGa)ahaPbsbzbEbEbGbLbLbSbSbSbYbQbGbEbzbzbzbzbzbEbEbzbzbEbzbzbzbzbzbzbGbEbEbzbzbzbvbvbvbsbsbsbsbnbnbnbnbkbkbkbkbkbfbfbfbbbfbfbfbbbba=a_a_a=a{babaa{a{bmbmbtbybMbXb5b&b-cfckcDcHcVc)c+c0ctcDc4c,c)c(c7c7c#c+c*c+c8cQcqcbctctcTc-c+c4clc,c)cJcycyctctcqcbcbcbb*b0a?axbBb2bna{bnbGbSbzbvbGb(b/b)b/b)b8b!",
"bfbzbsbEbzbsbva=aoaoaoaoaoa=bVb1b8b8b/bGbfbvbGbQbQbQbka=a=a=a=bnb<cKc7c7cYcwc,c-c8cfcbcbcbcQc)c+c+c)cQcfcqcJcZc#c(c(cJcwc,c*c,cVcDcgb-bZbRbNbybubmbha~a{a{a{a;a>a,a;a;a;a=a=a=a_a>a_bbbbbbbbbfbfbfbkbkbkbnbnbnbnbnbsbsbsbvbvbvbvbzbzbzbzbEbzbzbzbzbzbEbEbEbGbGbGbGbLbLbLbYbLbQbVbLbQbYbQbLbGaLaea4bGbGbGbGbGbGbGbGbGbGbEa#aeaobna#ahaka_bSbLbLbLbLbLbLbLbGbGbGa7ahaPbnbvbzbzbGbLbLbGbSbPbSbQbEbzbzbvbvbvbvbzbzbvbvbvbzbzbzbvbzbzbvbzbvbvbvbvbvbsbnbsbnbnbnbkbnbkbkbkbkbkbkbfbbbbbbbfbbbbbbbba_a=a=a=a=a{babaa{a{a{bmbubtbNb4bZb&b-b]cgcDcMcZc8c-c0ctcyc4c,c(c#c7c3c4c-c*c+c8cMcbcbctcqcMc-c+c0cwc)c(cDcqctcqcqcbcbb?b*b*b0a$axbqbYbAa>bnbEbGbzbsbGb)b)b(b(b)b8b!",
"bYbPbsbzbzbkbna=aBaoaoaoa#bGbVb1b1b8b8bLa_bnbzbLbLbLbna=a=a=a_bfb#cQc7cYc3cwc$c-c8cbb?b?cbcMc,c+c+c8cHcbcqcDcZc7c(c#cDcyc,c*c)cKcDcfb-bZbRbHbHbmbmbha~a{a~a{a;a;a;a,a;a;a;a=a=a=a=a_a_a_bbbbbbbfbfbfbfbkbfbkbkbnbnbnbnbnbnbsbsbvbvbvbvbzbvbzbvbzbvbvbzbzbzbEbEbEbGbGbLbGbYbLbYbQbLbLbLbLbLbzaDaha4bzbGbGbGbEbGbGbGbEbEbza7ahaobna#aeaka_bGbGbLbGbGbLbGbGbGbEbEa4aeaPbnbvbvbzbEbGbGbPbSbPbSbLbEbzbvbvbsbsbvbvbvbvbsbvbsbvbvbvbsbsbsbsbsbsbsbnbnbnbnbnbnbkbkbkbkbkbkbfbfbfbfbbbbbbbbbbbbbba_a_baa=a>a{a;a{a>a{a{bha{bmbmbHbAbUbUb5b+b]cccycDcQc4c-cVcfcgc7c)c(c7cZcTc7c-c*c+c(cJcqcbcqcqcMc,c+cYcwc(c4cycbcbcbb?b*b*b*b0bTbBa$axbcbYbta>bkbEbGbvbvbEb(b(b!b(b)b8b3",
"b.bSbvbEbvbkbfa_aRaBaraXbvbLbQb1b1b8b8bGa_bkbvbLbGbGbsa_a=a=a_a_b2cEc3c3cVcnc,c+c8b]b?b?b?cMc,c*c+c)cJb?cbcDcTc3c#c7cyctc)c+c8cHcyb]b9bZbJbHbubmbhbha~a~a{a;a;a;a,a#a;a;a;a;a=a=a=a>a_a>a_a_a_bbbbbfbfbfbfbfbkbkbkbkbkbkbkbnbnbsbnbvbvbvbvbvbvbsbvbsbvbzbvbvbzbEbzbGbGbEbLbGbSbQbLbGbSbLbGbzaDada4bzbGbEbEbEbEbEbEbEbEbza4ahaobka#aeaka=bGbPbGbGbGbGbGbGbEbEbza4adaLbkbsbvbvbzbEbEbEbPbPbPbLbzbzbvbnbnbnbnbsbnbnbnbnbnbnbnbnbnbnbnbnbnbnbkbnbkbkbkbkbkbfbfbfbfbfbfbfbfbbbbbbbba_bba_a_a_a_baa>a=a;a>a,a;a{a{a{a{bhbmbmbmbMbObUb5b%b;cfckcDcDcYc,cPb]cfc3c(c7c3cTcMcVc-c*c+c4cDcbb?cbcbcJc,c+cVb|c(c7cgb?b?b*b*b*bBa?a$bBbBaxaKbcbYbta{bnbEbGbvbsbvb8b!b8b!b8b!b1",
"b.bSbvbzbvbfbfbfa=a=a=bvbGbLbQbVb1b8b8bGa_bfbvbLbGbGbna=a#a_a_a_bYcEcZcVcHckclc8c0b*b7b*b*cqcKcNcNcPcfb*cbctcTc3c7c3cqcbc4c+c7cEcgb?b9bRbJbybubmbha~a~a~a~a;a;a;a,a#a,a,a,a;a;a=a=a=a=a_a=a_a>a_bbbbbfbbbfbbbfbfbfbfbkbkbkbkbkbnbnbnbnbsbnbsbnbsbnbnbvbvbvbvbvbzbvbzbGbEbGbGbLbSbGbGbGbGbGbvaBadaXbzbEbEbzbEbEbzbEbzbzbva4ahaobka7aeaka=bEbEbGbGbGbGbGbGbEbEbzaXadaLbkbnbsbvbvbEbzbzbPbEbPbGbzbvbsbkbkbkbkbnbnbnbnbkbnbkbkbkbkbkbkbnbkbkbkbkbkbfbfbfbfbfbbbfbbbbbbbbbbbbbba_a_a_a_a_a_baa_a>a>a;a;a;a;a;a{a;a~a{bha{bmbtbDbMbUbXb5b-b]cfcycycPc)cHb*b?cVc(c3cQcJcycQc$c+c-c0cfb0bTb*b*cqc(c)cwb9c7cYcgb7b*b7b7b0a|axaxa|biaxaxbcbSbta,bkbzbEbvbsbzb8b!b8b!b1b3b1",
"b,bPbzbzbva_a_bbbfbvbvbzbGbLbQbVb1b1b1bGa=bfbvbGbGbGbna=a=a=a_a_bScycHcQcwcrcKb.b^bTb0bTbTbBbFb9cdb&b7bTb?cqcMcZc3cZcbb9c7c,cVcyb]b*b7bRbybybobhbea~a~a:a~a:a,a,a#a#a,a#a#a,a;a;a;a=a=a=a_a=a_a_a_bbbbbbbbbbbbbbbfbfbfbfbfbkbkbkbkbkbkbnbkbnbkbnbkbkbnbsbnbvbvbvbzbzbEbzbGbGbLbGbGbGbGbGbEbvauadaXbzbvbzbzbzbzbzbzbzbzbva4ahaobka7aeaka;bEbEbEbGbEbEbEbEbzbzbzaWadaJbfbnbnbvbvbzbzbzbEbKbEbEbvbsbnbfbfbfbkbkbkbkbkbkbkbkbfbkbfbkbfbkbfbkbfbfbfbfbbbfbbbbbba_a_bbbbbbbba_a_a_a_a=a=a_a>a_a>baa>a;a;a;a,a,a{a:a~a;a~a{bhbmbDbMbMbUbZb5b-b]cqctcHc8cwb7b*cPc7c3cMcycbcgcKcPcPcHb]bibBb*b7b7b9bUbpb]c7c4b]b0b7b7b0b0a|axaxbcbdaxaxa[bPbaa,bfbzbEbsbvbGb1b!b1b1b1bVbV",
"b6bPbzbvbva_a_bbbfbkbvbzbGbGbQbVb1b1b1bza_a_bvbGbGbzbza_a#a=a_a_bPckcDcDcgbRchczcwbZbBbBbTbTbRb+cdb+bTbBb7cqcJcTcZcTb?bTcPc,cHcgb?bZbRbJbybubhbha~a]a~a]a:a:a,a)a(a7a)a#a#a#a,a,a;a;a=a=a=a=a=a>a_a_a_a_a_a_a_bbbbbbbbbbbfbfbfbfbfbfbkbkbkbkbkbkbkbfbkbnbnbnbsbvbsbvbzbzbEbEbGbGbEbEbEbEbEbnaBadaWbvbvbzbvbzbzbzbvbvbvbvaXahaobka4aeaka,bzbEbEbEbEbzbEbzbzbvbvaWaeaJbbbkbnbnbvbzbvbvbEbzbzbEbsbnbkbfbbbfbfbfbfbfbfbfbfbfbfa_bfa_bfbfbfbfbbbbbfbbbbbbbba_a_a_a_a_a_a_a_a_a_a=a=a=a=a=a=a=a=a=a>a,a,a,a,a:a;a~a:a~a:a~a{bmbtbDbAbMbUb5b9b]b|cgcEc4cyb0b7cQc7cTcJcgb]b7bTbFbFb0b0bBbBb*b7bBbibpckc(c4cdb0b0b0b0bRbxa*aqaxbcbcaxaxa/bPa{a,bfbzbEbsbnbEb1b3b1b1bVbVbV",
"bPbPbvbvbsa_a=a_bfbkbnbvbGbGbLbQbVb1b1bva=a_bvbGbzbGa_a=a#a=a_bfbWb|cfcgb*bIbDbWb.b#b$b<cnb_cicpcKcib7bBbTcbcDcMcTcMb*bBcQc(cwb]b*bXbJbJbubobja~a]a]a]a]a:a:a,a)a7a7a7a#a#a#a#a#a,a;a;a;a;a=a=a=a=a_a>a_a=a_a_a_a_a_a_a_a_bbbbbbbbbbbbbfbbbfbbbfbfbfbfbfbkbnbnbnbnbvbvbzbEbEbEbEbEbEbEbEbzbnaBadaWbvbvbvbvbvbvbvbvbvbvbnaXahaobfa4ahaka,bzbzbzbzbzbzbzbvbzbvbsaXaeaJa_bkbkbnbnbvbvbvbKbzbzbzbnbkbfbbbba_bbbbbfbbbfbbbba_bba_a_bba_a_bbbbbbbba_bba_a_a_a_a_a_a_a_a>a_a=a=a=a=a=a;a;a;a;a;a;a;a;a,a,a,a:a)a:a:a:a:a:a~a{bhbmbDbDbMbMbZb5b-b]b]crc0ckbTb0cEc3cQcDcfb?bTbqbqbib9cfcbbBbBbIa`a|cHc8cpb-bRbDbIbJbJbIbxa!aqaxbca\axaxa%bSbaa)bbbCbEbnbnbzb1b1bVbVbVbQbQ",
"b6bEbvbvbsa_a_a_a_bkbnbzbzbGbGbQbQbVbVbva=a_bkbGbzbGa_a#a#a=a_a_bCb-b?b-bTbIbwbma.a2aMa2a!a!a<bebWbWbga|bTcbctcMcMcJb0bBcJc0ckb-b7bJbJbrbrbha~a]a]a[a(a]a:a:a)a)a(a7a7a7a7a7a#a#a#a,a;a;a;a;a=a=a=a=a_a=a_a_a_a_a_a_a_a_a_a_bba_bba_bbbbbba_bba_bba_bbbfbkbfbkbkbkbsbvbvbEbzbEbEbEbzbzbzbvbkawahaRbnbsbnbsbsbvbvbvbnbvbnaXahaobfa4aeaka)bvbvbzbzbvbzbvbvbvbsbnaXaeaGa_bfbkbkbnbvbsbsbzbCbzbzbnbfbba_a_a_bbbbbbbba_bba_a_a_a_a_a_a_a_a_a_a_a_a_a_a_a=a_a=a_a=a>a=a=a=a=a=a=a;a;a;a;a;a;a;a;a;a,a#a)a:a:a-a:a:a:a]a:a:a~bhbmbmbDbtbMbNbZb9b-b]ckcVb|bFbTcwcTcMcycbb9bJbcbua`a$a2a?a2a1a1aMaUbWb+bDbxbJbxbwbIbwbwbra*aqaqbca\axaqa0bKbaa)bbbvbEbnbnbzbVbVbVbVbQbQbQ",
"bWbEbsbsbna_a=a_a_bkbnbvbzbGbGbLbQbVbVbka=a=bkbGbvbza_a=a#a=a_bbbAb9b-b9bIbFbwbwaYaUalalaqaqaMa.bra`a1bibTb?cqctcDcybTbicDcVb|b7bNbJbybobja~a]a[a[a(a(a(a[a(a-a7a7a4a7a7a7a7a7a#a#a#a#a,a;a;a;a=a=a=a=a=a=a>a_a=a_a=a_a=a_a=a_a_a_a_a_a_a_a_a_a_a_bba_bbbbbfbfbfbkbkbvbvbzbvbEbzbzbzbvbvbvbfarahaLbkbkbnbvbsbvbvbnbnbnbnaXakaobba4ahaka)bsbvbvbvbvbsbsbsbnbnbnaWaeaJa_bbbfbkbkbsbsbsbzbsbvbzbkbbbba_a_a_a_a_a_a_a_a_a_a_a=a_a=a_a_a=a_a_a=a_a=a=a=a=a=a=a=a=a=a=a=a=a=a=a;a;a;a,a;a,a,a,a,a,a#a#a)a(a(a(a-a:a-a:a-a:a:bhbmbmbybDbtbDbRbZb&b-b|cKb[bBbFckcQcDcgb9bUb6bObObAbdaUaMaMaMaKaMa!blbgbwbwbwbwblbubwbwbla1alala^a*aTasa6bva{a,bbbvbzbnbnbvbVbVbQbQbQbLbL",
"bPbKbnbsbna=a=a_a_bfbkbvbvbvbGbLbQbQbVbna=a=bfbzbvbza_a#a#a=a_bbbfbZb7b7bpbpbwbha!aUaqalamaMa2a!a!a!a\bwbTb7b?cbcqcbbBa|cycKb-bXbJbrbrbjbda]a-a(a&a(a/a8a-a8a7a4a4a4a4a4a7a7a7a7a#a#a#a,a#a,a;a;a;a;a=a=a=a=a=a=a=a=a=a=a=a=a=a=a=a=a_a=a_a_a=a_a_a_a_a_a_bbbbbfbfbkbnbsbzbvbzbzbzbvbvbvbsbfauahaLbbbka_a_a=a_a_bfbkbkbkaWakaoa_a3aeaka)bnbsbsbsbvbsbsbnbnbkbkaRaeaJa=bbbfbfbkbnbnbnbCbsbsbsbfbba_a>a_a=a=a=a_a=a=a_a=a=a=a=a_a=a=a=a=a=a=a=a=a=a=a=a=a=a;a;a;a;a;a;a;a;a;a,a,a#a#a,a#a,a#a,a#a#a7a(a(a(a-a(a(a-a(a]a:a~bha{bmbmbDbDbNbRbZb9b;cHb$bqbqcccEckb]bZbMbObObObObAbma<a2a2a!a`bgblbwblbwbrbjbgbjblbja}aUaqala%a*aNayaYbCa>a,bbbvbzbkbkbsbQbQbQbQbLbLbL",
"bWbEbkbnbka=a=a_a_bkbkbsbvbvbGbGbLbQbQbka=a=bvbzbvbza_a#a#a_a_a_btbRbRb0bpblbebea!a2apaiaqaza2a%a.a<bcbgbFbTb7b7b*b9bia?ckcEb*bJbFbobjbda]a[a-a8a&a&a8a/a&a8a7a&a4a4a4a4a4a4a7a7a7a#a#a#a#a,a#a,a;a;a;a;a;a;a;a;a=a=a;a;a=a=a=a=a=a=a=a=a=a=a=a=a=a=a_a_a_a_bba_bfbfbkbkbzbsbvbvbvbvbsbnbna_auahaLbbbbbvbGbPbVbQbfbkbkbfaWakaoa_a3agaka7bnbnbsbsbsbsbnbnbkbkbfaLadaDa=a_bbbbbfbkbkbkbsbnbnbsbfbba>a>a=a=a=a=a=a=a=a=a=a=a=a=a=a=a=a=a=a=a;a=a;a;a;a;a;a;a;a;a;a;a;a;a;a,a,a#a#a#a#a#a#a#a#a#a#a7a7a(a8a(a(a(a(a(a(a]a:a:a~bhbhbmbubDbHbMbMbZb5cwbZbqbqb;crcfb-bJbMbObObObObMbtbmbhbebebebjblblblbgbda^a<bda^a^a^aMalala%a2aTasaSbna{a,bbbvbzbkbkbnbQbQbLbLbLbLbG",
"bKbzbfbkbfa=a=a_a_bfbkbkbvbvbzbGbLbLbQbka=a=a_bvbvbGa_a#a#a=a_a_btbRbTbRbpbgbebeaOaZbea]bea]a}bebeblbrblbwbIbJb0bXbRbia1cccrb0bJbjbja[a[a[a[a/a8a&a8a9a&a9a8a4a4a4aXa4a4a4a4a7a7a7a7a#a#a#a#a#a,a,a;a;a,a,a,a,a;a;a,a,a,a;a;a;a;a;a;a;a=a=a=a=a=a=a=a=a_a=a_a_a_a_bfbfbkbvbnbsbvbvbnbnbkbka_arahaLbba_b8cjcjczb~bfbfbkbfaWahaoa_aWagaka7bkbnbnbnbsbnbsbnbkbkbbaPaeaDa=a=bbbbbfbkbkbkbsbkbnbnbbbaa=a=a;a;a;a=a;a=a;a=a;a=a=a;a=a;a=a;a;a;a;a;a;a;a;a;a,a,a,a,a,a,a,a#a#a,a#a#a#a#a#a7a7a7a7a7a7a7a4a4a&a8a(a(a(a-a(a(a:a]a]bhbhbobobubybHbDbMbUcdbMbibcb&ccb;bZbJbtbObAbMbAbAbDbtbtbDbtbtbDbAbMbAbObMbtbhbebhbha%aHaiala!a2aEayaSbka{a)babvbzbkbfbsbQbLbLbGbLbGbG",
"bWbvbbbfbfa=a#a_a_bfbfbnbnbvbzbGbGbLbQbfa#a=a_bvbvbva_a#a#a_a_a#bhbJbTbTbpbgbea^aFaUa~a{btbAbCbWbSb.b#b\bHblbJbJbRbDa|a1b;b|bJbBbja[bda[a/a/a&a&a9a8a9a3a&a8a4a4aXa4aXa4a4a4a4a7a7a7a7a7a#a#a#a#a,a,a,a,a#a#a;a;a;a,a,a,a,a;a;a;a;a;a;a;a;a;a;a=a=a=a=a=a=a=a_a_a_bbbkbkbvbkbnbsbnbkbkbfbfa_aradaLbfa_bVb~cjcub_bfbkbkbfaWahaoa=a3afaha7bfbkbkbnbnbnbnbkbfbfbbaPaeaDa#a=a_bbbbbfbfbfbnbkbkbnbaa=a;a;a,a,a;a;a;a;a;a;a;a;a=a;a;a;a;a;a;a#a,a#a;a,a,a,a#a#a,a#a,a#a,a#a,a#a#a#a7a7a7a7a7a7a7a7a7a4a4a3a8a3a4a&a(a&a8a8a-a:a]a~bhbhbobobububybDbDb.bJbcbcb5b[b%bZbrbybtbtbtbDbtbmbMbAbAbMbAbtbWb.b.bYb,bSbWbma-a-aZazaiala2aUaKasaSbka{a)babsbvbkbfbnbLbLbLbGbGbGbE",
"bKbCbfbfbfa;a=a=a_bfbfbkbnbvbzbGbGbGbLbka=a=a_bvbkbza_a#a#a=a4aGa}bJbwbDbpa`a}aSavananataAaHaIaZa&a{bmbma!a!bgbxbDbDa.a1b%b,brbjbda[a/a/a/a/a+a9a9a6a3a3a3a8a8a4a3a4a4aXa4a4a4a4a4a7a7a7a7a7a#a#a#a#a,a#a#a#a#a,a,a,a#a,a#a,a;a,a,a;a;a;a;a,a;a;a;a;a;a;a=a=a=a_a_a_bfbkbsbkbnbnbkbkbkbfbba=auadaLa_bbbVb#b2b\b<btbbbfbbaRahaoa>aWagaha7bfbfbkbkbkbkbkbkbfbfa_aLadaDa=a=a=a_bbbfbfbbbnbfbkbfa_a=a;a,a#a#a,a#a,a,a,a#a,a,a,a#a;a#a;a#a,a#a#a#a#a#a,a#a#a#a#a#a#a#a#a#a#a#a7a7a7a7a7a4a4a7a4a4a4a4aXaXa3a3a3a8a8a3a8a&a(a[a(a~a~bhbhbobobmbrbxbDb$bybcbcb4b+b5bRbjbmbmbmbmbtbmbea.a.a.a.a+a`a^a~a}a!avaEaNa9a6aSaOataialaVaMaEasaQbka,a)a>bsbsbfbbbnbLbGbGbEbEbEbE",
"bKbCa_bfbba#a=a=a_bbbkbfbkbvbvbzbGbGbGbfa#a=a_bnbvbva_a#a#a#aPawa}bxbFbxa`a.a<a~a{aQbPb_b~cjcpcjcpcjcjb`b_b\b.bebhbwa!aTb5b4bqbdbca/a/a%a+a9a%a0a6a0a0a3a3a3a8aXaXaXaXa4aXa4a4a4a4a7a7a7a7a7a7a#a#a#a#a#a#a7a#a#a,a#a#a#a#a#a,a,a,a#a,a#a,a#a,a,a,a,a,a;a=a=a=a=a_a=bfbfbnbfbkbkbkbkbfbfbba=aradaLa_a_bVb2b.b#bKbta_bba_aRakaoa=aWagaha4bbbfbkbkbkbfbfbfbbbba_aDaeaDa#a=a=a_a_bfbbbbbAbfbfbfa>a=a,a#a#a#a#a#a#a,a#a#a#a#a#a#a#a#a#a#a#a#a#a#a#a#a#a#a#a7a7a7a7a7a7a7a7a7a7a7a4a4a4a4a4a4a4a4a4aXaXaXa3a3a3a3a3a3a3a8a/a(a[a]a~a~a~bjbhbhbrbrbxbWbybcbcbXb%bUbJbebAbPb2ciclb\b<b<b#b.bYbOa^btbAa[a&a6aVaOa5a9aOaIataialaUaMayaqaQbfa)a7a>bnbsbba_bkbGbGbEbEbEbzbz",
"bPbna>bfbba#a#a=a_bbbfbfbkbvbvbzbzbzbGbfa=a#bfbkbkbza_a#a7a7aJawa^bybwbwbca!a+a~a{a6bnbKbKbKbSbPbPbPbPbSb.b#b2a!a!a<a!aTbUbObca[a/a+a%a9a%a0a%a0a0a0a6a3a3a3a3a3aWa3a3aXaXa4aXa4a4a4a4a4a7a7a7a7a7a#a#a#a7a7a#a#a,a#a#a7a#a#a,a#a,a#a#a#a#a#a#a#a,a#a,a;a;a;a=a=a=a=bbbfbnbfbfbkbkbfbfbfbba=aradaLa=a_bYb<b#b.btbabaa_baaPanaoa,aRafahaXa_bbbfbfbfbfbbbfa_a_a=aLaeaDa#a#a=a=a_bbbbbabfbbbbbfa>a;a#a#a#a7a#a#a#a#a#a7a#a#a#a#a#a#a#a#a#a)a7a7a7a7a7a7a7a7a7a7a7a7a7a7a7a7a4a4a4a4a4aXa4a4a4a4a4aXaXaWaWa6aXa3a3a3a9a3a8a/a(a[bda~a}bda~a~bhbobebObya^bcbUbUbRbDbda~bCbCbCbCbAbAbAbCbKbWbmbmbAbAa~a&a9aZaSa5a6aOaNavaiaiaUazayaqaObfa)a&a>bsbsbba_bkbEbGbEbEbzbzbz",
"bCbka>bfbfa;a#a;a_bbbfbfbkbnbvbzbzbGbzbfa#a=a_bfbkbva=a#a4a7aDawa^bwbpbwbca2a!a&aAamazaOaOa&aYataUaSa2aQaQaSa5a6a.a<a!aTbMbDa<a/a+a%a3a%a9a0a%a0a0a0a0a0aWa3a3aWa0aWa3aXaXaXaXa4aXa4a4a4a4a7a7a7a7a#a#a7a7a7a7a#a#a#a#a7a7a#a#a#a#a#a#a#a#a#a#a#a#a#a#a#a,a,a;a;a=a=bbbbbnbbbfbkbfbbbbbba_a#aradaRa=a=bPcjcib_bta>a>baa>aLakana)aSabahaXa_bbbbbbbfbbbbbba_a_a=aDahaDa7a#a=a=a=bba_babbbababba>a,a#a7a7a7a7a#a7a7a7a7a7a7a7a7a7a7a7a7a7a7a7a7a7a7a7a7a7a4a4a4a4a4a4a4a4a4a4a4a4aXaXaXaXa4aXa4aXaXaWaWaYaWaWa6a0a0a0a9a8a/a8a[a]a[bda]a]a~bea~bdbObybcbgbNbXbMbHa^a-babha~aOamaOa]a}bhbmaQa%a5a~a:a9a9a2aSaYa6aOaNataiaiaUazasaqaIbaa)aXa>bnbsbba_bkbEbEbEbzbzbzbv",
"bsbba=bbbfa4a7a;a=a_bbbfbkbnbvbvbvbzbGa_a#a#a_a_bkbva=a#a4a4aDawa<blbgbgbca2a2a9aFajajatata-a<ataOa2a2a2aUaOa2a]a<a.aUaTbWbxa+a9a9a%a0a0a%a0a0aYaRa0a0a0a0a0a3aWaWaWaWaWaWaXaXaXa8a4a4a4a4a4a4a7a7a7a7a7a7a7a7a7a7a7a7a7a7a7a7a#a#a7a7a7a7a7a7a7a7a7a#a#a#a#a,a;a;a;a_bbbkbbbbbbbba_a_a_a=a#aoahaLa=a_bfbnbCcwbea>a>a>a=aJakana)aPagahaXa>a_bbbbbbbbbba_a_a=a=aDaeaBa4a#a#a=a=a_a_a>baa{baa_a;a,a7a7a7a7a7a7a7a7a7a7a7a7a7a7a7a7a7a7a7a7a7a7a4a4a4a7a4a4a4a4a4a4a4a4a4aXa4aXaXaXaXaXaXaXaXa4aXaXaWaWaWaYaWaYaWa0a0a6a3a/a/a(a[a[a[a]a]bda]a~a[b6cucwb6bNbRbMbra}btbCa{a]aMafa6btbAbAbaaUa2aObha]a6a6aUaZa!aYaOaFataiaiaUavasaqaVbba)a)a>bnbnbba_bkbEbEbzbzbzbvbv",
"bvbba;bba_aPa4a,a=bfbfbfbfbfbkbvbvbzbzbfa#a#a_a_bfbva=a#a4a4aDaAa<bdbgbgbcaUa2a6aAamapaAapavazavaUaYaUaUaHaHaNa2a2aUbjb_cha~a%a9a6a0a6a%a0a%a0aRa0aRa0a0a0aRa0aWaWa6aWaWaWaWaXaXaXa8aXa4a4a4a4a4a4a7a7a7a4a4a7a7a7a7a7a7a7a7a7a7a7a7a7a7a7a7a7a7a7a7a7a#a#a#a#a,a,a,a=babfbabaa_a_a=a=a=a;a#aoadaLa#a_a_bCbCcwa>a-a>a>a=aGakana)aPagahaXa>a_a_a_a_a_a_a_a=a=a=aDadaBaXa#a#a=a=a_a=a>baa;a{a_a;a)a4a4a4a4a4a7a7a4a4a4a4a4a4a4a4a4a4a4a4a4a4a4a4aXa4a4a4a4aXa4a4a4aXa4aXaXaXaXaXaXaXaXaWaWaXaXaXaWaWaRaYaRaYaWaYaWa0a0a9a3a/a/a[a(a[a[a]a]a]a]a[bucpc8cWcHb$bDbra}bmbAbma-azala<btbtbCbmaUaIaUa{a~a6a6aUaZaSa5aOaFataiaiaMaEasaqaNbaa;a;a>bkbkbbbbbbbzbzbzbzbzbvbv",
"bsbba#a_a_aPaWa,a;a#aBaBaBaDa#bnbvbvbva_a#a#a_a_bfbka=a#a4a4aDaHa<bgbcbga.aUaUaYazamataOatamapavaUaFaUaYaHapayaMbhb\cpb}a-a6a6a6a0aYa6aYa5a0aYaRaYaRaYaRaRa0a0aWaYaWaYaWaWaWaWaWaXaXa8a4a4a4a4a4a4a7a7a7a4a4a4a7a7a7a4a4a4a7a7a7a7a7a7a4a4a7a7a7a7a7a7a7a7a7a#a#a#a#a=babbbaa>a_a=a=a=a;a,a#aoahaDa#a_a;babtb^a-a-a)a>a;aDahana)aQaeahaWa>a>a_a_a_a_a_a_a=a=a=aBadaBaXa#a#a;a=a=a>a>baa{a>baa,a7a4a4aXa4a4a4a4a4a4a4a4a4a4a4a4a4a4a4a4aXa4aXaXaXaXaXa4aXa4aXa4aXaXaXaXaXaXaXaWaWaWaWaWaWaWaWaWaWaRaRaRaSaRaYaRaYa0a0a6a9a9a8a/a-a(a[a(a-a-a-a[a}bdb6cuc8c0cibNa<bmbCa~a-a2aObebabmbAbmaAaUaCa]a-aYa!aFaVaZaYaUaFapafafaMaEasalaNbaa)a3a>bfbka=a=a_bvbnaWaGaDaBaB",
"bna=a7a_a_aPaRa;a;aXauauaPaJa#bkbnbvbvbba#a#a_a_bfbka=a#a#a7awaAa+bgbcbga.aTaUaZavamataYazamamatavatatavavaEa]b#clb<bDa&a6a.a6aYaYaYaYaYa5aPaSaSaSaPaYaRaRa0aRaRaRaRaRaWaWaWaWaWaXaXaXaXa8a4a4a4a4a7a7a4a4a4a4a4a7a4a4a4a4a4a4a7a7a4a4a4a4a4a4a4a4a4a4a7a7a7a7a#a#a#a;a>bba;a>a=a=a=a;a;a#a#aoahaJa#a_a,a>a-b6aQa-a)a,a,aDahana7aLaeahaRa;a>a_a=a_a=a=a=a>a=a;aBadawaXa#a#a#a;a=a;a;baa;a{a>a,a7a4a4aXa8a4a4aXa4aXa4aXa4aXa4aXa4aXa4aXaXaXaXaXaXaXaXaXaXaXaXaXaXaXaXaWaWaWaWaRaRaWaRaWaRaWa0aWaRaRaRaSaRaSaRaRaYaRaYa6a0a9a&a8a&a&a/a&a(a&a[a/a[a[a^bdb$cuc4cNb6bua~a!a5a!a9a9a2azazazataFa2aAavaQa6a5a5aZaSaUaFapafafaUaEasakaNa_a:a4a;bfbfa;a=bbbzbsaRahakahak",
"bka=a7a_baaPaRa,a,a3auaHa0aDa=bkbnbvbva_a#a#a=a_a_bna=a#a4a4aBaua+a`bca`a.aMaMaVavakanaYaOamamamaAaOaSaQa&bCb<b#bta-a&a9a6a6aYaYaYaRaYaSaYaYaSaSaPaPaPaRaRaRaRaRaRaRaYaRaWaWaWaWaXaWaXaXaXaXa4a4a4a4a4a4aXa4aXa4a4a4a4a4a4a4a4a4a4a4a4a4a4a4a4a4aXa4aXa4a7a7a7a7a#a#a,a=baa;a>a=a=a=a;a,a#a7aoahaJa#a=a)bPbtbCaFa-a)a)a,aCahaka7aJaeahaRa;a;a>a=a=a=a=a=a=a,a,aBadauaXa7a#a#a#a;a;a,a{a,a;a>a)a7aXaXaXaXaXaXaXaXaXaXaXaXaXaXaXaXaXaXaXaXaXaWaXaXaXaXaXaXaXaXaWaWaWaWa0aRa0a0aRaRa0aRaRa0aRa0aRaRaPaPaSaSaSaSaSaSaYa5a%a9a9a9a/a8a/a8a8a/a8a9a8a/a8a[a[a^bob.cNcLcnbpa$a2a2aUaUatayayapataHaQaZatazaSa&a6aQaQaIaFamacacaMaEasaqaGbaa7a4a;bbbfa=a;a_bvbvbfaCaoarar",
"bka=a4a_a>aRaPa)a,bcbBbBbBbBa#bkbkbnbna_a#a#a=a_a_bka=a#a7a4aBaua+a`bca^a.aEaMaNataoaGbsbsaGaJaPaRa&a3aYa;baa{a&a8a-a&a3a6aYaYaSaPaSaPaSaSaSaSaSaQaLaPaPaRaRaRaRaRaRaRaRaRaWaWaWaWaWaWaXaXaXaXa8a4aXa4aXaXaXaXa4aXa4aXa4aXa4aXa4aXa4aXa4aXaXa4aXaXaXaXaXa4a4a4a7a7a7a#a;baa;a;a=a=a;a,a#a#a7aoahaJa#a=a)bKbCbCbta&a)a)a)awahaka4aJaeahaRa,a,a>a=a=a=a=a;a,a,a#aDaeaua4a7a#a#a#a;a,a,a>a,a;a>a)a4aXaWaXaXaXaXaXaWaWaXaXaXaXaXaXaXaXaWaXaWaWaRaWaWaWaWaWaWaWaWaRaRaWaRa0aRaRa0aRaRaRaRaRaRaRa0aRaPaPaPaSaPaSaSaSaSaYa5a0a%a6a8a/a8a/a8a/a3a3a9a3a/a8a/a/a[a[a[bHcdczcEb#b_cicib_b2b,bSbKbKbAa&aSaAatazaIaFaQaQaIaHazaAaSa5asaiaiaCa=a7a4a,bbbba;a;a_bvbsbsaXawaIa1",
"bfa=a7a>a=aPaGa,a{a~bFbJbJbubbbkbkbnbka_a#a#a=a=a_bfa#a7a7a4aDawa+a`bca`a!aEazaHaIbabzbEbzbnbsbzbzbzbvbsbnbfbaa7a&a7a3aWaYaPaSaPaLaZaPaZaPaQaSaSaQaQaPaSaRaPaPaPaPaPaRaRaRaRaRaWaWaWaWaWaXaWaXaXaXa4aXaXaXaXaXa4aXa4aXaXaXaXaXaXaXaXaXaXaXaXaXaXaXaXaXaXaXa4a4a4a4a7a#a,a>a,a,a;a;a,a#a#a#a4aoakaJa7a=a7bSbCbKbKa6a)a7a7aAahakaXaJaeahaPa,a,a;a;a;a;a;a;a#a;a#aBaeawa4a7a7a7a#a;a,a)a{a)a,a;a7a4aXaWaWaWaWaWaWaWaWaWaWaWaWaXaWaWaWaWaWaWaWaRaWaWaWaWaRaRaRaRaRa0aRaRaRaRaRaRaPaPaPaPaPaPaRaRaRaRaPaPaPaSaPaSaSaSaSaYa5aYa0a9a9a0a/a0a8a%a0a3a0a3a0a9a8a/a(a/a(a+bhbKbWbCbAbAbAbCbtbtbaa~a-a9a6aQazaza,a6aIaIaFaQbtbkbPbSbObCbAa;a;a7aXa,bbbba;a;a_bsbsbsaWaIa/a*",
"bfa=a7a=a=aPaDa,bkb2b8b\b8b8bPbfbkbkbka_a7a7a=a_a=a_a=a4a7a4aWaOa+a`bca<a!asazaHaOa(a;a=a;a#a,a,a_bfbkbfbkbsbfaWaXa8a3aRaPaPaPaSaLaZaPaPaSaQaSaSaQaQaPaSaPaPaPaPaPaPaPaRaRaRaRaRaRaWaWaWaWaWaXaXaXaXaXaXaXaXaXaXaXaXaXaXaXaXaXaXaXaXaXaXaWaWaWaXaXaXaXaXaXaXa4aXa4a4a7a)a=a,a,a;a;a,a#a#a#a4aoakaDaXa,a;b`bYbCbAaXa&a7a7aAahakaXaJahahaPa,a,a,a;a;a#a#a#a#a#a7auaeawa4a4a7a#a7a,a)a)a;a)a,a,a7aXaXaWaWaRaWaWaWaWaWaWaWaWaWaWaWaWaWaWaWaRaRaRaRaRaRaRaRaRaRaRaRaRaRaRaPaPaPaPaPaPaPaPaPaPaPaPaPaPaPaLaQaLaQaQaQaQaSaSa5aYa6a0a/a0a/a0a%a0a0a%a0a%a0a0a/a8a8a/a8babYb2b#b2b2b2bYbSbSbKbCa,a9a9a6a6aOaAaAaQaYa6a&bsb<bSbAbma{bta]a3a,a4aXa,bbbba;a;a_bsbsbnaWaFa%a*",
"bba=a7a=a;aPaDa,bnb8b_caclb{bLbbbfbfbka_a4a7a#a_a=a_a#a7a#a4awaCa+a.a^bma<apavaHaAaoaPa,a4a4a4a4a=bba_a;a,a>a>aWa0a3aWaRaSaYaQaQaQaLaQaLaZaLaLaPaLaLaPaPaSaPaPaQaPaLaPaSaPaSaRaRaRaWaRaWaWaRaWaWaXaWaXaWaWaWaWaXaXaXaXaXaXaXaXaXaXaXaXaWaWaWaWaWaWaWaWaWaXaXaXa4aXa4a7a)a;a)a,a,a,a,a#a#a#a4aPbzbVbQbsa-a{a{babaa&aXa7a8auahanaXaIahakaSa,a)a)a,bbbzbzbzbzbvbsa;auaDa4a4a7a(a#a,a)a)a;a)a,a,a(aXaWaWaRaRaRaWaYaRaRaRaWaWaRaRaRaRaWaWaRaRaRaRaRaRaRaRaRaRaRaRaPaPaRaPaPaPaPaPaPaPaPaPaPaPaPaPaPaPaPaLaLaQaLaQaQaOaQaQaZaYa6a6a%a%a0a%a0a%a0a%a0a%a5a0a%a0a8a9a3a{babababaa{bababaa{a>bba{aYaYaYaSaOaCazavaza)b<b!a{apagagajakalaPa;a4aXa#a_bba,a,a=bsbsbnaRaubzbY",
"bba=a7a;a;aRawa;bkbQb1b(b_b/bYa_bfbbbfa=a7a#a#a=a=a_a#a#a7a4auaAa6a9a+aZazapavaHauanaWa7a7a7a#a7a#a;a=a;a;a;a=aWa0aWaRaPaSaSaQaQaLaQaQaLaLaVaLaLaLaLaLaLaLaPaLaLaLaQaPaQaPaRaSaRaYaRaRaYaRaRaWaWaWaWaWaWaRaRaWaWaWaWaWaWaWaWaWaWaWaWaWaRaWaRaWaRaWaRaWaRaWaWaXaXaXaXa4a)a;a)a,a,a;a,a#a#a#a4aXa_bfbfa>a6aSa&btbaa&aXa-a4auahakaWaIahakaRa)a)a,a)a>a#aWaRaRaWa>aXaLaXa4a4a7a#a#a,a)a(a;a)a)a,a4aWaWaWaRaRaYaRaRaRaRaYaRaRaRaRaRaRaRaRaRaRaPaPaPaRaPaPaPaPaPaPaPaPaPaPaPaPaPaPaLaLaLaLaLaLaLaLaPaLaLaLaLaJaQaLaQaOaQaQaQaZa5a0a5a5a5a0a%a0a0a%a0a5a0a5a0a%a3a9a3a{a{a;a{a,a,a,a,bba>a{bba-aSa(a{a{babtbfbAbsb2bYa&apakahaeahahadaLa,a4aWa#a_a_a#a,a=bnbnbkaLawbfa=",
"bba;a7a;a#a7aRaDaBaJaJaPaRa0aPa#bba_bba=a4a7a#a=a=a_a#a4a#aXarauaYaYaIaAaAataoaHaAaoa4a)a)a;a;a)a)a,a,a;a,a,a;aWaRa0aRaPaQaQaLaQaQaQaQaQaLaVaLaVaLaPaLaQaPaQaLaQaLaQaLaQaSaSaPaSaPaSaRaRaRaRaRaWaWaWaWa0a0a0aRaWaWaWaWaWaWaWaWaWaWaWaWaWaRaRaRaRaRaRaRaRaWaRaWaWaWaXaXa7a;a)a,a;a;a;a,a#a#a7aParaoaoararararaSaSaSaXa&a4auahakaRaIahakaRa)a)a,bkbbaRanakanaoaBaBaWa)a#a#a#a#a,a,a)a7a)a7a)a)aXaRaWaRaRaRaRaRaRaRaRaRaPaRaPaPaPaPaRaRaRaRaPaPaPaPaPaPaPaPaPaPaPaPaPaPaPaPaPaPaLaLaLaLaLaLaLaLaLaLaJaJaJaGaLaGaLaJaQaQaQaQaSa5a0a0a5a0a5a0a5aRaZaPa0a0a0a0a%a0a9a;a)aWaWaWaWaWaXa)a#a,a_aWaGaGaXa{bfbnbnbna{aSanamanakaeaeaeahadaJa#a3aRa#a_a_a#a#a;bkbkbfaDakahah",
"bba,a7a;a#a#a#aBakakakahakahada4bba_a_a=aXa7a#a=a=a_a#a4a#aWanaoaLa(baa{a)apaoaHaAara(a=bba>a)a,baa>a_a>a>a>a,aRaPaRaPaQaQaQaJaOaJaOaLaOaLaVaLaVaLaLaLaLaQaLaQaLaJaLaLaQaPaPaSaPaSaSaRaRaRaRaRaRa0aRa0aRaRa0aRaRaRaWaRaWaRaWaRaWaRaWaRaRaRaRaRaRaRaRaRaRaRaRaWaRaPaWaXa7a,a)a,a=a>a=bfbsbzbsbfa;a)a4a4a&a&a)a)a)a&aXa&a4auahakaRaFahakaRa)aXaRbbbvbfbbbfbkbnbkbvbGbYbLbSbzbfa>a>a,a7a)a7a)a)aXa7aWaLaRaSaRaSaRaSaRaSaRaPaPaPaPaPaPaPaPaRaPaPaPaPaPaPaPaPaPaPaLaLaLaLaLaLaLaLaLaLaLaLaLaLaLaLaJaJaGaGaGaGaGaJaOaGaJaOaQaQaPa5aYaYa5a0aPa5aRaPaYaPaZaPa5a0a0a0a0a;a)a7a7a7a7a#a7a#a#a,a>aWaRaeadagahanamahaeahahakahaeaeaeaeahadaJa#aXaRa7a_a_a#a#a;bfbkbbawakaoaw",
"bba,a4a,a7a#a,a#auakanaoarauaoa4a_a=a_a=a4a4a#a=a=a_a#a4a#aRakanaJaXa4a(aLaAaFaPaGaRbzbna,a7a;a=a;a,a,a;a,a#a,aPaPaRaSaLaOaLaIaGaJaIaGaJaJaJaJaLaLaJaLaJaLaLaLaLaLaJaLaLaLaLaLaPaPaPaRaRaRaYaRaRaRaRaRaRaRaRaRa0aRaRaRaRaRaRaRaRaRaRaRaRaRaRaRaRaRaRaRaRaRaRaPaRbbbfaXa4a,a)a,babzb:cGcRcRcRcLcGcGcGcBcBcBcBczb`bPbaa)a&aFahakaPaFahahaXa;a,a,bvb~czcBcBcBcBcBcGcGcLcLcIcLczb!bka,a7a7a4a4a7aWa>bsa,aGaLaPaPaPaQaPaSaPaSaPaPaPaPaPaPaPaPaPaPaLaLaLaLaPaPaPaPaLaLaLaLaLaLaLaLaLaLaLaLaLaLaLaLaLaJaGaGaGaGaGaGaGaGaGaJaOaQaPaSaYaRaSa0aPaPa5aPaRaPaRaPaYaRaYaRaRa,a7aXaRaXa4aXaWa4a)a)a)aRaXaoahakakakakanakakanakahaeadadaeaeaeaGa)aWaRa4a>a_a#a#a,bfbkbbawanaLbs",
"a_a#aXa#a7a,a#a,aDanauaRaRaPaDa4a=a=a=a=a4a7a#a=a=a=a#a4a7aWakakaBaRa7bfbkbbbababaa)bzbaa;a=a,a=bfa_a_a_a_a;a#aLaPaRaSaLaOaLaIaGaJaIaGaJaJaJaJaJaLaJaLaJaLaLaLaLaLaLaLaLaLaLaLaLaLaPaPaPaPaPaPaRaRaRaRaPaPaRaRaRaRaRaRaRaRaRaRaRaRaRaPaPaPaPaPaPaPaPaRaRaPaLa#bvbba4aWaXa,a7a,bkb`cub)bYbEbzbCbzbCbCbCbKbKbSb!cucpbKa)a7aFahakaPaFahahaXa>a)bEcBcpbQbnbabbbbbabababababfbsb3b)bva)a4a7a4a4a4aWaRaWa>bba7aLaLaLaLaPaPaLaLaQaPaLaPaPaLaPaPaPaPaLaLaLaLaLaLaLaLaLaLaLaLaLaLaJaJaJaJaJaJaLaLaLaLaLaJaGaGaGaGaGaGaGaGaGaJaOaLaSaPaPaPaPaPa5aPaPaPaPaSaPaSaSaPaRaRaRa#a7a#aXa4a4aXaRa4a7bfbka4aXaLaJaJaLaLaLaLaGaGaDawarakadadadaeaeaGa)aWaRa4a=a_a#a7a#bfbkbbawanaGbE",
"a_a#a7a;a7a,a#a,aLaoaDa=a=a#aJaXa=a=a=a=a4a4a#a;a;a=a#aXa7aRahakauaLaRaRaWaLaGaRaLaDaXa3a7a,a#aRaWa=a;a,a#a#a#aJaLaRaSaLaOaJaGaGaGaJaIaJaGaJaGaJaJaOaGaLaJaLaLaLaLaLaLaLaLaLaLaLaLaLaPaPaPaPaPaRaRaRaRaPaPaPaPaRaRaRaRaRaRaRaRaRaRaRaRaPaPaPaPaPaPaPaPaLa7bsbna4aRaWaWaXa)aXa)a>bYbfa{a,a]a~a~a~a]a]a-a&a&a&a,btbQbCaXaXaIahakaPaFahahaXa{a)b#b~baa)a&a<a<a<a-a^a-a<a[a&a&a:a;baa7aXa4a4aXa4aRaPaRaLaRa_baaRaGaJaOaLaQaLaLaLaLaLaLaLaLaLaLaLaLaLaLaLaLaLaLaLaLaLaLaLaLaLaGaLaGaOaGaJaJaLaGaLaGaLaGaGaGaGaGaGaGaGaGaJaJaJaQaPaPaPaSaPaPaPaQaPaPaPaZaLaPaSaPaPaRa#a#a7a4a7a)a7a4a)a7a>bna,a4aPaPaPaPaRaRaRaPaLaJaDawaoaeadadaeaeaGa7aRaRa4a;a=a#a7a#bbbfa_awanaGbz",
"a>a#aXa#a7a7a#a#aParaGa=a=a#aDaXa=a=a=a;a4a4a#a;a;a=a7aXa4aRahahauaJaPa0aRaPaRa4aPawa4a)a,a,a,a7a;a;a=a;a;a#a#aGaLaRaSaLaOaJaGaGaGaJaIaJaGaJaGaJaJaGaJaJaLaLaLaLaLaLaLaLaLaLaLaLaLaLaLaLaPaPaPaPaPaPaPaPaPaPaPaRaRaPaPaRaRaRaRaRaRaPaRaPaPaPaPaPaPaLaWbkbva,aPaRaWaWaWaXa7aWa4a)babababAcjcKczcKcucKcucucibmbababCbbaSaWaDahakaPaFahahaXa{a)a>bnbaa:bAclcpcKcpcKcucKcucibaa:a&a;aXaRaXa4aXaXaPaPaPaPaJaGaWbaa>aPaDaLaLaLaLaLaLaLaLaLaLaLaLaLaLaLaLaLaLaLaLaLaLaLaLaLaLaOaGaGaJaGaJaGaLaGaJaGaJaGaGaGaGaGaGaGaGaGaGaGaJaGaJaPaPaSaPaSaPaLaPaQaPaLaPaLaQaLaPaPaPa7a7a#a7a7a)a)a7a(a4aXa4aWaRaLaPaRaRaRaRaRaPaLaJaGawaoaeadaeaeaeaGa7aRaWa4a;a=a#a7a#a_bfbaawanaGbz",
"a=a7aWa7a7a7a7a7aParaJa=a=a#aDaXa=a_a=a#a4a4a#a#a;a=a7aXa4aRaeahauaJaPaRa0aPaLaPaLaraDaPaWaRa0aRa0aRaRaRaRaRaRawaGaSaPaQaLaOaGaGaGaGaGaGaJaJaJaGaGaGaGaJaOaJaJaJaJaJaJaLaLaLaLaLaLaLaLaLaPaPaPaPaPaPaPaPaPaPaPaRaRaRaPaRaRaRaRaRaRaPaPaPaPaPaPaLaRbbbva=aPaRaRaRaRaRaWaXa4aYaRa3bababmb6cWc$c-c-c$c-c$c-cNbCbtbbbCa;aQa6aGahakaQaFaeaja6a)a6aYbbbaa~b6c4c-c-c$c$c-c+c-czbOa)a&a)aXaRaWa3a3a3aPaLaLaLaJaJaGaDa4bba7aGaGaLaLaLaLaLaLaLaLaLaLaLaLaLaLaLaLaLaLaLaLaLaLaLaJaJaJaJaJaJaJaJaJaJaJaJaJaGaGaGaGaGaGaGaGaGaGaGaGaGaLaPaPaPaPaPaLaLaLaLaLaLaLaLaLaLaLaLaLa7aXaWaRaRaPaLaBa0aWa3aDahaoaLaPaPaRaRaRaRaPaLaJaDaBaoaeadaeaeaeaGa4aRaRa4a;a=a7a4a#bbbba>awanaBbz",
"a=a7aWa7a7a7a7a7aPaoaLa=a=a#aGaRbfa_a=a#aXaXa7a#a;a=a7aXa4aRaeakaraJaLaPa(a0aJa0aRaGauaGaDaBaBawauauauauaraoaoaraJaPaQaLaLaJaGaGaGaGaGaGaGaGaGaGaGaGaGaJaJaJaJaJaJaJaOaLaLaLaLaLaLaLaLaLaLaLaLaPaPaPaPaPaLaPaPaPaRaPaRaPaRaPaRaPaRaPaPaPaPaLaPa=bzbbaRaPaRaRaRaRaRaRaRaWaXaSaRa0babta{b$c8c$c-c$c$c$c$c$cNbnbtbabCa;aSaWaOamakaQaFaeajaSa-aSaYbfbaa,b6c4c6c-c$c$c$c$c$czbOa)a&a7aXaRaRa0a3a3aPaLaLaLaJaJaJaJaJaJa7a=a4aGaLaLaLaLaLaLaJaLaLaLaLaLaLaLaLaLaLaLaLaLaLaLaJaLaJaJaJaJaJaJaJaJaJaGaGaGaGaGaGaGaGaGaGaGaGaGaGaGaJaLaLaLaLaLaLaLaLaLaLaLaLaLaLaLaLaLaLa4a7a8aXa8a8a4a(aXaRa0aDakaoaJaPaPaRaRaRaRaPaLaLaDaBaoaeadadaeaeaGa4aRaWaXa;a=a7a4a7a_bba>auanawbv",
"a=a7aWa7a4a7a7a7aParaJa=a=a#aLaLawaLa#a7aRaWa7a#a;a=a4aWa4aPaeahauaDaJaLa#aRaLaRaRaPawaoaoaraoanaoananaoararauauaJaRaRaPaPaLaLaLaLaLaLaPaPaPaPaRaRaRaRaRa0aRaRa0aRa0a3aXa3a3a3a3a3a8a8a4a7a7a7a7a7a7a7a7a7a7a7a#a#a#a#a#a#a#a#a#a#a#a#a#a4a=bsbfaXaLaPaRaRaRaRaRaRaRaRaYaWaSaLaRa{bbbmbYc8c6c$c$c$c$c$c$czbAbfbabCa,aSa6aFakanaOaFaeajaRa3aQaObfbabhbSc4c$c$c$c$c$c$c$cNbCa-aWa7aXaRaRa0a3a3aPaLaLaLaJaJaJaJaJaJaDaLa=baaXaPaPaPaPaPaLaLaLaLaLaLaLaLaLaLaLaLaLaLaLaLaLaLaLaLaLaLaLaLaLaLaLaJaJaJaJaJaJaJaJaJaGaJaGaGaGaGaGaLaLaLaLaLaLaLaJaJaGaJaJaLaJaLaLaJaJaJaJaPaPaPaLaLaJaLaPaPaBakaoaJaLaRa3aRaRaPaPaLaJaDaBaoaeadadahaeaDa4aRaRaXa,a;a7aXa7a_baa>auanawbv",
"a=a4aRa4a4a7a7a7aParaJa=a=a#aLaPaLaXa#a7aPaWa4a#a,a=a4aWa4aPaeakauaDaJaPaGawaLa0aRaPaPaLaLaRaPaJaJaJaJaJaJaJaJaPa0a)baa=a>baa>babaa_bbbfbbbbbfbfbkbfbkbkbkbnbnbsbsbvbzbzbzbzbzbEbKbEbPbGbGbSbLbLbLbLbQbYbQbQbQbYbQbVbQbVbVbQbVbVbVb2bVb2bQbka3aLaPaPaPaPaPaPaRaRaRaRaPaRaRaLaQaQa{babhb.cWc$c$c$c$c)c$c$cNbAbtbabna-aOaSaAamanaOaFaeajaSa3aOaGbfbta~bYc4c6c$c$c$c$c$c$czbCa-a6a7aXaPaRa0a3a3aPaLaJaJaJaJaJaJaJaJaJaDaBaRbbbEbzbzbzbzbvbvbvbvbvbvbvbvbvbsbsbsbnbnbnbnbnbnbnbkbkbkbkbfbkbfbfbbbfbbbbbbbabaa>baa>a>a=a;a;a;a,a;a,a,a,a,a,a,a)a(a(a(a(a(a(a)a(a(a#aPaDaoaoaoaoaoaoaoaoanananaoaGaLaPaPaPaPaPaLaLaJaDaBaoahadaeahaeaDa7aRaWaXa#a;a4aWa7a>a_a>auanawbs",
"a=a4aRa4a4a7a7a7aPaoaLa;a#a#aJaXa#a7a#a7aPaWaXa)a,a=a4aWaXaLaeahauaDaLaPaGauaFaJaGaGaGaGaGaGaIaGaGaGaFaGaJaJaJaJaBaBaDaGaNaDaGaDaGaDaDaDaDaDaDaDaDaDaDaGaGaGaGaGaGaJaGaGaJaJaJaJaJaJaJaLaPaPaLaPaPaLaPaPaPaPaPaPaPaPaRaPaPaRaRaRaRaRaRaPaPaLaSaPaPaSaPaPaPaPaPaPaPaPaPaPaYaLaLaQa{babhb.c8c$c$c$c$c$c$c$cBbAbba{bna-aIaPaAahanaGaFahahaQaWaIaCbabbbhbYc8c$c$c$c$c$c$c$cNbCa-aWa4aWaLaRa0a3a3aPaJaJaGaGaGaGaGaGaGaGaGaGaGaGaGaGaGaJaJaJaJaOaOaJaOaOaJaIaGaIaDaIaGaGaIaDaGaGaGaDaDaDaDaGaGaGaGaGaGaGaGaGaGaGaGaGaGaGaGaJaJaJaLaLaLaLaLaLaLaLaLaLaLaLaLaLaLaLaJaGaLaJauakakakahakakakakakanaoaBaGaLaPaPaPaPaLaJaGaDaBaoaeadaeakadaDa7aRaRaXa#a;a4aWa4a=a_a=auanawbn",
"a;a7aRa4aXa4a7a7aLaoaDbLbGbva=a4a7a#a#a7aPaPaXa7a)a=a8aWaXaLaeahauaBaJaLa4aPaoaoahahahakakakakananawaFawaDaGaJaGaBaBaJaGaDaGaNaDaGaDaGaDaGaGaGaGaGaGaGaGaGaGaGaGaGaJaJaLaLaLaLaLaLaLaLaLaLaLaLaLaLaLaLaLaLaLaPaLaPaPaPaPaPaPaPaPaPaPaPaPaQaPaPaPaQaPaLaPaPaPaPaPaPaPaPaRaRaIaLaGa;a{a~b#c)c$c$c$c$c$c$c$cNbnbta>bna9aFaRaAahanaJaIahahaQa6aFawbabta{b.cWc$c-c$c$c$c6c-cBbWa)aYaXaWaJaRaWa0a3aPaJaJaGaGaGaGaGaGaGaGaGaGaGaGaGaGaGaGaGaGaGaJaJaJaJaJaJaGaIaFaDaIaFaDaIaDaDaDaDaDaDaDaDaDaDaDaDaGaGaGaGaGaGaGaGaGaGaGaGaGaJaLaLaLaLaLaLaLaLaLaLaLaLaLaLaLaLaLaRaDaJaJaJaDaoahaeadadadadadadaeaeahahauaPaPaLaLaGaDaBawanadadadahaeaDa4a0aRaWa#a,a4aWa4a=a>a=auakarbL",
"a;a4aRaXa4a4a7a7aJananauaLaRaPa4a7a#a#a#aPaRaXa7a)a;aXaXaXaLaeaharaDaGaLa4aSananaeadaeadadadacabaeaAaFaDaDaGaDaGaBaBaGaNaDaDaDaDaDaNaDaDaGaGaGaGaGaGaGaGaGaGaGaGaGaGaJaJaJaJaJaLaLaLaLaLaLaLaLaLaLaLaLaLaLaLaLaLaLaPaPaPaPaPaPaPaPaPaPaLaLaLaQaLaLaLaLaLaLaLaLaQaPaLaLaRaRaIaGaFa,babeb<c8c$c$c$c$c2c$c$cNbnbta>bkaYaFaQaAahakaLaFaeajaQaRaAaua>babhb#c8c6c$c$c$c$c$c-cGbWa-aSaXaWaLaPaWa0aWaPaJaJaGaGaGaGaGaGaGaGaGaGaGaGaGaGaGaGaGaGaGaGaGaGaGaJaJaGaGaGaGaFaIaFaDaFaFaFaFaFaFaFaFaDaDaDaDaDaDaDaDaGaGaGaGaGaGaGaGaGaGaJaJaJaJaLaLaLaLaLaLaLaLaLaLaLaLaLaJaBaJaJaJaLaBakadadabababababadadadadaoaPaLaPaWa4a#aWauakaeaeaeahaeaBa8aRaRaWa#a,a4aRa4a=a=a=arahaubG",
"a;a4aRaXa4a4a7a7a#a4a4aWaWaWaXa#a7a#a#a7aPaWaXa4a)a;aXaWaXaDaeaharaDaGaLa4aPananaeaeaeadadadadadadaAaIaGaDaGaNaDawaBaGaDaDaDaDaNaDaDaDaDaDaDaDaGaGaGaGaGaGaGaGaGaGaGaGaJaJaJaJaJaJaJaJaJaJaJaJaLaLaLaLaLaQaLaQaLaQaPaQaPaLaLaPaPaPaPaPaLaLaLaLaLaLaLaLaLaLaLaLaLaPaQaQaRaRaFaDaCa)a{beb<c$c$c-c6c-c$c-c9cGbAbaa{baaYaFaLarahakaGaIahaeaOaSarara{baa~b#c$c+c-c-c6c-c+c+c0bCa&aRaXaWaLaPaRa0aWaPaJaJaGaGaGaGaGaGaGaGaGaGaGaGaGaGaGaGaGaGaGaGaLaQaGaGaGaGaFaIaFaDaDaFaDaFaFaFaFaFaFaFaFaDaGaGaGaDaDaDaDaGaGaGaGaGaGaGaGaGaGaGaGaGaGaJaJaJaJaJaJaJaJaJaJaLaLaLaJaBaJaJaJaJaGakadadababababadadadaeanaraLaGaRbva4aXaJakahaeagaeakadaBaWaRaRaWa#a,a4aRa4a;a=a=arahakau",
"a;a4aRaWaXa4a7a7a#a#a#a#a#a#a7a7a7a#a#a7aRaWaWa7a)a,aXaWaXawaeaharaDaLaLa8aSaoanaeaeadacababadadaeaAaGaIaIaDaIaDawaBaGaNaDaNaDaDaGaDaGaDaFaFaFaFaFaFaDaDaDaDaDaDaDaDaDaJaDaJaGaJaJaJaJaJaJaJaJaJaJaJaLaLaLaLaLaLaLaLaLaLaLaLaLaLaLaLaLaLaLaLaJaLaGaLaLaLaLaLaLaLaLaLaLaYaRaFaDaCa)a~a-bCb_ciclclclclclcjcdbtbta,a{aSaFaQarahakaGaFaeaeaIaQaoaoa;a{a]bKciclclclclclclclb\bta&aQaXaRaGaLa0aRaWaLaJaGaGaGaDaDaDaDaDaDaDaDaDaGaGaGaGaGaGaGaFaGaQaPaJaGaGaGaDaBaDaDaGaDaGaNaDaIaIaIaIaIaIaIaIaIaIaFaFaFaFaIaFaDaIaFaDaIaFaDaGaGaGaJaJaJaJaJaJaJaJaJaJaJaJaGaJaJaGawaLaJaJaGaGakadadadadadadadaeadaraDawaGaDaLaXaLaDawahadaeaeaeahadauaWaRaRaWa)a)a4aRaXa=a>a;arahakah",
"a;a4aWaXaXaXa4a7a7a7a7a7a7a7a4a4a7a7a7a4aRaWaWa7a)a)aWaWaXawadahauaDaLaJa)a,aoaoahahahakakahadacadaAaGaIaIaIaIaDawaBaGaNaDaDaDaDaGaNaDaDaFaFaFaFaFaFaDaDaDaDaDaDaDaDaDaJaJaDaJaJaJaJaJaJaJaJaJaJaJaJaJaLaLaLaLaLaLaLaLaLaLaLaLaLaLaLaLaLaLaLaJaGaJaJaLaLaLaLaLaLaLaLaLaRaRaFaDaAa&a)a6a6a.a9a&a<a&a<a<a9a9a-a]a&a,aSaIaSarahahaGaCaeahaCaIaoana&baa&a6aSa6a6a6a6a6a6a5a6a9aYaQaWaRaGaLa0aRa0aJaGaGaGaDaDaDaDaDaDaDaDaDaDaDaGaGaGaGaGaGaFaFaGaJaGaDaDaGaGaGaDaBaDaGaDaNaDaIaDaIaDaIaDaIaDaIaDaDaFaDaFaFaFaFaFaFaFaFaDaGaGaGaGaJaJaJaJaGaGaGaGaGaGaGaGaGaGaJaGaBaLaGaGaGaDakababadadaeaeaeaeaearaGawaLaDaLaXaPaGaBakadaeaeaeahadaua3aRaSaWa)a)a4aRaXa;a=a;aDanaoan",
"a,a7a#a4aXaRaXa4a4a4a4a4a7a7a7a7a7a7a7a7aRaWaWa4a)a)aWaWaWauaeaharaDaJaLaQarakanaoauaCauaAaoahahaeawaIaIaIaIaIaGaBawaBaDaGaDaDaDaDaJaDaDaFaFaFaFaFaFaDaDaDaDaDaDaDaDaDaDaDaDaDaJaJaJaJaJaDaJaJaGaJaGaJaJaJaJaJaLaLaLaLaJaLaLaLaLaLaLaLaLaLaLaLaJaJaJaJaLaLaLaLaLaLaLaLaRaRaCaDaraRa&aOaFaAaFaOaOaOaIaUaIaIaFaFa&a-aQaOaOaoajahaGaCaeajaCaQaoanaAa&aYaFaIaIaIaIaIaIaIaIaIaIaQaQa0aRaGaLaRa0aRaGaDaDaDaDaBaBaBaBaBaBaBaBaBaDaDaDaDaGaGaGaGaGaDaDaDaDaDaGaGaGaGaDaBaDaNaDaIaDaIaIaIaIaIaIaIaIaIaFaFaFaFaFaFaFaFaFaFaFaFaDaGaGaGaGaGaGaGaJaJaJaJaJaJaJaJaGaGaJaGawaGaGaDaDaGarakakahahahahahahahanaraBaJaDaJaXaPaGaBanadaeadadahagaua3aSaSaWa7a)aXaRaXa;a;a;a=bbbbbb",
"a#a8aLa4aWaRaWaXaRaRaRaRaRaRaRaWa4a4a4a7aRaRaRaXa#a)aRaWaWauadaharaDaJaLaGahadabadaeadagadagaeagaeauaIaDaFaIaIaDaDaBaBawa0aPaBaNaDaGaDaIaDaFaFaFaFaFaDaDaDaDaDaDaDaJaDaJaDaJaDaJaDaJaJaJaDaJaJaJaJaDaJaGaGaJaGaJaJaJaJaJaJaJaJaLaLaLaLaLaLaJaJaJaJaJaJaLaLaLaLaLaLaLaJaSaRaCaFawaAaQaQaOaOaOaQaSaSaSaSaSaSaSaSa6aYaIaOaOaoahamaGaFaeaeaCaYaraoaraFaQaOaQaOaOaOaOaOaOaQaQaQaOaPa0aRaGaJaRaRaPaGaDaDaDaBaBaBaBaBaBaBaBaBaBaDaDaDaDaGaGaGaGaDaDaBawawaDaDaDaGaGaDaJaBaBaDaIaDaIaIaIaIaIaIaIaIaIaFaDaDaFaCaDaCaCaDaCaCaDaGaGaGaGaGaGaGaGaGaGaGaGaGaGaGaGaGaGaGaDaDaGaGaDaDaDarahadaeadaeadaeadaeaeanaDaDaDaLaXaPaDaBaoadaeadadahagauaWaSaPaWa7a(a4aRaXa,a;a,a#a7a7a7",
"a#aXaRa4aWaPaRaLarawaBaBaBawauawaXa4a4aXaRaRaWaXa#a)aRaWaWauaeahaoaDaGaJaLawahadabababababababababauaBaDaCaCaCaBaDaDaBaBaBaGaPaPaPaPaPaPaPaPaPaRaPaRaRaRaRaRaRaRaRaRaRaWa0aWa0aWa0aWaWa0aWaXa0aXa0aXa0a3a3aXa3aXa3a3aXaRaGaJaJaLaLaLaLaJaJaGaGaGaGaJaJaJaJaLaLaLaLaLaJaPaRaCaCawarauaIaOaOaIaOaIaOaOaOaOaQaIaFaAaCaFaJaQaraeahaGaFaeaeaCaXaCararauaDaGaIaOaOaIaIaNaNaFaCaGaIaPaRaRaGaJaPaPaPaGaDaDaDaBaBaBaBaBaBaBaBaBaBaDaDaDaDaGaGaDaDaDaDaBaBaBaBaBaDaDaGaJaJaJaGaJaPaPaPaPaPaPaPaPaPaPaPaPaPaPaPaPaPaPaPaPaPaPaPaPaPaPaPaPaPaPaPaPaPaPaPaPaPaPaPaPaRaRaDaJaDaDaDaDaIawakabababababacababadawaGaDaDaLaXaPaDaBaoadaeadaeaeadawaWaPaLaRa(a4a8aRa3a,a#a,a#a#a7a7",
"a#a4aPa4aRaRaRaJaraDaLaDaLaDaDauaXaXa4aXaPaRaWaXa)a)aRaRaWauadahaoaDaDaGaJaPaoaeababababababababadauaBaBaCaCaCaBaBaBaBaBaBaDaDaDaDaGaGaGaGaGaGaGaGaGaGaGaGaGaGaJaJaLaJaLaLaLaLaLaPaLaPaPaPaPaPaPaPaPaPaPaPaPaPaPaPaPaRaLaJaJaJaJaJaJaJaJaJaGaGaGaGaJaJaJaJaJaJaLaLaJaGaPaRaGawawauaoanaeagajamahahahajajaoazauaAaCaCaQaParadahaJaCaeaeaCaXaGararaoaoanagahapanamamamakakaoaIaPaRaRaGaGaPaPaPaDaBaBaBaBaBaBaBaBaBaBaBaBaBaDaDaDaDaGaGaDaDaDaDaBaBaBaBaBawaBaGaLaLaLaLaLaLaLaLaLaLaLaLaLaLaJaJaJaGaGaGaGaGaGaGaGaGaGaGaGaGaGaGaGaGaGaGaGaGaGaJaGaGaGaGaGaJaDaJaJaGaDaDaDaDaCanababababacabababadawaGaDaDaGaXaRaGaBaoaeaeadadahadawaWaPaLaRa4a(a3a0aWa,a#a#a#a7a7a7",
"a#a4aRa4aWaPaWaDaraBaJaDaGaDaBauaXaXa4aXaPaRaWaWa#a)aWaRaWauadaearaBaDaJaGaRaDakababababababababadaraDaBaCaCaCaBaBaBaBaBaBaBaBaBaBaBaBaBaBaBaBaBaBaBawaBaBaBaBaBaBaBaBaBaBaBaBaBaDaDaDaJaDaDaDaJaDaJaDaJaGaGaGaGaGaJaJaJaJaJaJaJaJaJaJaGaGaGaGaGaGaGaGaJaJaJaJaLaLaJaGaPaWaGaFaDauauaoaeagamaoapatanapajarazaAawaCaIaPaQaraeahaLaCaeaeaCa4aLarararaoanadapatatatapapakaharaGaPaRaRaGaJaPaLaPaDawawawaBaBaBaBaBaBaBaBaBaBaBaBaBaBaDaDaDaDaDaDaBaBaBaBaBaBaBaBaBaBaBaBaBaBaBaBaBaBaBaBaBaBaBaBawawawaBaBaBaBaBawawaBaBaBaBaBaBaBaBaBaBaDaDaDaDaDaDaDaDaDaDaDaDaDaDaDaDaDaDaBanabababababacababaeawaLaBaGaDaWaJaBawaoaeaeadaeaeadauaWaPaJaPa8a8a3aRa0a,a#a7a4a7a7a7",
"a7a4aRaXaWaPaWaDaoaDaBaBaDaDaBauaXaXa4aXaPaRaWaWa7a)aRaRaWauadaeaoaBaDaDaLaPaWaoabababababababababauaBaBaCaCaCawaBaBaBaBaBaBaBaBaBaBaBaBaBaBaBaBaBaBaBaBaBaBaBaBaDaDaDaDaDaDaDaDaDaDaDaDaDaDaDaDaDaJaGaGaGaGaGaGaGaGaGaGaGaGaGaJaJaJaJaGaGaGaGaGaGaGaGaGaGaJaJaJaJaJaGaPaWaOaGaGawawarahahava!a!aZa!avajavauaAaCaIaPaSaParadahaLaCaeaeawa4aXaCaoaraoanafaMa.a%a.a%aUamakaraJaPaPaRaGaJaPaPaPaDaBaBaBaBaBaBaBaBaBaBaBaBaBaBaBaBaBaDaDaDaDaDaDaBaBaBaBaBaBaBaBaBaBaBaBaBaBaBaBawawawawaBaBaBaBaBaBaBaBaBaBaBaBawawaBaBaBaBaBaBaBaBaBaBaDaDaDaDaDaDaDaDaDaDaBaBaDaDaBaBaBaBaBanabababababacababaeaBaLaBaGawaRaGaDaDaoaeaeadaeaeadauaWaPaJaPa8a4a3aRaRa,a#a4a4a4a4a7",
"a7aXaRaXaWaPaWaJaBaLaJaPaPaPaPaRaXaXa4aXaPaRaWaWa7a#aRaPaWauadahaoauaDaGaJaPaPaoababababababababadaraBaBaBaBaBawaCaCaCawaBaBaBaBaBaBaBaBaBaBaBaBaBaBaBaBaBaBawaBaBaBawaBaBaBaBaBaBaBaBaBaBaDaDaDaDaGaGaGaGaGaDaDaDaGaGaGaGaGaGaGaGaGaGaGaGaGaGaGaGaGaGaJaJaJaJaJaJaJaGaPaYaLaRa)aFaGaCakajaza.a.a.a.aEajauaDaGaJaPaPaPaSaradahaOaAagagaAa3a&aSaCaoaranafaza!a.a.a.a2aqamauaQaSaSaRaGaJaPaRaPaDaBaBaBaBaBaBaBaBaBaBaBaBaBaBaBaBaBaDaDaDaFaFaFaCaCaCaCaBaBaBaBaBaBaBaBaBaBaBaBaBaBaBaBawawawawawawawawawawawawawawawawawawawawaBaBaBaBaBaBaBaBaBaBaDaDaBaBaBaBaBaBaBaBaBaBaBanabababababadacabaeaBaGaDaGawaPaRaLaDaoadaeadadaeadaraRaPaGaRaXa7aWaRa4a,a7a4a4a4a4a4",
"a7aXaPa4aWaPaPa_b(b/b>b:b>b>b>b8a4aXaXaRaLaRaRaWa4a#aRaPaWauadahaoauaDaDaJaLaraeababadaeadabababadaraBaBaBaBaBawaCaCaCawaBaBaBaBaBaBaBaBaBaBaBaBaBaBaBaBaBaBawawaBawawaBaBaBaBaBaBaBaBawawaBaBaDaDaDaDaGaGaDaDaDaDaGaGaGaGaGaGaGaGaGaGaGaGaGaGaGaGaGaGaGaGaGaGaGaGaGaGaPaYaLaQaPaJaGawakajaMa`a.a.a.aMajaAaLaPaPaYaPaYaLaragahaOauagaeaua6aXaWaSaCaranafaza.a.a`a.a2amamaAaQaSaSaPaGaJaPaRaPaDaBaBaBaBaBaBaBaBaBaBaBaBaBaBaBaBaBaDaDaDaFaFaFaCaCaCaCaBaBaBaBaBaBaBaBaBaBaBaBaBaBaBaBawawawawawawawawawawawawawawawawawawawawawawawawawawawawawaBaBaDaBaBaBaBaBaBaBaBaBaBaBanabacacababadadabahaDaLawaGawaLaRaPaGaoaeaeadadaeadaoaPaLaGaPa4aXaWaWa>a;a7a4a8a7a7a)",
"a#a4aPaXaWaRaLbfcacacjcacacacab/a7aXaWaRaPaRaRaRa7a#aRaLa0aradahaoauaBaDaDaGaBawauauaJaLaJawauauanarawawauawauawaCaCaCawaBaBaBaBaBaBaBaBaBaBaBaBaBaBaBaBaBawawaBaBaBawaBaBaBaBaBaBaBaBaBaBaBaDaBaBaDaDaDaDaBaBaDaDaGaGaGaGaGaGaGaGaGaGaGaGaGaGaGaGaGaGaGaGaGaGaGaGaGaGaLaRaQaLaQaLaGaCakajaMa`a`a`a.aMajaCaYaYaPaYaPaPaPaoaeahaLaragaearaWa3a3aWaLawanafaMa.a`a`a`a!aqamaFaSaSaSaPaGaJaLaRaPaDaBaBaBaBaBaBaBaBaBaBaBaBaBaBaBaBaBaDaDaDaFaFaFaCaCaCaCaBaBaBaBaBaBaBaBawawawawawawawawawawawawawawawawawawawawawaAawaAauauauauawawawawawawawawawaBaBaDaBaBaBaBaBaBaBaBaBaBaBanabacacacabacaeabahaDaGaGaGaDawaraoanakaeaeadadadadaoaPaJaDaPaXaXaRaPaPa7a7a8aXa)bnbk",
"a7aXaLaXaWaRaRa=b2bVb2bVbVb2bVbQa4aXaWaWaLaRaRaRa4a#aRaLa0aradahaoauaBaBaDawawawawauauarararaoaoaoauawawawauawawawaCaCawaBaBaBaBaBaBaBaBaBaBaBaBaBaBaBaDaBawawaBaBaBawaBaBaBaBaBaBaBaBawawaBaBawawaBaBaDaDaBaBaDaDaGaGaGaGaGaGaGaGaGaGaGaGaGaGaGaGaGaGaGaGaGaGaGaGaGaGaQaRaLaQaPaQaJaCakajaMa`a`a`a`aMajaDaYaRaPaRa5aRaParaeahaQaragaeara0aWa3a3aRaLataiaMa.bia`a`a!aqamaFaSaSaPaPaJaJaLaRaRaDaBaBaBaBaBaBaBaBaBaBaBaBaBaBaBaBaBaDaDaDaFaFaFaBaCaCaCaBaBaBaBaBaBaBaBawawawawawawawawawawawawawawawawawawawawawaAawaAauauauauauauauawawawawawawawaBaBaBaBaBaBaBaBaBaBaBaBaBaoabababacacabababakaGaGawaLaDawaranakakahadadadadadaoaPaJaDaPaXaXaRaRaRa7a7a4aRaXaXaW",
"a#aXaPaXa0aRaRaRaLaPaPaPaPaRaRaRaWaWaWaWaJaRa0a0a4a(aPaPaWaoadaeaoauawaBaDaDaBaBaCaCawaCaCaCawaCa9awaAawaAawaAawawauawawawaCaCaCaCaCaCawawauawawawaBaBaCawawawawawawawawawawawawawawawaCaCaCaCaCaCaCaCaBaBaBaBaDaDaDaDaGaGaGaGaGaGaGaGaGaFaIaFaDaIaFaDaGaGaGaGaGaGaGaGaLaRaLaLaPaLaLaFakajaUa`a`a.a.azamaFaRaRaRaRaPaPaPaoadahaGaradaearaRa0a3aWa0aRawaia2a.a`a`a`a!amanaFaSaPaPaPaJaJaPaRaRaDaBaBaBaBaBaDaDaDaDaBaBaBaBaBaBaBaBaDaGaGaFaIaFaDaDaDaDaCaCaCaCaCaCaCaCaCaCaCaCaCaCaCaCawawawawawawawawawawaAawauawaAawauauauauauauauauauawaAawaAaAawawaBaBaBaBaBaBaBaBaBaBaBaJaXa7a;a)a)bfbsbsbfa>a)aXaWawawauararaoakaeadadadadaoaPaLaDaPa3aXaPaPaRa7a7a)aRaRaRaP",
"a7aXaWaXaRaPaRaPaRaRaRaRaRaRaRaWaRaWaWaWaLaRa0aRa8a7aRaPaWaoadaeanauawaBaDaDaGaGaIaFaDaFaFaCaCaNa-aHauawauaAawauauawauawauaAawawaCaCaCawawauawawawaBaBawaCawawawawawawawawawawawawawawaCaCaCaCaCaCaCaCaBaBaBaBaDaDaDaDaDaDaDaDaDaGaGaGaGaFaIaFaDaIaFaGaJaIaGaGaGaGaGaGaLaRaLaLaPaLaLaIakajaUa<a`a<a<azamaFaRaPaPaPaPaPaPaoadahaGaradaearaRa0a3aWa3a3aIaia5a}bga`a`aSamanaIaSaPaPaPaLaJaLaPaRaDaBaBaBaDaDaDaDaDaDaDaDaBaBaBaBaBaBaDaGaGaFaIaFaDaDaDaDaCaCaCaCaCaCaCaCaCaCaCaCaCaCaCaCaBawawawawawawawawawauawauawauawauauauauauauauauauauawaAawaAawawawawawawaBaBaBaBaBawaBaDaGa3bsbba)baa_a>a;a)aXaRaGawarauaraoaoahaeadadadadaoaPaLaDaPa3aWaPaPaRa7a7a)a4a4aXaW",
"a4aRaGaXaWaPaPaPaLaGaDaDaGaDaDaLaWaWaXaXaLaPaRaRa3a(aRaPaWaradaeanauawawaDaDaDaDaFaFaFaFaCaFaHaVa-azauawauauauauauauauauauauaAawaCaCaCawaAawaAawaCaCaCaCaCaCaHaCaAawawawawawawaCaCaCaCaBaBaBaBaBaBaBaBaDaDaDaDaGaDaGaDaDaDaDaDaDaJaGaDaJaGaGaGaGaIaGaJaGaGaJaGaGaJaGaDaLaRaLaLaPaLaLaJarakakanapapapamanaGaSaRaPaPaPaPaPaoadaeaLaoadaeara0aWa0aWa3a3aRanavazazavavapajaoaJaSaPaPaLaLaLaLaPaPaBaDaDaDaDaDaDaDaDaDaDaDaDaBaBaBaBaBaBaDaDaFaIaFaDaDaDaDaFaFaFaFaFaFaFaFaCaCaCaCaCaCaCaCawawawawawawawawawawawawauawauawauauauauauauauauauauauauawawawawawawawawaCaCaCaCaCaCaCaBaCawaCaCauarauauauauauawawawauauaraoaoakahadadadabaoaLaLaDaPa3aWaPaPaRa7a4a4a4a4a3aX",
"a4aRaJaWa0aLaLaPaDaoauawawaBauawaWaRaRaRaLaPaPaPa3a(aRaPaWaradaeanauawawaBaDaDaDaFaFaCaDaFaCaHaVa^aHauawauauauauauauauauauauaAawaCaCaCawaAawaAawaCaCaCaCaCaCaHaHawawawaCawawawaCaCaCaCaBaBaBaBaBaBaBaDaDaDaDaDaGaNaDaJaNaGaNaGaNaGaJaGaNaJaNaJaGaJaIaGaGaGaDaGaDaJaDaDaLaRaLaPaPaQaPaPaPa3a>baa>a{a,a&aRaSaPaPaPaRaPaPaPaoadaeaLaoadaeara0aWa0aRa0a3aXaWaRaRaRaLaFaCaDaJaQaPaPaPaLaPaLaPaRaPaDaDaDaDaDaDaDaGaGaGaDaDaDaGaGaGaGaDaDaDaFaGaFaIaDaDaDaDaFaFaFaFaFaFaFaFaCaCaCaCaCaCaCaCawaBaBaBaBaBaBaBawawawawawawawauauauauauauauauauauauauauawawawawaAaAawaAawaCaCaCaCaCaCaCaCaCaOaNawaCawaBaBaBaBaBawauauauararaoakahadadabadaoaLaLaBaLa3aWaPaPaRa4a7a4a3aXaXaX",
"a4aRaGaWaWaLaJaPawa4bGbPbEbSb2bbaLaRaRaRaLaLaPaPaXa(aRaPaWaracaeanarauawaBaBaBaBaFaCaCaHaBaHaCaUa[aHaAawauauauauauauauauauaAawawaCaCaCawaAawaAawaCaCaCaCaCaCawaBaCaCaCaCaBaBaBaBaBaBaBaBaBaDaDaDaDaGaDaGaDaGaDaJaJaGaJaDaGaDaNaJaGaJaGaJaJaJaJaOaGaOaJaOaJaOaGaJaOaJaNaLa0aLaPaPaQaPaPaYa0a:a,a&a3a:a:aXaYaRaRaRaRaPaPaLaoadahaGaoabadara0aWa0aRa0a3aXa&a>bbbaa)aFaWa(aSaLaSaPaSaLaQaQaPaYaPaCaFaFaFaFaFaFaDaIaIaFaFaIaIaIaIaIaFaFaFaIaIaIaIaFaFaFaDaIaFaDaIaFaDaIaFaDaFaCaCaCaCaCaCaCawaCaCaCaCawaCaCaCaCaCaAawaAawaAawaAawaAawaAawauauauauauauauauauauaAawawawawawaCaAaCaAaCaAaVaNaAaAawaAaBawaAawawauauararaoaoakahadadadadanaPaLaBaPaWaRaLaPa3a4a7a4a3aXaXaW",
"a4aRaGaWaWaJaJaPawa#bEa>a,babzbvaLaRaRaRaLaLaPaPaXa(aPaPa0arabaeanarawawaBaBaBaBaFaCawaBaHaBaHaNa^aHaAawauauauauauauauauaAawaCaAauauauarararararauauauauauauauauauauauauauauauauauauauauawauawauawauaBawawawawawaBaBaBawaCawawaCawawawaCaCaFaFaFaFaIaOaLaQaJaOaJaOaGaIaLa0aPaPaPaQaPaPaYaYaQaDagaeaDaSaPaRaSaRaRaRaPaPaLaoadahaGaoacadara0aWa0aRa0a0aWaWaYaSaPaoacaoaJaQaLaSaPaSaPaQaLaSaYaSaCaFaFaFaFaFaIaIaIaIaDaCaCaCaCaCaCaAawaAawawawaCaCaCaCaCaCaCaCaCaCaCaCaCaCaCaAawaAawaAawaAauaAaAaAaAaAauauauauauauauaAauauauauauauauararararauauauauauauauauaAawawawawawaCaAaCaAaCaAaVaNaAaAaAaAawaAawawawauauaraoaoaoahahadadadadanaPaLawaPaWaRaJaLaRa(a4a3a3aWaWaW",
"a4aRaJaRaRaGaJaPaDa7bSbsbsbsbvbnaPaRaRaRaLaLaPaPaWa4aPaPaRaoadaeanarawawaBaBaBaBaFaCaCaCaCaCaHaNa[aHaAaAawaAauauauauauauaAawaAaLbabkbkbAbkbkbkbnbAbnbnbCbnbsbCbsbCbsbCbvbsbvbCbvbvbzbzbzbzbzbKbzbzbzbKbzbKbzbKbEbEbEbKbEbPbPbPbPbPbPbPbPbEbKbKbzbKbsa(aQaQaLaOaJaIaJaGaJa0aPaLaPaPaPaSaPaYaSaJahahaIaSaRaRaSaRaRaRaPaPaLaoadahaGaoacadaraRa0a0aRa0a0a0a0a0aRaSaraearaJaOaLaSaPaSaPaPaSaSaSaQaCaIaFaIaIaIaDaIaGaIa(bbbfbtbkbkbkbkbAbnbkbnbCbnbCbnbCbvbCbvbCbvbCbzbzbCbvbCbzbCbvbCbvbCbvbCbvbCbvbCbsbCbsbCbsbCbsbCbsbsbCbnbCbnbnbnbAbkbfa>aFauauauauauauauaAawawawawawaCaAaCaAaCaAaVaNaAaAaAawaAaAawawauauararaoaoanakahadadadadanaLaJaBaLa0aRaLaJaPa8aXa3a0a0a0aR",
"aXaRaLaWaRaGaGaPaDa7bEa4aWa)bsbnaJaWaRaRaLaLaPaPaRa3aPaPaRaoabaeanarawawaBaBaBaBaFaCaCaCaAaCaHaNa[azaHauawaAauauauauauauaAawaAaGa&a:a;a;a{a{a{a{a>a{babababababababbbabbbbbfbfbtbfbfbAbkbkbkbkbkbAbnbnbnbnbnbnbsbnbCbsbCbvbCbzbzbKbKbEbKbEbKbPbPbPbKa)aSaQaLaQaJaOaOaJaLa0aPaLaPaYaPaRaSaYaSaGahajaJaSaRaYaRaYaRaRaRaPaLaoadahaLanabadaraRa0a0aRa0a0a0a0a0aYaPaoadaraJaLaPaRaSaSaPaSaPaSaSaQaFaIaIaIaIaGaJaOaJaObfbSbYbSbYbYbYbSbYbYbYbYbYbYbYbSbYbYbSbSbSbSbSbSbSbSbPbPbPbKbEbKbEbKbzbKbKbzbzbCbzbCbvbCbvbCbnbnbAbkbkbAbfbfbAbfbfbbbaa{aFauauauauauaAawaAawawawawawaCaAaCaAaCaAaVaNauaAaAawaAawauauauauararaoaoakakahadadadadanaLaLaBaPa0aPaJaLaPa8aXa3aWa0a0aR",
"a3aSaLaWa0aDaGaPaIa8bfa9aSa7bbbbaLaWaRaRaLaLaPaPaRa3aPaPaRaoadaeakarawawawaCaCaCaBaCaAawawaHaAaNa-azaAazaAauaAazaAauaAauaAaCaCaCauauauauauaAaAaAaAaAawawawaCaCaCaFaNaFaNaDaNaBaDaNaDaDaNaCaFaNaFaDaIaVaJaNaJaNaJaNaJaDaNaGaDaIaIaGaOaIaVaJaNaJaVaDaNaPaYaSaQaQaOaOaOaOaOaYaSaQaSaSaYaSaSaPaSaGagahaOaYaYaYa0aYa6aRaYaYaPaoadahaLanadabaraRa0a0aRa0a0a0a0a0a0aSaoabaraOaLaSaPaYaSaSaYaQaQaYaQaFaIaIaIaIaGaOaJaOaOaFaCaFaIaIaFaFaIaIaGaIaGaIaIaIaJaOaGaOaJaOaGaOaJaOaJaOaIaDaNaDaIaDaNaDaDaFaFaFaDaFaDaFaCaCaCaCaCaDaFaFaBawaCaBaHaAaCaCawawaAauauauaAaAaAaAaAawaAaCaAaCaAaAaAaAaHaZaNazauaAaAawawauauauauarararaoanakahadadadabanaJaLaDaPa0aPaJaLaPa8aXa3aWa0a0aR",
"a3aQaGaWa0aDaGaPaIa6a7aYaXa-a>baaPaRaRaRaJaJaPaPaRa3aPaPaRaoadaeakarawawawaCaCaCaCaCaAawawaHaAaUa&aHazauazauazauaAaAaAaAawaCaAaGbabkbkbnbAbnbnbCbnbCbsbCbvbCbzbzbCbzbKbKbEbKbEbEbPbEbPbPbPbPbPbPbPbPbPbPbPbSbPbPbSbPbSbSbSbSbSbPbSbSbSbSbSbSbPbPbPbCaYaSaSaSaQaOaOaOaOaOaYaSaQaYaSaSaSaSaSaYaGaeaeaQaYaYa0aYa6aWaYaYaYaPaoadahaOanadabara0aWa0a0a0a0a0a0a0a0aSaoabaraJaPaSaPaYaYaSaYaQaSaSaSaFaIaOaOaJaOaJaOaGaCa3bCbEbKbEbKbEbPbEbPbKbEbKbKbEbKbzbKbvbCbzbCbvbCbvbCbvbCbsbCbsbsbCbnbsbnbAbsbnbnbnbCbkbnbnbAbnbnbnbnbAbnbkbnbAbkbkbnbna{auaAauauauaAaAaAaAaAaCaAaCaCaAaAaAaAaAaHaZaNazauaAaAawawauauauauarararaoaoakahadadadadanaJaLaDaPa0aPaJaLaPa8aXa3a0a0a0aR",
"a3aQaGa0aRaDaJaQaDaYbababkbaa{a)aSa0aRaRaLaJaPaPaRa3aPaPaPaoadaeakarawawawaCaCaCaCaCaCaCaCawaHaNa-azaHaAaAazaAauaAaAaAaAaAawaCaCaIaOaOaOaJaOaOaOaQaLaQaPaSaPaSaSaSaYaRa0a0a0a0a3a0a8a3a3a3a8a3a8a8a3a8a8a8a8a8a8a8a8a8a8a8a(a&a(a(a(a(a-a-a(a-a(a(a(aSaSaSaSaSaSaQaQaOaVa0aYaPaYaSaYaYaSaSaYaGahajaLaYaYa6a0a6a6a6a0aYaSaoagahaLanadabauaRa0a0a3a3a3a6a6a6aYaSaoacaoaQaSaSaSaYaYaSaYaQaSaYaQaIaOaOaOaOaIaOaOaJaIaLaPaSaPaQaPaQaSaSaQaLaQaLaQaLaQaQaQaLaQaOaLaQaLaQaJaOaJaOaGaNaIaIaIaNaFaDaFaNaFaNaCaNaCaCaCaCaCaHaCawaCaCaCawaCaCaHaAaCaCaAauauauauaAaAaAaAaAaAaAaAaAaAaAaAaAaHa5aNauaAaAawaAauauauawauararaoaoanakahadadabadanaJaLaDaPa0aPaJaLaPa8aXa3a0a0a0aR",
"a3aQaJaRa0aDaGaLaCaWbkbCbCbsbaa(aQaRaRaRaLaLaPaPaRa3aPaPaPaoadaeakarawawaCaCaCaCaCaCaCaCaCaAaHaUa-aHaAauaAaAaAaAaAaAaAaAaAawaCaCauauaAaAauauaAaAauaAaAaAauauaAauauaAawaBaBaBaBaBaDaDaDaFaFaIaIaFaDaFaFaIaIaIaDaIaIaIaIaIaIaIaGaIaGaIaGaIaVaJaNaVaIaOaSaSaSaSaSaSaSaSaQaZa3aYaYaYaYaYaYaYaYaRaIahahaOaRa6a6a3a6a3a6a6a0aSaoagahaQaoadacawaWa6a3a3a3a3a9a6a6a0aSaoacaoaSaSaYaYaYaYaYaYaSaSaYaQaIaSaQaOaOaOaOaOaOaLaOaFaDaCaCaFaIaIaFaCaCaBaCaCaCaCaCaCaCaCaCaCaCaCaDaFaCawawawaAaAaAaAauauauauauauauauauarauararauauauauauauauauauarararauaAaAauaAauauaAaAaAaAaAaAaAaAaAaAaAaAaAaHa5aNazauaAaAawauauauauauararaoaoanakahadadabadanaJaLaDaPa0aPaLaLaPa8aXa3a3aWa0a0",
"aWaQaJaYaRaDaGaJawaoaoananaoaAaCaLaYaRaRaGaLaSaPaRaXaSaLaSakabaeakarawaCaCaCaFaFaCaCaAaAaCaCaAaUa-aHauaHawaAawaAawaAawaAawaCaCaFa(a{a{a>a{a=a{baa{a>babababababababababbbbbbbfbbbfbbbfbfbtbfbfbfbfbkbfbAbfbfbtbkbfbAbfbAbkbAbkbkbAbkbkbAbkbtbfbtbfa~aYaYaSaSaYaSaYaSaSaSa&a6aSa0aYaYaYaRaYa0aOahahaQa0a0a0a9a3a9a3a6a0aYarafajaQaoafafaua6aXa6a9a9a3a9a3a6a6aYaracaoaSaYaYaYaYaYaYaYaSaYaYaSaOaSaQaQaQaSaQaQaQaJa(bbbfbfbAbnbkbnbCbnbCbnbCbnbsbnbCbnbCbnbCbnbCbsbCbsbCbsbsbCbnbCbnbCbnbnbnbAbnbnbnbnbAbnbnbkbAbkbkbkbkbAbfbkbfbfbfbtbfa~auaAaAaHaAaAaAawaAawaCaCaCaCawaHawaCaHaHa%aNazaAazauauaHauaAauauararaoaoanakahadabadadanaLaLaFaSa0aPaOaLaSa8aXa3a3aWa0a0",
"a0aLaOaRaRaDaDaGaDaDaBauauarauaGaSaPaRaYaGaGaSaPaRaWaQaLaSahabaeakarawaCaAaCaCaCaAaAaAaAaCaCaAaUa-aHaHauawaAawaAawaCaCawawaCaCaIa)a:a{a{bababababbbbbbbbbfbfbfbfbkbfbkbfbAbkbnbAbnbnbCbsbvbCbCbCbCbzbCbzbKbKbzbKbKbKbKbEbPbKbPbKbPbKbPbPbPbPbPbPbSbCa6aYa5aYaYaYaYaYaSaSa&a9aYa6a6a6a6a6a0a6aQahahaPa6a0a9a3a8a9a3a9a3a6arafamaSatacafaua6a3a9a3a&a&a&a&a9a3aYarafaraSaYaYa6a6a6a6a5a6aYaYaSaOaSaSaQaSaSaSaQaSaQa:btbkbAbkbAbkbAbfbAbfbfbtbfbtbbbtbbbtbababaa{baa>a{baa{a{a{a>a{a{a{a{a;a;a;a{a;a{a,a,a,a:a,a:a:a:a:a-a)a(a-a(a-a(a(a-a9aAaAaCaCaAaAaCaCaCaCaCaCaCaCawaBaHaCaCaHa!aNazauaAauaHaHauaAazaAarararaoanakahabadabadanaLaLaIaSa0aSaQaQaYa4a3a3a3aWa0a0",
"a0aLaOaRaRaDaDaJaJaJaJaLaJaJaLaQaPaSaSaRaIaLaSaSaSa3aLaOaPahabadakarauaAaCaAaCaCaAaAaAaAaAaCaHaUa]aHaAawaCaCaCaCaCaCaCaCaCaFaFaFaAaAaAaAaAaAaAaAaCaCaCaHaAaAaCaCaCaFaNaIaDaNaGaNaNaDaNaNaNaNaNaNaNaVaVaNaNaNaNaVaNaVaVaVaVaVaVaVaVaVaVaZaZaZaZaZaZaZa6a6a6a6a6a6a6a6aYa5a-a9aYa9a6a%a9a6a6a9aQaiakaSa9a9a&a&a&a&a8a&a9a9arafamaSaoacafaAa6a3a&a&a-a(a&a&a&a&a6arafaraYaYa6a6a6a6a6aYa6a6a6aYaVaSaSaZaSaSaZaQaZaPaVaNaJaNaGaNaNaNaNaNaNaNaBaNaNaNaNaNaBaCaCaCaCawaCaCaCaCaCaCaCaCaCawaAaAaAaAaAaAaAaAaAaAaAaAauauauauaAaAauauauauauauazaAaCaHaAaCaCaCaAaAaAaCaCaCaCaCaCaHaBaHaCaHa%aNazaAaAawaAawaAawaAauazararananakahabadabadanaLaPaFaSa0aSaQaPaYa8a3aXa3a0a0a0",
"a0aJaJaYaRaGaBaJaJaJaJaLaQaQaSaPaSaPaRaYaIaQaPaSaSa3aQaOaPahabadakarauaAaCaCaCaAaAaAaAaAaAaCaHaUa[aHaHaBawaCaCaCaCaCaCaCaFaFaFaFaOaOaOaQaQaPaQaQaPaQaQaQaOaQaQaQaQaQaQaPaSaSaPaPaSaSaPaZaZaZaPa5a5a5a5a5aZaZa5aZa0a5a0a5a0a0a5a0a0a5a0a%a5a%a%a%a%a5a9a9a9a%a9a9a9a9a9a5a]a/a6a&a+a/a/a&a+a9a5ajakaYa9a&a&a&a-a&a-a&a&a&auafamaYatafafaCa9a&a-a-a-a-a-a-a&a(a9avafauaYa6a6a6a9a9a9a5a9a6a9a5aOa5aSa5aSa5aZaSa5aPa0a9a8a9a8a9a8a8a8a/a8a/a8a9a8a/a8a8a/a8a8a8a8a&a8a&a8a(a8a(a(a8a(a&a8a&a8a&a8a8a8a8a8a8a8a8a8a8a&a8a8a&a8a3a3a3a3a8a&aYaCaHaCaCaCaCaCaCaCaFaFaFaFaFaNaDaCaCaFaMa%aNaAaAaAaAawawaAaAaAauazararananakahabadabadanaLaPaFaSa0aSaQaQaYa4a3a3aWa0a0a0",
"a0aOaJaYaRaGaCaGaJaJaQaLaQaQaSaSaSaSaYaYaIaQa0aSaSa3aQaOaPahabaeanarauauawaHawauaHaHaHaHaBaHaHaVa^aHaHaCaCaCaCaFaNaFaFaNaFaIaIaIbfbCbKbzbEbKbEbEbPbEbPbPbPbPbSbPbSbSbSbSbSbSbYbSbSbYbSbYbYbYbYbYbYbYbYbYb2bYbYb2b2b2b2b2b2b2b2b2b2b#b2b2b#b2b.b2b#bWa%a9a+a+a+a/a/a/a9a%a~a/a+a/a[a/a[a/a/a[aYajana6a&a&a[a-a-a-a-a-a-a&azafaqa6avafagaCa&a/a-a]a-a]a]a-a-a&a3azagaAa6a9a9a9a9a9a9a6a9a9a9a6aOa5aYa5aYa5a5aSa5aZbabYbYbYbYbYbYbYbYbYbYbYbYbYbYbYbYbYbYbSbYbSbSbSbSbSbSbSbSbSbSbSbSbPbPbPbPbPbKbPbPbKbKbKbKbKbzbKbKbCbzbCbvbCbCbvbCbCbCbaaNaHaHaHaHaCaCaCaCaFaNaFaFaIaIaIaFaFaFaNa%aVaAaAaAaAaCaAaCaAaCaAarararaoakakahabadabadanaJaSaFaSa6aPaQaQaYa8a3aWa3a3aWa0",
"a0aJaOaYaRaGaCaGaJaJaQaLaQaQaSaSaYaYaYaYaFaLaYaYaRa6aLaOaPahabaeanarauauawaHawaHaHaBaHawaHawaHaVa<aHaNaHaCaNaFaFaNaIaIaNaIaIaOaIaIaIaNaNaJaNaJaVaQaQaOaQaSaPaSaYaSaYa0a0a0a%a0a9a0a%a3a9a8a/a8a8a8a/a8a/a/a[a/a[a[a[a[a[bda[a[bda[a[a~a~bda~a~a~a~a]a/a/a/a/a/a[a/a[a/a+a~a]a/a[a[a[a[a[a[a[a6ajana9a]a]a]a]a]a]a]a]a-a&aAafama6avafafaOa-a[a]a]a]a~a]a~a:a-a&azagaCa9a&a9a/a9a&a&a9a9a&a&a6aQa6a6a6a5a6aYa6a5a6a5a5a5a5a5a5a5a5a5a5a5a5a5a5a5a5a5aZaZaVaVaZaVaVaVaVaVaVaVaVaVaNaVaVaNaNaNaNaNaNaNaNaNaNaNaNaNaBaNaNaBaHaBaBaHaBaHaBaHaNaNaHaFaHaNaCaFaUaFaFaUaIaFaUaIaFaFaFaFaUa9aNaAaAaAaAaCaCaCaAaAauazaraoaoanakaeadadabadanaGaQaOa6a3aSaQaQaYa8a3a3aWa3a0a0",
"a0aJaOaYaRaGaCaGaJaJaQaLaSaSaSaYaYaYaYaYaFaLaSa0aSa0aQaOaPahabaeanarauauawaHawaHaBaHaBaHaCaCaHaVa<aHaNaFaNaFaFaNaNaIaIaNaIaNaOaOaFaHaCaCaFaNaCaIaIaIaIaIaIaNaIaNaOaOaOaVaVaVaVaVaZaOaZaQaZaQaZaZaZaZaZaZaZaZaZaZaZaZa5a5a5a5a0a5a%a0a%a%a%a9a+a+a/a/a/a[a[a[a^a}a[a}a^a+bha~a/a}a}bda~bdbda]a+ajapa/a~a~a~a~a~bha~a~a~a:aHafama6avagaiaQa]a~a~a~a~bha~a~a~a]a&aHaiaCa/a&a[a[a[a-a/a9a9a-a<a9aSa9a%a9a9a9a9a%a6a6a5aZaZaZaZaZaZaZaZaZaZaZaZaZaZaZaZaZaZaZaZaVaVaVaNaVaNaNaNaVaNaVaNaVaNaVaVaNaVaJaVaNaVaNaVaNaNaNaNaHaNaNaNaNaNaHaBaHaHaNaNaCaNaNaFaHaFaCaHaFaFaFaFaFaUaFaFaUaFaFa+aNaAaAaAaCaCaHaHaCaCaAauaraoaoanakaeadadadadauaQaQaRaYa3aSaOaOaYa8a8a3aWa3a0a0",
"aRaIaOaRaYaGaCaGaJaJaQaLaSaSaSaSaYaYaYaYaGaQaYa0aSa0aOaLaPahabaeanarauauawaHawawaHaBaHaBaHaCaHaVa[aHaNaNaIaIaNaIaOaNaOaOaOaOaOaOa~babtbabtbfbtbfbtbkbtbfbtbfbtbkbtbkbAbfbAbAbkbAbkbAbAbkbAbkbAbAbkbAbnbAbAbnbAbAbnbAbAbnbAbAbAbCbAbCbObCbCbObCbCbWbta[a]bda}bdbdbdbea}a/bmbha^bea~bjbhbhbja~a<aiasa[a~bhbhbobhbmbhbmbha~aNagama&avafaiaZa]a~bhbhbhbhbhbhbha~a-aHaiaNa/a]a]a]a]a]a[a/a&a]a]a9a5a&a+a/a/a9a+a9a+a%babKbPbPbPbKbPbPbPbPbPbPbPbPbPbPbPbPbSbPbSbPbPbPbPbPbPbPbPbPbPbPbPbPbPbPbPbPbPbPbPbPbPbPbPbPbPbKbPbKbPbKbPbKbKbKbzbKbCbmaNaNaFaNaNaHaFaUaFaFaUaFaUaFaFaUaFaNaUaIa+aNaAaAaAaCaCaHaHaCaCaAauaraoaoanakaeadabadaeaFaLaIaIaYaWaSaQaQaSa3a(a8a3a3aWa3",
"aRaIaQa0aYaJaFaJaQaQaQaQaSaSaSaYaYaYaYaYaOaSaYa6aSaYaQaQaRahabadanarauaAaCaAaAaCaCaFaCaNaCaCaHaZa]aUaNaNaOaOaOaOaOaOaOaOaOa2aOaSa{btbtbtbkbtbAbkbAbkbAbAbnbAbCbAbCbnbCbCbCbCbCbCbWbCbCbKbCbKbKbKbKbKbKbKbPbWbPbPb6bPbPb6bSb$bSb$bSbYb$bYb,bYb.b2b.bKbdbdbdbjbjbebjbhbda^bmbubdbhbobmbububobma]alaxa~bhbmbubmbmbmbmbmbmbhaVaiapa&avaiaiaZbhbhbobmbmbmbmbmbhbha~aHaiaZa]a~a~a~a~a~a}a[a^a]a]a<a5a/a/a/a/bda~bhbhbhbOb$bPb6bKbWbKbAbAbAbAbAbtbtbtbtbtbtbmbtbmbtbmbmbmbmbmbma{bhbha~bhbha~a~a~a~a~a~a~a~a]a~a]a]a:a]a]a:a[a(a[a(a/a/a/a/a(a9aVaNaNaFaNaNaNaNaNaNaNaNaNaNaNaNaNaNaUaOa<aNaHaFaCaCaCawaHawaAaAazararaoanakaeadababaeaOaSaFaCaSa3aQaPaSaYa(a&a4a3a3a3a3",
"aYaGaSa0aYaJaFaOaLaQaQaSaSaSaYaYaYaYa6a0aOaSaYa6aSa6aQaQaSahabadanarauaAaCaCaCaCaCaFaHaFaCaCaHaZa]aNaVaOaOaOaOaOaOaOaOaOaOaOaVaQa2aIaOaOaOaOaOaOaOaOaOaOaZaSaZaSaZa5a5a5a5a5a5a5a5a5a5a%a%a%a5a%a%a+a+a/a/a/a+a/a/a/a/a/a/a/a[a[a^a^a]a}bdbdbdbdbda~bobhbobhbobobubmbja}bDbmbjbubmbDbtbybybta}alasbhbmbtbDbDbDbDbDbtbtbma2aiapa-azafaia5bmbmbubtbubtbtbmbmbmbhaHaia5a~bhbhbhbhbhbea^a[a~a~a<a6a[a[a[a[a}a~bea~bea~a]a^a[a[a^a<a6a%a6a6a5a6a5a6a5a6a5a5a5a5a5a5a5a5a5a5a5a5a5aZaZaZaZaZaZaZaZaZaZaZaZaVaOaVaVaVaJaVaOaVaOaNaVaNaNaNaNaNaVaOaVaNaOaNaNaNaNaNaNaNaNaNaNaNaNaNaNaIa2a<aNaNaFaFaCaCawaBaHawaAazaravaoanakaeadacacagaQaSaFaFaSa3aQaSaSa0a&a8a8a3a3a3a9",
"aYaGaSa0aYaOaFaOaOaOaQaSaSaYaYaYa0aYa0a0aQaSa6a6aYa3aSaSaSahabadanarauaAawaAaCaCaNaFaFaNaIaFaHaZa]aNaVaVaOaVaQa2aOaOa2aOa2aQaZaZaVaVaVa2aOa2aQa2aQa2aSaZaZaZa5a5a5a5a5a5a5a%a5a%a%a6a%a9a%a+a9a+a+a/a/a/a/a/a/a/a[a[a[a^a^a[a}bdbda~bebja~bda~bdbjbobubububububybybDbobdbMbDbobDbDbDbMbtbMbta~alaybmbtbMbMbMbMbMbObMbAbta2afasa:azafaia%bmbDbtbHbtbtbHbAbtbtbmaNaia5bhbmbmbubmboboa}a^bmbha<a9a]a]a}a]a[a[a<a-a/a9a9a+a9a9a+a9a+a9a9a+a9a9a+a9a9a+a9a9a9a9a9a9a9a9a9a%a9a6a%a6a%a6a6a%a6a6a%a6a5a%a6aYa6a5aYa5aYa5aYa5aYa5aYa5a5aYa5aSaZaZaOaVaVaOaVaOaNaVaOaNaVaOaNaVaNaOaVaOaUa[aVaNaIaFaFaCaCaNaCaAaAazararaoanakajadacafaiaSaSaIaFaYa3aPaSaSaRa(a(a8a3a3a3a3",
"aYaGaSaYaYaOaFaOaOaOaQaSaYaYaYa0a0a0a9a3aQaSa6a9aYa6aSaSaRahacaeanarauaAaAaCaCaFaNaIaNaIaNaIaNaZa]aVaVaVaVaQaVaQa2aQaVaQaZaZaZa%btbCbCbKbKbKbWbKbKbKbKbKbPbWbPbPbPb6bSbSb6bSb$bSbSb$bSbSb$bSbYb$bYbYb,bYb.bYb,bYb.bYb.bYb.b2b.b2b.b#b.b#b^b#b.b#b.bObHbHbtbHbHbDbMbDbybjbMbMbrbMbMbMbObNbAbObhalaEbtbMbAbUbUbObXbUbObUbAa2aiapa:azagaia/btbHbMbAbMbAbNbAbHbAbtaMaia+bmbmbybDbybybmbea}bmbma^a&bea~bebda~a~a]a]bhbSb.b2b2b#b2b#b.b2b2b2b.b2b2b2b2b2b2b#b.b#b2b#b.b2b2b#b2b.b2b2b2b2b2b2b2b2b.b2b2b2b2b2b2b2b2bYb2b2bYb2bYbYbYbYbYbYbYbYbAaVaOaVaQaVaQaVaVaOaVaOaVaOaVaOaVaNaOaVaZa]aVaNaIaIaIaFaNaFaCaHaAaAavaraoanakaeadacacajaSaQaIaDaYa3aSaSaPaYa(a8a8a8a3a3a3",
"aSaGaSaYaSaQaFaOaOaQaSaSa5a5a0a0a9a3a9a0aQaYa9a&aYa3aSaSaSamacaeanaraAaCaHaNaNaFaNaNaIaNaVaNaUaZbeaVaZaVaZaVaZaZaZaZaZaZaZa5a5a5a]bhbhbmbhbma{bmbmbmbmbtbtbmbtbtbtbtbtbAbAbAbtbAbAbAbObAbObObObObObObCbObObWbObWbWbWbWbWbWbWb6b6b6b6b$bSb,b,b,b,b.bWbHbNbNbMbNbMbMbUbybrbObMbrbUbObXbXbUbUbObHaqaKbMbObXb4b4b4b4b4b4bWbUa5afana{auagaia^bMbMbMbXbObUbObXbAbNbta2aia<btbDbDbtbDbDbDbobebtbtbda^bmbhbhbmbhbhbjbhbhbtbtbtbDbtbHbmbtbubmbmbmbmbubmbhbmbhbha~bhbja~a~bebebda~a]bda}bda}a[a^a^a[a/a/a+a+a/a/a+a/a+a+a%a+a%a%a%a%a%a%a%a%a!a5a5aZaZaZaQaZaQaVaQaVaQaVaQaVaQaVaVaVaVaVaZa}a2aNaNaIaIaIaFaFaCaCaHaAauaraoaoakaeadacacajaSaSaFaFaYa3aSaSaSaYa(a&a&a4a&a3a&",
"aSaDaSaYaSaQaFaGaQaOaSaSa5a0a5a0a9a8a/a3aZaYa9a8a6a0aSaYaSahafaeanaraAaCaNaNaNaNaJaNaJaNaVaOaUa5bea2aZaZaZaZa5aZaZa5aZa5aZa5a5a5a5a5a5a5a5a5a5a5a%a%a%a%a%a9a%a%a%a+a+a+a+a+a<a<a/a^a/a^a^a^a^a[a^a}a[bda}bdbda~bjbjbjbjbjbobobobubmbubybybybHbHbHbNbAbNbNbXbXbUbXb4bDbxb4bUbxbUb4b4b4b4b4bWbHaqaKbXb4b4b5b6b%b6b%b6b5bWa!aiata{azaialbjbObOb4b4bWbXb4bUb4bObMa2albcbDbMbMbUbMbMbMbxbhbMbAbobebtbububybybubobobobobjbjbjbjbdbdbdbdbda[a[a[a[a[a[a[a[a/a<a<a/a<a<a<a<a+a+a+a+a+a9a+a%a%a%a%a%a%a5a%a%a%a%a5a%a5a5a%a%a5a5a5a5a5a5a5aZaZaZaZaZaSaZaZaQaVaQaVaQaVaQaVaQaVaVaVaVaVaZbdaVaVaIaOaIaIaIaIaFaCaBaHauaraoaoakaeadacacajaSaSaFaIaYa8aSaSaSaYa(a&a&a&a4a&a3",
"aYaCaPa0aSaOaIaOaQaQa5aYa5a0a0a9a8a8a/a8a5aYa6a&a0a0aYaYaYakacaganazaAaHaNaNaNaJaVaJaVaJaVaVaVa!bhaZaZaZaZaYa5a5a5a5a5a5a5a5a5a5a%a%a%a%a+a+a+a+a+a+a/a<a+a<a<a+a<a<a<a^a^a^a^a}a^a}a}a}bdbdbebebebebjbjbjbjbobobobubobubrbubxbybDbDbDbMbNbMbMbNbObXbXbXbXbXb4b4b4b5bUbJb&bUbJb5b6b&b&b$b&b$bMaqaKbUb6b%b+b+b,b;b;b,b+b6a.alaEbaaMalalbrb4b4b6b5b&b6b6b%b6b4bWa$albdbUbOb4bUb4bUb4bDbrbUbObrbjbDbDbHbHbHbHbHbybDbybybububobobobjbjbjbjbjbjbjbdbdbjbda]a}a}a}a^a^a}a[a[a/a/a/a/a/a&a+a+a+a+a+a+a9a%a%a+a9a+a%a%a%a%a%a6a5a6a5a6a5a5a5a5a5a5a5aZaZaZaZaZaZaZaZaZaZaZaZaZaZaZaZaZaZa}aZa2aOaOaIaIaIaIaIaCaBaHauararananahadacacajaYaYaIaDaYa8aSaPaYaYa&a4a&a8a&a4a&",
"aYaCaPa6aYaQaOaQaZaSa5a0a6a0a9a8a/a(a8a&a5aYa6a&a0a0a5aYaYamacaeanazaAaHaNaNaVaNaNaJaVaVaJaVaUa5beaZa5a5a5a5a5a5a5a5a%a%a%a%a%a%a+a+a+a+a+a+a<a<a<a<a[a^a^a<a-a<a-a}a}a}a}a}a}a}bdbdbebebebebebhbhbhbobobrbrbububybybybybDbybDbDbDbMbMbMbNbUbXbXbUbUbXb4b4b5b5b%b&b&bZbDb+b5bDb&b+b,b;b;b,b,bOaqaTb5b+b;b;b;b[b=b[b;b;b$a`alaKbtaUalalbyb6b+b+b+b+b;b+b,b,b+b4a*albwbXb4b6b%b6b5b5bMbxbUbUbxbubMbNbXbNbNbNbNbHbHbHbHbybybybububobobobobjbjbjbobjbja~bjbebebdbda}bdbda]a[a[a[a[a[a/a/a/a/a/a/a/a/a+a+a+a+a%a+a%a9a%a%a%a%a%a%a6a%a6a5a5a5a5a5a5a5a5a5a5aZa5aZa5aZa5a5a5a5aZaZaZaZa}aVaUaOaOaOaQaQaQaQaCauaHauararaoanahadacacajaYaYaFaFa0a8aYaYaYaYa(a&a&a4a&a&a8",
"aYaIaYa6a6aSaQaSa5aYa6a6a6a9a9a8a&a/a(a&a0a5a3a(a%a0a5a0aYahafaeanazaAaCaNaNaCa-a-a9a0a9a9a9a9a&a9aZa5a5a6a5a%a%a%a%a%a%a+a9a+a+a/a+a/a+a<a<a/a<a<a^a^a^a^a^a}a^a}a}a}a}bdbdbdbdbdbebebebjbjbjbrbobrbobubububybybDbHbDbDbHbDbNbNbNbNbNbXbXbXbUb4b4b4b5b&b&b&b&b+b+b+bZbRb+b9bMb+b;b[b[b[b[b.b4axaTb&b;b=b[b|b|b|b|b|b[b;bgalaKbAaMalaqbJb,b;b=b;b=b=b=b;b=b;b$a*aibxb6b+b+b+b+b+b+bMbxb5b4bxbxbUbXbXbXbXbNbNbNbNbMbDbHbDbDbybybybubububububobobobobjbjbjbebebebebdbdbdbdbda[a[a^a[a^a[a^a[a^a/a/a/a/a<a+a+a+a+a+a%a+a%a+a%a+a%a%a%a%a%a%a%a5a%a5a!a5a5a5a5a5a5a5a5a6a5a5a5a5aZaVa/aZaOaOaOaOaQaQaOaIaOaFaraoararaoanahadacacajaYaYaFaFaYa&a0aYaYaYa(a(a&a8a(a8a&",
"aSaIaYa9a6aSaSaSa5aYa6a6a9a9a9a8a-a-a(a&a0a5a9a(a9a3a5a0a6amadaeanazaCaNaIaNaraSaOa{baaZaZaYa5aYa6aQaZa5a5a%a%a%a+a%a+a+a+a+a+a+a<a+a<a<a<a<a^a^a^a^a^a}a^a}a}a}a}bdbdbdbdbjbebjbjbjbjbjbobrbobrbubububybybybHbHbDbDbDbNbNbNbNbNbXbXbXbXbZbXb5b5b5b5b%b&b+b+b,b;b;b;b9bRb.b&bRb;b[b^b^b^b^b^b4axaTb;b=b|b|b|b|b|ccb|ccb^bgalaKbAaMalalbJb=b[b|b|b^b|b|b|b^b^b;a\albDb,b;b;b[b;b[b;bUbJb6b6bxbDb5b4b4bXbXbXbUbXbUbRbNbMbMbDbHbDbHbybDbybybububububrbobobhbjbjbjbjbjbebjbdbdbdbdbda}a}a^bda^a^a^a^a^a^a/a<a/a<a<a+a+a+a+a+a+a+a%a+a%a%a%a%a%a%a%a%a%a%a5a%a5a6a6a5a6a5a6a5a5aVa-bYb#bCbta~a6aOaOaOaOaIaIaDaranaraoaoanahadacacajaYaYaFaFaYa&a0aYaYaYa-a(a(a&a(a8a8",
"aSaOa6a9a9aYaSaYa6a5a6a6a9a9a/a/a-a]a:a[aYa0a8a[a3a9a0a[a3amadaeanazaCaNaIaNanaIaOa6a-a{bta-a9aSa5a&aSa2aYa%a+a9a+a+a+a+a<a+a<a<a<a^a^a^a^a^a^a}a^a}a}a}a}a}a}bdbdbjbjbjbjbjbjbobobobobrbubububybybybHbHbHbDbDbMbMbMbMbNbMbNbXbUbXbXbXb4b5b5b5b%b&b&b&b+b;b;b;b;b=b[b9bZb[b+bRb[b|b|ccccb|b}b5axa$b;b|ccccccccccccccccb^blalaMbAaMalaxbNb.b|ccb|ccb}ccccb}ccb=bcalbJb=b[b|b|b[b|b[b5bJb+b$bDbRb6b%b5b5b5b4bXb4bZbXbXbUbNbNbMbNbMbDbHbDbDbDbybDbxbmbxbububobmbobobobobjbjbjbjbebebebdbdbdbdbda[bda[a[a^a^a/a/a/a/a<a<a<a<a+a+a+a+a+a+a%a+a%a+a%a%a%a%a%a%a%a%a%a%a%a6aYaSa~b2cjcpcpcjb<bCa{a2aOaOaOaOaIaIauapaoaoaoanahadacafaia6aYaFaFa6a(a6a6a6aWa-a&a(a&a(a&a&",
"aYaOa6a&a9aYaSa6aYa6a6a6a9a/a8a[a-a]a:a[aYa%a8a[a3a9a0a(aYajadaeanazaFaNaVaIataOaQaOaNbAb\b\b\b#bKa-a9aYaZa5a+a+a+a+a<a<a<a<a<a^a^a^bda^a^bdbdbda}a}bdbdbdbebebebjbjbjbjbjbjbobobrbubububybybybybHbHbHbDbHbMbDbNbNbNbUbNbXbUbXbUbXb4b4b5b5b%b%b%b+b+b+b;b;b;b=b[b[b^b&bZb^b+bZb|b}cccccdcccdb+aKa1b=cccdckckckckchckchccblaqaMbCaTaialbXb^cccccdcdccckcdcdccb}bialbRb^b|ccb|ccb|b|b9bRb,b;bMbZb$b%b%b%b%b%b5b5b5b5bZb4bXbUbUbNbUbNbMbNbMbDbDbDbDbDbybybybxbubybubrbubrbobobobjbjbebjbjbdbjbdbda}a}a}a^a[a[a[a[a[a<a/a^a/a<a/a/a/a/a+a+a+a+a+a+a+a+a+a+a9a%a+a9a%a9a%a9bScpczcucpcpb_bKa<aQaYa6aQa2aIaOaOazanaoataoanahaeafafaia6aYaNaIa6a(a6a6aYaSa-a-a-a-a-a&a&",
"aYaIa6a&a9aYa5aYa%a6a9a9a/a8a[a-a]a]a:a[aYa6a8a-a9a0a9a-aSajagaeanazaNaVaVaNavaVaZaZaZaQaYa-babCbYbma9a6a+a6a5a%a<a<a<a<a<a^a^a^a^a}a}a}bdbdbdbdbdbdbdbjbebjbebjbjbjbjbjbobrbrbrbrbybybybxbDbDbDbDbDbDbNbHbNbNbNbXbNbXbXbUbUbXb4b4b4b5b%b%b%b%b+b+b,b;b;b=b[b[b|b|b|b+b9b|b;bZcccccdckcdckcdb+aKa$b[ckcdckchcrchcrckcrcdbwaqa1bWaHalalbZcdccckckckchckckckcdb}biaqbRb|ccccckcccgccb+bRb[b[bUb9b+b;b+b+b+b%b&b%b%b5b%b5bZb4bZbZbUbUbUbNbNbNbNbMbDbNbHbDbHbDbybHbybxbybubububobobobobhbjbjbjbjbebebdbdbda}a}a[a}a[a[a[a[a[a[a[a/a/a/a/a/a/a/a/a+a+a/a/a+a+a+a9a9a9a9a+a&a~bAbKb#b<bAaSaOa5aQa2aSaZaOaOaQaOarapaoatatanamaeafafaia9a6aNaOa6a-a6a6aYaYa-a:a(a&a(a&a-",
"aSaOa6a&a9a6aYa6a%a6a9a&a/a[a-a]a:a]a]a(a%a6a-a-aRaZa3a-aYajagaeanazaNaVaVaNavaZaZaZaZa5a-a5aZaZaYa9a:a-a%a<a9a%a+a<a^a^a]a^a}a}a}a}a}bdbdbdbjbdbdbjbjbjbjbhbobobobobobobrbrbubxbxbxbybybDbDbDbDbDbMbMbNbNbNbNbXbXbXbXbXbXb4b4b4b5b5b%b%b%b+b+b+b;b;b=b[b[b|b|b|ccccb+b9b}b[bZccckckckchckchb;axa$b|cdckcrcrcrcrcrckcrcdbwaqa1bWaUalalb4cdckckchckcrcrchchckb}bqalbZb|ckckckckckcdb+b0b.b^bZb9b;b;b;b;b+b+b+b%b%b%b%b%b5b5bZb4bZbUbUbXbXbNbXbRbNbRbNbHbDbDbDbDbDbHbybHbybububububobobrbobobjbjbjbjbebdbdbdbdbdbdbda}a]a[a}a[a[a[a[a[a[a/a/a/a/a/a/a/a+a+a+a9a9a9a+a6aYa5aZaSaYaYaQaYa5aYaYaYaZaSaZaQaOaOazapavaoatanakagafafaia+a6aNaQa9a-a6a6aSaYa-a]a-a-a-a&a(",
"aSaOa9a&a&a6a6a0a6a9a8a-a[a(a]a]a:a]a:a]a9a9a-a]aYaZa8a-a5ajagaeanazaNaVaVaNaEaZa5a5a5a5a-a9a5a5a5a6a-a^a&a<a<a<a<a9a<a}a}a}a}bea}bebebebjbjbjbjbjbjbjbobjbobrbrbrbrbrbubxbxbxbxbxbHbDbDbDbDbDbMbMbMbNbNbNbNbUbNbXbXbXb4b4b4b5b5b%b%b%b%b+b+b;b;b;b[b[b|b|b|ccccccccb+b9cdb[b7ccckchcrcrchcrb=aKa$b|ckcncrcrcrcrcrcrcrchbIaqa1bPa1alaqb4cdchckcrcrcrcrcrcnchcdbqaqbZccckckchcrckckb;bRb|b|bZb&b[b=b[b;b;b;b;b+b+b+b%b%b&b&b5b5b5b5b4bZbXbXbXbXbRbXbRbNbNbNbNbMbNbHbHbHbHbHbybybybybububrbubrbrbrbobjbjbebjbebebebdbdbdbda}bda}a}a}a}a[a^a[a^a/a<a/a/a/a+a+a%a6a+a&a+a6a6a%a9a6a6a6a5a5a6a5a5a5aZaZaZaOaOazapavazaoapamagagafala9a+aNaNa9a-a6a6aYaYa-a(a[a(a8a/a8",
"a6aOa9a(a+a6a6a6a9a8a/a(a[a-a]a:a~a:a~a]a9a9a-a-a9aSa&a:aYajagahanazaNaVaVaNaEa5a%a0a%a+a%a+a+a+a/a/a/a^a^a<a[a<a}a^a.a}a}bea}bebebebebjbobrbobobrbobrbrbubrbububybubybxbybybJbHbHbDbDbJbNbJbMbNbNbXbNbXbUbUbXbXbXb4b4b4b4b5b%b%b%b&b+b+b;b+b;b=b[b[b|b[b|ccccccccckb+b-ckb[b9cccrcrcrcrcrcnb[aKa$ccchcrcrcrcwcrcwcrcwchbIaqa$b6aNalaqb4chckcrcrcrcrcncrcwcrcdbqalb5cccrcrcrcrckcrb;bZb|b}b9b&b^b[b[b[b[b;b;b;b;b;b+b+b+b&b&b&b%b5b5b5b4bXb4bXbXbXbXbXbRbXbNbNbNbNbNbNbHbHbHbHbHbybHbxbxbxbxbxbubrbxbobrbjbobjbjbhbebjbebebebea}a}a}a}a}a[a^a[a^a^a/a/a/a/a5a9a+a-a&a%a6a%a9a6aZa6a%a9a5a5a5a5a5a5aZaQaOazatavazavaoamagagafaia+a&aNaIa9a-a6a6aYaYa:a-a(a[a(a8a/",
"a9aQa9a&a&a9a9a&a&a&a&a-a-a]a]a~a~bha~a-a9a9a]a-a9aSa-a-aYajagajanaCaNaZaZaNaza5a%a%a%a/a+a<a<a<a^a^a^a}a[a^a~a~a}a}a+a^bebeblblbjbjbjbrbrbrbrbrbrbrbububwbybybybybybHbybJbHbHbHbNbNbNbRbRbRbNbRbXbXbXbZbZbZbZb4b4b4b4b5b%b5b&b&b+b+b+b;b+b]b=b[b[b|b|cccccccccccdckb+b9chb[b9ckckcrcrcrcrcnb^aKa$cccrcrcrcwcwcwcwcrcrcnbIaxaVb6aNalaqb5chcrcrcrcrcrcwcwcrcnckbqaxb5cdcrcrcrcrcrcrb=bZb|b}b9b+b|b|b|b[b|b[b[b=b;b;b;b;b+b+b%b%b%b%b%b5b%b5b5bXb4bXbXbZbXbZbZbZbRbXbNbNbNbNbDbNbHbDbDbHbHbHbybHbybybybybxbrbubrbrbrbobjbebjbebeblbebea}a}a}a}a}a}a[a^a[a[a/a5a+a9a9bma]a9a%a+a+a+a+a9a%a%a%a%a0a5a5aZaSaOazavazazavaoamaeafafaia&a&aNaCa9a-a3a6a6aYa]a:a[a-a[a/a(",
"a6aQa9a-a&aYaOaAaAaCaFaFaNaOaOaQaQaQa9a&a9a9a[a:a9aSa-a-aYajagahaoaAaNaZaZaVaza%a9a%a+a/a<a<a/a^a^a}bdbdbda[a~a~a}a}a<a^beblbeblbobjbobrbrbrbrbubrbububybybybybHbHbHbHbHbHbHbHbHbNbNbNbNbRbNbNbXbXbZbXbZbZb4b4b4b4b5b5b%b5b&b&b+b+b+b+b;b;b]b[b[b[b|b|b|ccccccckcccdb;b9chb[b9ckcrcrcwcrcrcnb|aKa?cccrcrcwcwcrcwcwcwcwcrbxaxa$bSa1alaqb%chcrcrcrcwcwcrcwcwcrchbqaxb9chcrcrcrcrcrcrb[bZb|ccb5b+ccb|b|b|b=b|b=b]b=b;b;b;b;b+b;b+b%b+b%b%b%b5b5b5b4b4bXb4bZb4bZbZbXbXbUbUbNbRbNbMbMbMbDbNbHbHbHbHbHbHbybHbxbxbxbxbubxbwbrbrbrbrbebrbebjbebebebebdbdbdbda]a}a[a5a/a/a/a/a/a+a+a+a+a+a+a/a9a+a+a9a%a%a5a5aSaQaAazazazazaoamaeafacama-a&aNaCa9a-a3a6a6a6a]a]a-a-a[a[a[",
"a6aQa&a-a3aQaracafagagagagagagagagafaCa3a6a9a[a:a9aYa-a:aYajafajanaCaNaZaZaVaHa%a/a+a/a/a^a^a^a[bdbdbdbdbda}a/a^bebea<bdbebjbobobobobrbubrbubybubybybxbybHbHbJbHbHbHbHbHbHbHbNbDbNbNbNbXbNbXbRbXbZbUbXb4bZb5b5b5b5b5b%b%b%b%b&b+b+b;b;b;b;b[b[b[b|b=b|b|ccccccckcdckb+b9ckb]b9chcrcrcrcrcrcnb|aTa?cccncrcwcwcwcDcwcwcwcrbIaxa1b6aNalaqb5chcrcrcrcrcwcrcwcrcnchbqaxb&chcrcrcrcrcrcrb^bJb^b^b5b;ccb|b|b|b|b|b=b=b=b;b;b;b;b;b+b+b+b-b+b%b%b&b%b5b5b5b5b5b4b4bZb4bZbXbXbXbXbUbRbNbMbMbMbNbNbNbNbHbNbJbHbHbHbybHbxbxbxbybybubrbrbmbrbobobobhbjbjbja~bjbdbebea]a%a[a[a/a/a/a/a/a<a/a+a<a+a+a/a+a%a+a%a0a5aSaQazaCazaAazaoamagafacafava9aCaNa9a-a9a9a6a6a-a]a-a-a]a-a-",
"aYaQa&a-a&aSaragafagajananaoatararaoaCa9a6a9a(a~a&aYa-a-aYajagaeaoaAaNaZaZaVaHa+a/a/a/a^a^bdbdbdbdbdbjbjbdbhbjbhboboa^bjbrbrbrbubrbubybubybybybybybHbybHbHbHbHbHbHbHbNbNbHbNbNbNbNbNbXbNbXbXbXbXbZbXb4b5b5b5b5b5b%b9b%b%b%b%b+b+b+b;b;b;b]b[b[b[b|b|b|cccccccccccdchcdb;bZbib]chcrcrcrcrcrcnb^aKa?cccrcrcwcwcwcwcDcwcrcnbJaxa1bPa1alaqb5chckcrcrcrcrcrcwcncrcdbqaxb&chcrcrcrcrcrcrccbwa?bZb^b|b}b|b|b|b|b|b|b=b=b=b=b=b;b;b;b;b+b+b+b+b&b&b&b%b%b5b%b5b5b5b5b4bZb4bXbXbXbXbUbUbUbRbUbNbNbNbNbNbNbNbHbNbHbHbHbHbHbybHbybybybybxbububrbubobobobobobobjbjbebda+bda[a^a[a[a}a[a^a[a<a[a<a/a+a/a+a/a%a%aYa5aQazaHazaAazaoamagafafacamaYaFaHa&a-a9a9a6a6a-a]a-a]a-a-a]",
"aYaQa-a-a4aSaAajagamanaoavarazaAaAaAaOa9a6a9a&a:a&a5a-a:a5ajagaganaAaNaZaZaVaMa/a<a/a^bdbdbdbdbdbjbjbjbjbobmbubububua^bjbububybybybybybJbybJbHbHbHbHbDbNbHbNbJbNbNbNbNbNbNbNbXbNbXbXbXbXbXbZbXbZbXb4b4b4b5b5b5b%b5b%b&b&b&b%b+b+b;b+b;b[b;b[b[b[b[b|b|b|b|b}b|chcrchb-bRb0b;cdckchcrcrcrcrcrb[aTa?cccncrcrcrcwcwcwcwcrcrbIaxa1bWaUalaqb4cdchcrcrcrcrcrcrcrcrcdbqaxb&cdckchcrcrcrckchccbZa|bwb&b}b}b}b|b|b|b[b|b=b=b=b;b=b;b;b,b,b+b+b$b+b%b%b%b%b%b%b5b5b%b5b5b4b4b4bXbZbXbXbZbZbXbXbUbUbNbUbNbNbNbNbNbNbNbHbNbHbHbHbHbHbybHbybybybybybybububububobobobobja+bjbdbdbha}a}a}a^a^a^a^a^a^a/a/a/a/a+a+a6a6a5aAaHazaHazatakagagafacapa5aHaHa&a-a9a9a9a6a:a:a:a-a:a-a-",
"aYaIa-a-a-aSaFaAa>bfbtbfbfbAbkbnbPbCaOa9a6a&a&a~a&a5a-a:a5ajagaeanazaNaZaZaVaNa<a^a^a}bdbjbdbjbjbjbjbobobrbobububububdbrbybybybybJbHbHbHbHbHbHbHbNbDbNbNbNbNbNbNbNbNbXbXbXbXbXbXbXbXbXbXb4bXb4b4b4b4b4b5b%b%b%b%b&b&b+b+b+b+b;b+b;b;b;b[b=b[b[b[b|b|b|b|b|cdchcdb&bIbIb&b|b}ccccckchckcrchchb[aTa?b|chcrcrcrcrcrcwcrcrcnbwaxaTbWaUalalbUcdcdckchcrchcrcrcrchccbiaxb5cdckckckchckchckcdcdb^bJa?bpb&b}b}b}b|b^b^b[b=b=b=b=b;b;b;b,b,b;b,b+b+b$b%b%b%b%b%b%b%b5b%b5b5b5b4b4bXbXb4bXbZbXbUbXbUbUbUbNbNbNbNbNbNbNbNbNbNbDbNbHbHbHbHbHbybHbDbxbybybybybybububoboa<bobebtbOa}bea}a}a}a}a}a}a^a^a^a^a/a/a+a+a9a5aHaHazaHazaoamagagafacapaYaHaHa&a-a9a9a9a6a:a:a:a:a]a-a-",
"aYaOa&a-a(aYaFaSbCbKbEbKbKbPbKbPbSbaaQa9a9a-a[a;a[aSa-a:aYajagaeanazaNaZa5a2a!a-a}a}bebjbjbobobobobobububybUbDbybDbya^brbybybybybJbHbHbHbJbHbHbNbHbNbNbNbNbRbNbNbUbRbUbXbRbXbXbXbXbXb4bXb4bXb4bXb4b4b5b%b5b%b%b%b%b+b+b$b,b;b;b;b;b;b=b=b=b[b^b[b|b|b|cdchcdb&bIbIb&b^b|b}b|b}cccdckcdckckckb[aKa?b|chckchcrcrcrcrcrcrcdbFala1bWaNalalbUcccdckckchckcrchcrckb}biaxb5b}ccckcdckcdcdckcdcccccdb[bxa?bpb[cdcdb}b^b^b=b=b[b=b=b;b=b;b=b,b,b,b,b+b+b$b+b%b+b%b%b%b%b%b%b4b5b4b4b4b4b4bXb4bXb4bUbUbUbUbUbUbXbNbXbNbNbNbNbNbNbNbJbNbHbHbHbHbDbDbHbHbybHbybybububoa^bobobhbjbebebebebebebebebea}a}bda}a^a^a&a&aZaHaOaHaHaHavakajagafacapa6aHaFa-a-a9a&a9a9a~a:a:a:a:a(a[",
"aYaIa-a:a-aYaIaSbCbKbzbKbKbzbKbKbPbaaQa9a9a{a{a]a6aOa]a:a&amagaeanazaNaVa5aZa+a%a<bebjbrbobrbubrbubububybybObMbDbDbybubOb4bWb4bWb4b6b4b6b4b6b6b6b6b6b6b6b6b%b6b$b$b$b$b$b$b$b$b+b$b$b,b,b,b,b,b;b,b,b=b.b,b.b=b=b=b=b^b^b=b^b^b^b^b^b}b}b^b}b}ccb}cdcdb}b9bIbJb&b^b|b|b}b}ccb}cccccccccdckcdb;aKa$b|cdckckchchckcncrcncdbpaxa1bWaMaqalbUb}cccdckckchckckchckb}bcaxbZb}b}cdcdcdckcccdcccdb}ccb}b|b;bwa?bwb[chcdb}b}b^b|b^b^b^b^b=b^b=b=b.b=b.b=b=b=b;b=b,b;b,b,b,b,b,b$b$b$b$b%b$b%b$b6b6b6b%b4b%b4b4b4b4b4b4b4b4b4bUb4bUbXbXbUbXbUbUbObUbUbMbUbMbNbMbMbMbDbdbybmbubmbrbhbMbAbjbobjbobjbjbebebebea]a+aNaZa-a6aHaFazavakajagafafapa6aHaFa-a-a9a&a]a-a,a:a:a~bPb2b2",
"aYaNa&a:a-a6aIaYbsbCbCbzbKbzbKbKbPbaaQa6a9a:a~a-aVaNa-a:a-amafagapavaHaVaZa%a+a+a!a%a}bjbobobobobjbrbububububybybybybobUbObObObObUbObWb4bWb4bWb4bWb4b6b6b4b6b6b6b6b$b6b$b$b$b,b,b,b,b,b,b.b;b.b,b.b=b.b^b^b^b^b^b}b^b}b}b}b}cdb}cdcdcdcdcdchchchcdb[b4bwbJb&b|b|b|b|b}b|b}b}cccccccccccdcccdb;aKa1b|cdcdckcdchchchckchcdblaxaUbKaTalalbMb^b}ccb}cdcccdcdckcdb^bcaxbUb.b|ccccb}b}ccb}ccb}ccb}b|b}b^b|b+bpa?bxb+b^chchchcdcdcdcdcdb<cdb}cdb}b}b}b^b}b^b^b}b^b^b^b^b.b^b^b.b^b.b.b.b.b.b.b.b,b,b,b,b,b,b,b$b,b$b$b$b$b6b$b6b6b6b6bWb6bWb4bWbWb4bOb4bOb4bObObObdbDbDbmbDbmbxbAbDbebwbebrblbrbebebebea^aZa~a~aYaVaIaFazavakahagaiafasaYaHaCa-a-a9a(a[a9a]a~a:a~b<b\b\",
"aSaNa&a:a-a6aIaYbCbCbCbzbKbKbzbKbPbaaQa6a9a{a:a-aNaNa:a]a-amagagakaEaHaVaZa%a<a^a^a.a%a.a.a.a.a+a\a+a.a.a.a\a!a\a!a.a$a!a!a?a!a.a?a.a.a.a.a.a`a.a`a.bca.a`a.bca.bca.a`a`a|a`a`a`a`a`bgbgbgbgbgbqbgbpbpbpbpbpblbpbwbwbwbwblbwbwbwbwbwbwbwbxbwbwbIbwbwbRb+b^b^b^b|b|b|b|ccb}b}b}ccb}ccccccccccb,aKa1b[cdcdckcdckchckchchccblaqa1bKaTalaibMb^b^b}b}b}cdcccdcdccb.a|axbMb.b^b^b^b|b}b|b}b|b^b}b|b|b^b|b^b^b^b&bla|bgblbwblbrbrbrblblbwblblblblblblblbgbdbgbdbdbdbdblbdbcbdbca^a^bga^bca`bcbca<bca^bca<bca+a<a+a<a.a+a<a`a.a<a\a.a\a.a\a.a\a.a%a*a.a*a.a!a\a.a*a1a.a.a.a.a.a.a.a!a+a.a<a.a+a.a.a.a.a+a!a+a%aZaZaOaVaAazaoakahahaiafapa5auaAa-a-a8a/a]a9a]a]a-a~b\b_b_",
"aSaNa-a:a-a6aIa6bsbCbCbKbzbKbKbKbPbaaIa6a&a:a~a(aHaHa:a:a-amagaiakavaHaNaZa5a+a^a<a^bdbdbdbdbdbjbebebebjbobobobobrbobrbrbrbxbwbxbmbxbxbxbxbxbxbxbxbybxbHbDbybDbDbHbDbDbHbDbDbDbRbDbRbMbMbRbMbRbNbNbUbNbXbRbUbUbUbZbZb4bZb4bUb4b4b4b4b4b5b5b&b5b&b&b;b^b^b|b^b|b|b|b|b|b|b|ccb|cccccccdccccb}b+aTa1b[cccdckcdckcdchckcdb}bgaqaUbOaHalalbDb=b^b|b}b}b}b}ccb}b}b.a|axbRb.b^b^b|b|b|b}b|b|b^b^b^b^b^b|b^b^b^b=b=b&b5b5b4b4b4bZbUbUbUbUbUbUbUbUbUbUbUbUbUbMbUbNbUbNbNbNbNbNbMbMbDbMbDbMbDbDbDbDbDbDbDbDbybybybybybybybybybububububububobrbobobjbjbjbjbjbjbjbebgbea}a}a}a}a^a^a^a}a<a^a<a^a<a<a<a<a<a+a+a+a6a5aZaOaIaAazaoakahahaiaeasa0azaua-a-a8a/a]a6a]a~a-a-b_cpcu",
"aSaNa-a:a&a6aNa9bCbCbvbKbKbKbPbKbPbaaNa6a&a:a:a-aHaNa-a:a-amagaeamataEaNaVa!a%a/a^a^a^a}a^bdbdbdbebebjbjbjbrbobrbrbrbububxbxbybxbxbybybybybHbHbHbHbHbHbHbHbHbDbMbMbMbMbNbNbNbUbMbNbUbUbUbXbXbXbXbXb4b4b4b4b5b5b%b6b&b6b&b&b%b+b+b$b+b,b;b;b=b=b=b[b[b^b[b|b|b|b|b|b}b|ccb|ccb}ccccccccccccb}b+aTa1b[cccdcccdckcdcdcdcdb}bgaqaUbOaMalalbDb=b=b^b|b^b|b^b}b|b}b;bcaxbNb,b=b=b^b^b[b^b[b^b=b^b=b^b=b=b^b=b=b;b,b;b,b;b+b,b+b,b+b$b+b%b&b&b&b6b&b%b%b%b%b5b%b5b5b4b5b5b5b4b4b4bZb4bXb4bZbXbXbXbXbXbUbXbNbNbNbNbNbNbNbHbNbNbHbNbNbHbNbHbHbHbDbDbHbybDbybybxbubububmbrbmbobhbebebea}bda}a}a}a}a}a}a^a<a<a/a%a5aZaVaIaHazaoakahaiaeaiaua[araza-a:a&a-a-a/a9a+a9a9b<cpcu",
"aQaCa&a6a&aYaCaOa,a{a,a{a{a~a{a:a-aYaCa9a]a]a:a]aNaNa[a:a-akagahamanavaHaVaZa%a+a<a<a^a^a^a^bda^bdbdbdbjbdbjbjbjbrbobrbrbrbrbububrbubrbububybybybybybybybybybybybHbDbHbHbHbNbHbNbMbMbMbNbUbNbUbNbUbUbUbUbZb4b4b5b5b5b5b&b5b&b6b&b&b&b+b+b+b+b+b;b;b;b;b=b=b;b=b[b[b=b[b[b^b[b^b[b^b[b|b[b[b^b$aTa1b=b}cccdcccdckcdckcdb|blaqaVbOaMaqalbDb=b=b^b^b^b^b^b^b|b^b;a\axbMb$b+b,b;b,b;b,b,b;b,b;b,b;b;b,b;b,b+b$b$b&b&b$b&b6b5b6b5b5b5b5b5b5b4b5b4b4b5b5b4b4b4b4b4b4bXb4bXbZbXbZbXbZbXbUbXbUbUbNbNbNbRbMbNbHbNbHbHbHbybHbHbybHbybHbybybybybybybybybubxbrbrbobobhbjbjbjbebebdbda}a^a^a^a^a^a^a^a^a^a<a<a<a/a%a5aZaZaVaHavaoamajaiaeaiaNa(atava-a-a&a-a-a-a+a+a/a/a[a}a]",
"aFaua9a&a8a6aFazararazanajakaoapaoaHaIa&a]a]a~a:aNaVa[a~a-amagahakapavaHaNaZa!a%a+a<a<a^a^a^a^a^a^a^a^a}bdbdbdbjbgbjblbjbobobobrbrbobrbrbrbrbrbrbrbububxbxbxbxbxbxbybxbHbybHbHbHbJbHbJbDbNbDbNbNbNbNbUbRbUbZbZbZbZbZb4b5b5b5b5b9b&b5b&b&b&b&b&b+b&b+b+b+b+b+b+b;b+b;b;b;b;b;b;b[b[b=b;b[b[b[b6aTa1b=ccb}ccckcdcdcccdcdb}bgaqa!bOaEaqaqbDb.b;b^b^b^b^b^b^b|b^b,a\axbMb$b$b+b,b$b+b$b$b+b+b$b+b$b+b,b$b%b%b6b5b4b4b4b4b4b4b4bUb4bUbUb4bUbUbXbXbXbUbXbUbXbUbUbXbXbXbXbXbXbXbXbNbXbNbUbNbMbMbMbDbDbJbDbHbybybybubububububobubobobobobobobobobobobjbjbobjbjbjbebebdbdbdbdbda^a^a^a^a^a^a^a^a^a^a^a^a`a^a/a+a%a5aZaNaHavasanahalaiahaYa-atava-a-a&a-a-a-a/a/a/a[a/a/a/",
"aAara9a&a9aYaSaSaQaQaOaFaAaIaOaOaQaQaOa&a:a~a~a:aNaVa[a~a(amagajakapauaHaVa!a%a.a<a.a<a<a`a^a`a<a`a<a^a^a^a^a}a}bdblbdbjbdblbjbjblbjbjblbjbjblbjbrbobrbrbrbubwbubxbxbxbybybybHbybJbDbJbHbJbHbJbNbRbNbNbRbNbRbXbZbUbZbZbZb4bZb4b4b5b5b5b%b5b&b&b%b%b%b&b&b+b+b+b+b+b+b+b+b+b;b;b;b;b=b=b;b;b.b6aTa1b=cccccccdcccdckcdcdb|blaxa%bAayaqaqbDb[b[b^b|b|b|b|b^b|b^b;a\axbMb+b$b+b,b+b+b+b+b$b%b%b$b%b%b%b$b%b4b4bUbUbUbXbUbZbUbUbUbMbUbMbRbMbMbMbMbMbDbMbDbMbDbDbHbDbHbHbDbDbybDbDbybybybybxbxbxbubrbrbrbrbjbjbjbjbjbjbjbjbdbdbdbdbebebebebebebebebebebebebebdbdbdbdbdbdbdbdbdbdbda}a}a}a}bdbdbdbdbdbdbda^a/a+a%a5a2aNaEavasakamamama9a-atata-a-a&a-a-a&a-a&a-a&a[a-a/",
"aFaAaYa9aYaSaQaQaQaQaQaSaYaYaYaSaSaSaOa&a:a~a~a:aVaZa[a~a:amaeamanavaHaVa!a+a^bgbca^bca^a^a`a^a`bdbga}bgbgbgbdblbebjbjbjbjbjbjbjbjbjbjbjblbobjbrblbjbrblbrbrbrbubwbybxbybybybJbHbHbHbJbDbHbHbHbJbNbRbMbRbNbXbRbUbRbZbZbZbZbZbZbZb4b5b5b5b5b5b&b9b%b%b%b&b&b&b&b&b&b&b&b+b+b+b+b;b,b;b;b;b[b[b6a1a$b=b}cccccdcccdccckcdb}bwaxa/bAayaqaqbMb[b[b|b|b|b|b|b|b^b^b=a|aKbMb+b,b;b;b,b+b+b+b&b&b&b&b&b&b&b6b&b6b5b4bUbZbUb4bUbUbUbUbMbUbMbRbMbMbDbDbDbHbHbDbxbxbxbxbmbxbxbmbxbmbmbmbrbmbrbmbrbmbobobhbobjbhbebjbebebebebebebebebebebebebebebebebebebebebebdbjbdbjbjbjbjbjbjbjbjbjbjbhbobhbobobobobobobobjbjbdbda<a+a%aZaUaHaEaoasapaHa-a-atava-a-a6a&a/a&a&a&a&a&a&a9a9",
"aCaAaYa6aSaQaOaOaOaOaSaYaSaSaSaSaQaOaOa&a:a~a~a]aZaZa-a~a:apajapataAaUa!bcbcblbdblbdblbdbgbga}bgblbgblblbjblbjbrbobrbrbrbrbrbrbrbrbrbrbrbrbrbrbrbrbrbrbrbrbubrbubububxbybybJbHbHbHbHbNbNbNbNbNbNbUbNbUbUbUbUbXbXbUb4b4b4b5b5b5b5b5b%b%b&b&b&b&b&b&b&b&b+b+b+b+b;b+b;b+b;b;b;b[b;b[b[b[b[b[b^b+a$a?b.cdcccdcdckcdchcdchcdbwaxa^bAayaxaxbUb^b^b|b|b|b}b|b}b}b|b.biaKbUb,b[b[b[b[b[b[b[b;b+b,b+b+b,b+b,b+b+b$b$b&b%b6b5b6b5b4b4b4bUbZbUbUbUbMbMbMbDbDbDbDbHbybybxbmbxbmbxbmbxbmbxbmbxbmbmbmbobmbhbmbmbhbmbhbobhbhbmbhbobmbhbmbhbhbhbebhbjbjbjbjbjbjbjbjbjbhbobebobhbrbmbrbubububububybtbybDbDbtbDbDbDbmbubhbda}a[a+a%aVaVaNaNa9a]a~a-apaoa-a&a6a-a&a9a9a9a9a9a9a6a6",
"aAauaQaSaQaOaIaOaIaOaQaQaQaQaQaQaOazaCa&a]a~a~a]aZaZa-a~a:aHaHaVaOaZa%a^blbrbxblbdblblbjbda`a`a`a`bgbgbga}a^bgbdbgbdbgbdbgbdbgbdbgbdbgbdbgbdbdblbjblbjbrbrbrbrbrbrbubxbybybHbybHbHbHbHbDbHbHbMbNbNbNbNbUbNbUbUbUbUbUbUbZbZb4bZb4b4b5b5b%b%b%b&b&b$b+b+b+b,b;b;b;b.b[b;b=b[b[b[b[b[b^b[b=b[b^b6a1aTb+b=b^b^b^b^b^b|b^b[b,a`axa2a<axayaxblb9b5b&b+b+b+b+b&b&b&b5a$axbRb+b,b;b;b;b,b;b+b$b&b&b6b5b&b5b5b5b4b4b4bZb4bZbZb4bUbUbUbUbUbUbUbMbMbMbDbMbDbDbDbDbybybybybubxbmbubmbmbmbmbrbmbrbhbrbhbhbobhbjbhbjbhbjbhbjbhbjbhbobhbhbobhbhbobhbobhbobhbobhbjbobhbrbobjbobrbhbrbobobobubububybDbDbtbDbDbDbAbDbDbmbmbebhbmbmbmbma{a-a~a{a~a~a-apaoa-a9a6a&a9a9a6a6a6a6a6aYa5",
"aravaFaOaFaFaFaFaFaFaFaCaFaFaFaFaFaAaFa&a]a:a]a~aZa5a-a~a~a[bmbmaUa~b.b_chb#bOb6cjcKcjb,bWb<b<b}b#b6bObObWbWbWb6bWbWbWbWbWbWbWbWbWbObWbObObWbWb6b$b$bYb,b,bYb$b$b,bYb$b,b.b6b,b.bYb.b,b.b,b.b,b.b.b.b.b.b.b^b.b.b.b.b.b.b.b.b.b^b.b.b^b.b}b^b^b<b}b}b}b<b}cdb<cdcdcdb\cdcdchcdb\b}cdb}b<b}b}b^b6b5b$b,b,b,b$b6bWbWbWb.b.b$b4b.b.b#b$b.b^b}b}b.bUb4b,b,b,b$b$b,b6b+b}b}b^b}b}b}cdb^b^b.b.b^b.b,b.b.b,b.b.b,b,b.b,b.b,b,b.b,b.b,b$b,b$b,b.b$bSb,b.b,b.b,b.b,b.b,b$b,b,b.b$b$b$b,b$b$b$bSb$b$b$b$b$bSb$b$b$b$b$bYb,b.b$b6b$b$b$b$b6b$bSb$b$b$b6b$b6b$b$b6b6b$b6b6b$b6b6b$b$b$b$bYb^b.b$b#cdb\cdbWb.cicicncib<bWbAb6bta2aZa]a{bma{a~a-amaza;a/a5a9a9a6a6a6a6aYaQaZaO",
"ajajauaAaAauazarazarazarazaAazaAaAaAaFa&a-a]a]a]aZa&bha{a~a]a~a]a<a<a%a2aUa.b^cNcGcpb6b<cucPczcKb_b^b#cdb<cdb<b}b<b}b<b}b<b}b<cdb\b}b<cdb<cdb<b<b<b<cdb<b<cdb<b<b}b<cdb<b<b<b<cdb\b}b\b\b<b\b<cdb\chb\chb\chb<cdcnb\chb\cnb\b\cnb_chb\cicib_cncicicicncicicncicncicicicicicicicEciciciclciciciclclclclclcEcicdchb\cncNcGcYcNcLc0c0cNc0cLcYc0cNb\chcicicwcicicwb_cicnb_cnclclcicwclcncichcicncicncicicncichb_cicnb_cncicib_cicib\cnb_b\b_cnb\chb_cnb\b\cnb_b\chb_chb_b\chb\b\b\b\b_cnb\cnb\b\b\cdb\chb\b\b\cdb\cdb\b\b\b\b\b\b\b\cdb\b<b<b\b\b<b<b<b\b<cdb\b<b<b<b<cdb\b<b<cdb\b\chb\chclcKczcpcdb^clcNcNczcKbOayayalaMbmbabmbabma-alaVbaa9aZa&a9a6aYaSaOaIaFaCaC",
};
