/* XPM */
static char *xpm[] = {
"320 180 250 2",
".. c None",
"ab c #000000",
"ac c #000101",
"ad c #010101",
"ae c #010102",
"af c #020203",
"ag c #040404",
"ah c #060506",
"ai c #070607",
"aj c #090708",
"ak c #0b0a0a",
"al c #0e0d0d",
"am c #100f0f",
"an c #111011",
"ao c #141313",
"ap c #161616",
"aq c #171717",
"ar c #181818",
"as c #1a191a",
"at c #1c1b1a",
"au c #1e1d1d",
"av c #201f1f",
"aw c #232121",
"ax c #252424",
"ay c #262423",
"az c #282627",
"aA c #292524",
"aB c #292727",
"aC c #2a2829",
"aD c #2b2929",
"aE c #2d2b2c",
"aF c #2f2d2d",
"aG c #312e2f",
"aH c #333131",
"aI c #353333",
"aJ c #353334",
"aK c #363331",
"aL c #373536",
"aM c #383636",
"aN c #3b3837",
"aO c #3c3939",
"aP c #3d3c3c",
"aQ c #403c39",
"aR c #413f3f",
"aS c #423e3c",
"aT c #444242",
"aU c #46413e",
"aV c #474443",
"aW c #474545",
"aX c #484646",
"aY c #49433e",
"aZ c #494643",
"a0 c #494647",
"a1 c #4a4848",
"a2 c #4d4b4a",
"a3 c #4d4b4c",
"a4 c #4e4a47",
"a5 c #4f4b45",
"a6 c #50443b",
"a7 c #504e4f",
"a8 c #52504f",
"a9 c #534f4d",
"a! c #535152",
"a# c #565455",
"a$ c #585552",
"a% c #585655",
"a& c #585656",
"a( c #5a4836",
"a) c #5a4f47",
"a* c #5a564f",
"a+ c #5c5b5b",
"a, c #5e5a59",
"a- c #5e5d5d",
"a. c #605f5f",
"a/ c #615b56",
"a: c #63615f",
"a; c #636161",
"a< c #645436",
"a= c #655a4b",
"a> c #655f5c",
"a? c #65615c",
"a[ c #666666",
"a\ c #676462",
"a] c #676563",
"a^ c #676767",
"a_ c #686664",
"a` c #69645f",
"a{ c #696765",
"a| c #696766",
"a} c #6a645a",
"a~ c #6a6765",
"ba c #6a6766",
"bb c #6a6a6a",
"bc c #6c6764",
"bd c #6c6a69",
"be c #6c6c6a",
"bf c #6c6c6c",
"bg c #6d6d6d",
"bh c #6e5431",
"bi c #6e564a",
"bj c #6e6c68",
"bk c #6f6e6d",
"bl c #6f6f6f",
"bm c #706d6a",
"bn c #706e6c",
"bo c #706f6f",
"bp c #716c67",
"bq c #716e68",
"br c #717171",
"bs c #737271",
"bt c #737373",
"bu c #74716e",
"bv c #747270",
"bw c #747474",
"bx c #757575",
"by c #76726a",
"bz c #767676",
"bA c #777471",
"bB c #777574",
"bC c #777673",
"bD c #78594c",
"bE c #797773",
"bF c #797774",
"bG c #797979",
"bH c #7a7672",
"bI c #7c7b7b",
"bJ c #7d7b79",
"bK c #7e6b3d",
"bL c #7e6e65",
"bM c #7e7970",
"bN c #7f5b3a",
"bO c #7f7f7f",
"bP c #817d79",
"bQ c #817f7d",
"bR c #818181",
"bS c #847e77",
"bT c #84817e",
"bU c #848484",
"bV c #85817d",
"bW c #868686",
"bX c #878581",
"bY c #88693a",
"bZ c #888580",
"b0 c #897452",
"b1 c #897e73",
"b2 c #898887",
"b3 c #8a857b",
"b4 c #8a857d",
"b5 c #8a8683",
"b6 c #8c8981",
"b7 c #8c8984",
"b8 c #8c8c8b",
"b9 c #8d5946",
"b! c #8d5f4d",
"b# c #8e7364",
"b$ c #8f897f",
"b% c #907551",
"b& c #918d85",
"b( c #91908f",
"b) c #948769",
"b* c #959087",
"b+ c #959594",
"b, c #967e5a",
"b- c #968f86",
"b. c #98958f",
"b/ c #99948c",
"b: c #9a6c5c",
"b; c #9a6d5e",
"b< c #9b9a99",
"b= c #9d7464",
"b> c #9d9582",
"b? c #9e968a",
"b[ c #9e998e",
"b\ c #9f867b",
"b] c #9f988d",
"b^ c #a17c62",
"b_ c #a1a09d",
"b` c #a58565",
"b{ c #a59f97",
"b| c #a6a092",
"b} c #a89a8c",
"b~ c #a99f8e",
"ca c #aaa59d",
"cb c #adaba7",
"cc c #ae8d74",
"cd c #aea593",
"ce c #b1a793",
"cf c #b27e6b",
"cg c #b38e5b",
"ch c #b69459",
"ci c #b7ad98",
"cj c #b8b2a8",
"ck c #ba8663",
"cl c #bc816d",
"cm c #bc9c62",
"cn c #be9480",
"co c #bfb49f",
"cp c #c0a581",
"cq c #c4b9a5",
"cr c #c5b89e",
"cs c #c8876c",
"ct c #c9b68d",
"cu c #cb8b73",
"cv c #cbae94",
"cw c #cc9a80",
"cx c #ccbfa5",
"cy c #cd9d6b",
"cz c #cebca3",
"cA c #cfc0a2",
"cB c #d18f73",
"cC c #d49982",
"cD c #d4c5a7",
"cE c #d7967b",
"cF c #d8ba88",
"cG c #d8c9aa",
"cH c #d98b72",
"cI c #daa470",
"cJ c #dbbe7a",
"cK c #dda28b",
"cL c #ddb87a",
"cM c #dec59f",
"cN c #df9378",
"cO c #e4a183",
"cP c #e8987d",
"cQ c #ebc68a",
"cR c #eda285",
"cS c #eecda2",
"cT c #ef9e83",
"cU c #f1ae83",
"cV c #f3d6ad",
"cW c #f4a58a",
"cX c #f6b093",
"cY c #f7ac8f",
"cZ c #f7bd98",
"c0 c #f7bf90",
"c1 c #fab696",
"c2 c #fac1a0",
"c3 c #fac69b",
"c4 c #fbc69f",
"c5 c #fbc99f",
"c6 c #fcbda1",
"c7 c #fcc4a5",
"c8 c #fcc7a6",
"c9 c #fcddb5",
"c! c #fce5c0",
"c# c #fdceab",
"c$ c #fdd5b0",
"c% c #ffefcc",
"c& c #fff2cd",
"c( c None",
"................................................................................................................................................................................................................................................................................................................................................................................................................................................................................................................................................................................................................................................................",
"................................................................................................................................................................................................................................................................................................................................................................................................................................................................................................................................................................................................................................................................",
"................................................................................................................................................................................................................................................................................................................................................................................................................................................................................................................................................................................................................................................................",
"................................................................................................................................................................................................................................................................................................................................................................................................................................................................................................................................................................................................................................................................",
"................................................................................................................................................................................................................................................................................................................................................................................................................................................................................................................................................................................................................................................................",
"................................................................................................................................................................................................................................................................................................................................................................................................................................................................................................................................................................................................................................................................",
"................................................................................................................................................................................................................................................................................................................................................................................................................................................................................................................................................................................................................................................................",
"................................................................................................................................................................................................................................................................................................................................................................................................................................................................................................................................................................................................................................................................",
"................................................................................................................................................................................................................................................................................................................................................................................................................................................................................................................................................................................................................................................................",
"................................................................................................................................................................................................................................................................................................................................................................................................................................................................................................................................................................................................................................................................",
"................................................................................................................................................................................................................................................................................................................................................................................................................................................................................................................................................................................................................................................................",
"................................................................................................................................................................................................................................................................................................................................................................................................................................................................................................................................................................................................................................................................",
"................................................................................................................................................................................................................................................................................................................................................................................................................................................................................................................................................................................................................................................................",
"................................................................................................................................................................................................................................................................................................................................................................................................................................................................................................................................................................................................................................................................",
"................................................................................................................................................................................................................................................................................................................................................................................................................................................................................................................................................................................................................................................................",
"................................................................................................................................................................................................................................................................................................................................................................................................................................................................................................................................................................................................................................................................",
"................................................................................................................................................................................................................................................................................................................................................................................................................................................................................................................................................................................................................................................................",
"................................................................................................................................................................................................................................................................................................................................................................................................................................................................................................................................................................................................................................................................",
"................................................................................................................................................................................................................................................................................................................................................................................................................................................................................................................................................................................................................................................................",
"................................................................................................................................................................................................................................................................................................................................................................................................................................................................................................................................................................................................................................................................",
"................................................................................................................................................................................................................................................................................................................................................................................................................................................................................................................................................................................................................................................................",
"................................................................................................................................................................................................................................................................................................................................................................................................................................................................................................................................................................................................................................................................",
"................................................................................................................................................................................................................................................................................................................................................................................................................................................................................................................................................................................................................................................................",
"................................................................................................................................................................................................................................................................................................................................................................................................................................................................................................................................................................................................................................................................",
"................................................................................................................................................................................................................................................................................................................................................................................................................................................................................................................................................................................................................................................................",
"................................................................................................................................................................................................................................................................................................................................................................................................................................................................................................................................................................................................................................................................",
"................................................................................................................................................................................................................................................................................................................................................................................................................................................................................................................................................................................................................................................................",
"................................................................................................................................................................................................................................................................................................................................................................................................................................................................................................................................................................................................................................................................",
"................................................................................................................................................................................................................................................................................................................................................................................................................................................................................................................................................................................................................................................................",
"................................................................................................................................................................................................................................................................................................................................................................................................................................................................................................................................................................................................................................................................",
"................................................................................................................................................................................................................................................................................................................................................................................................................................................................................................................................................................................................................................................................",
"................................................................................................................................................................................................................................................................................................................................................................................................................................................................................................................................................................................................................................................................",
"................................................................................................................................................................................................................................................................................................................................................................................................................................................................................................................................................................................................................................................................",
"................................................................................................................................................................................................................................................................................................................................................................................................................................................................................................................................................................................................................................................................",
"................................................................................................................................................................................................................................................................................................................................................................................................................................................................................................................................................................................................................................................................",
"................................................................................................................................................................................................................................................................................................................................................................................................................................................................................................................................................................................................................................................................",
"................................................................................................................................................................................................................................................................................................................................................................................................................................................................................................................................................................................................................................................................",
"................................................................................................................................................................................................................................................................................................................................................................................................................................................................................................................................................................................................................................................................",
"................................................................................................................................................................................................................................................................................................................................................................................................................................................................................................................................................................................................................................................................",
"................................................................................................................................................................................................................................................................................................................................................................................................................................................................................................................................................................................................................................................................",
"................................................................................................................................................................................................................................................................................................................................................................................................................................................................................................................................................................................................................................................................",
"................................................................................................................................................................................................................................................................................................................................................................................................................................................................................................................................................................................................................................................................",
"................................................................................................................................................................................................................................................................................................................................................................................................................................................................................................................................................................................................................................................................",
"................................................................................................................................................................................................................................................................................................................................................................................................................................................................................................................................................................................................................................................................",
"................................................................................................................................................................................................................................................................................................................................................................................................................................................................................................................................................................................................................................................................",
"................................................................................................................................................................................................................................................................................................................................................................................................................................................................................................................................................................................................................................................................",
"................................................................................................................................................................................................................................................................................................................................................................................................................................................................................................................................................................................................................................................................",
"................................................................................................................................................................................................................................................................................................................................................................................................................................................................................................................................................................................................................................................................",
"................................................................................................................................................................................................................................................................................................................................................................................................................................................................................................................................................................................................................................................................",
"................................................................................................................................................................................................................................................................................................................................................................................................................................................................................................................................................................................................................................................................",
"................................................................................................................................................................................................................................................................................................................................................................................................................................................................................................................................................................................................................................................................",
"................................................................................................................................................................................................................................................................................................................................................................................................................................................................................................................................................................................................................................................................",
"................................................................................................................................................................................................................................................................................................................................................................................................................................................................................................................................................................................................................................................................",
"................................................................................................................................................................................................................................................................................................................................................................................................................................................................................................................................................................................................................................................................",
"................................................................................................................................................................................................................................................................................................................................................................................................................................................................................................................................................................................................................................................................",
"................................................................................................................................................................................................................................................................................................................................................................................................................................................................................................................................................................................................................................................................",
"................................................................................................................................................................................................................................................................................................................................................................................................................................................................................................................................................................................................................................................................",
"................................................................................................................................................................................................................................................................................................................................................................................................................................................................................................................................................................................................................................................................",
"................................................................................................................................................................................................................................................................................................................................................................................................................................................................................................................................................................................................................................................................",
"................................................................................................................................................................................................................................................................................................................................................................................................................................................................................................................................................................................................................................................................",
"................................................................................................................................................................................................................................................................................................................................................................................................................................................................................................................................................................................................................................................................",
"................................................................................................................................................................................................................................................................................................................................................................................................................................................................................................................................................................................................................................................................",
"................................................................................................................................................................................................................................................................................................................................................................................................................................................................................................................................................................................................................................................................",
"................................................................................................................................................................................................................................................................................................................................................................................................................................................................................................................................................................................................................................................................",
"................................................................................................................................................................................................................................................................................................................................................................................................................................................................................................................................................................................................................................................................",
"................................................................................................................................................................................................................................................................................................................................................................................................................................................................................................................................................................................................................................................................",
"................................................................................................................................................................................................................................................................................................................................................................................................................................................................................................................................................................................................................................................................",
"................................................................................................................................................................................................................................................................................................................................................................................................................................................................................................................................................................................................................................................................",
"................................................................................................................................................................................................................................................................................................................................................................................................................................................................................................................................................................................................................................................................",
"................................................................................................................................................................................................................................................................................................................................................................................................................................................................................................................................................................................................................................................................",
"................................................................................................................................................................................................................................................................................................................................................................................................................................................................................................................................................................................................................................................................",
"................................................................................................................................................................................................................................................................................................................................................................................................................................................................................................................................................................................................................................................................",
"................................................................................................................................................................................................................................................................................................................................................................................................................................................................................................................................................................................................................................................................",
"................................................................................................................................................................................................................................................................................................................................................................................................................................................................................................................................................................................................................................................................",
"................................................................................................................................................................................................................................................................................................................................................................................................................................................................................................................................................................................................................................................................",
"................................................................................................................................................................................................................................................................................................................................................................................................................................................................................................................................................................................................................................................................",
"................................................................................................................................................................................................................................................................................................................................................................................................................................................................................................................................................................................................................................................................",
"................................................................................................................................................................................................................................................................................................................................................................................................................................................................................................................................................................................................................................................................",
"................................................................................................................................................................................................................................................................................................................................................................................................................................................................................................................................................................................................................................................................",
"................................................................................................................................................................................................................................................................................................................................................................................................................................................................................................................................................................................................................................................................",
"................................................................................................................................................................................................................................................................................................................................................................................................................................................................................................................................................................................................................................................................",
"................................................................................................................................................................................................................................................................................................................................................................................................................................................................................................................................................................................................................................................................",
"................................................................................................................................................................................................................................................................................................................................................................................................................................................................................................................................................................................................................................................................",
"................................................................................................................................................................................................................................................................................................................................................................................................................................................................................................................................................................................................................................................................",
"................................................................................................................................................................................................................................................................................................................................................................................................................................................................................................................................................................................................................................................................",
"................................................................................................................................................................................................................................................................................................................................................................................................................................................................................................................................................................................................................................................................",
"................................................................................................................................................................................................................................................................................................................................................................................................................................................................................................................................................................................................................................................................",
"................................................................................................................................................................................................................................................................................................................................................................................................................................................................................................................................................................................................................................................................",
"................................................................................................................................................................................................................................................................................................................................................................................................................................................................................................................................................................................................................................................................",
"................................................................................................................................................................................................................................................................................................................................................................................................................................................................................................................................................................................................................................................................",
"................................................................................................................................................................................................................................................................................................................................................................................................................................................................................................................................................................................................................................................................",
"................................................................................................................................................................................................................................................................................................................................................................................................................................................................................................................................................................................................................................................................",
"................................................................................................................................................................................................................................................................................................................................................................................................................................................................................................................................................................................................................................................................",
"................................................................................................................................................................................................................................................................................................................................................................................................................................................................................................................................................................................................................................................................",
"................................................................................................................................................................................................................................................................................................................................................................................................................................................................................................................................................................................................................................................................",
"................................................................................................................................................................................................................................................................................................................................................................................................................................................................................................................................................................................................................................................................",
"................................................................................................................................................................................................................................................................................................................................................................................................................................................................................................................................................................................................................................................................",
"................................................................................................................................................................................................................................................................................................................................................................................................................................................................................................................................................................................................................................................................",
"................................................................................................................................................................................................................................................................................................................................................................................................................................................................................................................................................................................................................................................................",
"................................................................................................................................................................................................................................................................................................................................................................................................................................................................................................................................................................................................................................................................",
"................................................................................................................................................................................................................................................................................................................................................................................................................................................................................................................................................................................................................................................................",
"................................................................................................................................................................................................................................................................................................................................................................................................................................................................................................................................................................................................................................................................",
"................................................................................................................................................................................................................................................................................................................................................................................................................................................................................................................................................................................................................................................................",
"................................................................................................................................................................................................................................................................................................................................................................................................................................................................................................................................................................................................................................................................",
"................................................................................................................................................................................................................................................................................................................................................................................................................................................................................................................................................................................................................................................................",
"................................................................................................................................................................................................................................................................................................................................................................................................................................................................................................................................................................................................................................................................",
"................................................................................................................................................................................................................................................................................................................................................................................................................................................................................................................................................................................................................................................................",
"................................................................................................................................................................................................................................................................................................................................................................................................................................................................................................................................................................................................................................................................",
"................................................................................................................................................................................................................................................................................................................................................................................................................................................................................................................................................................................................................................................................",
"..............................................................................................................................................................................................................................................................................................................................................................................bpbub_b|b}cebAb]..................................................................................................................................................................................................................................................................",
"............................................................................................................................................................................................................................................................................................................................................................................b)a!b8cqcjb<b+bObgb5b*b*............................................................................................................................................................................................................................................................",
"............................................................................................................................................................................................................................................................................................................................................................................aNaNbdb(cbcjb_b<b+b+b+b(b2b*........................................................................................................................................................................................................................................................",
"............................................................................................................................................................................................................................................................................................................................................................................aQaoaVa3bfb_cjcbb_b+b+b+b(bWb2b&....................................................................................................................................................................................................................................................",
"............................................................................................................................................................................................................................................................................................................................................................................b)awaRaMaOa&bOb<cbcbb<b(b(b8bWbWb8b*................................................................................................................................................................................................................................................",
"..............................................................................................................................................................................................................................................................................................................................................................................bcaMaMaLaOaRa+b8cbcbb_b+bUbOb8b(b(bSb*............................................................................................................................................................................................................................................",
"..............................................................................................................................................................................................................................................................................................................................................................................byaKaNaOaLaLaLa!bGb+b_cbbOaRaJaRa3a#a:a>a`........................................................................................................................................................................................................................................",
"........................................................................................................................................................................................................................................................................................................................................................................b)a5b}a=aOaUaQaJaLaLaJaPa#bzb(b<b2a+axaoanarasasasaK....................................................................................................................................................................................................................................",
"........................................................................................................................................................................................................................................................................................................................................................................byakaGaZaQaYaMaLaLaLaLaLaLaRa[bWb<b<b2a#aOaJawauawak....................................................................................................................................................................................................................................",
"........................................................................................................................................................................................................................................................................................................................................................................bMaFaxaMaOaQaLaLaLaLaLaLaLaJaJa!brb8b<b+b8bObga.a+a!a-..................................................................................................................................................................................................................................",
"........................................................................................................................................................................................................................................................................................................................................................................bcaHaPaLaMaMaLaLaLaLaLaLaLaLaLaFaPa#bIb(b+b8b2bUbUb2b2bObIbObAbV........................................................................................................................................................................................................................",
"..........................................................................................................................................................................................................................................................................................................................................................................aTaPa1aUaLaLaLaLaLaLaLaLaLaLaGaBaEaRa.bIb8b8bWbWbWbUbWbWb2bWbTbSbA....................................................................................................................................................................................................................",
"..........................................................................................................................................................................................................................................................................................................................................................................aGaQa4a/aSaMaLaLaLaLaLaLaLaLaLaGaCazaHa1a\bIbWb2bWbWbWbWbTbUbWbWbJbAbc................................................................................................................................................................................................................",
"..........................................................................................................................................................................................................................................................................................................................................................................aKaQaNa5a>aQaLaLaLaLaLaLaLaLaLaLaDaCazaBaJa%bsbGb(b2bWbZbMbzbGbObIbPbMbtbv............................................................................................................................................................................................................",
"..........................................................................................................................................................................................................................................................................................................................................................................bEaHaMaNaUaOaQaLaLaLaLaLaLaLaLaLaDaCaCaCazaGaNaPa&bRb2b2bTbBbzbGbCbzbGbFbvbubd........................................................................................................................................................................................................",
"..............................................................................................................................................................................................................................................................................................................................................................................aEaJaJaHa$a1aLaLaLaLaLaLaLaLaDaCaCaCaCazasaBaDaTbsbUbUbQbFbIbFbFbva]aNaEaCa%a9b&a*aMbubsa:........................................................................................................................................................................................",
"..............................................................................................................................................................................................................................................................................................................................................................................aDaEaNataWa&a1aJaIaLaLaLaLaLaDaCaCaCaCazatavavazaMa7bIb2bRb2bzbma;a3aCaBazb$a>bvaHanbGa1anay......................................................................................................................................................................................",
"..............................................................................................................................................................................................................................................................................................................................................................................bjaxaFanaGaNa:a7aRaJaHaLaLaLaDaCaCaCaCaBatavaparasaGaLbdbza#a7a\a\aFavaDaubEbdbHa!axbGa#axaqaD....................................................................................................................................................................................",
"................................................................................................................................................................................................................................................................................................................................................................................a-atavaGaJa3a&aSaDaEaMaLaLaDaCaCaCaCaBatauasaqatauaBaGaRaJa#bAbta.a8aXaOa;bWbUb+b2b+a3awawak....................................................................................................................................................................................",
"..................................................................................................................................................................................................................................................................................................................................................................................aVauaIaNaOaRaPawaCaLaLaLaDaCaCaCaCazawawauauawawawawaFaLa,bgbJbWbAbdbdbdbdbebAbGbda+a#a!aTaS..................................................................................................................................................................................",
"....................................................................................................................................................................................................................................................................................................................................................................................a2aFaLaLaLaJaBa3aMaLaLaDaCaCaCaCazavauavasawawaxawatawa0a+bkbsa.a#a9a7a7a7a#a:a;a[bgbsbvbta\bA..............................................................................................................................................................................",
"......................................................................................................................................................................................................................................................................................................................................................................................avaIaLaIatasa&a1aIaGaCaCaCaCaCazavawaxatavawavavavauaJa0a1a7aOaLaGaGaGaGaLaPaPaTa3a7a7a!a!a#a7............................................................................................................................................................................",
"......................................................................................................................................................................................................................................................................................................................................................................................aDaKaLaPaoamaRa#a0aDaEaDaCaCaDavauawavauavauauavavavaEaDaGaGaCaBaBaBaCaCaDaDaBazaEaGaFaFaIaMaIav..........................................................................................................................................................................",
"......................................................................................................................................................................................................................................................................................................................................................................................ayayaOaQaFataHaOa!a8aMaHaCaCaDavawavatauauavavavasataCaBaBaBaCaCaDaBavavavavasararaqaqaqaqapasanaj........................................................................................................................................................................",
"......................................................................................................................................................................................................................................................................................................................................................................................aoataUaGaGaEaFaEaOa!a0aLaFaCaDawaxavatavasawawaxasasaxaCaCaCaCaDaAatapapapapaqaqaqaqaqaqararaqamag........................................................................................................................................................................",
"......................................................................................................................................................................................................................................................................................................................................................................................b=cda*aKaEazaEaBaEaOa3a8aGaBaCawavawavawatauaxazatatatavaBaCaDaAasapaqaqaqaqaqaqaraqaqapanamananah........................................................................................................................................................................",
"....................................................................................................................................................................................................................................................................................................................................................................................ctcZc#b#aNaLaLaFaBaBaEaOa!a!aLazasavaxawavauavavaxawazaxaBaCaCaBatapaqaqaqaqaqaqaraoaqamajajaiamalah........................................................................................................................................................................",
"....................................................................................................................................................................................................................................................................................................................................................................................cJc1c2ccaOaGaFaBaCaCaBaEaOa!a3aHatawaDavatauauatavavaDaCaCaCaDaxaqararararararaqaraoapanakajajamakaj........................................................................................................................................................................",
"....................................................................................................................................................................................................................................................................................................................................................................................cLc1cZcnaKaAaAaDaCaCaCaBaEaOa1aVaOaJaFavatavawatauavaDaCaCaDaxavaraoamamamanapapaoaraqararanakajajaj........................................................................................................................................................................",
"....................................................................................................................................................................................................................................................................................................................................................................................cQcVc$cMbhaAawaAaCaCaCaCaCaCaFaNaRaRaIazatavazauatavaDaCaDaxaqaparaqalajajajakakajamakanaoalakamajau........................................................................................................................................................................",
"..............................................................................................................................................................................................................................................................................................................................................................................cVc!c%c%c&c%c%c!cobLaNazaCaCaCaDaBazazaDaLaOaJazaqawavasazaCaCaDavaparaoamakajajajajajajajajajajajajakagaO........................................................................................................................................................................",
"........................................................................................................................................................................................................................................................................................................................................................................cSc9c9c9c9c9c9c9c9c$c#czb.aRaMaIaBaBawatarasasavazaHaJazauauasaBaCaCaCataqaqamajaiajajajajajajajajajajajajajah..........................................................................................................................................................................",
"......................................................................................................................................................................................................................................................................................................................................................................ctcQc5c$c#c5c5c2c2cKb`bDa4aQaQa3a%aNauaoamakamaoaqarataCaGavavasaBaCaCaBavaqaqauavapalajajajajajajajajajajajajaj..........................................................................................................................................................................",
"......................................................................................................................................................................................................................................................................................................................................................................cJcXc7c8c4c0cZc1cca6a)a0aQaJaTa0a7a0aOatahaiajajalanapaqatatatasaBaCaCaCaDatarataoaAayahajajajajajajajajajajajak..........................................................................................................................................................................",
"....................................................................................................................................................................................................................................................................................................................................................................ctcLcYc6c2cZcXcXcBa4aOa/aVaHaTaVa0a0a0a3a3ayajaiahahahajalaoapapavaDaCaCaBawavaqalahaSauahajajajajajakajajajajajal..........................................................................................................................................................................",
"..................................................................................................................................................................................................................................................................................................................................................................cJcUcUcWcYcXcYcYcRa)aDaQaNaMa1a7aRaWa0a0a0a1a1aWaNazasamajahahajakanauazaCazatazazasa1..aGajaeagahajajalalajajajakap..........................................................................................................................................................................",
"................................................................................................................................................................................................................................................................................................................................................................cFcUcTcWcRcWcWcWcTcfaDaEaNaHaIaTaWaLaPa1a0a0a0a0a1a7a8a7a7aRaFazanalalasaHaDaza!bGbGa>a/........aIaxatakaBauagajakalam..........................................................................................................................................................................",
"................................................................................................................................................................................................................................................................................................................................................................cycPcPcWcPcTcRcRcWb^aKaHaKaDaOaGaEaPaRaWaWa0a0a0a0a0aXa0a3a!a1a7a8a,bgbIbUa%aHaRa-a7aZa4a%..................aHaoayapak..........................................................................................................................................................................",
"................................................................................................................................................................................................................................................................................................................................................................ckcHcHcNcBcBcBcNcTclaQaMaGaDaPaHaFaMa7aMaIaUa0a0a0a0a0a0aXa0a7a!a>bebJb2bTa\a-a]a;a;a.a-a&a2a%..................aDaqar..........................................................................................................................................................................",
"................................................................................................................................................................................................................................................................................................................................................................cgcucscucucucscBcEcEa)aKaGaFaMaCaFaPaPaSaJaLaXa0a0aWaTa0a0a0a!a&a,a.a,a-a+a8a3a2a4aXa7a,a-a+a;a]bc..............................................................................................................................................................................................",
"................................................................................................................................................................................................................................................................................................................................................................b)b,b`cfckclclcucBcCbNaMaGaOaPaCaCaMaLaMaPa0aRaVaVa0aVa0a0a0a0aVa0a0aWaWaWaWa0aXaWaVaRaOaSaVa0a2a1aVa2..........................................................................................................................................................................................",
"..................................................................................................................................................................................................................................................................................................................................................................b0bKbYb:b:b=cfcscCb!aQaFaRaRaFaBaEaJaHaGaRa7aHaMa1aWaSaUaSaOaQa0a0a0a0a0a0a0a0a0a0a0a0a0a0a0a0a0aWaUa4bE......................................................................................................................................................................................",
"......................................................................................................................................................................................................................................................................................................................................................................a<bhbNb!b:b^cHb\aSaFaPaRaEaBaCaCaCaHaGaLaNaFaPa0aMaLaLaLaLaSa0a0a0a0a0a0a0aXa0a1a3a0a0a0a0aZaYaZaWa7bda:..................................................................................................................................................................................",
"........................................................................................................................................................................................................................................................................................................................................................................a*a(bhbhbhb^cka6aDaPaNaCaCaCaCaCaDaEazaEaLaEaGaJaLaMaMaLaQa0a0a0a0aVaQaOaQaUaRaRaUaVa0a0a0aYaYaYaZbaa:aV................................................................................................................................................................................",
"............................................................................................................................................................................................................................................................................................................................................................................a6a=a6a<b,biaEaPaMaCaCaCaCaCaCaCaCaBaNaMazayaLaWaWaTaVaWaVaUaQaOaLaIaLaNaLaNaQaSaUaUaSaUaUaYaUa%bGaOaV..............................................................................................................................................................................",
"....................................................................................................................................................................................................................................................................................................................................................................................cdb0aFaOaMaDaCaCaCaCaCaCaCaJaOaPaHavaGa1a3a0aUaSaQaQaNaIaLaLaLaLaLaOaQaQaNaLaMaQaQaYaQa$bva+aQa*............................................................................................................................................................................",
"....................................................................................................................................................................................................................................................................................................................................................................................cVcGa6aLaLaDaCaCaCaCaCaCaBaOaRaGaHaFaFaPa0aSaLaLaLaLaMaNaLaLaOaOaLaNaMaLaLaLaLaLaNaQaYa4bcbSaVaVa`..........................................................................................................................................................................",
"..................................................................................................................................................................................................................................................................................................................................................................................c!c&c&ccaGaGaBaCaCaCaCaCaCaCaDaDaBaCaMaNaEaNaLaLaLaLaLaLaMaLaMaNaOaLaLaLaLaLaLaLaLaKaLa8aQa2bVbdaTa9a?........................................................................................................................................................................",
"................................................................................................................................................................................................................................................................................................................................................................................c9c!c9c$cZa)aAaCaCaCaCaCaCaCaCaCaCaCaCaCaRaHaEaNaMaLaLaLaLaLaLaHaLaLaLaLaLaLaLaLaLaLaLaIa4a$aHa.bFaVa3a?........................................................................................................................................................................",
"..............................................................................................................................................................................................................................................................................................................................................................................cQc5c3c5c3c2cnaGaAaCaCaCaCaCaCaCaCaCaCaCaBaLaWaDaHaMaLaLaLaLaLaLaFaFaGaHaLaLaLaLaLaLaLaLaJaQbma2aZbaa8aZa>a`......................................................................................................................................................................",
"..............................................................................................................................................................................................................................................................................................................................................................................c3c3c3c0cZc6c6biawaCaCaCaCaCaCaCaCaCaCaCaCazaPaRaBaLaIaLaLaLaLaLaJaFaBaCaHaMaMaJaJaLaLaLaLaLa:bFaSa-a`aNaYa:a`....................................................................................................................................................................",
"............................................................................................................................................................................................................................................................................................................................................................................cMc5c4c8c3c3c1c6ccaAaAaDaCaCaCaCaCaCaCaCaCaCaCaBaRaHaCaMaLaLaLaLaLaLaMaHaBaCaHaNaGaDaLaHaGa,a!a9bTbma1bJa*aDa!bdbp..................................................................................................................................................................",
"............................................................................................................................................................................................................................................................................................................................................................................cMc5c#c2c3c3cZc6cXa(awaCaCaCaCaCaCaCaCaDaEaBaCaBaFaVaCaHaNaLaLaLaLaIaFaLaGaCaCaEaEaEaSaUaHbdbuaZa.bJa2a]bJaSaTbAa*..................................................................................................................................................................",
"............................................................................................................................................................................................................................................................................................................................................................................cFc8c7c1c8c4c2c1c7b=azaAaCaCaCaCaCaCaDaJaLaGaEaCazaPa0azaHaJaLaLaLaMaFaGaUaJaFazaBaDa#a7aGa8a,a7a1a#a8a7a~a-a3bFa$a1................................................................................................................................................................",
"............................................................................................................................................................................................................................................................................................................................................................................cFc6c7c1c8c8c8c6c6cnaOavaBaCaCaCaCaCaDaLaLaMaHaCaCaBaRaLaCaJaLaLaHaGaFaHaNaSaOaAaAaAa4a!aZaSaVa3a9aQaPaRaVa3a$a>a`aTa8..............................................................................................................................................................",
"............................................................................................................................................................................................................................................................................................................................................................................cpcXc6c2c$c$c#c7c6cCaVaGavaBaCaCaCaCaEaLaLaLaLaDaCaBaEaWaGaEaLaJaDaBaGaHaEaIa!a9aOaHa`bvbaa7aPaHaHa$bfbAbma.a,a2a4bca,..............................................................................................................................................................",
"............................................................................................................................................................................................................................................................................................................................................................................cccIcXc2c$c$c$c8c6cCaUaSaBazaCaCaCaCaDaLaLaLaLaHaCaCaBaNaWaCaCaDaCaGaHaPaCazaQa7aSbIbwaVaLaOaUa)a!a,bebPbXbTbJboa-a?a&aT............................................................................................................................................................",
"..............................................................................................................................................................................................................................................................................................................................................................................chcOc6c$c$c$c7c6cEaSaUaEawawaCaCaCaCaHaLaLaLaLaDaEaEaEaRaOazaCaBaEaFaVaIaHaGaDbQbtaHaLa1a,a/a>a,a/a\bmbubkbdbdbdbAbJbvaT..........................................................................................................................................................",
"..............................................................................................................................................................................................................................................................................................................................................................................cLcHcTc8c$c8c6c1cKaZaQaFaBarawaDaCaEaJaLaLaLaLaJaHaDaBaDaRaEaBaEaCaCaGaHaKaEa]bTaHaFaQa0a3a&a#a,a,a/a\bda~bababdbvbFbGbubc........................................................................................................................................................",
"............................................................................................................................................................................................................................................................................................................................................................................ctc0cTcHcWcZc2c1cYcuaRaHaLaJazauaCaCaDaJaLaLaLaLaLaLaDaCaCaLaGaCaJaEaCaCazaua9a|aLaHaRaWa0aWa1a&a/a&a&a/a?babababababdbsbCbJb2bV....................................................................................................................................................",
"............................................................................................................................................................................................................................................................................................................................................................................cQc1cXcRcRcPcPcPcNb;aQaHaIaLaLaDaBaCaBaEaFaLaLaLaLaLaGaBaBaHaGaBaRaTaNaLaxaSa\aLaIa0a0a0a0aWa7a#a8a#a&a&a&a&a8a7a7a7a&a:babda~a`a*a,................................................................................................................................................",
"............................................................................................................................................................................................................................................................................................................................................................................c0c1c7c8c2cXcPcsclbiaNaSaLaLaLaDaBaDaCaCaBaEaLaLaLaLaLaFaBaEaEaEaOaPaGaMa1a]aMaOaVa0a0a0a3a7a,a;a#a!a&a&a#a8a3aWaQaMaMaMaXa#a&a#a!a7a4a,............................................................................................................................................",
"..........................................................................................................................................................................................................................................................................................................................................................................ctcUc7c8c8c8c7c1cWclaQaMaQaMaMaGaCaEawazaCaCaBaGaLaLaLaLaQaIaBaCaHaFaCaxaRa&aNaDaRa1a0a0aWa7a>bda|a&a,a,a#a#a&a#a1aUaLaLaLaIaOa0a1a0a3aVaPaP..........................................................................................................................................",
"..........................................................................................................................................................................................................................................................................................................................................................................cpcXc4c7c8c8c7c6cYcuaQaNaSaMaHaCaCaNavatayaDaCaCaEaLaLaLaNaPaEaGaTaRaJaPa8aHaCaIaUa0a0a0a0a!a?bda_a]a~a~a-a#a&a&a7aTaLaLaLaLaHaJaTa0a0a0aWaPaHaM......................................................................................................................................",
"..........................................................................................................................................................................................................................................................................................................................................................................b>cIcYcXc2c8c8c6c1cHa6aQaKaHaCaCaDaFauapawaDaCaCaBaDaGaLaJaPaRaDaNa3a1aPaFazaGaPa0a0a3a#a#a&a\bdbdbda~bdbda~a&a&a3aUaLaLaLaLaBazaKaUa0a0a1a3a0aIax....................................................................................................................................",
"............................................................................................................................................................................................................................................................................................................................................................................cmcBcPc1c8c8c6cXcRa)aKaNaLaDaCaCaLaHatauayaAaDaCaCaBaIaRaHa2a+aRaMaRaEayaCaCaKaWa1a#a&a&a;bkbBbdbabbbdbea:a#a3aPaMaLaLaIaLaGaOa.a\a.a-a;bfbnbsbfbc..................................................................................................................................",
"............................................................................................................................................................................................................................................................................................................................................................................b`ckcOc1cZc7c6cXcWbDaAaEaQaGaBaCaDaxaxapaqauaAaCaCaCaFaRa7aFa!a-a!aRazaBaCaCaBaLa1a#a#a,a~bubzbdbaa~a_a?a-a&a3aPaDaCaBaDaWbkbva;a8aWaPaHaOaPaOaSaYayaF..............................................................................................................................",
"..............................................................................................................................................................................................................................................................................................................................................................................b`cBcYc1cZc1cWcWbiaGaLaMaGaBaCaNaHawaqaqatauawaAaCaBaDa&aVaGaUaSaNaBaCaCaCaCaCaOa3a&a:bdbdbmbbbca/a&a!a#a&a8aTaCaEaRa1a!a,aTavapapapaoaoanajahaiahagao............................................................................................................................",
"................................................................................................................................................................................................................................................................................................................................................................................b%cBcUc1c1cWcNa6aHaJaLaLaDazaDaHaRazapaqaqatawaCaCazaHa#aVaUaLaNaCaCaDaCaCaCaEaOa!a,baa~a?a\a>a#a1a0a0a1aWaSa1a,a!aPaxavataqaqapakahajakahagagagakajak..........................................................................................................................",
"..................................................................................................................................................................................................................................................................................................................................................................................cgcPcXcYcTclaKaKaDaFaMaGaBaJaFazararaqaqasatayaDaCaBaHaMaOaQaNaCaGaLaNaFaBaBaGaSa1a!a8a!a&a7a1a0a0aXaSaUa]a.aMavaqapapaqamaoawavaFaAaAawawawaAaAajahakaR......................................................................................................................",
"..................................................................................................................................................................................................................................................................................................................................................................................cLcNcWcWcNb9aKaKaDaCaHaLaHaJaOaTaCaqaqaqaqaqawaDaCaEaPaLaBaKayaBaLa3a7aSaEaBaGaOaXaUaUa0a1aWa0a0a0aUaHa9a3auaoamapaqapaoayaZbLb^cfcfccb\b\b\b\b\a)amaiajaF....................................................................................................................",
};
