/* XPM */
static char *xpm[] = {
"320 180 255 2",
".. c None",
"ab c #000000",
"ac c #010001",
"ad c #010002",
"ae c #010101",
"af c #020101",
"ag c #020102",
"ah c #030202",
"ai c #040404",
"aj c #080204",
"ak c #080506",
"al c #09005b",
"am c #0b0624",
"an c #0b0708",
"ao c #0b0a38",
"ap c #0b0b11",
"aq c #0c0a0d",
"ar c #0c0b0b",
"as c #0d080e",
"at c #0e0a0f",
"au c #0e0c15",
"av c #0f0a0d",
"aw c #0f0a10",
"ax c #0f0c14",
"ay c #100a09",
"az c #100b11",
"aA c #11062c",
"aB c #120d14",
"aC c #120f11",
"aD c #140d13",
"aE c #140e0d",
"aF c #140e12",
"aG c #140f15",
"aH c #16100f",
"aI c #16111c",
"aJ c #16121b",
"aK c #171314",
"aL c #181316",
"aM c #181319",
"aN c #190f20",
"aO c #191210",
"aP c #191218",
"aQ c #191326",
"aR c #191422",
"aS c #1a121a",
"aT c #1a1523",
"aU c #1b1411",
"aV c #1b1718",
"aW c #1c1325",
"aX c #1c171f",
"aY c #1d161a",
"aZ c #1d171e",
"a0 c #1d1721",
"a1 c #1d1814",
"a2 c #1d1825",
"a3 c #1f1a1c",
"a4 c #20171d",
"a5 c #211613",
"a6 c #21191d",
"a7 c #211a16",
"a8 c #221c2a",
"a9 c #222020",
"a! c #241917",
"a# c #241d29",
"a$ c #241e28",
"a% c #250c1f",
"a& c #251d18",
"a( c #251d25",
"a) c #261d24",
"a* c #261e1f",
"a+ c #261e22",
"a, c #27211b",
"a- c #272425",
"a. c #2a163b",
"a/ c #2a241e",
"a: c #2a2728",
"a; c #2b1f1b",
"a< c #2d2226",
"a= c #2d2a2b",
"a> c #2e2721",
"a? c #2f221e",
"a[ c #302d32",
"a\ c #312429",
"a] c #322520",
"a^ c #32282e",
"a_ c #322a24",
"a` c #322d2c",
"a{ c #352823",
"a| c #352c30",
"a} c #352d26",
"a~ c #353036",
"ba c #353131",
"bb c #362732",
"bc c #38272c",
"bd c #382c26",
"be c #38312a",
"bf c #393535",
"bg c #39353a",
"bh c #3c2a25",
"bi c #3c2e35",
"bj c #3c352f",
"bk c #3d2e2a",
"bl c #3d323d",
"bm c #3d3b3e",
"bn c #3f3a34",
"bo c #413237",
"bp c #41332e",
"bq c #423f42",
"br c #43373e",
"bs c #433832",
"bt c #453f3a",
"bu c #463731",
"bv c #464446",
"bw c #48353e",
"bx c #483d46",
"by c #484849",
"bz c #49433c",
"bA c #4a3b42",
"bB c #4a3d36",
"bC c #4a4351",
"bD c #4b4741",
"bE c #4c3434",
"bF c #4c4c4e",
"bG c #4d3c38",
"bH c #4d4449",
"bI c #4e4b47",
"bJ c #4f3946",
"bK c #4f3a38",
"bL c #50424b",
"bM c #50433d",
"bN c #504f51",
"bO c #524f4b",
"bP c #53485d",
"bQ c #55414c",
"bR c #555453",
"bS c #563438",
"bT c #564141",
"bU c #574853",
"bV c #574a44",
"bW c #58536a",
"bX c #59484e",
"bY c #595857",
"bZ c #5b3b4e",
"b0 c #5b504f",
"b1 c #5d4847",
"b2 c #5d515f",
"b3 c #5d5d5c",
"b4 c #5e5c73",
"b5 c #5f5158",
"b6 c #625556",
"b7 c #625b57",
"b8 c #626261",
"b9 c #635c62",
"b! c #645a6b",
"b# c #655c67",
"b$ c #674e53",
"b% c #67605d",
"b& c #676767",
"b( c #695a6b",
"b) c #6a6764",
"b* c #6c595a",
"b+ c #6d576b",
"b, c #6d677b",
"b- c #6d6d6d",
"b. c #706d6b",
"b/ c #71636b",
"b: c #71667d",
"b; c #727373",
"b< c #737373",
"b= c #747473",
"b> c #757372",
"b? c #766765",
"b[ c #777295",
"b\ c #787777",
"b] c #795559",
"b^ c #79676f",
"b_ c #797978",
"b` c #797a7a",
"b{ c #7b6075",
"b| c #7b7186",
"b} c #7b7a79",
"b~ c #7b7b7b",
"ca c #7e5f63",
"cb c #7e7382",
"cc c #7f7573",
"cd c #7f7f80",
"ce c #807ba5",
"cf c #818181",
"cg c #827179",
"ch c #82807f",
"ci c #828281",
"cj c #854d74",
"ck c #867c84",
"cl c #868686",
"cm c #877b92",
"cn c #898886",
"co c #8a8a8a",
"cp c #8b8785",
"cq c #8c8499",
"cr c #8d6f6f",
"cs c #8d888c",
"ct c #8f8f8f",
"cu c #937979",
"cv c #93908f",
"cw c #939091",
"cx c #9689a8",
"cy c #969696",
"cz c #98979a",
"cA c #989898",
"cB c #9a9997",
"cC c #9a999a",
"cD c #9b9b9b",
"cE c #9c7e84",
"cF c #9c9898",
"cG c #9d92ac",
"cH c #9f9f9f",
"cI c #a0a0a1",
"cJ c #a1899a",
"cK c #a1a1a1",
"cL c #a2a19f",
"cM c #a49fa3",
"cN c #a59abd",
"cO c #a6a4a4",
"cP c #a7a7a9",
"cQ c #a9a8a7",
"cR c #acabab",
"cS c #b0b1b0",
"cT c #b3b3b3",
"cU c #b48a88",
"cV c #b4b0af",
"cW c #b4b4b4",
"cX c #b8b7b7",
"cY c #b8b8b8",
"cZ c #bababa",
"c0 c #bebebe",
"c1 c #c3c3c3",
"c2 c #c6b3bd",
"c3 c #c9c8c8",
"c4 c #cdcccc",
"c5 c #d0d0d0",
"c6 c #d4d5d5",
"c7 c #d5a4a6",
"c8 c #d8d8d8",
"c9 c #dbdbdb",
"c! c #dfdede",
"c# c #e1e1e1",
"c$ c #e5e5e5",
"c% c #e9e8e8",
"c& c #ededed",
"c( c #f1f1f1",
"c) c #f5f5f5",
"c* c #f9f9f9",
"c+ c #fdfdfd",
"c, c #ffffff",
"c- c None",
"................................................................................................................................................................................................................................................................................................................................................................................................................................................................................................................................................................................................................................................................",
"................................................................................................................................................................................................................................................................................................................................................................................................................................................................................................................................................................................................................................................................",
"................................................................................................................................................................................................................................................................................................................................................................................................................................................................................................................................................................................................................................................................",
"................................................................................................................................................................................................................................................................................................................................................................................................................................................................................................................................................................................................................................................................",
"................................................................................................................................................................................................................................................................................................................................................................................................................................................................................................................................................................................................................................................................",
"................................................................................................................................................................................................................................................................................................................................................................................................................................................................................................................................................................................................................................................................",
"................................................................................................................................................................................................................................................................................................................................................................................................................................................................................................................................................................................................................................................................",
"................................................................................................................................................................................................................................................................................................................................................................................................................................................................................................................................................................................................................................................................",
"................................................................................................................................................................................................................................................................................................................................................................................................................................................................................................................................................................................................................................................................",
"................................................................................................................................................................................................................................................................................................................................................................................................................................................................................................................................................................................................................................................................",
"............................................................................................................................................................................................................................................................................................................................................................bI..................................................................................................................................................................................................................................................................................................",
"............................................................................................................................................................................................................................................................................................................................................................bt..................................................................................................................................................................................................................................................................................................",
"............................................................................................................................................................................................................................................................................................................................................................ba..................................................................................................................................................................................................................................................................................................",
"............................................................................................................................................................................................................................................................................................................................................................bf................................bf................................................................................................................................................................................................................................................................",
"..........................................................................................................................................................................................................................................................................................................................................................a=..................................a9................................................................................................................................................................................................................................................................",
"..............................................................................................................................................................................................................................................................................................................................................................................................a}................................................................................................................................................................................................................................................................",
"........................................................................................................................................................................................................................................................................................................................................................bt....................................be................................................................................................................................................................................................................................................................",
"..............................................................................................................................................................................................................................................................................................................................................................................................bz................................................................................................................................................................................................................................................................",
"..............................................................................................................................................................................................................................................................................................................................................................................................b%bn..............................................................................................................................................................................................................................................................",
"........................................................................................................................................................................................................................................................................................................................................................b8......................................bz..............................................................................................................................................................................................................................................................",
"........................................................................................................................................................................................................................................................................................................................................................b)......................................bVbD............................................................................................................................................................................................................................................................",
"........................................................................................................................................................................................................................................................................................................................................................bn......................................a}..............................................................................................................................................................................................................................................................",
"........................................................................................................................................................................................................................................................................................................................................................a_....................................bMbj..............................................................................................................................................................................................................................................................",
"..................................................................................................................................................................................................................................................................................................................................................bva=a_a1..................................b7bk................................................................................................................................................................................................................................................................",
"................................................................................................................................................................................................................................................................................................................................................a`......a/......................a`bn......b*b%..................................................................................................................................................................................................................................................................",
"..........................................................................................................................................................................................................................................................................................................................................bea&a9........a/......................baa_....bea7....................................................................................................................................................................................................................................................................",
"......................................................................................................................................................................................................................................................................................................................................bIbn..............a&........................bDbnbpaU......................................................................................................................................................................................................................................................................",
"....................................................................................................................................................................................................................................................................................................................................bza`..............a:a_........................b)bMbVbe......................................................................................................................................................................................................................................................................",
"................................................................................................................................................................................................................................................................................................................................bIa}bz..............a`..bB........................b0bTa]a:......................................................................................................................................................................................................................................................................",
"..............................................................................................................................................................................................................................................................................................................................a,a=..bO............a,....bz........................bDa{a>b%......................................................................................................................................................................................................................................................................",
"............................................................................................................................................................................................................................................................................................................................a&....by............a>......bB......................a&bnbnbs........................................................................................................................................................................................................................................................................",
"................................................................................................................................................................................................................................................................................bn..........................................bf....a1..........a_........b0bY................a>aj....bBa]........................................................................................................................................................................................................................................................................",
"................................................................................................................................................................................................................................................................................bnbI............................................bsa[........bnbD........b.bBbza&a}bIbnbRa}aka1......bkbd........................................................................................................................................................................................................................................................................",
"................................................................................................................................................................................................................................................................................bpa*........................................bja>bn........b)a&..........bVa;aHaUa,a,aiaEa:........b%bdbv........................................................................................................................................................................................................................................................................",
"................................................................................................................................................................................................................................................................................b?a!......bn............................bDa}a1............a&..........bna/bn......................bVa?..........................................................................................................................................................................................................................................................................",
"..................................................................................................................................................................................................................................................................................bE......b)bt..........................bt..a}............aU........bDbka,....a-..................bza}..........................................................................................................................................................................................................................................................................",
"..................................................................................................................................................................................................................................................................................bDbz....b.a{..........................b=bIbVa/........a_bqa}....bMa?aU....bf....................bpbp..........................................................................................................................................................................................................................................................................",
"..................................................................................................................................................................................................................................................................................b)a>....bnbpbO..........................a&bebh........bk....aCbta{aH..........................b%bGb*bk........................................................................................................................................................................................................................................................................",
"....................................................................................................................................................................................................................................................................................bzb7..bsb0bMa,bebt............bRbna/a{a1a}bB......bd......bna&a&......bI....................bDb6bu..........................................................................................................................................................................................................................................................................",
"....................................................................................................................................................................................................................................................................................bza!..b3bkbB....bna9a1a*a:a5anaHa3a&aOa,a,bkb7..bObd......bea&a1....b7......................bVa}a>..........................................................................................................................................................................................................................................................................",
"......................................................................................................................................................................................................................................................................................a;a}bzbha;....................bYa5......bMbp..a?......bsa/a,..aUa>........................bna>a}..........................................................................................................................................................................................................................................................................",
"......................................................................................................................................................................................................................................................................................bYaUa/bea/....................ara,......a}a]bza1....bVa}aH....a9aUbk......................btbea&..........................................................................................................................................................................................................................................................................",
"................................................................................................................................................................................................................................................................bj......................aUa}bBbjbt..............bRan....bz....bea{a_a`bt..bDa7....a>....a!a!....................b7bube........bD................................................................................................................................................................................................................................................................",
"....................................................................................................................................................................................................................................................be........bVbe........................btbpbn..a_a}........btaH......bz..bYbnbOa,a:bm..bta`....aU......a?a!anaEbebnbababf....bDbBbM......bybebM..............................................................................................................................................................................................................................................................",
"....................................................................................................................................................................................................................................................bDbj....b8a_..........................bpa3........bIa/bta}aH..........bjbdbzb%a;a]a{..bvbdbz..a/........aUbDbaa3aHaiacana,btbObBa}....btbI..bV........bt....................................................................................................................................................................................................................................................",
"......................................................................................................................................................................................................................................................bnbe..cc..........................b7bGa{a?a=a_bnbeanaHaU..............a;bdb7a?aUa?..bRa?bubn........bVbe..............baa_bebMa]....bu....bt......bzbD....................................................................................................................................................................................................................................................",
"......................................................................................................................................................................................................................................................bna`....a,........................btbMa{aHaya7btbf......a9bq..........a{bjbpa?a7a}....bhbVa]........a/..................bna}a_be..bOa&....b7......bd......................................................................................................................................................................................................................................................",
"......................................................................................................................................................................................................................................................bRa,....a{a>......................bea>a?a}a>a7............a7bz......b}a]bYbua?a&a&bt..bsbBbj..a=bnbza_....bIa-aV..........a>a?bBbna7a>..bRb=....bzbj......................................................................................................................................................................................................................................................",
"........................................................................................................................................................................................................................................................aH....bja!......................braUbD..aUaHa>............bj......bMbebva!a{a_aya_bVbMbha{bnbja}a{a/a7aEbz....a=bD....bea}bdbua5a,....bOb.....a{........................................................................................................................................................................................................................................................",
"........................................................................................................................................................................................................................................................bFa;..bDa;bn....................a]a]bn....aOa&a9..........a>......bhbRa-a5a{a>a/a_a{bpbka{a1a1a7a7a_bha:........bmbebea{bda}bua>......bM....bMaO........................................................................................................................................................................................................................................................",
"..........................................................................................................................................................................................................................................................a5bfbOa/aObn..................a]a]a_......a>ay..........a>....b?bMa_aUa]a>bdbVbMa?bMbGa_..btbm..bVb?be......bOa/a7a;a]a{a_an........bMbnbzbka|........................................................................................................................................................................................................................................................",
"..........................................................................................................................................................................................................................................................bFa{bna}a}aObD................bzbhbjbBbzbta;a;bR........bRa-..bBbkaEa,a]a{bhbkbubdbkbVbhbear....bebe..bn....a?a]a;a]a?a?a5........bOa/..b%bp..........................................................................................................................................................................................................................................................",
"............................................................................................................................................................................................................................................................bubnbe..a;aUa&..........bf..bua]bMa}a_a9a:bMbea7........a9bdbpa&a5a]bBa}a&a]bsa/btbn..........a!a;....a:bVbBbua&a?a?a5a5....a:bF..a?..bVa7..ba......................................................................................................................................................................................................................................................",
"............................................................................................................................................................................................................................................................bta?aU....a-a?a5a7bO....bf..bea5a?bu......bkbda-aEakbI....a;bea>a,a_bkbnbBbhbjbubpbj........bja5a=....babpbKa,a_a>a7a1bj..a/......a]bYbua>..........................................................................................................................................................................................................................................................",
"..............................................................................................................................................................................................................................................................a?aO....a=a<a?bda;bI....bFa-a{a&a}......bIbq......bfa5bzbja>a_a>a}a&a,a,bdbsbkbkbm........buaybt......bTbVa&bna,a&a,a&a>........bkbObBa}bR........................................................................................................................................................................................................................................................",
"..............................................................................................................................................................................................................................................................a_a7a,........a>a]a)a-....b8a5a>a}a}....bsb6......bObhboa{bja5a}a_a7a,bI....a}a*a>a/btbv..bpaU........b7bMa}bja_a,bt..........ccbpbtbja,bk........................................................................................................................................................................................................................................................",
"..............................................................................................................................................................................................................................................................bta1aE............a4a!a!bObOa,a7a]bka>baa_bMa`..bVa]a/a:a}bBbsa&bp..a>a,....b7a_a/a9a7a1a&a5ay......b?bVbBa]a>aUa,......bIbD..bOa]a_bja7..........................................................................................................................................................................................................................................................",
"................................................................................................................................................................................................................................................................a>aU............bpa)bsa`aUa>a>a]a?a7..b0bBa,bDbpbna>a9bObBbea5a_bRbeaUbz..bzbkbebjbvbzb0bMa,......bBbha}bpbha/....bYa}..a`a!a_a?bhbt................a7bI..aUbn..................................................................................................................................................................................................................................",
"................................................................................................................................................................................................................................................................baa&a/..........bAa5......b.aEa7a;a,bsbebpbnbDbna9bta6..bBa/a&bna_a{a;a7bObhbna}ayaEbpbVb?bV..b)bpbebBbMbpa1....bIa/......aVa\bda{................a9........a}..................................................................................................................................................................................................................................",
"..................................................................................................................................................................................................................................................................a]a&..........bpa!a`........a>bBbkbkbpbpbebza/bOb*a5..bIa?a?bsa>a&bpa}a}a}........bjbBbpbMbubMbpbMbMbja/bn....bB......bv..a{a&aU..............a}............a&................................................................................................................................................................................................................................",
"..................................................................................................................................................................................................................................................................a_a7bq........bja;a:b3a/....bna{bhbBbBa]bpbubdbkbja/..b0a]bKbua_a5a{bea?bsa_......bebhbubha]bBb6bMbMa/a/bz....bMa[a,a:....a_a}aO..............a>..........bI..................................................................................................................................................................................................................................",
"..................................................................................................................................................................................................................................................................bzaOaU......a?a+a`......a3....a;bzbBbBa/a]a,a&bpbBbd..b0bhbpbha,a5a&a}a_bjaUa_..bja&a!a!a7a&bpbVbVbha&a&a&a,bebe..........a7bBa?a3............b3a7bI..........................................................................................................................................................................................................................................",
"....................................................................................................................................................................................................................................................................aUa7....a_a5ar........a-....a}bebVbBbea&a&bhbMa]bBbVbea/a/a?aOa5a,a,a?a/aya1bBbua?a;a7bda{bhbVbpbua5a}a/bsa,............aOa>bz..................aya/........................................................................................................................................................................................................................................",
"....................................................................................................................................................................................................................................................................a}aybfbna1a1....bm....bja<a>aUbebBbMa/bdbua]bMbhbhbubna7a,a1a/a{a_aUbkbfayaUbBbpa&bsbebMbea{bpbBbea5bjbsbja>..bVbn......a5a/......................aU........................................................................................................................................................................................................................................",
"....................................................................................................................................................................................................................................................................bRa{a=a1a7........bta1a9bdbmbta}bBbsa_a]bVbVbhbha]bBa}a>a/a?a]bsbda1bjbta1a&bubda&bkbsbBbsa?bhbVbhbeb?bVbubBbubua]a7a_bDa,a>......................ay........................................................................................................................................................................................................................................",
"......................................................................................................................................................................................................................................................................a_aUa_be..............bIa{bna>bjbsa>a5bVbGa?a?a;a,bua>a}bdbMbsbebe..bda-aUbdbka]a&bsa>bpa;bpbMbhbMbVbebea&a5aOaEa&aUa}bja,....................bjan........................................................................................................................................................................................................................................",
"......................................................................................................................................................................................................................................................................a_a?bua_..........btbfbjbpbza_a_bta{a&bhbpa]a]bua7a&a;bMbVbubda_bdbsbpa!a1a>a&a5a&bdbsbda,bBa{bBbVbVbBbha;bn..bja&aOaUbka&..................bYan..........................................................................................................................................................................................................................................",
"........................................................................................................................................................................................................................................................a`............bRa]bpbs......bDa&a&a,a6a<a&bebjbdbea?a>bMbBa,bMbVbkbhbKbGbpaya&a?a&a_a!a,a-a7a&a{bpa/a_a&bMbhbVbVb7bha]bh....bna;a7aya!a&a&............bYaUaK............................................................................................................................................................................................................................................",
"........................................................................................................................................................................................................................................................aH............b.bEbhbt....bja1aLaHaraVaUa}bjbzbja;bja&a;bBbua]bMbpbubTbVbe..bja1a1a_a{a?a-a_bMa_a_a_bea&bVa]bMbubMa/bhbpa5a,a]a}bsa=a3a&a}bja&a&bjbIa>an................................................................................................................................................................................................................................................",
"........................................................................................................................................................................................................................................................af............bzbVbsa>..a=a7aOavar......bnbfa;bna>a;bsa;a{bVa{bpbBbhbVb*bO........a>a{bka>a{bea/a]a]a&a{bMbdbua]bpbebBbpbebRa/a}a{....a}a]a&bta,a7a/a`..................................................................................................................................................................................................................................................",
"........................................................................................................................................................................................................................................................a:ai..........a>bjbja}a_a1a7aEaC........a`a=a;a7a{a>a]bebpbebdbpbja{bhbdbj........bRa]bMbea;a>a_a]a]a&a?bua&bBa>bubdbha?bBbOa/a,aH......a5..............................................................................................................................................................................................................................................................",
"..........................................................................................................................................................................................................................................................bfanbn......a_a/a,a?a&a,a,a/a&a`......a9a*a/a&a5bka&a/bdbubjbda{a]a{a/aObO......bRa&bsa;a/a!a}a{bea;a&bua5bda/a{bebpbpbBbubna7a,......a>a=............................................................................................................................................................................................................................................................",
"..............................................................................................................................................................................................................................................................a1akaOa`a/a,a:a`a>a&aUa_a<a&a3..bza;a7a&a9a;a5a?a!a,bubBbda/a;a,bea]akak....bea*a&a5a}a1bda]bda&a>bBa&a{a&a]bVa_bBbebdbua1....bYbta/aHbj..........................................................................................................................................................................................................................................................",
"....................................................................................................................................................................................................................................................................aUaEaVa9a=a=a/a7a,a+a-aUa+a}a*a?a&a*a1a&a,bsbda]bubua}bBa&a?bubeaja`bja&a1a7a;bMaUa&a?a;a!a7a}a]bBa,bpbsa}bua}bua_bt..a]a*aUak..baa1bja_bjbtbjbn............................................................................................................................................................................................................................................",
"......................................................................................................................................................................................................................................................a&a`bz..........bqaOa9a,a,a>bea7a\a&aUa\baa`bda}a,a/a7a{bebVbsa;b6bebpbda5a/bVaUanaOaUaUa/bea{aUa?a]a?a!a7a?a>bMa/a{a{bpa/a5a1a}bea&a]a^aH..................aya7..........................................................................................................................................................................................................................................",
"......................................................................................................................................................................................................................................................bta*bkaHa`........aEa&a&a=a`a/a7a5a/a/a`a\a`bja&a/bpa7a>a7a&bVa!bhbua/bebha/bda_a&a&a1aUa,bda&a!a?a?a?aOaUa;bda;a?a{bhbda/a,a,a>a?aOa5a7......................ar..........................................................................................................................................................................................................................................",
"........................................................................................................................................................................................................................................................bna-btbaa,......a,a3aKa=a9a/a;a*a`a}a?aHa?bfa_a7a_a/aUa;aEbkbpa5bda5a]a}bda]bpa]a&aUa1a&a{a;a5a{a}a,aEa!a&bda*a?bpa/a&....a,a<a!a&bt........................a=..........................................................................................................................................................................................................................................",
"............................................................................................................................................................................................................................................................a=a-a7aybnbza7aUaOa1a9a3a&a7a>a*a5a*aUa&a?a,a;bMa&a5a5a&bsa7a_a>aEa{a;a&a5a1aEaUa>a,a5ayaEa?a]a/aOa/aOa&a&a<bjbsa;beb1bGbha&a}..........................bn..........................................................................................................................................................................................................................................",
"..............................................................................................................................................................................................................................................................baaOaOaHaEbt..a9ayayakaHaUaUaUaUa5a5a*aUa;a7bpbdaHa7a5a/a&a&a{aEa&bha]bda1aEaEaEa1a;a;a!a]a]a>a&a7aUa7a>a_bebna;bob]bVbha1............................a=..........................................................................................................................................................................................................................................",
"................................................................................................................................................................................................................................................................a&aOa&a/a/bnbmaUayaya*a&a1aVaHa&a&a>a?a&a>a;bBa;a5a}a&a?aUa;aObdbBa_a&aHaEanajaOa]a]a]a?a&a{bsa!a5a7a&bjbsa;a]bpbpa}ay..........................................................................................................................................................................................................................................................................",
"................................................................................................................................................................................................................................................................a1aUa7a]a>a-a,a>a3a`a>a*a&a-a&a*a;a-a?a&a!a&bpbka5a!a]a{a]a_bBa&bpa>aUayayajana&a1a5a,a5a;bdbea5aUa&a!a{a&a1bMbj................................................................................................................................................................................................................................................................................",
"................................................................................................................................................................................................................................................................a,..a3aOa&a1aEa;a5a:a>a*a`a>a*a>a`a?a;a*a1aOa&bda5a5a;bpbdaOa&a5a&a{aHaEanayaya>bBaUa;a5a1a&a{aOa5a&aUa?a&a]bhb)................................................................................................................................................................................................................................................................................",
"................................................................................................................................................................................................................................................................bqa9........a:a]a!a/a-a5a/aHaOa5aUa=a{a3a!aHaEa,bda!aUbdbda7aHa;aEbua5aEa5aHaLa;bfa&a;aUa6a*a/a!a>a;a5bda!a?aOb)................................................................................................................................................................................................................................................................................",
"..................................................................................................................................................................................................................................................................a9..........a7a]a_a`a7aEakaHa3ayaya3a1a7aUaOaOa_a!a5a]aYa<aHa;a{bka;a5aHaEaza*aYa`a*a<a:bqbda_bda5a?a]a&bkbkbH................................................................................................................................................................................................................................................................................",
"..............................................................................................................................................................................................................................................................................a1a1bebaaYajaEa1aOakayaUa*a*a7a,a,a&a`a*a&ana6brbabAbsa6a<akajaja;a:bka`baa<a\aVaEa*a5a?a&a!a?a;a*................................................................................................................................................................................................................................................................................",
"..............................................................................................................................................................................................................................................................................a=a/bja\ayaLaLaLaYaLaSa+a1a3a*a*a7a7a3a1aHa1a-a~brbqbrbda*ayayaja*a+a;a*a<a|a|aSaka!a!a*aHa7a]bobra=..............................................................................................................................................................................................................................................................................",
"................................................................................................................................................................................................................................................................................bnbaaOa<aLaFa4blbxbla~a+aUa*aUaEaHaHa:ana1a|a^a^a+aYaYa\a<ayanbca3a|babobFa|bxaMasbaaYayaOa?bibPbq..............................................................................................................................................................................................................................................................................",
"................................................................................................................................................................................................................................................................................bNa-aMaLaSa\a)blbWbPa#a<a]a!a!a,avaEaEana1aLasa~brbHa+brbiayasbra*a\a|a\bHbxa~a\asa4asa4bEbpb6bPcJ..............................................................................................................................................................................................................................................................................",
"..............................................................................................................................................................................................................................................................................bRbyaRa3awaDaYa(blb:bPbPbCbVbha;brbra4aja4aSa<bra^a8brblbmbcajaObAa<aFaDaPaYaSaSa(aDaja+bSbibrb1b{cG..............................................................................................................................................................................................................................................................................",
"............................................................................................................................................................................................................................................................................b8bPbgaubxa<a4bHblblb:b[b|bUb$crcVcwbUbLbba)aSa<bxbla^a<blbvboajaybxbca+bib5a^a6a<a|aPaYbAb^c8c!c7b*b{..............................................................................................................................................................................................................................................................................",
"............................................................................................................................................................................................................................................................................b;bPbgapbybra#bbbbbPbWcxb#bQcUcJc7c*c2bUbLa2awaSa4a<blaXa)bibVaja4bXa\a+b5bibxb5b5braSa^b6c#c+c7cjb{bx..............................................................................................................................................................................................................................................................................",
"............................................................................................................................................................................................................................................................................bWbqa$apa9blb[bWbWb,b2b2brcrb+albZc2c,ckb(bwa\aSa4a)aGaDaDbia|aFaYbHa+a+a|bibLbAa<a)a<bLckc%c!cjala.b]cq............................................................................................................................................................................................................................................................................",
"..........................................................................................................................................................................................................................................................................b4a~bmaTaiapa[cebPbPb:bPbrbQcrbbaobZc7c8cgbUbQbUboaSa)bobUbbbla<aqaCboa<a<a)b/bLbba^a4bbbocac7c7cja.a.crcE............................................................................................................................................................................................................................................................................",
"..........................................................................................................................................................................................................................................................................bNbCa~aCanadblb:bCblb:b:bbbUcgbXbScjcUcFb*boa\bwa4a)bca\a\bbbUaLagana~a|a4aSa<bLa^bAbibia\b$cucJcEb]b]crcrcU..........................................................................................................................................................................................................................................................................",
"..........................................................................................................................................................................................................................................................................b|b4a`a-aCaXbWb|bWbCceb4a|bwb6b6b1b?cub*bca4bibca<bJa<a)blbLa~akajaia3bHa|bca6bibba4a<bbaYa!b$cacccucrb]b]cu..........................................................................................................................................................................................................................................................................",
"..........................................................................................................................................................................................................................................................................clbFa9a9aCbgb4b(b+b2cqb/bcbcbGb1bpbhbTbpa5bEbibibobibrb9bNa|aYaianaCa9a<bHbqbobgbra^bibobra/a{bTbSb1b]bhbEb{cE........................................................................................................................................................................................................................................................................",
"............................................................................................................................................................................................................................................................................a:ara1arbxbWb/bAa|b5cgb$a<bcbKb$bha;ayaDbcbia<aPasaDakasa<a3akakaEaCa*a6a=bfa9aKaVa:a|bia<a5a;bEb$bSbcb1cMbSb*......................................................................................................................................................................................................................................................................",
"............................................................................................................................................................................................................................................................................a-aOaHaVb9b,b/bTa<bobScabbbrbkbSb^bcaybSb0a4aDbcbSbAbHb6bvava3aqa=anaOa|bRbqa=baa-a=a<a+b6bwaDb]bEbAbJb1cabbb*......................................................................................................................................................................................................................................................................",
"............................................................................................................................................................................................................................................................................bYawaLbfbNcbbHa|bibubobobwbbbwbEcabibTb?bQbcbTbXbAa<bgb6bga+aLajanaqaHa!bgbaa`a:a<a~bXbibAcubobTbQbXbibwbEb2cgb7....................................................................................................................................................................................................................................................................",
"............................................................................................................................................................................................................................................................................bNa#bibibrb/b5blbmbCblbbbxbPb5bXbQbEb6bXbAbib?b^bia6asa4a+bgaHaLaVavaKa6a*a-aLa6bJb^b]b$a<b$b6bib$b+bwbrbwcgbcbc....................................................................................................................................................................................................................................................................",
"..............................................................................................................................................................................................................................................................................bHbrbibQbAa^a(blcmb[b[b4blbQa\bcbQbxbXbxbAbTbobca\a<a\a|a^aEaja9ayaCa*aYa<a*bob1cacab$a\bTb1b1bcbwbPcecNcNb1bZcE..................................................................................................................................................................................................................................................................",
"................................................................................................................................................................................................................................................................................bwbUbca<a6a)bxcqcNceb4b|b6bQbXb9b0bXbrbAbia\bQb*bra\bga+ayajbmaHayaKaHa+bab6cab$b^b]a<bKb6b1b+cmcqb[cGcJcEb]crc)c%..............................................................................................................................................................................................................................................................",
"................................................................................................................................................................................................................................................................................bxbXbia\bobobxb,b[b4b4cmcqb*bxbLbia<bcbrbAbTcgcEa~a<a<asajaha&aLavayaFa*bab5b^cacrb^bcaSa{b6b{cxcxb[cecmcrcNcjc2c(ca............................................................................................................................................................................................................................................................",
"..............................................................................................................................................................................................................................................................................bFbwb5bUbobQbKa<b|cNceceb;cqb|cmb$bba)a6bAbXbob5bXa<a^bga6afaya:a|avaKaKaUbga]bHb6bSb$bwbobbb/cEcxcxcNcNcxb$bZb$cEc8b]............................................................................................................................................................................................................................................................",
"..............................................................................................................................................................................................................................................................................bkbAb$b$b2bZbKaDbPcqcGcNcecqb/cUbUbJbrbcbJbobibLbia6aPaEakaraHaranaHavaEaDa*a+a:bXbAbTbXb$cacEcJb|cxcNcGb{bSbSb$b$c7b]............bnb&............................................................................................................................................................................................................................................",
"............................................................................................................................................................................................................................................................................bVcEc&c&cubQa%a;a)bwb4b;bWb4bLb{crcrb$b5b5bwa\bLa|a\aYanaraqaHaKara>a1aVaHayaYa<a*babHbwb1bQcucEbZbZb+bCbZb$b$b]b$bScrcr........b/bfa}bFb%..........................................................................................................................................................................................................................................",
"............................................................................................................................................................................................................................................................................bib{cUc$c4bEa?a)a)bwa[a-a2bWbrbJajbQb%bibobxbra+a+a6avaya-aCanaVaia,bna&aqayaFa|baaLa<bMbrbcb]bEa%bJbWaNbJcJcEcEcrbobVb7....cccucJcmb$a|blbl........................................................................................................................................................................................................................................",
"..........................................................................................................................................................................................................................................................................bqblaobSc7c4bSa;bcbibJbba~a[bCblbPa)bSbTbca)a4aSa|a-anajaVa3ajagaeaiava3bfayaHaDbabaaHaObAbcbobobobbbPb{bicgcJcJcxbQbbbSb]cbcqcJcGcEc2c2b{bbaQ........................................................................................................................................................................................................................................",
"..........................................................................................................................................................................................................................................................................bJblaAbScrc7bEa\bwbZbLbla<blbNbbblbia<a)bca4a4a)a)asa+aCakaKaCabahaia:a9ayajaya5a<bfa3a-a|bAbHa\bcbbb+bUbib5b#cmcxb2bwbZbZbPcmcscbb+b|cJcmbrbR........................................................................................................................................................................................................................................",
"..........................................................................................................................................................................................................................................................................bLbZa\bScrcubha<bJbxbra+aLa+bma8a#bia4a\bba4a\bia<a(a6asahaUaHakacayaVa-ananasaYa+a:a*a*babTb5bwbibbbcb$a)bibCbWcxcJb{bZbJa8bwblb$bPb$cNcgb{cs........................................................................................................................................................................................................................................",
"..........................................................................................................................................................................................................................................................................b5b1b1b$crb?bha)bwbla|aCavaYa<aSbbbxblbia4a^bUbga<a4aPaGanaOaHahafaybfaOajaEaFaBaVa=a`a6a^bXb9b5b5bwbXbZaSaNaWbbcqcxb$bJb:bibPbXbUcgbwckb^bPcu........................................................................................................................................................................................................................................",
"..........................................................................................................................................................................................................................................................................b#a\bTbebdbpbcaSbobba\aGanaPbiblbxbHa^a#a<b/b#a<a^a|a~a:aVayaCahahanaKaOahaEa6a6aVa3a:a+a]bFb^b5b6bUb]cabWb4b:bCbWb|bJb/b^bla(brb6b^blblb#b6b.bR......................................................................................................................................................................................................................................",
"........................................................................................................................................................................................................................................................................b]b^bJbSbSbhbEbia%a|bma2aIaTbbbwa4a+a^a6aIb#csa~a6a6a6bfa^aVayaKa3abaEa-anaEaEaYa6aCavaYa+bca|b6b5a<a%bcbZb:cGb[bPb4b[bwb^a^a#aGaFa:b2b!a\b5brb%bm......................................................................................................................................................................................................................................",
"....................................................................................................................................................................................................................................................b|cqcz..............bSb!bWbCbScjbSbEbwblbla2a[bxblbba)aPa*aDbmbYa^a\a:aZa4a-aLaVakaKa3afana&anakaHaLaLaCavaYa^bia6a<b6bca%a)bCb[b[ceb4bWbWbUbPbba$a(anapblbLa<bxbXccb.......................................................................................................................................................................................................................................",
"................................................................................................................................................................................................................................................clb4b:cGc1cNb#b#b&......b6bCb4bWblbZbZbUbJbia[a8a~bCbla$a^a*a6a-b9a2a+a-a<aZa+a+aKavanahaqahaKa9akakanaqaLaFa6a6a^a<aGa)bqbFaSa$blbWb4bCbJb4cqcqbrbxa#a2a9aCa6a^b5bgbbb*........................................................................................................................................................................................................................................",
"................................................................................................................................................................................................................................................b!bCblcNcGb:bNb2boa^a9..bRa8bWcGcxb:b(bUbla)a^bmbCbma[a8aRaCaFbva+azaYaSa+a4a+avakaqaqahagaga:a&anaHatanaZa4aYa+a3aYa|biaSbrbga2aVa$blbCblb|c3b|bWbxaTa~a-a:a<a*bva\a4bi........................................................................................................................................................................................................................................",
"................................................................................................................................................................................................................................................b~cNcxbWceb#ckbUa|a<a6bgbNbmbWcgcEb,cbcmbQa)a~bCbmbma8aIaJaVaCa-a4aLa<a(aZa3a4aVaCanaiahagagbfbjakaKaqaCaYa3aGa6a(a4a^a\bbbgbvapaMaCa2brbPb,b,b2b,bxbla2a9a#a<a=bHb0a+a?........................................................................................................................................................................................................................................",
"................................................................................................................................................................................................................................................b,cxb[bFb2b#clbraPaFa<a:a~bCb4bJb$bxbgb(b|bAaTa[bCa[aQauaCaKaFaFa*a*a[aYa9a-aLa:aYanaqagagaka}bOa1aCaVaKaCaBaFa+a+a=bibibJbLbla4aZa)bxbPb2bra<b#b[bWa$....a0a<a^bob0aYaU........................................................................................................................................................................................................................................",
"................................................................................................................................................................................................................................................b^cqclb&bxb2bqaXa3aYa2a#a8bgbWbbb+bwaPa<bCb#bPbCa[a8aXaparaza+a+a3a:bqaFa4a~aYanaFaKaKadaga1bea/aKaCaVaCaGavaFa=aMa-a^bAbQbQa\a\a<bbb!bJbba+a`a[blbq......aLa<a>a|bibca<a_......................................................................................................................................................................................................................................",
"................................................................................................................................................................................................................................................b8chb/b9b2bqa~aXaMa[bCbWbmbmbPblcgchbibra(brb,b,bCa$a3aJapaGa<a6a+a3bma<aMa~a~aKakayaKahada_a`aUanakaqaqaCasaKa+aGa6a)bAb5b(boa)aSa)bJb^bQbcbY............a+a+a:a]bQbAa)a<......................................................................................................................................................................................................................................",
"................................................................................................................................................................................................................................................b9cgb9bFb2bgbma:a^bmblb4b4bba[a<bLb/bXb9bAa-a[bNbCa~bgbmbga$a6a+a-a*a*a:a+a<bmaKanazaVarada9a`afayavavazaYa3a+aYaMa6a<bobAb6b*b^b*b$b$b]cEbJ..............bza9a\a\a^bra4a\a^....................................................................................................................................................................................................................................",
"................................................................................................................................................................................................................................................b5b>bUa^b#bUbgaPa8bCbWcecebWblaQa\a^bib-b2bma[a:aMa:bCb5bvaXaPa\a9a-a\a-a+a+a-a3aFaFazagahaia-aKaKa3aUaLaUa+a^a[a+a<a=bobob1b/bAb1crc3c7cEb*..............b3a3a:bAbobXbobAbL....................................................................................................................................................................................................................................",
"................................................................................................................................................................................................................................................bHbUbibxcgb5a|a6aJa8b4cecNcebPaoa[bCa|a<bga4a<a/a!a3bmbxboa)bcbba3a4bfa:a~a|aHaLaZaFajaiaraCaHbaaVaVaVa3aLaVaLa+a+a-a|baa!a!a;a]bGcucrbSb$................b.a$brbXbLbrb?b%b6a_..................................................................................................................................................................................................................................",
"................................................................................................................................................................................................................................................bxb9bwb*b^b9a~aPaxaua8b4cececeblbWb,boa<a\a\a|a`bsa*bAb$bSb$bAbra:a*baa-a+a+a6a*aYaCajajaEa_arakaVaVaVaKaKaVaYa6a<a\bibha;a;aOa<bhb1a%aAbE................b&bib$b^b/bAb6cub?a_..................................................................................................................................................................................................................................",
"..............................................................................................................................................................................................................................................bNbia^b5ckcEb-a=a:byaqaka.blbWbWbPbCbxbla\a2blboa*aKbkb]crcrcabobfa*aVa|a<bAa|a*aYazakagaUa;bzbjanaqaVa-aLavaVa6a<bibSbQbKb$bKbEa?a?a;a;bxbJa:..............b8brb/cgb^bLa^b6bXa&..................................................................................................................................................................................................................................",
"..............................................................................................................................................................................................................................................bHa|brcgcJcJccbk......bfauaoaoa8a8a2aXaZa<a~bqb5bXa\bScEc7c7cub$a6aEaUa^b$b*a<aOaOa3akaKa{bsa}a,ana9a:a-a*avaya3bcbibEbXb0b$cacab$a]a&bLb2b2a{................a*bob2bCa~aXa)a*aj..................................................................................................................................................................................................................................",
"..............................................................................................................................................................................................................................................bNbwb?ckcRcMcUb0..........baa9a$aTaMaLa\baa|a|bHb9b*b$b]bbbbcrbXa<a5a?bGcabGa+aya&a&aKa*bjbea&ahakaEa*a6a+aHa3a-a+a|bcbobTbTbTb1b5bAa?b5b#ckb$bY................aHbfa<a\a9a<a|aH..................................................................................................................................................................................................................................",
"............................................................................................................................................................................................................................................bNbmb0b9b^cJcGcFcr........b2bqa=a:aGaFaKa!a\aUaHaHaPa!bcbba%aNbTbobhbTbAbTb0bJa!aka-bvbsa^a/aOarayaEaraUa)a*a<a<a\a6a\a^bGbXa?a\bmbVbxbibxb^b*cbb^................a3a6bzbYa*aOa*aFbm................................................................................................................................................................................................................................",
"..........................................................................................................................................................................................................................................btbmbfbfbmbYb,b/b^b)......bRbra<a:aJafbm..a9a^a|a;a5aUaKa!a)a4a6a!a\bTb6b1bibTbQa+adby..bOaHajaEaVapavaCaYaYa<a=bia<aOa4bkbHbnaSa*aFbq..biblb|b^b^cbcc................ahaHa7a3aHb0bva=................................................................................................................................................................................................................................",
"........................................................................................................................................................................................................................................bvbda=a`bqa^a:a~a<bqbD....b3bia#aXa:apbf......a3a:a`a&a3a3a*a4a)a\a)bkbEb5brbcbHb6a+ai......a`aeaCaDaGaFaGaYaYa*a9a*a*aUaHbibVa[a3a:........a=b4cqb^cbb^b)................a9a7a:aUa9a~ba................................................................................................................................................................................................................................",
"........................................................................................................................................................................................................................................bgbda;a~a[a=bmbHa^a=aV....bqa-a)a^a9a$bf..........a:aVaYa3a3a:bga\bqbibsbAa6a|bxb1aYa-........a9araCa6aGasaKa^a:a:a9a6a3aOa*bVbf..............bFbWb!b#b*b%..................a9a-a&a-bqbFbma`............................................................................................................................................................................................................................",
"........................................................................................................................................................................................................................................a[bna-bfbHb5bqbHboaVaK....baa3a3a6a3a3aVac..........bmaCaCaEaLa-a^bga:a4a-aLa<bqb0a|bm......................a9apaHa9aHaDa-bvbBa=a7..............bmbvbqbDbV....................aCa9a=babqbqbababY........................................................................................................................................................................................................................",
"........................................................................................................................................................................................................................................a=a`a*bzbHbga<a+bia9........a-aVaLaKavakaj..............aCanaGaGaLaLaKaKazaFa6bjbO........................a3a:....bqaraza^boa`..bmaH............bqbqa-a7aO....................aFaPaVaLaKaxazaHa3a!......................................................................................................................................................................................................................",
"........................................................................................................................................................................................................................................a|bgbgbxbHbFb6bqa*................aVanasak..................aHbm....aKa9..aHaLa\b0bj......................a3a9a-..a_aKaxa9a|a3ba..............babqbga9a?aH......................aHa(a=axakanapaCayaEbO..................................................................................................................................................................................................................",
"........................................................................................................................................................................................................................................a^a~b#brb#b6bgakan................aLaVanavaC..................aH......abbva:aOa:bMa3..............................araUa9........................a[a=a9a:as........................a`b8brauasazarakayaObe................................................................................................................................................................................................................",
"........................................................................................................................................................................................................................................a=bxcbbHbRbvava3................a3aMaGaraHai....................a3aH....aKana3..byaM............................................................baa6aVaq..........................aVa~b9bvaBakaLaHaUa1a9a\bj............................................................................................................................................................................................................",
"......................................................................................................................................................................................................................................bMa~bmbCbrbfaCa-................aVakaYaGazaYak........................ar....a9a:..bqaM............................................................bmaLav............................bma(a~baavaC....a9aCaVa6a*bn..........................................................................................................................................................................................................",
"..............................................................................................................................................................................................................................bga*a,a=a<a~a|a$a\bia:................aVahaOaPaCara)aMba........................aq..a`bqa3a3..............................................................bfaCai..............................aiaqaCbf........a9aiaraCacbq........................................................................................................................................................................................................",
"............................................................................................................................................................................................................................bRa4aDaEa6a6aGaPa:a)aE............a-baaVajaKaLaKanba..baan..............................a$a2................................................................a-aLac..............................baaiaKa`..........aCaeahajabby......................................................................................................................................................................................................",
"............................................................................................................................................................................................................................a3ayavaOaHaGaYaOa4aC..............ajaFana9a3auaKar......aDan..............................a[................................................................a=a|a4ba..............................aka9aU............a[ababacaj......................................................................................................................................................................................................",
"..............................................................................................................................................an........................abaiakaranahaiaiaeahaiaian......anahakaranaraCa:bia1aHaEaVaHaUaVa3a|a\aKa9..........bfajana9aJa=a8at..........a9..............................bf..............................................................bfa-bfa+asara3aK........................aVa`bRa+................aHae......................................................................................................................................................................................................",
"............................................................................................................................................................abababababababaiaiahaiaeaeaeaeaeabaeahahahaeahaianaCa9aCafaUbeaOaya;a:aUaFaya^baa~a*aEahabababana-aDaVa`ararananarakai..........anabababababababah....................................................................b;bYa[bCa~a\a4a2aSa=a8......................a`bfb\cgbR........................................................................................................................................................................................................................",
"......................................................................................................................................................................ahababababababababababahaeabaeahaeaeaiararasajaqara>bda^a<a4aOaHaOaVaFa3a~a|arakabaiaKa[aMa-baa7aeabahaiaiahaeabahaeabaeaiaiaiahahahaiananaiaK......................................................aKa`b7blanava~bFa^a*a!a4a:bma^......................bma9a-bgby........................................................................................................................................................................................................................",
"..................................................................................................................................................................................................akahababaiaCaEahaiaiaiaLbabaaPakajakaHakana3a-a3a1akaeanaCaVaCaKa:aCaeaeanarananaiakahahaeaeaeaeaeaeaeaeaeababababababababaeabaiakakaiahar..............................aCahajaharaqa3b8a9aiaqaH....bCbv......................anava-aV........................................................................................................................................................................................................................",
"......................................................................................................................................................................................................aiahabaHarabaiaeajanarahakananarapaeaiaLaCacakaiababaeabaeaiahabababababababababababababaiahaeaianak..........aiaiaeabababababababab............................................a9bg............bNbWah....................araiara3a1......................................................................................................................................................................................................................",
"..............................................................................................................................................................................................................aVa9aCaeaiakanaeah......aVabahaga~....ae..................................................................................................................................aq..............bFby......................abahah........................................................................................................................................................................................................................",
"....................................................................................................................................................................................................................ahahaiaiabababaeaKaVaiagaj......................................................................................................................................................................................acabbv......................................................................................................................................................................................................................",
"....................................................................................................................................................................................................................................akaCaiai........................................................................................................................................................................................bmaba9......................................................................................................................................................................................................................",
"......................................................................................................................................................................................................................................................................................................................................................................................................................................a3........................................................................................................................................................................................................................",
"................................................................................................................................................................................................................................................................................................................................................................................................................................................................................................................................................................................................................................................................",
"................................................................................................................................................................................................................................................................................................................................................................................................................................................................................................................................................................................................................................................................",
"................................................................................................................................................................................................................................................................................................................................................................................................................................................................................................................................................................................................................................................................",
"................................................................................................................................................................................................................................................................................................................................................................................................................................................................................................................................................................................................................................................................",
"................................................................................................................................................................................................................................................................................................................................................................................................................................................................................................................................................................................................................................................................",
"................................................................................................................................................................................................................................................................................................................................................................................................................................................................................................................................................................................................................................................................",
"................................................................................................................................................................................................................................................................................................................................................................................................................................................................................................................................................................................................................................................................",
"................................................................................................................................................................................................................................................................................................................................................................................................................................................................................................................................................................................................................................................................",
"................................................................................................................................................................................................................................................................................................................................................................................................................................................................................................................................................................................................................................................................",
"................................................................................................................................................................................................................................................................................................................................................................................................................................................................................................................................................................................................................................................................",
"................................................................................................................................................................................................................................................................................................................................................................................................................................................................................................................................................................................................................................................................",
"................................................................................................................................................................................................................................................................................................................................................................................................................................................................................................................................................................................................................................................................",
"................................................................................................................................................................................................................................................................................................................................................................................................................................................................................................................................................................................................................................................................",
"................................................................................................................................................................................................................................................................................................................................................................................................................................................................................................................................................................................................................................................................",
"................................................................................................................................................................................................................................................................................................................................................................................................................................................................................................................................................................................................................................................................",
"................................................................................................................................................................................................................................................................................................................................................................................................................................................................................................................................................................................................................................................................",
"................................................................................................................................................................................................................................................................................................................................................................................................................................................................................................................................................................................................................................................................",
"................................................................................................................................................................................................................................................................................................................................................................................................................................................................................................................................................................................................................................................................",
"................................................................................................................................................................................................................................................................................................................................................................................................................................................................................................................................................................................................................................................................",
"................................................................................................................................................................................................................................................................................................................................................................................................................................................................................................................................................................................................................................................................",
"................................................................................................................................................................................................................................................................................................................................................................................................................................................................................................................................................................................................................................................................",
"................................................................................................................................................................................................................................................................................................................................................................................................................................................................................................................................................................................................................................................................",
"................................................................................................................................................................................................................................................................................................................................................................................................................................................................................................................................................................................................................................................................",
"................................................................................................................................................................................................................................................................................................................................................................................................................................................................................................................................................................................................................................................................",
"................................................................................................................................................................................................................................................................................................................................................................................................................................................................................................................................................................................................................................................................",
"................................................................................................................................................................................................................................................................................................................................................................................................................................................................................................................................................................................................................................................................",
"................................................................................................................................................................................................................................................................................................................................................................................................................................................................................................................................................................................................................................................................",
"................................................................................................................................................................................................................................................................................................................................................................................................................................................................................................................................................................................................................................................................",
"................................................................................................................................................................................................................................................................................................................................................................................................................................................................................................................................................................................................................................................................",
"................................................................................................................................................................................................................................................................................................................................................................................................................................................................................................................................................................................................................................................................",
"................................................................................................................................................................................................................................................................................................................................................................................................................................................................................................................................................................................................................................................................",
};
