/* XPM */
static char *xpm[] = {
"320 180 255 2",
".. c None",
"ab c #000000",
"ac c #000101",
"ad c #000102",
"ae c #010101",
"af c #010203",
"ag c #010303",
"ah c #010304",
"ai c #020405",
"aj c #020507",
"ak c #030505",
"al c #040607",
"am c #050709",
"an c #050807",
"ao c #06090b",
"ap c #061c32",
"aq c #070909",
"ar c #070b0d",
"as c #080b0a",
"at c #090a0b",
"au c #090c0c",
"av c #090c0e",
"aw c #092038",
"ax c #0a0e0e",
"ay c #0a1828",
"az c #0b0f11",
"aA c #0b1116",
"aB c #0c0f0f",
"aC c #0c3e63",
"aD c #0d1012",
"aE c #0d1112",
"aF c #0d1113",
"aG c #0d1622",
"aH c #0d233b",
"aI c #0e1010",
"aJ c #0e1112",
"aK c #0f1111",
"aL c #0f1314",
"aM c #0f1315",
"aN c #101313",
"aO c #101417",
"aP c #111414",
"aQ c #111415",
"aR c #11161a",
"aS c #121618",
"aT c #121821",
"aU c #121c2a",
"aV c #12263c",
"aW c #131515",
"aX c #131617",
"aY c #131618",
"aZ c #13181e",
"a0 c #141617",
"a1 c #14181b",
"a2 c #141c28",
"a3 c #151817",
"a4 c #151819",
"a5 c #15181a",
"a6 c #151b24",
"a7 c #151f2e",
"a8 c #153856",
"a9 c #16181a",
"a! c #161919",
"a# c #161b1f",
"a$ c #16293e",
"a% c #162b45",
"a& c #16334f",
"a( c #171a1a",
"a) c #171a1c",
"a* c #171b1d",
"a+ c #172332",
"a, c #181b1b",
"a- c #181d22",
"a. c #181f2a",
"a/ c #191d1f",
"a: c #191f26",
"a; c #1a1c1d",
"a< c #1a1d1f",
"a= c #1a1e21",
"a> c #1a222e",
"a? c #1b1e1f",
"a[ c #1b1f21",
"a\ c #1b2023",
"a] c #1b2533",
"a^ c #1b2f45",
"a_ c #1c1f20",
"a` c #1c2123",
"a{ c #1c4767",
"a| c #1d2022",
"a} c #1d2122",
"a~ c #1d2329",
"ba c #1e2224",
"bb c #1e252f",
"bc c #1f2224",
"bd c #1f2323",
"be c #1f2326",
"bf c #1f2835",
"bg c #1f2b3b",
"bh c #1f4d6f",
"bi c #202426",
"bj c #212424",
"bk c #212425",
"bl c #212527",
"bm c #21252b",
"bn c #213e5a",
"bo c #222526",
"bp c #222527",
"bq c #222528",
"br c #22282f",
"bs c #232627",
"bt c #232728",
"bu c #23272b",
"bv c #242728",
"bw c #24282a",
"bx c #24282b",
"by c #24292b",
"bz c #242b34",
"bA c #243242",
"bB c #252e3b",
"bC c #26292a",
"bD c #262a2c",
"bE c #262a2d",
"bF c #262b2e",
"bG c #262b30",
"bH c #272a2b",
"bI c #282c2d",
"bJ c #282c2e",
"bK c #282c2f",
"bL c #282e32",
"bM c #282e35",
"bN c #292d30",
"bO c #292e31",
"bP c #29323c",
"bQ c #294f6f",
"bR c #2a2d2e",
"bS c #2a2e32",
"bT c #2a2f31",
"bU c #2b2f30",
"bV c #2b3645",
"bW c #2b3d51",
"bX c #2c3133",
"bY c #2c3134",
"bZ c #2c3237",
"b0 c #2d3132",
"b1 c #2d3233",
"b2 c #2d3234",
"b3 c #2d3236",
"b4 c #2e3335",
"b5 c #2e4358",
"b6 c #2e4962",
"b7 c #2f3334",
"b8 c #2f3336",
"b9 c #303437",
"b! c #30373e",
"b# c #305e84",
"b$ c #313536",
"b% c #313537",
"b& c #323539",
"b( c #323637",
"b) c #32363b",
"b* c #32383a",
"b+ c #32383b",
"b, c #325471",
"b- c #333739",
"b. c #33383b",
"b/ c #333d48",
"b: c #343b41",
"b; c #35393a",
"b< c #353b3c",
"b= c #353b3e",
"b> c #356c93",
"b? c #363a3b",
"b[ c #363a3d",
"b\ c #363c3e",
"b] c #383c3d",
"b^ c #383d41",
"b_ c #383e45",
"b` c #38424e",
"b{ c #393d3e",
"b| c #393d42",
"b} c #393e41",
"b~ c #3b3f41",
"ca c #3b6c8f",
"cb c #3b729a",
"cc c #3c4142",
"cd c #3c4143",
"ce c #3c4245",
"cf c #3c4247",
"cg c #3d4244",
"ch c #3d4245",
"ci c #3e4548",
"cj c #3e4853",
"ck c #3e5b74",
"cl c #3f4446",
"cm c #3f464b",
"cn c #3f5162",
"co c #3f759a",
"cp c #414648",
"cq c #414748",
"cr c #41474a",
"cs c #42494e",
"ct c #4279a3",
"cu c #43494c",
"cv c #444a4c",
"cw c #454a4b",
"cx c #474c4e",
"cy c #474c4f",
"cz c #474d51",
"cA c #484e54",
"cB c #485058",
"cC c #494f51",
"cD c #4983ae",
"cE c #4a5053",
"cF c #4a5054",
"cG c #4c5253",
"cH c #4c5256",
"cI c #4c5358",
"cJ c #4c82a8",
"cK c #4e5558",
"cL c #4e5658",
"cM c #4f5556",
"cN c #52585b",
"cO c #525b63",
"cP c #527894",
"cQ c #53595b",
"cR c #53595e",
"cS c #535a5c",
"cT c #565c5f",
"cU c #565d61",
"cV c #575e61",
"cW c #575f63",
"cX c #595f61",
"cY c #596671",
"cZ c #5b6266",
"c0 c #5b6367",
"c1 c #5c6265",
"c2 c #5f97bd",
"c3 c #60676b",
"c4 c #60686d",
"c5 c #61676a",
"c6 c #666e70",
"c7 c #676f74",
"c8 c #687177",
"c9 c #6ba2c4",
"c! c #6d7476",
"c# c #6d7f8c",
"c$ c #6f767b",
"c% c #72a9cb",
"c& c #767d81",
"c( c #76b1d6",
"c) c #777e81",
"c* c #7fb7da",
"c+ c #82898c",
"c, c #858c91",
"c- c None",
"a,a?bUa?a?boata(bJcGa)bFbxbEbEbObKbxbibsbNbybibqbqbFbKbKbTbTbKbEbubmbibqbxbxbxbubybEbSb3b9b-b-b%bSbEbEbxbxa[bCb~cTa}a4bCbTbTcxb(aJbkboajanakata_chb%b-cxcua?b9b3b9cNa_aIaqa)bUb%c+cQahaxaoaMbsaLaDbUbObJbDaSambobccqb0bHbYb9b+b9bTbYb8b8b9b9b8b%b.b)b:b~b_b^b=b.b:cdcib\b\b=b%b=b=b}cEcTaNa4cpclb~b~czcga0a_a}aBbCcpb.b}bCbIccb?bHbHb9bsbcaIa)cyclchcdb^b~b=b[b~b~b\b{cpczcEcycvcmciczcrcicAcOcWcycmczcHcVc3cZc8c4c4c4cZcNcIcKcAczcycycFcNb=b7cEc1blbicpcvcCc7cNa0b7bRadaIabbEc!c,bcaoaQabamb?aDalbpavaLa9aSaoclcZcpaoazaja_b{a)aScQcKcvcra=amb?b9clcxbwcXcWc0cVcTcWcTc0cZc1c3c3c3cZc0cUcLcKcrcdb~b^clb^b8b-b.cucFczcrbccvcycycub^b^b}cEb0a<bIbHavcMb]b;bNbHb~b(",
"a(a|a,a?a?bwata4bvcwa9bFbybJbTbKbxbqbebsbEbxbubxbybybqbybKbybObFbtblbqbqbqbqbtbybxbybOb8b9b9b8bYbDbea|a<a?bva}bCc1a|aWa?bIbsb{b$aFbebsajanakasa}cwb-b.cycla_bRbRb-cuaWaQaBa?bTb=c+cUahaDamaJbvaLaDbUa?bHa|aLambobIbkbFbTbNbXb(b9bXb8b%b3bYbYbXb8b8b.b\chchb^b*b%b\cvcfb~b~b=b.b*b:b^b:cRa4a0cpcdb=b\cpcha4bcbjaIblcdb-b\b[b-clclb0clb0bHa?aBa0cccgclcdcdclb}b\b~cdb]b~crcCcLcHcGcIcLcIczcucvcKcKcAcscHcIcNcWc4c$cYc4c7cZcRcHcCcycrcrcpcvcEczb}crc7bibdbUb.b]c4cNa4b(bRadaNabbFc!c,bHbRb;bvbHclb1bCb0bRb$bka_arclcXcramaDaja_b~a)aYcNbRbTb8a=amb]cVcHcLbHcXcScQcVcVc3c5c1cXcZc3c4c3c0c0cNczcyclb~b=b[b~b$bJb9bTcdcyclcpa;clcEcyclb|cdb{cKb7a<bIbvaocCcdb?b~b[cpcg",
"a,bja_a?a|bjaqa3bscla(bUbwbtbybtbwbwblblbebqbsbabvbwbJbTbFbqbea|bsbsbybtbla`blbtbtbFbTbXbUbTbDbwboa<a*a/a?bdbjbIc1a_aXbobobHcpb$aKbdbdajananasbdcqb;b;cxcca_bRb0b-cCa,a?aPaxb(b<c+cKahaDamaJbvaNaBbUbIbabdaNaqbCbUbHbTbTbJbJbIb0b1b4b4bXbIbIbNbXb2b*b^cmcdb^b+b+b\cqclceclb^b<b(b~b~cdcVa3a,crb\b(b1clcpa,bHbvaIbab~b*b}b}b~cgb]b1cwb;bva}aIa3b{ccclcgcgcdchb~chccb{b}clcCcHcEcKcHcScWcCcrcucHcIcicvcEcucmcKc4c&c$c7c8c4cScHcEcyceb{cecicgcpcucxc&bibaclcccEc4cMa0b7boafaNabbFc$c+bebjbCbjbsbHbjbjbvbjbHa3aWaqcqc5cxakaBaia?b{a*aXcNcCceb~a?amb}c0cXcNbCc1cTcLcXc1c1c5c3c3c5c6c3c0c0c4cZcHcub~b?b<b~b\b]b9bIb*cqcvcxcMa*cpcycvclb~ccb}cNb0a?bIbjaocNb{b{clcpcwcg",
"a(bja?a?a;bvaqa!bsb;a0b7bFblbebebsbtbybsbwbybUbHbcbdbkbtbYbca?a3a(a3bqbFbebabxbxbFbXb%b%bObJb1bIbta/a;a_a|a}a_bCc1a}aXbCbRbUclb(aJbka}anakanaubdcxb<b8cpcca<bUb*b(cGa(a9axaqb;b%c+cVahazalaNbCaXaIbUbTbybsaNalbIb7bRbRbHbwbJbIb$b7b1bNbJbtbtbIbXb4b*cecrceb^b*b*b[crczcmciceb\b\ceb}cqc5aPa;cub<b$b$cqcwa3bvboaxa;b}b(b\b{b\b{b(b0clb$bHa?aNa3cgb~b}b~clb~cgclclb~b~cicvcCcCcKcLcScWc4cKcecdcxcCcucCczcuczcKc0c$c$c7c7c$cZcAcEczcpcdcqcgb~b~b<cvc!bybicvcNcLc5cNaYb(bCahaIabbLc&c+aXasaqadaxb7atasbRatabakakahcuc5cGalaEala_b~a,a4cQcLcEcla/aqb]cXcNcGbRc5cTcTcScTc1c4c7c4c0c0c0c5c0c0cXcCcpb}b<b]clcgcrcubUb;cxcrcKcQbscGcGcvcgclcicecIbRa(btbdancGb~b^clcgcqcw",
"a9a)bRa?a;a|aqaWa}b{aLbsbDbybebibtbtbubybEbybUboa(a(a(a|a|a9a[bpa4a|bubFa}bcbFbKbOb-b=b%b%b;bNbXbCa;a/a(a(aPbab1cXa`aXbHbHbIccb(aLbta?anaiagasa}cwb(bYcucca(bCb0b*cpaWa)aIanb?b;c+cVafazamaLbHaXaBbRbKbqbkaNalbRbocpbRbwbtbUb1b$bXbIbibibkbdbsbNbTb.ceb~b^b}b=b?b[clcFcmcfclcicib~b}crc5aWa|cqb*b?b*cdcSbdbda}aNbHb~b(b*btb$ccb$bjbob;bva}aKa3b;b(b{b]b~b;b}clb}b{cqchcvcvcCcycCcWc0c0cFcdb}cqcvcicycycycucSc4c8c8c4c3c0c0cKcEb~b}b{b\b%b(bwbUclc5blbkcxcEcGc1cQa4b*bvagaxaebLc&c)a(a3aBalaKclaLaKb7aJamauauajcpc5cHalaJala?cda;aScQcHcicca;anb;b7cvcdbTc4cXc3cScVc3c6c6c4c6cZcNcQcCcMcxb~b;b?b{clcucwcvcwb2b~crcuc1cXbKcTcLczclcdchb^cNcla;a}a?aPcMcicdb0b<cpcw",
"a,a,a?a_a_a|aqaWbcb~aKbobEbybybybObJbybTbXbebybia)aWa9a;a)aQa)a_bwb2bEbabqbTbObTb2b=b=bYb.b%bDbHbda(aXa!a,a4a4a|cUa`aXa_bRbRb{b;aLbta_alagagaua}cxb=b(cvcca(bJb{b;cMa;aPaNatb}b&c+cRahaDaoaBbva0aNb7a;bHa_aKanb0bHbkbwbHbwbHb7b$b2bDbebebsbaa=bibxbNb:b^b|b:b[b.b.cdcrcmcucrcscscicrcCcXa0a?cGb}b]b[b[cpcqccccb?b[b-b7b<bUbHb]ccbCbHbHbCa_aKaWbUb-b]b\b}b]b=clchcgcicpcicvcxcCcKcScLcRcHcicfcrcvb}b}cgcicrcZc3c6c!cWcOcZcVcvcTcxcib~b~b(b.b8bIb*c4bdbob;cgcwc5c5a!b$bjalaxaebIc3c&a(a}aDaqaBb$aJavbcaBavaDaxajccc5cEaoaLaja_b}a;a4cXb0b9b1a<ajccc4cNcKb8c$c0c5cVcXcVcZc1cZc6cXcrb]b;b?b(b;b$b(cgcuczczcwcxb]cEcNcVc5cvb4c4cWcIcpcdclb}b}cxcxcvcpchcKclchb~bXb{cG",
"a,boa|a|a|boaqa0bvb]aLbIbIbybFbJbKbYbObTbObFbibpbJbsbca;a<a|bKbFbObTbEbKbXbXbTbFbEb9b}b%b.bXbKbFa<a0a!a?a|a<a<a}cNa}aXbvbtbIb{b$aMbea_amalafaubdcNb}b&cucga,bRb.b]cGa0axaNatcub9c8cEajaEaoaJbHaXaIb$bHa[bcaKaqbsbIbwbCbHbDbwbNb8bTbubebpbsbwbwbwbxbKb4b\cdb_b=b.b^b~cicpcmcmcmcscmcfcCcQa0bccHcdb}b]b^b-b{cicpb[b^b[b[b}b~cpccb~b1ccb(bRbjaKa0b{b(b]b]b}b}b~clcrcrchcdclcyczcucCcUc4cVcCcib^b}chb-bJb*cdcvcKcIcTc3cOcLcVcNcecLchb{b{clb=cpchb}clc5bybacpcccCc4c5a;b*bCalatabbyc4c+a}a}aLaoaxbIaBaxbIaDaxaJaxamb{c3czamaLala_b]a-a3cXcEb~b{a<amcgc&c!cTb4c+c5c5c3c1cZcTcWc3c3cVcpb7b9bUbRbUbUb(clcqcxcEcCcNcEcTc1c6c7cvb+c!c4cUcNcvcvciclb{clclcdb}cEcFb~cIcKcHcM",
"a?bva}a}bcbsaqaWblcpaWbIbybHbDbNbNbYb2bObHboa}bebEbTbSbEbqbabObTbYbYbKbFbFbTbTbObTb4b[b=b*bTbFbqa[a/a;a/a[a[a<a|cwa?aXbHb4bUb{b9aMbpa;aiaqabaxa}cNccb-cpb{a_bCb$b%cwaWaKa?aKcxb8c0cuajaDamaJbIa3aKb(bXbDbdaKalbobRbdbsbdbobIbwbibUbUbsbibDbDbFbNbKbYb.b~cfcfb^b+b\cpczcrcucecvcAcmb\crc1a?aWclcpclb}b[b-clcrcxb}b^b[b&b^cgclcucgb0ccb$b0bjaBa9cpb~b{b~b}b~b~clclclcucucycEcCcEcvcvcTcSczb~b*b-b-b3bOb.b{crczcycKcZc0cUc4cRcFcCb.b\clcgb\cgclcdclcXbta_cxcNcGc6cXa*b-bCamatabbuc3c)bya,aNanaxb{aJavbHaDavaDaxamb~c5czajaMala?b]a;a4cXc1cNcpa/ajb}c&c8cUbXc)c7c6c6c6c3cQcXc0c0cNclb7bRbHbHbRbUb(b~cccwcqcEcVcNc3c7c6c$cCb?c8c0cZcRcHcCcvcrcgcgcgcgb~cEcycdcHcHcHcy",
"a?bvbCa|a|bCaqa3bwccaXbUbObObTbTbTbUbObJbDbtbibcbqb8bTbTbKbibFb&b%b3bXbJbEbLbFbub4b%b%b-b;b8bEbua|a<a`a[bda?bobRcxa}aXbHbTbOcgb?aLbsa_acasabaubdcMb;bTcrb~bkb8b(b<cCaWataNaub{b7cNb}ajaDanaKbIaXaJb-bObsbkaQanbvbsclb0babsbtbsa`bCb;bFbebebpbwbybFbOb8b9b.b=b\b*b-b}cscrcpcucuczcib}b\cUc7b;aua_b}clb}b=cgcicicdb]b;b4b*b*b}cpb]bRb$b1bCbdaBa!clb;b7b~cgb~b~cgclcrcrcrcEcycCcEcCcdcKcNcib~cdb[b*b9b<b^b^cicvcicucCcLcHcHcHclcib%b?clceb?b*bXb&cucGbobacxcLcMc6cXa(b-bHalanabbwc0c6b\aLaQamaDcqaLaxbIaEazaKaxamb~c6cvajaLala;b{a*aYcXcScvcpa`aocccIcQcCbYc)c$c$c$c6c0cXcVc0cTcxb;b0bCbsbjbjb0b0b]cccpcwcGcVc0c4c7c7c)cRb3c&c3cTc0c0cUcNcIcCcrcxcrcgcxcpb~cicpcCcp",
"a;a?bRbcbcbJaqa!bIb~aQbUbFbNb1bXbObKbYbYb2b4bYbKbEbNbEbubqbqbFb%b?b*b%bObNbYb2bybTb%b4b2b9b8bFbxblbebdbcbka,a|bRcMbcaWa|b0bIb]b?aKbva_acaqacaua}cwb<b[cpb?bdb8b;b}cHaQaiaNasb$b0clb-alaDaoaJbIaXaJb(a}bRa}aKaqbvbkbRbybibtbtblblbwb;b(bibeblblbsbybYb%b%b\b}b=b.b4b-cpcCcyclcecEcxcdcgb]clc5c1bCatbkcgcpb{b}b}b}b<b?b.b=bCbIccb;bobob$bta}aIa(clb*b~crcpcgb~chclcicecqcxcucvcEcEcFcFcpb}b=b}b~b{b(b%b\b~crczcecrcCcGcKb\cvcrcucFb{b~cvb{bRbkbpb%cMbtbob$cccpc5cLa!b$bIamanabblc1c5b~avaXamazcqaSaxbIaDazaLaBamcdc6cualaQama?b[a)aOcVb(b~b;a}arcccMcvcMb%c)cXc1cXcXc3cXcXcHcucgb(b7bRbRbHbCb7cccccccwcwcEcTc0c5c6cNc,cXbJc!crcHcRcWcWcXcWcVcKcGcrb]clb\cgb2bHclcg",
"a?bHbcbdbcbCama(bOcxa)bRb2bTbTbTbFbFbKbKbJbXb4bObxbibebaa\bebKb9b?b\b?b4bYb8b=b-b%b=b+b9b8b8bNbEbwbvbtboa|bca`bDcNa}aWbkbsbNb]b-aLbva_afanakasbdcEb?b*ccb(a_b$cgclcCaKaka0avb%b8czb(alaJamaLbJaSaKb$boa_a_aKaqbobHbtbtbtbwbebsbkbebFb.bwbibNb8b3b%bYb4b4b*b=b(b7b-b[b}cecrcrcucvcCcQcvcycubSclc5cGa;aJb(cNcvb~b\b<b;b\b{b=b-b~b]bUb]b$bUbdaIa(cgb(clcucpciclchclchcdcvcCcrcpcFczcEcEcib~b=b=b\b2bFbXb;b(b}cib~cecucIcEcEczb\cecucqcucpb^b7bUbIb;cVbybdb]b;cuc1cGa!b9bCamalabblcQc0b8ata4anaBcqaSaxb0aEaDaLaBamcgc4cxajaLala<b\a*aOcQcub-b?a?aob~c&c$c3bDc)cVcNcIcNc5c5cKcCclb~b?b;b(b$b$bRb(cccqcpcCcGcLcXc4c5c6cxc6cEa)c1cyc$c$c!c3cVcVcUcGcub]b-b?bTb~cdb-cucg",
"a_bRbCbobdbIama)b$b{cCbRblb8b4bXbObTbKbEbYbObEbubcbaa=a=a=babFb*b}b}b\b%bYb3b9b[b\b{b*b%b9b9b%bXbwbwbwbwbsbsbobIcQa}aWbwb7bXb<b;aDbpa}agakalasbccGb~b{cpb;a}b7cgcrcMaQala3axb$bOcCb9ajaDamaDbIa0aNb7bIbvbdaKaqbobHbibwbCbvbkbtbibebsb9bIbkbsbNbObYbKbDbJbTb;b.b%b-b=cdb~cfcCcEcHczc1cyb\cKcyb[b9crc6cEa3a;b;cgb}b}b}b{b~b}b}clb]bXcgb{b$bvaKa3b(b[b~b~cecdcpclchcqcwcvcucvcvczcucvcycrb}b<ceb~b%bUb(b\b?b\b{b2b-b}clb~cib%bJbtb*ciczclchb^b-b$b\c1bya[cgcHcKcVcEa(b-bIaxanabbtcMc5byaua(aoaJcqaXazb0aDaEaQaDaoclc5cvamaQala;b\a;aOcQcLcvb\a/aucpc+c$c!cLcpcCczcycgb1bRbRbCbsbjbjbjbjbdbja?bdbdbjbUb7b0b0b]cdb]cgcucxclb%b?b{cdcucpclclb}b;b(b7bRb0bUa?b]b\b}cwcp",
"a}bRbkbobdbIaqa;b*bXb%cEclbvbFb9bTb2bTbFbJbFbqbqbabaa[a=a[a[byb%b~b~b\b&b2b4b4b%b%b=b<b4b9b.b*b%bObybTb*bRbwbHb0cGbcaWbHbObNb]b?aKbsbdagakakasa_cqb}b;cub?a;b0crczcTaWala4aIb(bXcTb*ajaDaoaDbIa3aKb$bHbka|aKaqbjbwb;bFbsbobtblbibibibRbUbsbtbNbJbxbqbwbFbYb[b^b.b.b~cecdb}cEcLcHczcNcLcgcrcCb}b}bYb9cLc0b]aIa;b?b~b}b]b[b;b*b{b(bHb]b7b0bCaNa3b;b}clb~cgcdcdclchclcycEcycucrcrb~cicAcrb\b{b\b~b{b9b*cecpcycub.b}b\b{bTbtbibabkbwbTb}cdcucib?b4cdc7bta?cccvcEcXcMa4b$bRazalabbtc6c$a*aEa*aoaDcpaXazb7aFaMa0aDamclc5cvaoaWama;b}a?aPcQcKcrb{a;arclc1c0c4c$c$c8c!c6c0cGcGcxb]b-b7bRbUb0bUb0b;b7b;cwcwcCcwcxcUc0c0c5c5c5c6c!c!c!c8c&c&c&c$c4cScTc1cxcMc1a;b$b9b0b{cl",
"bdbdb;bkbkbUasa;b$bOb2b4b}cLa_bCbXbTbJbybybybxbxbybybqbqbqbibSb[b~b}b=b-b4bObKbObNbFb?b<b?b\b.b4b1bTb4b-bTa|bHb;cCa}aWbdbUb0b~b<aNboa|acalakaqa?cNb{clcqb-a,bRcqcrcEa0ala9aKb;bXc$cpaiaEaoaDbIa!aKb7a_bIa?aKaqbca,b7bta|bababebtbwbwbwbtbHbUbXbNbIbtbIbRbTb1b[b=b^clclchclcxcNcxcKcXc5cucGcCchcLcub7bXbTcLc4b7axbob]b\b[bwb?b~b(bpbwb~bsbvaKa?cqb{cgb{b[b{cdclcccdclcrcpb~cgcpclcucyceb}b~cgcrclb~clcvczcHcub}b-b4b$a_a_bdbabobobDb{cccqb}bCbtb;cXa`a;b0b~clcTcGa(bRbkaDanabbtc$c)a*aEa,aqaBcpaPaIb$aIaLa0aJaob}cUclaqaXama!b]a?aQcQb4b{b7a/aob]clcucTc6c6c3c5cNczcCcXcNcvcvcicgclclccccb(b]cwcxcwcwccb-b~clcwcucxcxcvcNcXc6c5cVcXc3c6cWcGcgcwcpcqcTa(b7a?b0b0b;",
"bdbwbvbsbdbRata;b-bOb2b9b4cpbwbIbXbObIbDbEbEbEbKbTbTbNbObObTb9b^b}b}b\b%bTbqbia}bDb8b-b<b}b}b%b4bYbYb8bYb4b4bybOcGa`aWbsbvbHccccaPbobcadakagana;cScgcgcEb]a;b7cwcvcKa3ala!aKb(b%c,cyaiaLaoaObUa4aKb7a|a,a)aBatbkbka*a=a|a}bobobwbHbHbtbwbDbUbObJbtbtbFbTb2b4b=b~cgcgb~b~cpb}cEcgcvcTcScCcGcGb{b~b;bJbTbJbTb\cXc5bvaKbFb]bXbRb~b?bvb1bRbHbcaIa;cwchb}b\b]b}b~clcgclcgclb~b[b.b\cqcEczcgb\b}clcEcrclcecycCcKcLcxb;bObka?a_a,a,a/bkbyb*ceczclb\b=cdc5bja,b;b(b~cUcNa!b1bwaJanabbuc!c)a=aza,anaIcpaSaBb0aDaOa5aQaob-cScdaoaXama4b(a?aXcVcgb2b;a?aoccc)c6c4c5c4c6c8c3cxcrcccCcGcrb~b~cpccclccb;cxcGcGcQcNcGb;b;b$b7b;b{ccb]b{cEc0cXcLcNc0c6c5cMcib~b}cQcTa0b0bja}bCb(",
"bab7bIbtbkb7aqbkcgbJbTb3bTcGbUbIb1bIbybFbEbybTb4b(b(b8b9b%b9b[b^b~b<b?b4bYbNbsbCbKb8b$b*b{b}b%bXbObTb4b1bXb4bTb%cTa}aPbRb8bXccccaLbsa_acananaqa,cpb~cdczb]a?b7b{cgcLa!ala4aNb4b<c,cEajaLatazbwa4aKb7bHbaa?aBaqbjbDbababdbabobjbtbybybybybIbXb1b1bObDbDbTbYb&b\b~b{b*b%b2b{b<cvclb{cuclb\b~b~b4b4bTb2bUbOb7b4bNcNc!ana?b~b]b{cpclbCclb<bHbcaIa;cwb<b*b(b&b-b\clcdcgclclb{bya_b*b{cvczb~b*b9b\cvcqcrcrcEczcycycdb}cvb4a(a}a;a!a;a}bHbHb*cqcicuczcxc6boa!cgcCcucGcGa4bUblaMalabbec4c&a/a,aPamaEcuaSaxb9aEaPa4aLanb]c0ciaqaMaja*b?a?aQcTcTcHcqa`aob~c&c6c3c3c0c8c&c8c6c5c0c1cScGcvcrcrcgb{b*cqcqcwcMcScEcqb;b]b-b?clcqcucxcCcLcScXcWc3c0c0cXcMcrcicdcTcQa!b~b(bUb0b0",
"bcb0bJbybsb1aqa_b=bJbSbYbOcvbIb$b$btbubsbubJbYb8b%b;b+b-bObTb4b?b8b.b&bYbFbYb=b}b2bTb2b?b\b.b8bNbFbNb3bYbXbXbKb2cVa|aNbRbRbIccb~aKbsa}afananaqa,b;b9b-clb-a_b2b.cccua3ala!aNb%b~c,cGajaLaoazboaWaKb$bIbaa?aIaqbwbHbObDbcbcbkbjblbybybybJb-cdb=bXbJbybybIbOb.b=b[b;b8b1b1b}cCcHcXcAcrcrbTbJbJb2b9b&b&b8b8b3bNbKb9cEaxbdb~b;b[clclbwcdb;b1bjaIa,cpb9b0b8b2b*b{b~cdb.b8bRa?a?bjb$b{cecib\b2b3b-b\clcmcicuchbTbwb4b\b}b4beb9boa_a|beb9b9b~cucicuczcGc!bta*cccpcicEcuaXbRbdaQanacbic1c!aLa}a3aiaIb[aDaDb$aDaOa(aLaocgc7cpaoaLaia?b<a(a4cXcVcucla}aob~c0cSc0c4c4c6c!c6c&c7c6cScKcCcCcucicgcgb{cxcNcVcTczcpcwb]cCcCcwcxcCcpcGc0c5c5c5c3cTcUcUcVcGclceb}cNcQa!clcgb;b$bR",
"bkb7bRbvbobUaqa_b^bObYbYbTcCbHb0b3bxbububFbObOb9b[b^b\b\b-b8b*b%bEbEbKbEbJbOb.b~b.bTbOb9b.b9bTbJbKbSb8b8b2babTclcTboaPbdb0b1ccccaNbwbdafalataqa,b;b8b.clb;a<bYb=chcEa!ala4aNb?ccc&cGalaLaqaEbCaWaKb7a}bwa_aIaqboa_b~bOa`babsbwbwbwbCbDbTb*b{b?b1bTbObRbXb9b[b^b%bUbObRbNb4b~cvcicpcicdbEbTbxbNbYb&b;b.b&b%b2bNb]cQaxa|b~b;b*b~b-bjb?b[bXboaKa<czb*b%b&b[b{b*b\cgb*bDbsa|bIcdcucyb\b[bYbYbTb%b=b}b~b=b4bUbIb{cicrccb(a=b(bya\blbDbJb~cicvcub9b\cMc$bIa?bUb}cdcNcCaXbUbiaFanabbac0c$aLaLbIafaBb{aMaxbTaEaQa1aFaoclc!cuaraJaja_b;a)a9cXb}cpb;a_aob[b-b}cvcSc4c6c4c&c$c1cXcTcCcGcAcvcucub[b~cucQcScNcvcrcCcgcwcQcQcUc1cScXc3c3c3c3cWcQcTcScQcGcpcpb~cNcQa4b]b~b~cdb~",
"a}a|b-bobsb1aqa|cgbJbTbTbKb}bobIbXbybwbybybYb&b[b}b=b.b}b=b&b9bEbqbOb%bNbNbYb=b[bYbGbOb.b?b(b8bTbNbTb3bYbYbKbubTcTbiaPbobvbIcgcdaMbsbdafalavata)b7bIbYclb]a5bJb;b<cpa0ala4aQb%b-c8cLalaOaoaFbHaWaJb9bka?a|aKambsbva[bdblbibtbNbubtbtbwbOb3b;b&b3b3b9bXbOb%b\b[b%bJbDbDbJbXb4b\b2b4b%cpb3bJbtbNb9b-b[b\b]b[b4b4cgcVaxa|b]bkb0b]b-a}a|b-bHbkaKa4b;b8b%b%b9b8b=b-b&b$b$b*b-b\cdcrcpb;bEbFbTb.b[b+crcibYb.b}cucxcEciclb?byb\bla`bea`bJb.cecycyclb;clc7bHbcb;b2b{cQczaQbUbDazanaba/cQc8a3agbRaoaxchaSavbHazaMaXazaob<cTcgavaEaja;b?a;a4cQb~bXb-a;amb(cXcFcLcMcUc5cZc$c4cXcTcKcNcUcNcFcCcFb~chcEcScVcNcrcNcTcGb-cSc4c1c0cTcXc1cXc0c0cWcXcScIcHcGcvcpb{cVcLa4b]bCbIb{b{",
"bsb0bkbobkbUaqbkb~blbybJbycpbIb$b2bFbxbFbFb-b[b=b[b.b8b.b}cdb-bYb*b%b.b2bIbIb8b.b(bJb?b}b\b-b%bObGbSbYbYbYb8b%b.c1bpaWbRbXbXcpcgaLbobcaiaqaIaua,b3b-b.cub~a3bXb\b{cvaXala(aWb2b(c6cLamaMaoaDbvaMaMb9bXbqboaLanbHbNbsbtbtblbsbObwbybFbTb3bFbJbDbTb%b9b9bNb4b?b(bYb2b2bTbYb7b1bNbObTbxb2bJbYbybOb2b9b-b.b\b?b(b)cuc5avbkb?b(b4ccb(bcb&b0bUbcaNa9b7b8b3b%b2bIb4b(bObYb}b\b%b}cicucrb~b\cdb}b^b~b}b}b.b=clb~b}crczcpcqcdb~cqbFbablbibYb)b~czczcCcIcLc6btbicrcycucNcEaQbRbDavamaea=cNc6a*ada|a4avcgaSaxbIazaEaLaDaobUb^claLaBaja*b;a;aOcQcLcsb}a*amb[c6c0cRcHcTcXcXcXcvcXcScNcRcNcNcKcHcrb}cpcIcMclb;b;cdcgcpcucCcMcvcMcTcXcTcTc0c0cVcScQcKcHcKcycpb~c1cNa(b]b9bXb~b{",
"a}b7bDbibab]avbob9bebxbEbucub0bHbXbDbtbIbKb8b%b%b-b-b8b%b=b~b^bYb4b%b9b&b3bYbXb4b8b8b4b?cdb[bTbObSbSb8b3b9b9bYb9cXbwaXbRbXbIclcdaEboa_aiaqaBaua!bXb-b&cFb~a(bXb\b\cpaPana(a4bDb8c7cGaraFataDbHaWaWb$bRbsboaKalbsbIbobtbtbtblb0b1bEbybRbTbCbUbObNbYb%b%bNbRbRbwbybDbtbFbTbIbtbybNbTbDbta_bsblbTbXb3b-b-b;b.b-b+cvc5aBbob?b-b}cub$a|b]b;bNa}aNa,b;b7bXb4bTb2b4bYb.b9b.b~b~cicvcycycrcpclb}cecvcEcrcicvcycuclcrcycrcrcpcvcFb\bJb8b-b~b^ceczczcHcHcUcXbsbkclcucrcScGaYbUbCavaqaba)chc1a)agaIa|axccaXazbIaxazaDazamb0b-cpbsauaja<b]a*aOcLcHceb{a)aob]c6cXcXcScNcUcUcTcHcrcIcEcKcKcNcHcGclclcrcycHb(bIb$b*cCcrclcMcNcNcQcUc5c0c0c5c1cXcWcTcScQcMcEcHcvc6cTa3b(bTb]cgb-",
"bdb0bsbia|b9aubobTblbybubEb}bcbIbJbCbybFbNb2b8b&b-b3b8b%b?b\b]b9b9b%bYb8b3bYb3bTbEbSbSb3b)b&bYb3bYbYb%b%b%bxb0b~cQa}aXbsb1b0b~b]aLbda?agataxava,bUb9b=cHb]a<bTb[b;cuaQama(a9bybOc1cGazazamaDbCa0a0b7bibJa|aIalbva|b}bIbtbybEbXbXbCbJbJbJbTb9bTbNbObObybNbFbea|bkbdbabwbTbKbxbubKbFbla[a;a|a[bTb3bNbOb8b&b&b%b-clcXaxbscdb)b[cdbXa|b;b7bRbjaIa!b]b%b3b.b-b9b%b&b;b[b*b}chcpclciceb}b~b}b}cdcscEcHcCcCczcucucvcycscpcrcycFclb[chcucucecdcxcEcdcpcQcVbcbdb?clcgcGcya*b1bDaraqaba1b}cGaSaiala;aLb;a4aBbCavavaxatajb0b\cpb}aqaja_b]a*aNcMb.clb7a(aub;cdcycNc1cScTcNcScUcHcvcycHcKcRcHcEchcpcucxclb]b;crcHcTczcucNcQcTcScTc1c4c5c5c0cXcUcIcMcNcNcLcKcyc6cTa0b7bJb-b~b-",
"a|bHb;boa}b*aubsb(blbIbFbOb}a_bUbRbDbJbNbObXb1b(b9b3b3b%b-b.b&b-b%b4bObObTbObYbSbNbTbYb3b8bYb8bYb2b9b.b(b9bwbob7cQa?aKa}bHbRb~b]aQbkbkadavatasa;bRb9b-cCb-a;b0b-b.cvaWaqa!a3bsbJcTcvaMaramaDbvaXa0b(bdbka_aIambsbca|blbsbDbybJbJbFbObDbTbCbwbvbJbtbobkbsbcbcbda}babdbtbRbRbsbcbsbwbaa?a?bdbabwbHbCbHbTb2bYb%b-cgcTaxbwclbHbUb?bHbcbHb7boa|aIa(b]b*b;b<b<b.b\b?b\b[b-cdcrcrcib~b;cdciclcdb~cicrcucvcvcrcicicpcvcqb}cdcvcxchb=cucxcvcxcycHcLcib$cxc1a/a_b7b9b<cHcwa/b%bRamataba*cccEa/bwb$clcucxcCcxcMcwb%a}a(aqb7cucxcgaEaha|b;a5aMcCb0bTb0a_aBb(cLcqcLcVcTcScNcTcScUcvcCcCcycucrb{b{cuchcrcvcvcgcvcScTcEcwcLcHcTcScTcXcXcXcVcVcXcScEcLcTcTcVcKcxc6cGa(b?bHbIb~b$",
"a|bsbtbtbcb-asbdb9bibFbObOb^a}b7bObFbKbNbTbYb1b*b%b9b3b9b-b.b%b&b9bTbSb3b2bXbYb3bSbYb3bYbTb3b9b3b3b&b9b8b3b8b4b*cMbcaKbHbXbXcdb]aSbsbdadaKalasa,bscccpcMb~a,b2b-b\cxaQata(a4bpbJcScraYaramaJbCaQa0b$bUbsbdaJalbcbJbsbwbFbJbtbFbFbDbwbFbKbsbsbtbtbebebtbtbdbla_a|bkbobDbTbDblbebsbtbea[a\babdbtbHbybKbObTbOb4b4clc1axboccbHbob$bda?bcbRbCa_aKa(cgb=b=b=b\b<b\b^b=b?b;cfcicrclceb}cpcicicgb~clcececicpciclclcrclcpclcdcicrclcdcvcCcucycCcCcGcNcSc0c5a,a(b{clcpcKcua<b-bIamaxaba[cqcGa4a?bvb<cqcicicvcCcub1a4aWaob7cpcicca_ada?b-a9aMcGcHcvcdbaaEb(c8c5cScWcWcVcLcZcXcNcMcEcNcLcxclb$b-cdb.clb[b<b{cCcScNcMcxcGcFcKcScQcTcUcVcTcVcXcVcUcNcNcQcVcQcGcXcva,ccbIbkb-bs",
"a<b0bHbCa|b7aua,bybsbybNbTb{a_bobTbFbwbNbXb8b4b%b&b&bXb8b%b&b*b-bYbNbJb2bYb8b4b4b8bYbTb3b2b4b9b&b9blcdb%b%b?b{b-bCa3aQbCbwbwccb]aXbHbvadaKagaqaNa?bvb0clb7a;bTb(b[cvaLara(a!bsbTclb0a0avamaLbwaLaWbvbUbdbkaLaiaKbdbIbNbKbab9b.btbwbwbHbybsbybkbaa`a`bda}btbtbdbablbsbDbJbTbCblblbobwbka?bvbsbHbRbObTbJbwbObYbTb~cXaxbcb]b.b\b~bia,b0b9bRa_aIa,clb?b-b9b*b=b=b{b}cdceb}clcpcgb}b\clcrb~cdb}b~cdcicrcvcicpcececrcuchb[b*b~chchclcvcrb4cCcrcLcVcScubCaxa<b]b0b0cMcva?b;bRaiaxaka?cpcGa?bCbRb[clcgcgclcwcpb(bca(arb$cHcub7bIaba?b\a9aXb?ccclcpblaxaXb{cLcUcScdcgcCcVcZcVcVcLcpcpcub~b\b{b{b4b~bIbHb]clcKcNcwcdcucGcNcTcNcNcEcLcScXcXcWcXcQcCcEcLcHcEcXcva!clb7b9ccbs",
"a}b0bIbwa_b0ata_b(bJa[bTb(b.a<bwb%bTa;b-b.b8b*b*b?b*bcb;b%b%b*b%b4bJa*b{b%b%b*b*b*bybFb]b4b-b(b+b(bybXb%b=b*bCa(aIa4btbDbYbYb8bybkbRa3agaNacasa(aKaKaKa3aBbUb0b$b=cHaLara9a0bvbIcwb(a4aBanaua|a,axa_bIbIbta?aEanalaQbwb2btbCbYbObTbObTbFa_b;btbdbtbyboaXbRb$btbybDbybIa_b-b9bybFbJb2bIa4b[b2bTb1b1b4bRa_b~bXb2crc1aza_b(b.b{cdbCa(b0b0btbsaPa?cCb{b%bscgb{b\cdcrczcybucdcecpcicicrcrbyclcicqcxcEcKcvbDcwcicrcxcvcxbTbOcdb}clcrcvcub$b}cCcScvbkaNata4b%cecib{b}bObOb2a5aiauaka[cpcSbdbHbIb\clcccgclcwcpb(a<a(arb(cHcga;bvafavbUbvaWb]cEcxcib.a;alafaQb%cKcpb{cEc5c0c1c0cQbRclcqcuclcicdbabUb{cdcucvcMcQb%b*clcLcTcScScNbTb~cGcXc0c0c5cXb2cdcvcLcKc1cva,b$bXb;ccbI",
"a|b?bXbTbDb9aua;bIbwbwbdbebTa(a}bRbIbwbcbCbUbTbTbUbUbybabtbNbHbRbIbHbobdbDbJbUbJbObFbdbsbNbDbIbRbHbIbFbObja3aKa(bsbUbTbXbRbda_boa(asalaqaIabaKb$bRbIbHbCaXb7bObUb9cuaLava,aXbqbCcGb.aKaBaoaoalaBaPaNaXbdbUbIa_a!aQaoalaWbsbCbsbwbtbtbwbwa}a;bdbdbsbwbsbda?bdbFbybCbvbCboa}bobFbybHbRbCbjbobHbRbRbTbObRbvbkbHbHb(cxaNbkb~b<b=ccb$bdccb$bIb7a(a!ccb<b<b9bUb(b<b{b~crcpb~b*b]b~b\b<b{b[bXbyb4b?b;b~b~b}b$b0b;b\b\b%b%b0bwbIb(b1b(b[b\b{b{cgbHaQaKa;bNb{crcub{bsa;bda0avanakaxana`cwcTa}bIbHb<clcgcpcqcGcyb%a(a;aob9cwcda}bsaBagama!a|a,bycccGcvb(blaXaqajaXb(cpclclccb~ccb~b1bHb7b7b*b<b*bRbCb(b]b9b[clcgb{bRb;clcwcqcwcxclb(cdcqcucqcicpb.bTb{b~b~cdb}bdccb{b=cwb?",
"aKaWaWaWaWa0asatanaqamataqaqasasanaqaqasanaqaqaqaqaqasauasasasasasasaqasataqasaqasasauasasasaqaqaqasasaxaIa,bvbRbNb8bRbda_a}a5atalaoasalavaqaIbUbUbIbsbkaLb*bJb2b$ccaJaqa?aWbFbOcGb9aLb7aoaoauaoanaxaQaQaXa|bwbwbsbaa!axaqauasasasaqataqasasasasasasasasasataqaqasasasasasaqanaqaqanaqasasasasasaqasasasasanaqanaBaKaNa0a0a0aXaWaPa?a;a!a4aKasanaqaqanasaqasaqatasasauasaqaqananaqanaqasaqananaqaqaqasauasasauasanaqaqanananananaqasauaIaWbjb%b~crcrb]a_a(a,aQatataDavafaKasa`cCcXa*a(a}bUb1bUb1b-b(b1bHaWaBamb(cCb}a|cqa(amaraoaraQa9aWa/b(cib}b8bFa_aBauaBauauasanaqamasatasaqauasasasaxauasasaqataqasauaqaqanasasasauauasasaqanataqatauaqasasanaNa0a9a9a9a3a;",
"bka!a0aXaXa(aWaPaKaxa;aNaNaKa(a?aKa,aXaPa}a9a!a9a(a,a!a!a(a,a;a_a;a?a_bda_a?a;a;a?a(a;a}a,a?a_a_a,a,bjbdbtbIb2b4bHbca|a_a3asaraxauasamaiboaWaIa_boa}bjbda,b$bTbSbYclaPalbja3btbscgbCaxcga_ajaxaEaBaoalaxaPaPaWa?bybNbNbwbda_bvbdbdbda|a|a(a|a_a?bdbca}a;a|bcbababkbcbca_a}a;a?a?a?a;aXa?a|a;a}aXa(a;a(a0aKa;aXaWa?a;a;a)a,a?bdbwbRbdboa<a,a}a|a3aNaBa_aPaWaWa0a!a(a;a?aWbsa?a_a?a_a_a}bsbda}bebsbsbsbtbCbHbHbHbvbta_a}a}a?bkbobobdbsbUb1b=chcvcxb{bsa_a;aPauavaLaQaLauaka|aqa=cEc1aXagakabaqbvanaka<akadaiagaib]cNb~a,cVbIasauazaEaralaxa0a0a)bXcpcub~b-bIbCbUbsbsbwbwbwa|btbtbybybybHbHbsbwbka|a}bdbabdbkbsbdbdbobsa_a0a?a?bda(aXa;a(aXaKa;a3a;a|a}bIbHbdbsbRbC",
"b9b0bUbybCbRbobka}a(bsa}bibebIbRa?bUbsa}bCbwbDbybIbCbCbIbIbRbTbUbObObRbUbXbXbUbIbRbabHb$bIbXb1b7bsbob$bIb7bUbCa}a_a;aNasaxaJaLavalananaNbsaBaxa?b1bCb1b]b-a(bUbUbTb<aBaga_aKbdbkccb7aqbdbRaDaxavavavavaraqauaQaWaXa<bUb(bUa}b7bHb4b4b4bXa|b7bTbTb0b0bUbUbUbUb0b0b7b0bXbUbUb1bUb0b0bXbCbvbFbOb7bob7bUbNbJbcbRbIbUb%b8bXb-b?b\b~b~ccccb\b*b$b;b(bObIa}bIbsbJbOb9bXbOb;b]bNb-b.b=b*b;b\b<b{b{b-b.b}cdcib~cgclclcdcgccbIb-b?b*b{b~cdbDbIb=chcxcgb$bvbda_aKaqaxaJaBauasasaqa(boama;cpcMa!aqaqafaIccaLavbKaxamaqanajb]cTb~a,cccqa3aoaoaraoatamalaxa5a9a<b0cwcGb{btb;b0b~b~cgb<bwb}b<cicdb~b}b]b{b\b=b=b?b*b(b;b{b\b?b}cdcdb}b1b7b<b{bIbYb&b2bTbsbRbXb(b}clcrcdb}cgcub^",
"bda}a}a?a|a}a?a<a_a|bcbcbcbdbdbda4bsbsbobdbjbcbcbobHbvbIbCbHbka|bdbvbobwbHbwbwbCbwbwbibtbHbRbRbRbRbHbHbUbia/a}a;axalalauaxaBaJa(bebTbRa|a9ataxa,bwbvbHb(bRa;bRbUbJclaWaxa_aua?a|cGb*aqaQbib%b8bya?aXaxamananajamaJa0aWa;bsbda|bobiblbobHbsbkbvbwbkbpbpbvbvbobsbsbsbHbCbCbCbwbvbHbvbwbsbsbwbCbIa}b0bUb0bUbUbRbUb0b0b0bUb1b0b1b1b0b$b7bXbObUbIbDbDbDbybCbHbHbIbJbUbRb7b*b(b0b8b8bXb[b]chcrcrb}chchcucvcucCcMcMcCcMczcpb;b{b~b}b;b;b9bFb2b\bJbcbsa<aIaqamaoaoaza*bDb4b~clb2a<ala1clcvaSaxatakaKcpa0axbHaxatauaqamb~c1b\a!bIcCcTczb%baa1avalalaiakaxa(a;a(bIb(bXb1b;b<b;b=b.b9bXb;b;b\b-b$b$b0bRbXbUbRbIbUb0b0b0b1b7b$b7b7b9b9b1b8btb8b8b2b7bUbRbUbUbUbUbUbUb0b7b7bU",
"a<a;a<a;a;a;a,a(a(a(a(a,a,a!a!a(a!a!a!a(a(a;a;a;a,a,a,a,a;a*a;a<a;a,a,a?a,a;a/a/a?a<a<a;a<a;a;a;a?a_a_a<bca|aDamamaraJaXbtb1b%b%b-b.bObdaSaoaua9b7bUbIb~b0a(bRbUbOcuaWamaBaka}bdcEb$aBa(a_bIb4b*b8b8bUbHbeaYavamaianaEa3a,a;a,a,a,a<a;a;a,a,a(a(a<a;a)a)a,a,a,a,a;a?a_a?a?a<a<a;a<a<a<a?a|a|a[a[a|a|bababca}bca}a|a`baa_a}a}baa`babibebebebca}a|a[a}a[a[a|a|a|bca`a`a[a`a|bababibibaa|a`a}a}a`a|a?a?a_a}baa}a}bablbibibxbebca|a<a;a,a;a;bwa[axaoauaxa/bDclcCcKc1cqcqclbDaNala)cxcEaSaxaoanaKcqa4avb0aEaraxatamb]c5b}a!bUcxcEcCcCcrcrb}b7b0bdaLamanasaWa,a|a|a|a|a}a}bdbdbkbda|a|bca}a}a}bdbdbdbda}bdbkbaa}a}a_a|a<a?a_a?a_a_a|a;a*a=a[a[a?a/a_a_a|a[a}a_a|a_a|a|",
"aBaxaBaxaxavaIaWaWauaBaxaxaxavaxaxaxaxaxauavauauaWa)aWaxaIaBaBaxaBaxaBaxaxaxaxasasaBaNaBauavavaxaBaxaBaxavakamaqadaNbKbEb-b2bXbXb2bTbDbcaQamaua!bUbIbRb]bUa0bcbwbTb8axaxaKanbdbCcGb%aBa}bdbvbJb0bDbTb0b0bXb9bHadahaiafalaxaxaxaxaxaxaxaxaxaBaBaBaBaxaBaxavaxaxaxazazaIaIaBaNa,a3axaBazaxazazaxaxazaxazazaIaBaxa0a(aWaBaIaBaBaIaBaIaIaIaIaIaxaNa9a4axaxaBaBaBaBaBaBaBaBaBaBaBaxaxa9a?a9aBaIaIaBaxaxaBaxaxaBaBaBaBaBaBaBaIaKaKaKaEaIavavavamafalaoaha;czcicEcvcpcvb~b\cdblaKana*cEcKaFaBamatazb~aXaxbIaxavaBatamb<c5b}a(bIcdcvcpcrcdb^b]cpcxcCb;aiamaoahaoaIaKaJaLaLaLaQaLaLaLaMaMaLaLaJaJaBaBaBaBaBaIaKaBaBaPa_a;axaxaBaBaIaBaIaIaBaBaBaxaxaxavaNa9aNaIaIaIaIaIaI",
"aBaBaxauasanaIaWa}aqasauatauasauataqaqataqatataka)a;a?asaxaxaIaxaBaBaxavaxaBaIaNaDataxavalaqaqaqataxaIaIaBa<a_a<auaQa}bdbUbwb1bUbTbJbJbeaWaoaua3bHbRbIb;bva(bobIb7b7auaIaKaqa}bwc1b{aJa;a)bcbvbvbsbIa}b0a;bsbCaIa,a|a?aIaxaxauaxauavavauaBasaqamamamaqanaBaBaBaBaBaBaIaBaqaWa,bjatavaBaBaIaIaIaBaIaIaDaDaIavasa!a)a?axaLaFaFaLaLaKaKaDaJaBataWa(bcaIaWaWaQaQaWaNaNaNaLaJaKaIaIala_bdbdauaBaIaBaBaxavaxaxauaqaqanataoasasauaxaIaxavaIa4aLaIaxa;a;asa_b%bXb[b%cgclb[b.b}blaBaha#cKcTaOavatavavb0aKaxbwavaxaBaxamb?c0cca!bIclcyb^cgcdb?bscwbHb]b?aLa;a!aBaBaxauaxazaxaxaxataraoavaxasaqaqanaqaqauaxaDaBaxavaka0bcboamatauatauauataqauauaxauauasaka3a)a;ataBaBaBaBaI",
"a,a;a3a3a3aNa(bvboaDa5a9a(a;a0a,a_a!aXa4a4a!a0avbob0bpaDaNaWaWaWaXa0a4aWaNaIavava0bobda,aWaKaDazataIaIaxasaNaNaKala(b0bIbUb1bJbwbEbTbCbaaWamaBa?bwbHbDb[bRa0bCbUbUb7axaKaIaqa_bHcVb~aBa?bkbwbvbvbsbvbCbvbCbsbIalavaKaPaxaxaxaxaxavavatataraxaEaXa)a9a0aQaWa0aXa4aWaWaXaWava;bUbUaDaLaWaWaXaXa0a0a0a0a4aYaWaNaDbCbJblaBaWaSaQaYaSaSaSaWaQaLaza_bRbwaLa0a0a4aXa4a4a!a!a)a9a4a4aWatbRb]bRaFaWaXa0a0a0aXaWa4a/a=a?a[aJavavazaKaKaIaIavavaJaxatamavatada|b9bKb^b.b;b[b%chchbqaKafa=cNc1a1aoavaIaubRaDazbRaxaxaKaxamb]cWcda/bRcvcHclcsb~b]b0crb{b9ccamaIaPazaMaNaLaQaQaWaWaQaQaLaJaJaJaIaNa0a,a`bebaa|a[a;a*a4ava_b}b8aBaWa9a)a?a?a<a,a;a?a[a\a<a(aLbCbYbiaNa;a;a!a;a_",
"axavaraoamafa0bvbUarauauauaxauaxavauauarararaqaibdbRbsarazazaDazazazazazazazaxaramamaJa|bCbva}a4aJaKaMaNauaKa3aNana?b<b}b\bya|b2bIbsbNbeaWaoaxa?bIbsbwb]bUaQbcbdbtb0ataNaBaqa<bkcGb~aBa?bvbea;a(bHbUbkbXb2bwb7aXa}bva|aWaXaQaYaYa4a4a1a/a=a/a!aLaEaEaMaSa1aOaSaSaSaSaOaMaoa<bCbUaBaQaOaOaSaSaSaOaOaOaOaMaLaxalbwbRbFaraMaOaOaOaOaOaMaMaFaxaka_bUb9axaOaOaMaOaMaSaSaSaOaSaMaMazambIb*bUavaMaOaSaOaOaOaFaFazazaSbxbTb4bNbia;a;a(a!a4a4a(a(a4aJa(aWakbdb~crczbTbIcxb7b0b]biaWaia/cTc1a4aoaBaxaBb$aLaxbIaraxaDaraob\cXcga;bUcucNclb0cgcGb7cGcgb(clava!a;aLaXaWaQaKaKaDaBazaJaNaXa5a<a|a}a\a/a4aQaMaFaJaDaDaxaia}b&b-aoavaBaxaFaFaJaJaFaDazaxaxaoahbsbUbIajaxazazaxax",
"axaxasaqaqaka0a|bUavauauaxaxaxaxaxaxauauauasaqaia?a_boataxazaEaEaLaJazaDaDazaxazavaoalaianaxa0a3aXaWaNaKaua(a,aWana_b\b~b=bqaWa}a?bHbUa[aQaoaxa?bRbHbNb{bUaPa}a?bdbCaqaWaBaqa;a_cGb;aEa?bwbda)a9a_a}a?b(b*b(b;a0bjbIbCa4aNaKaLaMaNaJaBavatakaKa_a[bla;azaLa<a_a}aFaFaLaJaoa,a;bCazaFaLaQaQaQaOaOaQaQaLaLaJaxana_bcbwaxaQaQaQaOaMaOaMaJaDaxana<a}bUaDaQaQaQaQaQaQaQaQaMaMaMaMavambsbobRaxaLaLaWaXaQaQaQaQaJavaoajajamaDa!a?bsbCbwbtbebka?a;a}bva|axbocicKcxbOa4bHbCbRbHa|aWaia\cTc1a!akaWaraJcgaQaxbIaraxaEauaob]cXcra?b0cpcVcwbRbCb0bUcxcvcCcCa,bHbCbka)a9a(a,a,a;a(a,a;a*a)aQaBauauavaDaDaQaQaQaQaQaEazala}bvb0axaJaEaJaMaMaJaJaKaNaJaDaxasala|bcbDanaBaBaDaIaI",
"bYb3bXbObTbNbEbxbybybybDbObObObJbFbNbNbNbNbNbJbtbsbsbCbHbFbJbObRbObXbJbNbwbDbybybwbNbDbsbJbFbwbtbtbdbtbkaQb9bXbOaWa4b;b}b;bYbda|babRbJa[aXataxa?bvbdbjb$bHaWbaa|bdbsata5avata_a}czb-aXa|btbaa}bkbIbda?b1b(b\b$bRclcrcXb}bJbObTb3b9bYbXb9b7bdblcqcrcxb~bHblb~cdcvbNbXb9b8b9bSbJbOb8b9b$b$b1b$b$b$b4b4b(b$b4b4b8b8b3b3b%b)b.b[b%b?b.b.b[b;b+b.b-b9b4b*b-b;b}b*b*b-b*b{b;b+b\b\b?b4bTbXb(b.b{cpclcqcicicxcrclccb%b~b*bJbTbOb3bYbXbIbybubRbHbtcGcMcGbybyclcHcvb[bwbvbTb&bRa,aIaia\cScXa)aia,alaKclaOaxbwarazaLauarb{cNcpbeb8cdcCcxb~b7b;b9cHcKcScCb-cMcEc1b$bHbRbUbRb;b$b$b<b~b9b*cpcwcqb~b-b%b.b\b~ceb~b~b?b%b%b7b7b(b;b=b~b*b;b*b%b.b.b{b;clcpb}b]b[b]b\b?cdcdb;b\",
"a|a_a|a_a_a|a}a}a|a_a;a;a?a_a_a;a;a?a?a<a?a;a;a;a,a(a,a,a)a?a<a?a?a}a|a;a;a;a;a;a?a_a_a?a}a;a;a;a,a;a_a;aNbHbwbdaxa0b.b?b;bYbdboa}bCbJa`aQaoaxa}bva;bdb$bUaWbobjbsbDaxaXauasbobjcrb8aPa;btboa;bdbIbja?bRb4b?b9a3bkbHbRa|a,a;a_a|a|bcbjbjbdaXbab{b*b\bRa3a4b7bXb*a(a_a|a|a|a|a}a|baa}a}a}a}babdbabebabdbdbebebibibpbebebebebebdbobkbobobdbebibpbibdbdbebibababaa}bcbpbibebebaa`a|a}a|babkbobtbsbsbkbkbtbdbdbabtbHbcbcbaa}a}a|a|a_a<a;a;a,a(bUbRbIa0bHcvcEcvb4bsb0bRbRbIa;aIaia[cLc0a*aia;ajaJcgaMaxbHaraBaLaxatb;czchbcbXcgcCb~b(b-b{b*cXcLcScua}b0b7b7a_a;a;a_a_bcbka}bdbjbdbdbvbvbsbjbda|a}a_a|bda|bda}bcbcbebcbdbcbcbdbkbdbkbdbkbdbkbdbwbsbibsbpbsbsbobvbsbibe",
"akakagaiagakagakaiaIa4aWamamaqatataqauauauasalauaPaPaPaWaxanasanananaqanamamaqananalakacaua;aBakanakananalasasasada(b+b.b.bEa;bIbvbIbya|aNaqaBa_bCbdbHb(bUaXbsblbkbHaxa!axaubjbjcpbRaPa;bobHa_a!bHbvbdb0b4b%b7aealauaBanaiaialalalananananaca|b]b4b?boabarb0bNbXanaialalalalananalalalalanalalanananamamananananananalalalalalalalalalaiaiagagagakalalahaQa,a9a<bdaBaqaIaJaJaDazazaJauasaxasasaqaBa?a*a*a)a/a1a1a*a*a*a*aWaBaBauaja4a/a3aKaxauasahbvczczcibwa,b-bjbvbUa|aKaka/cCc5a*aia}aiaJcgaMaxbRavazaFavarb(cucpa|b$cpcvb{blb1b{b^c6cWcLcgaiauaKaNaxauaxaxaxauasauasasasanananananalalalalafatbcbvaKaianakalalalananananananalamakakaiakalakakakalanalanalal",
"aNaKaQa<a`bababaaObJcdb}a0aJaMa0aWaKaIaNaLaJaqa;b}b~b}b~buavaWaLaSaYaYa9a9a9a)a)a)a1aQajbscMb$btbIa(arauaoalalalada)b-b%b&b3bwbsbKbYbya|aQaoaxa;bHbIbRb*bRaNbda}bdbCaxa;aIaxbdbdccbRaQa;bybUbCbaa}bsbNbXb%b%bUakamaraxaEaJaJaJaEaBaBazazauakbib]b-b(biadavb7bUb$aDazazaFaFaFaMaMaMaOaMaMaMaLaEaEaFaDazaxavavaxaxavavaxaxaxaxaDaEaEaEaEavbTbFbta/azaEaDalb4cxcAcHcVbybOb~cdcicmcrcscLbRa;bRbCbsa}bRc1cNcIczcKcKcAcHcKcHcAcgbybIbCa1cTc0cKcEb4bobjaoa|cxcxcib<bJbca}bwb-bsaKaia*cvc6a)aiblafaDcdaOaxb0axazaLaxarb0cCcMa}b$cdcNczb\b(b^cicTcUcTclalaKa0aXa4a9a)a(a(a*a*a/a/a[a[a[a[a;a1aSaMaFazavalaSb-b<bdauaBaBaDaEaEaFaFaEaEaFaFaJaJaLaLaMaMaMaMaLaLaLaJaDaBauau",
"bCbea?a|a;aXaNaKaqaIa!a0aqanaqauauaxaBaBaBauaka,b7b4b1b;btaraLaLaQaQaWaXaWaWaPaPaXaQaNaqbccgbUb4b(bda5a!aWaLaxaxaha9b(b2b7bXbXbXbTbXbCa_aQaoaBa!bIb0b1b?bRaBa_a}bkboaxa!aKaubjbocgbRaPbdbybUbIbsbvbIbUbIbTb.b;amaqaqaqaqaqaqauauauauaBaxaualbdb\bXb2a?adarbUbOb-aQaBaBaBaEaBaDaDazazazazaIaIaEaLaLaQaSaYa1a/a=a=a[a\babababdblbtblbda=aMb\b}b;buaMaMaJalbHb~clcgcxblaXa}babkblbybybXa0aNa(a3aWaKa3bRbybtbqbEbsbabkbabda}a;aNaKaIaxb*b-b4b0boa_a,aia_cCclceb}b~b}bIbHb*bwaPaka)cvc6a(akbjadaxcdaOavbIauazaLazavb-clclbabOb=cNcNcycHcxciclcicUcxajaxaIaEaNaNaNaPaXa4a!a*a/a_a}bdbeblbiblbtbxbxbla9bycScVbYaqavaxaxaxaBazaJaMaOaQaQa4a4a!a!a*a/a[a[a|bebabsbCbwa`a[",
"axaKauaqaxaxaxaxaxaxaxaxaBaEaLaLaQaQaLaLaNaIaka3a_a;a}bCa<amaBaBaDaDaFaFaLaJaJaEaJaJaBanaIa(a4a!a<aLaPa0a(a/a)aQala!b9bUbNbObRbHbIbUbDa}aPauaxa!bIbCbUb<bRaxa!a?a;bwaKa0aPaqbobocxb0aPa;bjbRbRbobabCb1bRbHb1b;anaBaLaXa4aXaXaXaXaQaQaJaLazala[b(b~b9baalazbXcdb.a;a5a)a)a*a*a1a)a4a3aSaSaXaXaSaSaSaSaMaFaMaMaMaQaMaOaMaOaLaLaEaEazaxavalaxaxaxaxaoamakaba(bobkbkbNa*ahaoauararaoaoarakaiakanaiakamaoamamamarajalamaoaoaoamalajajajavavaratamamalabbdcEclb}clcicrb\b{b(btaKala*czc5a3ala_abaucdaMarbCaraxaLazarb;b{cdbcb2b*czcNcscEcKczcxb4cHcwaoaEaXaXaPaLaLaSa3aSaQaQaQaMaFaLaDaDaxaxavaqaxaBara)b\cgbFaWa,a;a/a[a`a}bda`bababea`baa`a=a9a1a)a)a4a0aWaLaBaqalal",
"a\a\a|a`bebabababababaa`a`a\a`a`a\baa\a\a|a=a9a)a*a1a)a/a|a|a`a\a`a`a~bea~bebaa`a`a\a\a[a[a[a\a[a\a/a;a?a3anavaQavaNbHbHbTb9b8bTbTbTbFa`aXazaxa(bCbwbRb{bRaua4a(a}bHaKaKa3anbtbCcxbUaKa;bebTbwbobJb2b%bXbCbwbdaxaIavalaEa;a_a<a<a|bea|a|a[aSa)bNb.bSbFa/a)bTbZb)bubEbxbybybybybtbublbtblbmbubububybubqbubxbybqbxbubqblbtblbmbubFbxbEbKbFbKbTbFbxblbmbqbmblbebea`bibybrbYbZbTbLbObFbFbybFbKbLb3b&bLbEbrbxbLbSbKbGbLbKbFbLbObTbTbTbObObJbOa/ajalaoadaQb=cdcrcvcycycechb.bya3ana1cxc5aWaQbcaxa0b-bca;bIa;a/a;aNaob7b9clbsb%b=cvcHcIcKcUcIcFcrb}byavaMaFaraWbwbFbybFbybFb%bJbFbEbFbybSbTb9b8bSbFbFbEbGbEbObFblbsbubqbxbEbEbNbKbTbTbYbSbMbNbGbSbKbSbGbEbEbybubJb2bKbG",
"bublbmbqbubububububmbubmbmbmbmbmbmbmbmbmbubmbubebebeblbla~bqbmbmbxbubrbmbmbmbma~bubmbububmbubublbmbmbebqbIbUa9alamaqauauaBa3a/a}bsbFbObda(auaua!a|bjbHb$bHaxa3a3a,bvaJaBa;albHbwcpbIaKa_bsb1bca|boa?aWaxavavavatamaJbobRbsbeblblbtbybubla~baaRaRaTa#bbbrbba~a:a:brbGbGbEbybtbubybubrbGbMbMbMbMbMbZbZbZbMbMbMbMbMbNbLbGbLbLbLbFbFbybGbYb&b&b!bYbTbKbGbLbSbMbZbZbZbYbYbMbYbYbObObObLbKbNbSbTbTb9bZbSbMbMbZb4b4bZbYbTbKbKbLbTbTbTbTbTbYbObTb%b9a\aoaiahalaraFa=bsbXb;b^cdb%a;aia9cpc0bqb&bCclc5cucvcwclcTcxa?a?avbvbXb{a}b-cvcKcHcrbNbua|a4aDavaraMaEa4bDb9b4b4b%b%bXb%b\b9b9b&b9b9b9b)b+b^bZb&b)b)b3bTbYbZb2b4bTb3bYbYbSbYbLbYbYbZbZbZbPb9bZbZb)bZb4b4bSbZbYb9b3bY",
"a:a~a:a-a-a:a:a:a.a.a~a~a~a~a>a~a:a:a:a:a:a:a`a#a#b4bGb&bma-a~a:a:a>a~bba~a>bma~a~a~a~a`a:a=a=a\aMa5bibubca|bRb7a;asamaQaLajakafagasa*a|a|avasaWaWa_bvb0a_amaNaPa)bcaBaBa_aibUbUb{a_aJa|bsa5aPaxagafalaxaDaramaLbwb2bva(bybybEa5a=a=a~a:a~a.a~bbbba]bfbzbgbBbzbfbmbba~aRbEbxbYbZa-a~a~bmbbbbbfbzbzbzbzbzbzbzbzbzbzbzbMbzbMbzbmbbbmbmbba~bmbrbrbrbrbzbGbrbzbMbMbMbMbzbzbrbrbrbEbibmcub~cmbmbmbrbrbrbzbzbMbzbzbGbzbGbGbEbGbFbmbqbaaObqbJbTbFbqb.b%a*aoajaoaravauaoataDa?b%bpaha[cxc7a|a)bcbJb]b~b4bNb%bTbcaKaNavbCb~b.a-cucIbKa0alataxazaFaSaMaza5bOb8bkbdb.cdb3a-bFbybGbGbMbMbMbPbMbPbMbMbMbMbzbrbrbma~aZb)b!b:bZa~a~bmbbbrbrbrbrbrbzbrbrbzbzbGbrbrbrbrbrbxbrblbl",
"b&cfbfbfbnb5b5a{b6b6b6bhb6b6b6a{b6a{b5bnbWa^a~a:a#b9bSb|bza~a$bWb6bQbQbQbQbQb6b6b6b5bVbgbzbrbma~a[bab%b3b]b;bHbkbIbUa_ataBa,aLaWaBacabata?avana}b0a,a;a_bCb;bva0a}b7boasa;afbUb$b(a?aIa_a?a5a;amaqatarataoaSbybUbsa;blbTb%bXb[a/bGa~bbbbbgbAa{b6bQbQbQb,b,b,b,bQb6bWbbaTb.b^cfb^brbGbfbAbnb5bQbQb,b,bQb,bQb,b,b,b,b,bQb6b6a^b+cscfcBbBbVb5b6b6bQcnb,b,cnb,b,b,cnb,b,bQb6b5bAbGbrbecKcFcHbzbZbVb6b,b,ckb,ckb,b,b,cnb,b`b/b/b:b.b3bcbFcdb\clcEcgbRb8b~buaAavaMaSaMaFavabaIa_ada?b]c1a)afa;abanb]aFambJaiafaoalaobcbRbHa)clbsa1aJazaYa1aOaxava!b8b]bsbsb&cpczcHcvbNbZb9b!b:bWcjckb,ckckckb,ckb,b,bQb5bAbra6cmcmcyb!bMbZbAb`bQcnb,b,b,bQcnbQb,bQcnb,b6b,b6b6cja^b}ce",
"bTbTaVbAb>ctctcJcDcDcDcDcDcDcDcDcDcDctctb#aCaTa2aRbEbabua>a>a&cactcDcDc2cDcDcDctcbcbbhaHa.a~a:aRaYa[bYbEbDb8cgcdb0bsbCb0a}ava!a!a3aWagaga(aBanbsb-bdbCbjbCcqbCaWb1b(a}axa,agb0b*b]a_aLbsbibaamaqazaDazaYbsbCa_a;blb1b.b.b%b4b-a;bmaZa6a~aVbWcbctcDcDcDcDcDcDcDcDcJbQaVaUbybYb.bYa~braybnb#ctcJcDcJcDcJcJcJcDcJcJcJcJctcJcaaVbGb!b:b^aVb6cbcococtctcJcJcDcJcJcDcJcJctcJcbb#a&aUa6a1bTbFbYbfbba8cacJcJcDcDctctctctctcocna%brbrbca1a\bOceb~b}b^czcTcGb]b\cqbNaFaDaYa!a*ataha|ata,b7c1a;aobOaxaxcgaYaxb;aoavaEauambob0b;bwb~bxb9aFaSaOazara!bOb%bDbNcgcCcrcrcrcAcubEa>bzbgbza^b,coctcJcDcDcDcDcDcDcJcbaCa]ayb2b[b.bza~bmaHckcoctcJcJcJcJcJcJcJcJcJcJcJcPcJctcaa$b1b*",
"a=a\a6aTaUaUawawa7aHa+aHaVa$a%aVaHaHawa7aUaUa#aGaMa1aZa/aZa6a7aUaHa$a%a%a%a%a%aVaVa+a7a.a6a6a#a-aFaMa/a*a)bsbJb2b;b*bUbIbRbCaXaKa(a(aNafaKaxaqbdb0a_bHb$ccb{bCaKa_bvaWaIa;ahbUbUb0a?aYbCbTaMaoaLaJa(bwbwa/a*bIb1b4b7b4bJbda_a`a;a\a-a#a:a.a]aVbga%a%a^a%a%a$a$a$aVaVa~aGa)a)a1a/a-a:a:a:a7a+aHaVa$a$a$a^a^a^bga$a7a.a+a>a~aUa#aTaZa:a2a2a7a7a7aUa+aVa$a$a^a%a$a$a+awa7aUa7a7a\aOara1a)a/a:bbbfa]a+a$bgbga^bBbgbgbgbfbfbma~a~a`baaXaXa|beblb$cdb}cxcScwb*b;ccbDaQaDaSaBagaBata;b(cCa0atbyauaBb~aXaLclaqaxaLazala|bCb7bJb~cpbEaDaFaxa?b4b7bkbsb~cGcLcIcAcfbTblbybmbGbrbzbzbfa]a]bfa$a$a^a^a^a^bga^bfbfa>aTa=a=a:a=a:a:a+bba+a]a]a$bfa$bgbga^a^bga$bfa$a]bba-aTa/a/",
"babYbmb!a:bPbVbzbBbBbfbPbAbAbPbPbBbMbMbBbFbrbEa~bKb)bua`bMbGbrbZbPb!bVb/bVbVb!bVb!bPbMbzbMb)bYb8b.b&bKczb~aXaXbabybJb8b\b$bUbHa|a3a;a(axaiacauaWa;a_bsb0bHaqaPa,a,bvauaxbdaibCbjb2bHama;b4aoaza;blbqbaa_bIbTb2b2bObeaXaLbsbDb3bYbNbYb&b!bZbzbMbPbPbPbVbVb!bVb!bVb:b:b:bPbYbZbLbZbMbZb!b:b:b:b_b!b/b/b`b/b`b`b`b`b`cBb/b!cmb!b!b/bmcib:csbPbrcncOcjcjb`b`cjcIcOcjcOcOcncIcIcncfcjczcjcscAcfb_cfb_cfb!cjcjcmcjcscjcicfb:b_b_cfcecicvcyb^cHcla[btb*ciclcecGcrb=b0b-bJaOaqagalaha3b0b{aKala,amaWcpa`aQb{alaDaMazambob;b]avb-cGaLaFbeb0bUbtbyb{cucscib~b&a\a*bZcAcscAczczcscAcAcjcBcIcncIcBczcAcncjcmb`cmcmb_b_b:b9b!bZb!b!b!bVb/b/b/b/b:b/b`b`b`b`cjcjcjcRbzcebLb+cr",
"a|bTa`a/alaXbaa)aObycda/bwbaa/aSb9bTa}bdbsboa!b;bpbXbIaQa|byb~babKbKbLa~b|bZbxbybEbeb&b]bKbSbEbybvb]bRb;cScTb}a)aQbsbJbyb]b;b?bUbqbNa4aLahabaxa(bIb1bXb\b7aKbob7b7claKanboaibka_b;b-adbka?aobXb%a<bRbHb*b;b4bIa/aBaLa|bsbybtbvb~b9bYbTb9bYbNbTb4bTbTbsbFclb3b(b4b3bib-b}babFbxbEa[b%b-babEbOb2btb~b:bTbXbYb9bFcpb[cKb9blbLbYb)b.bFb~b)bLaFaDcAb!cvb\b.clcscsb!cIcBcRcIcBcfb&crb~cycscrb*b-b-cecicKb[chb.cicfcscrcmbZb}clcrcscrcdb9czb=cxc6c8cubabeb[cdb-cvczcra|b.cda(ajaBaqa(b0b7aIaiaXalaxb$a3aubCaoaEaQazambvb.b9aFcNb(aMb-b(a?bRb-cEcvcib*bwaOa)bJcecKczcIcNcAcAcCcFb)cHcNcWcRcIb!cdczcUcNcrbxbZb\bybXbYbua[bYbva\babibya/bTbabeblblbma-cfbLb!b<b*a\b4bXb;b+",
"a,bIa,aLaiaQa`a1aXaWa<a!a[a*a(a0a)a0a;bvbca<a(a(a;b7bRaQbia=bwbibybFbEbibebubxbybubqbubObTbJbybta?bIbObEbyb4cNc6cxa(a?a4bUb0bJb;a(b0aXa!aqacasa!bRb0bUb;b$a(bCb$b7cpaPafbcanbjbjb0boahbRavarb1btaMb}beb8b$boaQaXa`bObTblbcbJbibObFbJblbIbdbtbTbTbFbybxbqb4b%b*b-b4bibabCa|bsblbFbea=a`beblbObUbybibDbtbFbTb)bFbtbNcpbUa_bUbUbUbCbsb}b7byaIaKcrb%b0b9b1b?b}cfb)b^czcKczcmcdbXb%b~ceceb}b9btbXb\b}cub4b?btb2b\b^cdceb-bTb~ciclceb=bwbXb*cdcdclcSc!cGa[bwbkb~bKcibibOb*bwakaxaraXbHb0aBagaWaBanb9aXavbHazaSaRazanbHbUbUa/cVbtaYb%blaQccbJb?bXbTaOa*bFb}crcxcvb-bJb}cvcvcvcxb*b}cLcRcub~bNbyb\cCcpbObsa|bIb1bwbJbva_a;a_bdbja`bla=a[blbaa`bebla`bLbXbLb4bIa,b9bUb*b7",
"a,a?bsaKaiaNa|a0a0aLaWa0aWaKaKaPa,a?a}a}a|a)a<a}a|b9bva*bibqbybebqbxbqbubtbtbubJbtbFb2b4bObJbFbFbDbtbDbybybtbdb2cSbiaNbCbsbJbqbYaXboaNa!aBagasa!bRbIbHb9b0bdbvbUb8cwaWana|aBbda?b1bsaobCagaBbRboaLb;bObobCaXaxbIb8b3bDbla`bTb~b\bFbtbsbJbdbFb*bUbFbwbybNb-b*b%b4b4bJbUbObkbsbwbwbobybjbdbobybIbybTbTbybwbOb4b4b2bTchbRa_bjb;bRbUbdbwb$btaPaKcrcgb=b%b$b\b\cgcuczcCcIcCcrcrcicpciceclceb~b{ceb~b(cdbOb~b*b*b%b9b*b?cecrcpcgclcicpcqccb~cdb~b}b[b=cSbRa=b}b.b~cEa`b0b-bwamarara0bUbUaxacaBaxanb7a!axbHaxaOa(aEambIb1bRa;cCbIaQb1bdaOcpclb.b~a/arb2cUcUcHcvclceciclcpcicgcucGcTcNcCcuceb\b=cpcEcvb{bNbtbUbDbvbobsbja_a}babibtblbdbtbta}btbybXceccb*bIbXbCa;bHbHb{b0",
"a?a_a0aKalaWbva<aXaXa(a_a|a_a?boblbwbibaa}a<a=a`boclbHbRbia`a[a=babea`babqbubqbubybTbObNbJbyblbtbDbIbtbubtblbDbFcpbeaWbCbJbTbvb9aPbHa!aQaPaiaqa,b$bsbdb?b;a?bHbUb8cwa;a3bjaKa}bdb]bdaEbtabaBbUbdaLb-bTbEbCaXatb$b;ccbXbFbOb1b}b~b*bybtbIbibFb?b$bIbDbFbOb*b?bTblbybObXbTa;a`bobwbtbTbsbabtbtbFbybFbJbtbtbtbIb2bybib-bsa;bjbIb0b$btbIbIb1aWaEcrcdb~b*b*b{cdcdcpcpcycHcycucpciciclcgcdclclb?b;b}b-b(btb\b(b*b2bNb3b%b}cgb~b~b~b~b}b^cdb=b\b;b4b4b\cxb2a\cgcececGblbDb}b$anaoaoa*b~clazabaqakalbRaQaubwavaFa4aEaobTcrb2a3b<bHaXb$bdaJclcqcdb\a[avb}c6c0cKcvcicicpclb~cdcqcEcLcNcEcvcEcGcyclclclcgb*bNbybwa|b1bIboboa_a_bdbsbdbia[bjbIblb4b9b<cicichb{b<b0a|b1a}b-b0",
"a;bka?aXanaNbIbsa,a!a,a;a,a;a[a|bcbvbibqbibebaa|bycGb9bUbybta\a[babaa=a[a\babibabqbububqbebebebibxbubibqbwa)bwb?cxbiaPbvbIbObsb7aQbRa<axa(agaua,b0bvbsb~b;a(bDb%b-cCa?a0bsaKbsbdb0bCaYbaabaBbUboaLb$bIbtbtaWatbUbvb$b7b7b4b-b[b-b;bDbdbIbyb1b(b(bTbFbqbNb\b-b%bFbqbNb(bTa=bablbtbyb4byblbqbebTbJbObNbDbDbybObUbkbJb0bva,bIb$b$b-bwb\b;bTaNaKchcdcdb}b{b}b~b\cicucxcGczcvcvcqcrciclcgcdb{b(b\b^b=b[bxb-b9bFb1b-b.b~b^b}cdclciclcgccb}b}cpcvbEa;b%cvbTa/clcdcdcHbybHccb*alamata/crcNaEanaKaBaKbXa[a(bHa?a_a_aPaob0cEb%aia(ava0b*bdaDb}clb^b}baazb}cecrcvcEcqciclcgceclcqcGcScNcMcEcGcKcucucycrcvcibDblbIbUclb8bXbDbHbda_bta}btbOb2b%b8b}cub<b$cvcvcgb(b1bdclb?b{bR",
"a_bkbca9amaQbCbHbka_a*a?a?a<a;a?a;a?babibibebaa[bwczb;bUbcbebababebublbaa\bebqbqbqbebabaa`bebqbqbua`bibibqbea[bicpa|aKbobDbIbjb$aLbHa(ava_atasa?b*b0bIb~b$a9bvb2b2cxaQaBbCaWa(a|b~bUaSa/abaBb$boaEb1bwblbpaJatbRb[b%b;b[b*b(ceclb%bTbdbsbtb2b-b*bDbtbwb8b~bTb-b<bqbqbYbya`bwbabibibNblbsblbXb.b2bybKbFbybObXb8b3b4cvbHa)bCb0b$b*bkb9bUbta)aNb{cgb}b^b-b%b=b\clcucEcHcucvcvcpcrcrcicgb]b9b%b.b^b[b=bKb9bubOb}bUbUbUbUbTb$b*b*b$b$b8b(b8aSbNcXbEbYcCbJa[clcpcrcwbabsccb7ajamaoa\cucGa!bsbkb&cKb^b%b]b?czcMbHbcaxb0cTb4aka3aqaWb;a`aDb}cdb\b~a`arcdc5cEcNcGcrcecpcicicrczcScTcUcLcEcxcEcCcxcucycvb{bla}bwbHclb(cucdcibTbib[b%clcIcLcNcCcdczcCcCcVcScxcvb{a_ccb;cqb$",
"bkbHbca(aqaNbtbUbtbaa|a}a}a}a?a_a<a;a`bibybtbtbia,b;b*a<bpbpbibea}bpbqbabablbxbqbubebabebibebibsbqbibibqbqbqbpbwcpbdaKaWb7b-a}b1aKbja!a?b7a,asa,b]b9bTcgb;a0bkbRbUclaKaKbIa0bjbHb}bRaMa[abaDb8biaFb;a|bJbcaBaqbUb}b[b^b~b\b[clcrb=b%bFbEbyb3b-b*bEbTb3b;b^b%b%b%bybtbTbwa*a|a;bebabdbabubFb}ceb2bEbObKbEbOb1b2b.b.cEbHbdbHbRb0b9bdb8bUbwa(aNb}b[b-bFb9bSbJb;clcrczcIcucqcpcdcpcicgb~b[b9b-b<chb}bYbeb8bcb0b[bHbCb-clb]b<clcpcecechb~cKaFabclb?b$cXb\a}bRcxcrcwbdbtb<bOajamama`cvcHaSa;bcbcbJbRbsbvbUbwbva;a3atb0cTb+aqaWaxaXb;a|aMcdbEclbJa*avcdc6cXcNcNcCclcucqcicucIcUcUcUcQcEcFcycicpchcpcgcgbUbIbHbwcvb\cucdcxb~b*cqcdcrcXcUcUcSclcucScOc0cVcucxb;bdcqb$cxb]",
"bka|bva9ataQclb%bEbebebebea}a;a)a;a[blbtblblbibaa/b=b;bCbObwbibibibibqbibqbxbybqbEbqbebeblbibibtbqbubqbqbsbubpbDcpa|aDa_a;bdblbJaBbka4bdb<a<aua?b]b9bXcuccaNa;a|bUcla0a;bHa0bdbIb{bUaDa`abaNbYbqaDb;bpa<a?aBalbUb[b}b~cgb}clclcpclchbYb%b.b=b;b[bDb2b.b]b[b}b~b*bIbDbXbla4a|babsa`blbebubXb%b8bObFbxbubqbybOb%b*b*c1bRbCa;bCbUb7bibebIbva)aWclb&b&b.b.b8b%b8cdcvcrcucucxcrcrcrcgb^b^b=b}b.clcqbsb;anb0cpb~cub{cdb^b}b=b&b*b~clcgb}b)cwa)ajccb9b.c1cca`b{b4b=cxa[bwb;a_ajamama[cxcQazaMb]a0abbIaxaia}alaqasalalbXcSb}aWaIaxa!b[baaMcub8a`bwa5avb{c6cNcKcMcCcrcvcvcucHcLcScLcNcKcHcyclb~b=crcCcHcKb{b4b~b?cQcucFcHcLczb2cgbycicXcVcWcTcQcLcLcTc3cZcpc1cqa_b]a3b~cp",
"bCb0a;a5ana!cpcpbJbpbdbdbobda_a?bdbdbsbsbwbtbwb(b8clb$bHbYbubebebeblbqbxbybFbObtbJbwbqbxbybxbxbxbxbubxbubva;b1b;cpa}aBbobEbNbobUaBbsa4aBa;asasa(cdb-b8crb~aIa?bsbUcpaKaBa3aBa_bvccbXavbaabaQb0biaJb;bJbyboaBambUbsb-b;b~b~cpcxcCcgcrb}bNb-b[b{b*bFb&b}b=b8b-b}cdbXbybXbla)a?a|a}a`btbqbxbibubYbYbFbtblbwbNbOb2bXb%c5bvbsbRbUb7b$bwb;bCbwa5aQcpb[cdcpb~b}b~b~cgcvcvcucucycvcAcuclb}b}b=b.b&cdb]bvcxakbRb]b{cwcrcxb[b;b~b~b}b~clb~b}b.cxa<alb?b7b$cQb~a_crcrcicwa;beb(bIadamama[cxcNaIa|cXbCamcpa!atbCavaSaOavajbRcScdaQaxaIa4b{beaMclcgb%bUaWamb]crcwcucMcGcwcvcvczcLcVcWcQczclchcrcgccb~cxcxcEcCcpb{b\cicQcKcHcKcKcubOb{b4cMcZcZcScScXcZcUcSc3cZcLc!cwa|cxb-cwcc",
"bIb$bca(ana,cCb~b8bDbdbsblbia}a|bwbpbwbJbDbNbNbNbsclb]a0bYbxbqbqbubxbxbxbFbNbFbqbTbFbxbxbEbKbKbGbybybKbybwa[a;bCcqbjaBbdbJbTbobUaJbHa)aza;alasa;b<b(b4cpcgaqaKa_btcgaLa|bja3a_bvcvb8aobqadazb0bkaXb~bIbybsaJalbRb^b-b~cgcdclczcEcpb&b^b8b[b[b[b]bYb.b\b~b~b~b;b1btbibybia[a|a<a|a[bpbibDa}bwb4b.b(bTbObEbXb%b*b4b%c1a}bcbUb-b;b$bJcgb0bva4aLcpb=b{b<b{cgb]b]cpcvcucvcycCcvczcvcrb~chcdb}b;cucFcvcGa0a}a3b0b-b9b1b=b~cdb^b}b~b~b\b3bFcxclb]b-b7b$cXb~a_cdcrclcua)blb8bUafaoala<cycQaDa,cSbHaocga;avbHaxa1aOarajb2cQclaIaua5a5b~blaMcgclb-b0aQajb{cMb%cvcLcKcvcrcrcEcKc1c0cWcRcCcxcycrcdclcCcvclcvcib<b\cxcTcNcKcLcNb=bycucecNcXcVcScHcXcTcNcEcKcEcHc+cEbsc5cccQcl",
"bIb$a?a!ama4cMcvbFbibebtbubqa_bcbxbEbKbNbObTbEbqblb{b.aJbxbwbxbubybybFbybJbObJbybYbYbybybFbObSbNbJbJbybqbwbsbybFcwbdaIbvbybObvb0aLbCa(aLa?amaua}b]b(b8cpcgaqaNa;bJcpaXa?bda!a,a}cub&ajbuahaxbUbdaQb~bYbFbCaJambRcicpcgb~b~cdcycyb.chchb.b^b~b^b]b4b(b;b^b\b}b;bya`blbibebtblbwbla|bebeblbxbyb9b[b.b-b4b4b%b)b*b*b*cXbcbcb$b;b[b;bHcpbUa_aWaIcCb=b}b~b}b\b~b\cgcrcucrcgb~cgb}cichclcgb}b{b\cvcHcEcxa<b1a?b~cvb\b\b\b\b^b}b}b}b2byb7bcb}b}cpb*bXb%c1b<a;b~cdb~cga!bwb9bHadataoa/cHcSaza;cGbsaocca,azbsaraXaJatajb-cEcdaLamaQa(b~byaOclclb*b8aOajb-c5c1cXcTcLcEcrcvcGcLcUc1cXcTcNcQcEczb~b\b~cxcucGclbHb%cecTcXcNcScVcdbycCcycTc0cZcZcWcQcNcNcEcEcHcTc+cxboc6cgcTcq",
"bvbobRa!aqaIbXbObabaa|bcbibubaa`bybxbFbYbNbKbxb8b}b{b]axbFb.bJbXbybEbObTbOb3b3bNb8b]bYb3b%b%b8bYbKbxbEbqbqbebsbDcpa|aKa_b-b~bvb7aLbwa(aQa!anata<b~b*b9crcqaua_bIb0cra0a;a|a(a,a|cwbXahbualaxbRbcaQb~btbTbjaNalb0cpcpclcgcdcrcvcvczczclcdb=chclb;b9b}ceceb9b4bYbEbybtbababea[babxbebabibibFbNbqb9b.b%b?b;b+b9b9b+b^c7bvbjbCb;b]cdbIbRbUa;aXaBcxb=b{b~b{b{b}b~cdcicrcub]cdcpclciclcrcrcpclb~cEcEcCcEblb<a_b\crb-b+b\b[b=b}b}b}bybJcla<b}b^b~b(b0b1cTb;a,bHcgcgcga;bFb[b2adaxama\cNcQava;cQbvatcqa(avbRaraSaMavajb~cCb~aOakaKa,b~byaSchbKb8bCaXajb-c6cVcXcVcNcIcxcEcKcKcGcNcTcEcLcLcIcEcpb*b-cGcLcLcpb1b(b?cRc4cRcrcUclbXcxcyc0c0cWcWcVcLcxcGcGcHcCcLc)cCbvcMb0cycN",
"bkbCa_a0ala0cdbObsa}a|bJb8a9a,bdbXb]bDbNbubxbxbxbebOcCbDa*bTb9bFbObJbTb2bTb%bYbFbEb[b.b9b8b8b9b3bTbFbwbFbya[bJb8cla_aQbca}bIbHb$aWbHa(a0a4amaqa;b{b?b4cwclaxa(bobocpa!a,a;a4a;bjcrbTafa}atavbRbcaOb}bea/a}aJalb1bNb}b}cdcgcicvcuclcfb;b-b?b\b~b?b*b{b&b9b%b\b%bTbFbibcbibka?a[a`bibebdbibJb*b?b;b=b%b^ceb(b9b(b[cdc7bCbCbUbCb(b;bTbJbsa?a4aIcuchb\b\b\b?b;b[b~b<b.b~b}cucucrclb~b~cdcgcpchcCcKcKcGblb;a/bYb[bLb9b\b=b\b^b^b}b;bJb0a}clcgb~b1bUbUcTb;a\b%bFb.cra?bwb;bXadazaia/cCcLava,cNbkarb~a1axbRavaOa0aDalb;cCcdaQaiaBa(cdbwaOclbJbebIaXalb9cvcNcGcKcLcNcLcMcxcEcGcvcIcKcHcEcEcHcKcCcHcvcucIcCb*b~crc3c7c6czcTcpb;czcHc0cZcZcLcscHcKcKcHcKcLcQc4b-bCcCbCb~cN",
"a_b0a}aWaia)cgb2bva}bka}bNbebsbsbNb2bybDbsbwbybDbwbtbFcgclbybtb%bXbObTbTbObKbyblbybTb(b4b9b9b3b9b4bUbTbObNa|a}bIcga[aJbIbTb7bIb7aWbHaXaWaNanana;b;b$bYchb]a3bab?b8cpaXa(a(a0a?bvcybYada|avavbOa|aJb<b(btbsaJamb-crb.cdclclcdcrcib}b^b3bYb{b{b\b-bXbXb1b?cpb\bJbTbNbqa`bibtbybDbtbtbtbibebEb9b~b~b}b+b4b$b4b-b&b;b^c1bHbCb\b<b(b-bOb~b7a?a(aQcEcdb}b{b\b=b*b=cdb~b\cgb\b=clclb~b=b[b}cgcicrcvcGbvb]aWbTb[bXb-bUb1b.b-b{b}b\b}b~b\b~b}b-a?aPb$bwa}cNb1a/clchb}cxa}bvb[bRadaLafa`czcNara(cMbdamb]aQarbHaoaLaSaDalb;cCb}a0ahava9b~btaMclccb*b%a9aob%cdb-clcCcycEcCciciczcAcNcScScQcLcGcLcHcLcScvcqcScGb+b4cvcZc3c0cUcScrcmcTcVc0c0c1cScEcKcNcKcMcIcScWc$clboc1cCcGcQ",
"a}b7a|aWanaWb{bXbHa<bsbUbIbUb0b1bUbRbDbNbJbwbDbJbTbObUb1bOcvcvbFb2b?b8b8b3bYbOb4b8bFbXb4b7b(b(b;b9b4b4bTbTbTbybycpa|aDbJbXb*bRb*aWbIaXaKaIakasa_b*b<b-ceb?a,bHb]b-cuaQa,a0aWa?bscEbUaba,aLavbIa|aDb;b$bFboaKaob(cNcxcrcucucrcrb~b=b}b*bXb$b;b*bTbJbJb*clcxb\bFbTb4bwbebqbOb2bIbybtbtbtbsbDb(b*b;b+b\b%bTb%b9b8b%b}c4bIbsb*b*b$b*bUcdb-baa;aNclceb\b\b?b(b+b}cgcdcgcub~b$b}b~b{b<b\b\clclclcicxa?b0asbRb{b8b&b%b}b.b-b<b}b\b}b~b}b~cCcGazadb-bHbdcTbUa*cdceb}cpbcbFb[bHaha0ada`cvcSaxa?cpbsaXb\bda!b0aWaXa!aLamb]czb}a*aiaua,b~btaMcgb~b.b%a*arb*cUcCcEcEcIcRcub}b\b}cecvcGcLcLcTcLcLcGcLcQcxcycTcEb}b*cdcVcLcVcKcScNcTcScWcWcXcXcWcNcNcRcHcCczcNcUc&cpbocTcxcQcG",
"bob7bdaPala(cpb8bUa_a<bUbUb-bUbUbIbRbHbHbtbHbDbDbHbIbybRbUbsb=cMb^bubXb;b9bObFbKb%b%b<clb\b(b*b*b%b4b4bXbNbObJbFcuboaIbIbXb(bHb$aWbRaWavasagasa}b(b<b.clb%a?b9b-b(craNa;aWaWa_bCcCbIaba?bdarbHa_aDb[b-bFboaIamb?cTcvcucrcpchb~b}b~ccb~b;b*b4b$b1bNb9b%b]cucib<b%b(bKblbabibebybdbabyb2bOb4b(b*b-b;b}b{b4b9b;b*b(b~cEbobsb$b$b;b;b9cpb*bva?aNclb}b*b=b{b9b-b{chclcicxclb^b~cdb}b{b\b~cccgccb~cgb9cga4a<a9bvbva?bdb2b=b=b\b{b}b;b;b<b{cCaEacb$b9bJc5bNa/clcdcdcpa}bOb[bjaka0aba/crcNa4bUbab-cvb%b9b;b[b=b;bda}avb7b?cebHaiasa,b~blaOb~ceb\b(a;aob9cTczcvcCcEcicucqcqcicecicCcxcGcLcQcQcLcEcKcxcgcCcrb-b\cdcScSc0cXcScTcTcScScXcXcTcTcKcvcycCcxczcIcTc&cxbvcQclcGcw",
"bcbcbsaPala9czb-bIbsbibTb8b9bJbRb0b0bsbobpbsbtbNbybDbybybIbybEbYclcybXbwb%b%bObybJbFbDb-cpclb<b(b$b1b%b9bYbKbObTcua<aBa}b*b{bob0aPbHa!a;a,aqasa}b*b\b9b?b0a;b3b8b7cpaLa?aWa0a|bCcwbHabaXbHarbDa|aFb2bybXbsaDamb?cdcwcpclcgcpclclcgb{b}b*b;b+bybJb7b(b8b&cdclcgb?b4bIa\a=a|a=a|bibebibDbybXb}b;b+b;b^b[b9b9b8b9b+cgcdbcbRbcb0b-b;b]b0b$boa;axchb[bXb\b~b1b3cdclchcgcgclcgceb}b\b=b{b{b~clcecgcdcdclbqb8a9b$cvb%b2b4b2b%b(b.b%a;b~cMb(ccaKaKb$bDb%c6bla;b0cycpcca_bJb[bsamaXaba/cucMava;bja|bkbwa|bpbJbca|a0aIatb1bYb]bwalana(b\btaOb-bXb?bFa*aobXcNcCcicvcrclceb}cccecicxcvcxcEcMcLcQcVcLcGcvcpcvcrb\b~cFcNcVc0cLcGcdcTcQcScXcVcTcTcCcEcicvcvczcvcHc!ccbwccbdb{cq",
"bobUa(aPalaWcub&bIb0b*bUbUbRb0b$b7b1bwbtbHbtbtbIbJbNbJbDbJbObIbObRb2clcubRa}bRbRbFbybtbob8cpb~b.b*b%b9b8bXa}bRb7cwa?aKbdbcbUbyb4aWbsa0bIbHasaua}b$b=b?b[b1a(bTb9b8cuaNbcaXaWa_bscCbUafaxbdaxbIa|aFbXbebabcaDaqb(b;b9b{cgcgcgcrclcgb=b<b?b1blbIbIbOb.b.b;b}cdb]b;b9bHbobcbebsbea`baa|blbybybTb\cdb~b}b-bNbXbXb-b(b^czbdbHb;b7b{b~b~cub7bsa4auclb\b7b~b~b-b%cdcgcgb~b~cccccgb~b\b\b{b{b~cicgcgcdb}crbEb=b8a}b7b*b;b\b(b<b$bdbHbRbHbCbIbIbUbUbwbNbYcGbva(bvbtb-cga}bFb[boaiaIaba`cqcMamaQcGa)ahbHaoaib7avaiatamamb(b{b\bHaIala,b\bda1b.bwbea}aXaob8b[b[b{cqcpclb~b}b~b~cecvcvcCcEcMcNcNcLcLcLcCcvcucqceb}cwcGcLcTcLcNb]cNcNcQcTcTcTcNcQcNcGb\cCcMczcvc7b-a?cqb$cpcw",
"bvb0bcaXalaPcrb&bUbIbRbUb;b(b]b0b;b{bIbIbJbwbsbHbIbRbKbybybNbTb2bYb%b}b-cEcrbkbvb9bRbIbCb$b~b;b;b3bYbYbObObYbybEcMa|axbHbIb$bDbNaPbvaWa,aWafaua_bUb\b[b=bRa!bDb8b2cpaJbdaWaKa_bocxbUaiakaDaxbHa}aEb(b8bFa[avajb0cCclclcdb}b~clciclb?b4b*b9b&b(b8b%b;b[b]b^b.b.b.b(bXbybtbibqbqa\a|a=bcbvblbFclcvb\b?b-b3b%b&b%b.b{cEbvbCb\b]b~clb~cub?bCa4avb{b~b)b^cdb}b{b~cccccecgcgclcgcccgb}b~cccgcdcdcdb~b~cHbXcdb}b.bNbHbRbIbHbDbCbwbybHbtbvbHbRbRb1b*b;b.cLbsa)b]b%b\b~a}bFb.a}aQa!aca[clcNaoa/c5bdaob%aDarb-aBaBaXaxaob]cib=bcavaka;b=bia)b}cdb4bDaMambYcEb~cicpclcgcgceb~b~cecqcucvcCcGcIcHcEcEcHcHczcucpcdb~cucCcGcCcGcXclcKcTcTcVcTcScHcKcLcMb]cHcMcCcxc1bUa(ccb~cxcg",
"btb1a|a0anaWcwb;bObFbHa_bwb;b7bHbDb~bsbIbNbFbsbobDbFbCbCbFbYbTbTbTb-b}b9bXcgcGcqbRbobXbTbXb}bUbRbEbEbGbGbKbNbFbJcxa_aBbIbXb7bwbIaKbvaBaJaqabaua,bwb-b9b}b0aXbIb.b1claKbcaXaKa;a}cub1alajaiaubybaaFb-b-bEboaxaib7cxccb^b^b~b~cgcrclb<b1b]b?b%b%bOb1bUbSbSb.bTbyb8b%bKbda|a|babaa?a[a|a|bsa?bJb&b~chcdb%b3b3b9b-b\b.cXb$bCb?b;b\cdb;cub(bJa0avb[clb=b=b}b9bOb&b=b}b{cgcdcucrcpcqcgcgclcdb}b}b~b}b}cKbSclb}b[b.b-b%b(b4b4b%b(b$b&bYb-b-b%b*b&b.b-b;cCa;a(b~cdb}b]a;byb9bkb0bIana/b~cMaja,c1bsamb;aDarb;aEaLa!aEaob?cxb}boaEafa,b}bwaOb~cpb-bCaLalbIcGcvcrcpcicpcrcecececlcpcecpcvcEcGcKcGcGcCcGcKcKcGcpcicucxcLcTcNcNcvcNcUcRcKcrcvcvcEcKczb9cEcGcxczc5b7bdcqb?cqb~",
"bjbCbvaPasa3cdbObNbFb0bIbFbXb%bDbsbCbwbobCbwbtblbsbJbDbDbSbYbNbKbDb9b(b1b%bTb+cCcKb.a,bCbYb8bKbybFbybFbJbKbub0b$cGbpaQb0bTb7bsb9aNbsaDaJaqadasa(a!bUb$b}bRa(bNb%b$cqaKa;aKaqa}a;cub7amamafaubSbaaDb[b%bEbiazagb0cgcrb~b~b~b~cdclcgb;b&b]b[b&b$bya[biblbDbObObtbXb(bFbtbda}blbla|a|baa\bebybublb2b?b(b&b)b%b3b+b}b+c6b;bJbUb$b*b]b-bYbJbJa;aQb]crb\bIbXbybXb2bdb7bXcgcdcucgclcucpciclcececdb}b[b{cEbOclb~b=b.b-b8b9bYbTb3b3b%b9bXbYbYb-b.b.b9b-b{cEa_a;b~b^b\clbebub&a?aBaKaba\clcCajbccXa?aob{aDaxb7azaQa*aFaob]cLb=bvaQada(b~byaOb{ceb+bFaMajbRcEcEclclcvcxcqcecececicucqcrcvcvcuczcEcEcCcIcNcQcGcxcvczczcHcLcScCczcHcHcKcEclcEcEcGcHcCcecrcgcucEc6bRbob;bHb(b0",
"bjbIa,a3aua,cdbFbDbvbvbJbDbtbIbHbsbsbibebybwbobtbIbIbJbJbTbObObJbCb0cxcEcwchcxb;clcMcEbCa,b;b2bvbEbEbubEbJa/bsb$cCbja0bvb?b;bobHaLbsaIaBaqabasa,aIa_b(cdbUa!bvbsbHb]axa9aBaibka?clb4amaoagaubJa}aDb-bTb-bIaxaibRbIb0b?b}b{b{b}cdcgb{b-bRbcbRbDbFbvbsblbtbJbFbybObXbFbIbtbtbwbaa?a`a`a<a}bvbRbFbJb.b8b4b-b9b&b[b^b=c1b$bvbkbob]cdb3b[bTbXa)aQa,a;a(a,a9a9a;bdbtbUbUb7b?b]b2bUb0bJbSbTb%b2b2b%bUbTb(b2clcgcgb$b1bUb%b3bYb8bOb8b3b%b2b0b%b?b;bwbCcccGa?a<bUcub.cgbcbxb[a(aoaBaba[cxcyajbcc1a?aqb~aMaDb0avaQa;azaob]cQb-bHa0aba)b=bEaQb-b*b*bwaNahbIb]b)b*clcqcucrclcrcrb{b~ccccb?cqb(cdcpcccHcKcQcTczcCcGcZc5c5c4cUcQcKcGcGcNcTcTcQcHcLcFczb%cEcucrcCc5bUa}b;bdb7b7",
"aNa?aPaNala?b=bSbHbdbcbcbvbsbkbobtbkbia`bibCbFbsbEbFbEbEbJbJbNbNbTbFb3cKcyb^crb-b}b2b4cxb?a9a9aWa4aKaQa0a5a5a0a9bobja!a_bRbUbsbCaJbkaQa4aQabaqa,a0a;bRb0bdauaNa9a}bUava?aKanboa?chbTamatafavbFa`aDbYbqbxbdaxalb7cub\b[b-b=b^b}b]b;b8b.bXbobHbva|bFblbqbFbTbwbvbDb8bXbHbtbybJbqbqbqbia|bcbEbNb~b*b8b&b%b(b4b4b*b\b=c6b$a}b3b=clchb)cHclb.bUb%bqa|a|a*a<a;bwbXb;b{b\b~clclb~b~cfchb~cdclb}b~b}b{b}b^b}b~b~b=b[b%b%b-b3b8b%b8b8b%b-b-b%b9b%b%b%b0b(cGa*a;bcb%bNcda`byb3a*aoazaebacNcEaia1cGaQatb=aDaDb7axa1a*azamb;cSb%bNa!aba,b}byaLb7bCbvbcaLalaXbEbcbsbCbIbIbcbeblbwbka}a}a}a_bsbRb1bUbIbXb9b9b$b$b<b{cccgcgb]b2bXb9bObDbUbXb8b8b2b2bUbJbdbobtbwbHbkbsa3bobca}a!",
"a}a_bvaWaca;b]bYbwbIbCbpa|a|a_bcbdbUbobdbibibCbvbobUb2bwbJbTbFbDbIb-bTb(b~b(bXbNb2b%bEbyb.b]bTbHbUaWbob1b7bIbCb0cCbCa3bRbJb9bHbHaIbda(bCa;afaqa3a,bjbjbRbvaqaKaNa,boaxbobdaBbca|clb=amaraiaxbya`aOb&bSbebdaEamb0clb?b4b8b.b.b7bUbwbcbXbUb8b2b8bObCa}bebFbUbXbIbRb.b%bTbibObTbObEbxbqbibabKb;b[b-b$b(b8b%b8b;b[b|b*c1bUa?b3b~clcpb.cKclb[b0b7bRb*b-b(b;b*b?b<b?b<b;b\b\b{b~b]b~ccb}cdb^b]b[b;b^b=b[b^b{b{b;b[b-b%b8b8b8b2b(b(b;b.b;b0b%b.b;b.b?b<cCa)a}b~b-b<cla\bEb8biaraIaba\cNcIaja*cSaNaub;aDaLb7axa1a*aFamb*cNb}b0a?aba;cdbKaEb;b{bUbRaJambdcMcLcEcxcMcqbdb-cccqcvcxcgb[b0b-b-b-b<cqclb$bUb(bCbRb}b\b[bXb?b{b\b~crcucdcdb}cgb~b{b~cccvcrcycvcvcvb;ava|bvbCbs",
"b-bUb~bHaea!b]b0a_bRbRbsbda}a_a?a)b;bkbkbkbdbsbva_bCbUbsbwbybIboa}b$bIb1cdb%bRbdbRb$bqbxbybJbJbJbsaKbob;b*bUbIbUcwa_aPbHb7b(bvbwaKbsaNasaqabala,bRa}bjbIb0b7b1bHbRb$a|a3alaubcbscib?amatafazbJbiaFb-b4bybdaBakbwb?b(bRbIbHbHbRbda(aWa?bvbJbybwbvbCbCbybDbNbTbDb4b<b(bXbJbObObTbJbsblbsbybJbTb;b~b$b*b[b.b.b*b(b\b&cVbsa|bUb;cdcub%clcuclb(a|bIbwb$b?b<b\b;bTclb*b?b=b<b;bRcgb]b~b{b~b~bYb;b~b$b;b;b\b7bwccb(b9b9b9b2bsb{b$b;b[b%btccb9b[b]bUbRb~cxa,becpcpcdcda=blb4bearaIaba/cGcyajaQcTaIaub.aDaDb0auaXa)aDamb=cNcebRa?aba(b;bwaLb$b*b?b0aJambkc0c4c0cVcTb$a,a;bIb]cvcub{bIa;bIbUb1cccNcScgbtb*b(b<cgb{b?bsbHb{crcCczcvcub<a}b0b;b<b}cucEb~bUb{cvcUb-agbUcwcucl",
"bRbwbsbvasaKa!a0aWaIaPaPaQaNaKaKaIavaKaNaQaQaxaBbcbwbIbwbtbsbIbRbFbibIbOb2b]bTbCbtbsbybybJbObObXbRa0bcbUb9bYbXb$cCa)aBbCbDbObvbUaNbCaQaxaIafala_b;bHb7bjbNcpb{bHb$b;bsa;aqaNbjbHcFcfalaoafaxa}a;aFb.bYblbaavaibvbscdb0bwbca|a?a?a!a0aWa;a_aQa}bRbOb0bFbybwbybHb$b<b7bHbvbpbCbNbTbybwbFbKbTb2b4b4b8b(b[b;b-b%b-b;b=cUbvbvbsb0b}cyb0bUbDb}b~b?bUb*bIbRb$b(b7bobNbXb-b(b.b-bJbUb.b\b\b?b?bUbwb9b*b(b;b;b8blbIb7bTbXb2b2bsbIb9b(b-b9bdbIb1b(b*b1bkb9cwa`bab~b^b.cda`bwb4a_aoaKaba/cNcGalaIcSaKaob%ararbRamaQa)aDajb}cQb{bwbcaba9b%bFaWb$b8b2bUaJanbyc4c7c4c0c1bUaWbsb<b~clclb9bRbva}b(cxcGcNcLcxb7b1b~b{cdcdb\b~cdcla}a<bca|a_a?a0a0a,a;a?babdbja?a_babja(axa<bUbXb2",
"b(b$b9b7b0bTbRbUbUbUbUa;bCb0bObKbJbJbwbIbHcub0afa?bIb;bobCbwbHbHb0bXbyb0bUb}b<bRbybtbubybybNbIbRbRa3bHb-b7bHb$cccEa;axbjb7b9bwbRaPbwa0axaIahana_bRa,a;a;bIb0b0boa_b0bda(aqaKbobHczcdajamakavboa|aMb%bybua}aDalbdbRa*a_a(a!a;a|a,a!aWaWaWaXaKa(bRbHbIbRbIbtbabtbRb?b*b(bUbIbIbybFbwbCbXbTbTbYb4b$b4b7b;b=b8b8b=b\b=cTbHb0b$b?cdcubvb{b%b8bUb<b-b%b{b2b2b8bTbXb1b1b9b$b;b[b^b-b-b-bXb.b{b<b;b[b(b-b*b(b9b[b}b-b2b(b.b(b-b9b$b7b0b$b%b0bUbRbRbRbUb*cubIa/b2clb]chbqbxb8baalaxaba[cScNaraWclbda(bRa(a(bHa(a/a|a4amb]cCb;btboaba;b*bDaQb9bUb(bCaEarb$cXcMc0c1cXb$aIb(cucpclb<bCbCbvbvcccVcTcCcGcubjbobTbTb~cqclbUclcxa!aLb-b;b-b]ccccb<ccccb(bHcucqcrcucucGcxcqcpcqcx",
"aKaNaNaNaQaQaPaWaWaQa3aNaPa0aPaNaKaKaBaqaXb(b(aibCbobobHbRbIbDbIbOb9bNbJbTb8cgb(bJbFbJbJbDbDbHbHbwaPb]b<b1bobtb$cGa!axa0b7b7bcbsaQbCa!asaBakaqaNbdbCbUccb;akaBaWa?bIaPa|asaIbjbHczcfajaoamaLbya`aAbYa/bJa/azama?baa*a0aWaWa_bjaPaPaBaKaNaWa!a!bIbva|a}bjbsa,bIbRb2b%b1b0bObJbsbsbybIbXbUbKbOb4b*b*b*b4b=b+b+b[b.b[cCbCbIb%b]b~cpbTcvcgb~b}cgceb~b~b}b~b}b^b}b}clcicucvcCcucrcucvcrcqcqcCcHcNcNcLcIcRcKcKcZcxcvcycucgb~b~b{cdb\b.b(b(b*b%b4b;cpcpcXbXa9a[cpb%b=a`byb-baalaDaba[cScGa1b(bHb<cKceb\b~b4cvb*bka_arb;cqb1byb8afa;b<btaOb2a}bRa?aJarb?cNb7cGc5c6b;aBb-ccb*b$bUbCbda;bwcwc0cXcXcCcqb-bUb1bCcqcvcwcib<cEa3aXb;b7a3a(a;a?a(a,a(a!aXa!aWaWaWa0a4a0aXaWaWaP",
"bdanaqbdaqasa}aqaxa}anaBa;aqaKa;aqasaWaBa3b;b7agbIbUbIbTbIbHbybEbJb2b7bRbXbOb;b7bwbDbHbCbybFbCbsbjaBcxb{bIbUb1b$cEa5aDbvbabFbsbvaPbva(aoaIakasa3bHb1b$clb]asaWbdbCcga;bcasaKbebDcUcsajaoalaLbxa[aAbMbqa-a/aFajbibsaLaNaNa(a?a0aPaKaKaKaWaNaKa3a,a;a_a3bjboa_bpbXb1bUb9bFbCbtbebibJbObIbtbjbRb$b*b(b9b3b%b?b*b.b;b^cHbHbIb-b(b?b}bDcgcrb~axaNaLaLaPaNaWaWaLaLaLaWaQaQaLaQaNaLaLaLaLaXaXa(a!a*a/a4aYaYaSa5a4aQaLa<a}a_aNaBaIaIaIaxaBaxaBaBavaLb^b[b*bFbcb^b8b.b-a*byb:boamaDaba[cLcGaza!a_a?a}a|a,a,bda,a3aNavaob]cCb4bIcwaja1b*baaFb.bXbtbiaFarb}c!cVc1c0c6b~aXbUb$bUbHbCbobsbyb<cLcVc1c1cMb*b~cebsb?cvcpcrcrcucGa4a0cvcdbHaWaKasa;aBaqa,axaqa_auana?auasa}auaqa(",
"bHavaBbIauaBbHaxaBbvasaPbsaqaNbjasaIaWaIa(b-bHagbsb1b$bCbNbJbNbTbXbTb9bXbObTbTb{b0bwbsbwbybDbCbsbjaKcgb~bCbCbFb%cza=aLbHbIb7bEbqaWbwa*ajaLajaxa;bCb$b$cgb?asa9bcbHb}a(a<aqaBbdbtcUcjanaoajaFbFbaaObrbra~a=azaha=a/b(a;aKaWaKaBaIaKaKaKaBaIaNaNaPa0a(a|bIbRbkbdbIb7bTb0bCbsbsbibCbUbXbIbybIbTb%b*b*b*b(b1b&b;b.b=b~cEbcbUbob-b<ccbTcucHcdabaiakakaiakamaqananavaxaoaxaxaBaBaBaDaFaDavaqauaoaxaxavararavazazaralaPa?a,avatazazaxavaxaravarajamb+b}cebNa*b;b^b*b.babNcdbwajaIaba\cGcSaEacaNa?aia(ahakb0avaiavamamb[cCb%a*ceaja1b+a\aOb3b9b2bEaFambScVcLcQcXc6cwbjbRbHbobjbdbvb1cqcVcVc1cVcScxcecdcCcucucpcrcvb}cgcCa,a0cxcub7a}a0asbjaXaubdaNaqbsaxaqbkauaxbHaIaua_",
"bRaBaxbRataBbHasaxbCasaNbvanaNbjasaBaWaKa(b-boakbdbjbUbCbUbUbXb%bXbFbUb(b7b1b1b(b{bIbybIbCbHbCa(b0aWbRb}btbabab%cKbaaxa*a_a,bubTaSbDa_aiaSadara:bybXb(cgb]aKbcbvbDb~a,a!asaBbdbFcOb`amajalaMbNbia6braRaAaAaoama=a,a_a(aLaKaBaBaBaNaWaIasaKa(a_a;aNaKa|bIb0bCbDbJbwbsbHbca?a;bdbRbTbTbTbTbObNb%b%b*b.b&b%b-b&b?b\b]cxbdb0bobob$cgb0cucEb^aLa?a/a(a)a*a[a}bqbubqb.bHaoaJa4a!a4a*a*a*aramauaDaQaOaMaMaMaYa9a1aMaqasbHbvaoaLa*a*a)a1a)aSaOaxaoaob%cecibYaAa-a~aZbGbZbGb=bvahaxaba=cEcKaMajaLb.axbLavavb7avazaQaoaob.cxb%aScdaja1b;bia=bFa#a-a6araobzcLcEcMcNc1b{a}bsb7bdbtbIcwcLcLcVcVcXcScLcGcEczcCcEcvcEcxcpbtbHcwa;aXcpcxb(bta3axbva!aIbHa3aBbIaPaubCaKaKbUaNaBbj",
"bHaxaxb0ataxbHasaBbvasaPbsaqaPbdaqaxaWaNa;b*bCagbHbIbRbRbUbUbJbTbRbCbybXbXb%b;b*b]b1bUbIbRbIbIbca;aKbsb-bobabub+cKbbaTbfbga+b!b!a1bKbaada1afarbfbKbLb9czb]aWbkbvbxb.a(a!axaBbdbOcIb`ajaoaoaAbMbia6bzayapa6aAaobbbHa[a;aWaKaIaIaBaIaNaPa0a0a;bCa}a3a_a}bjbCbda?bkbsa,a|bHbva,a,bjbDbTbObXbOb8b-b*b.b.b&b)b-b-b;b^b]cCa}bRb$b*b{ccb2cpcEb=anaBaxavataqaxaIaBaKaQbdcqclaKaxa;a[a}babda*aQaQaOa*a4a9aLa?bablbea;aqaIb$b7axa4a`a[a=a/a=a*aMazaoamb)b|csb:a7bAbAawb_b:bmb:bxafavada[cqcCa)araFb%aDbXavaxb0avaFaQaramb-cwb4avbZajaZb.a~a:bZa+a$a2aGazbfcGczcxcqcxbta,a}b$bvbtbRb<cQcpcQcXcNcTcScLcGcGczcxczcCcvcvcpb}cCa(aWclcMb{btaPaxbHa3aIbHa0axbRaNasbRaKaKb0aNaxa}",
"bvaKaIbUaxaIbRaxaxbCaxa0bvataNbjasaBaWaKa_b-bwagbRbUbTbObJbJbwbCbHbHbCbRbXb2b;b~b\b9b0bHbRbXbTbwa|aQa;bRbsblbib8cBbfawa8c9a{b!b/a1bLa`adaSajarbgbZbYb4cQcwaWbobIbXcla;a4axaBa_bKcnb/ajaravaAbMbxa6bBa%cDa&apaoa>bIbIa|a;aXa<a,axaKaQaWaXbvbvbqbqbtbwa;a)bHa;aXa3a(bjbjbHbUbdbtbabHbHbHbRb-b%b8b-b.b)b3b%b<b*b-b\b^cKa|bCb[b[cdclbTcicyb-axa?bea|a?a_a?a?b$auabalaBb1cMbIaFa4a)a;a?a4aFa5a4aMaXaXa9a;a=a;a)aMagaxb?b<aFa9a;a=a/a/a/a1aSaMamalb9b=cmb`aVbQc%a&b/b/a~cmb%ahazada[cqcvaOamaRb&azbNaoazbUaxaSa)aramb9cpb4arb!amaTb|a\a2bPaCc2a^apaGbfccb{b\b]cgbvaXbdb;a}bcbIbvcccCc1cTcCcpcCcxcucKcGcvcxcxcgb$cgb-cpa!aPb~cwb{bHa0aubHa,aKbHa0avbIa0axbRaPaKb0aWaBa_",
"bCaIaBb0aBaIbIaIaIbHaKaWbCaxa0bjauaBaPaKa_b1bsaibwb1bRbHbDbJbCbHbRbRb7b1b*b-b-b-b<b-b$b1bTb8b0bJa|aQa;bIbybqbab)cnbfaHbnc(bhbAbVaZbua9adaRamarbgbMbLbHcMcCa0bHb0b8b]a0a0axaua_bIcObWafaAaravbzbGa7bga8c%a{apaGaTbib~bwa`a4bwbUa!aWa4a4aWb$bHbsbtbHbva0a0b9a_bdbjbvbIbsbwccbIbHbHbCbRbCbdb[cdchb^b]b=bRbCb]b.b.b[b{cKbcbIb$b]b{clbKchclbJataLa4a4a!a(axbIb{bIaIa4a;a[bTcMbCbdbsa|a/a*a<a?a\bebqbibpbibtbebea=aLa_b<cwa|babybwa[a5a)aSaFaraoarbZb~cjcja%ckc*aCb/b/bfcjbYafazada/cecCazahaOb9azb$arazb0axaFaLaoambTclb4arbAaja6b_bma+b!bhc(bnapaUbzcdbYb$b\b~bsaKa;b$bdbsbIbsb{cScXcScCcqcGcGcCcCcrcqclcpb*bCb7b0b{a3aPb{cwb]bCa!aKbRa}aNbUa;aKbHaWaxb0aWaNbUa3aIa}",
"boaKaIb0aIaIbRaBaIbIaBa0bsauaPbdasaBaWaKa|bHa_aka,bRb0bRbIbIbIbwa}ccbHb0b(b(b$bUb7b~b?b-b1b$b;bsbRa3a;bRbDbwblb<cnbgaVbnc%bhbAbVa-bra1adaOaraAbgbrbrbHcGcwaKbHbUbYcha0aWaIasa\bKcOb5afaAavaAbzbma+bAaCc9a{awaya7aRaRa#a)a/a5a1a;a)a*a5a)aQa0a*a=a<a)a!aLaxa0a0a4a0a3a_a?a|bdbca?a;a<a[a<bdbIbFbEbDbDbva|a}a|a<a|a|bHa?bUbIb$cdcpbKb~b}b%a<bpbxbybKbKa)b-b;b;babFbRbDbqbYbObJbNbxbubybFbNbSbSbYbObKbTb2bTb9b9bEb&clcvbYbYb-b*bTbqbqa[a*aYaDazb&cfb`cja%b#c*aCb`bWbMb`brafaraba/b?cHazadaQbEazb=aFaNb7axaraxamajbOcpbZavbBajaTb!bfa]bWbhc(bnaHa7bAcxbIb<b\ccbCaxbHb0bdb(bCb7cEb{cqcEcQcTcScScLb*cgb~ccb}b(bRbdbHb7aNaXcgcGb{bHa(aKbCa;aNbUa;aBbva3aIb1a3aKbUa0aKa_",
"bvaBaBbUaBaIbRauaBbCaxaWbvataNbjasaxaNaKbdbRa;aka,a?bdbobkbvbobja3a;a|a}bkbvbsbja,a_bvbwbdbjbja_a0aIaQa;a<a|bmbKb`a+a%bnc%bha^bWa-braZadaAavara^bMbGb2b~b{atbvbXbTb~aJaBaNasa`bKckb`ajaAaoarbfbmaUa^aCc(bhaHaya2aRaZaDazaAaYaOa1aYaSa4a*a<a9aYaSa4a0aQaMaNaWaXaBaBaLaLaWaXaXa4a4a5a5a5a0aJaWa!a(a(a;a;a;a;a!a,a;a0a|bOb[b}b;cdcubEcdcdcdalaDaBavararaoazazaxataxaxaxatamaMa)aMavaeakavavaBavaxavatatatatatavaraMa0aOatarararatavazavazavamarb:cmb`b`a%b#c*aCcjbWbPb`bmadajaba[b}cuavadaJa|azb.azaFbXarajalaiahbyclbNaAbzahaGbVbza+bVbhc(bnaHaUa+bZbKbLbGbXa<auaBa!a?bRa}bCb7bpa?bUb$b;b;b]b-a}bdb$b1bUbwbca_a?bHaIa4clcGccbHaWaxbCa(aIbRa4axbCaWaBbUaWaIbRaPaBa_",
"bCaIaBbRaIaIbHauaIbHaBaWbsauaNbdataxaNaIa,b]b0a0a;a?bvaKaianaqaqaqakacasaKaNaKaPaKaBaBaIaxaBaxaxaIazaIavaBaxaMaRaGaUaVa8c%a{bgbVa6bbaOadavaAaAa%a/bebsbCb]axbUb9byb{aLama3aubib0cBbVaraAajarbfa~a2bBaCc(bQaHapbVbEbGbqbqbibDbXb2b0aBaNaNaNaKaIaKaNaQaKaKaIaXb0bobwbsbybtbybJbIbTbRbRb1bCa;bdb3b%b9b%b%b{b-bsbvb?bNb.b?b<b[b[b]cpbJclcpclaEa/a=a/a1a1a#a1a1a-a}bda\a/a1aMazaYb4cdcpa_axa!a;a\a}a`a|a[bebia|a|a`a/a*a*a=babaa1a1a)a/a1a1a1aDarb!cyb`b/a%ckc(aCb`bWbzb/a-ajaOamava<b]aLaIbobwa?b4a!a[b1a/a*a;aBajbHcgbFaAbfadarbPbra+bVbhc*bnaVayaGaAaAaAaEazaQaMaMaLaLaLaXaWaWa0a0aPaNaPaKakagakauauauauaiaKbIbda_aKaXb{cMb]bHa3aBbCa;aKbUa,aBbHa0aKbUaWaKbHaWaKa}",
"bCaIaIb0aIaKbHaIaIbHaBaXbsasaKbdasaBaNaKa(b{b;a,bsbCb$a?axa0a(aWaubsa(aXb1bobUb0bIb;btbwbvbsbCb0bHbobvbIbIbHbNb*b/bBaHa8c%bhbgbAa6a:a:aZaOavaybgaRa\bUbHb1aWb7bTbtb{aXana,aua`b3cnbVa2a7a.aTbma~aUbAaCc*bQaHaybBbxbmbebxbEbOb2b%clb]b;b2b7bUbwbsbCbIbRbIbHb0b-b-b$b8bTb8b%b;b.b^b{b]b<b;bHbvbwbobvbibwbUbUbUb$bUbUb0bRbObObNbRb;b3cucwcpaDa;a=a[a\a=baa`baa`a[a/a[a[a*a)a)aOaFcdcUc5b<aLa9a|bobybybybJbFbEbybubqbea|a[a`bia)aOa9a-aYa1aSaDaob&cfb/b:a%b#c(a8b5bVbzbPbma-aOajaxaPbUa}bOcgcrcucub7cpcUcQcHb;btarbycrb3a:bMa2a:bzbba+bWbhc*bna%aUa+a~bzbJbObXb2bIb$b7clcxcqclclcpcGcwcxbUcqbUa,b;a3a3a|a}axa!clb4bOaWa4clcNb{bIa(aIbwa,aIbRa(aBbHaXaKbUa3aNbHaWaIa_",
"bsaBaKbUaBaBbHaBaBbCaBaWbsauaNbjasaxaNaKa3ccb;a;bsbHb;a}aKa<a?aWaqbCaIbvb-bHbwbDa}bkbvbHbvbsa;bjbcaDa|c5cEbsbTcCbfbfaHbAc%a{a$a^aZa:a\bza:aAaya^a4a|b;bHa?a!bTbwbtb;aMaia3asa[bYcBb`bfbbbra:bmbraUbAaCc2bhawaGa]bubMbia`bca<a<a*a5a}bJbsa?a[bpbibCbda_a_a(a(a;bobDbDbUbIbsbobsbpbka?a3a;a|a<a,a;a|bda|bcbvbJb2bUbHbKbqbwbkbdbCbwb9cvcGcGaIa,a;a*a;a/a/a?a!a}b^cdbea9a*a/a\a`a;aIb%cxc5b}aXa_blbtbwbwbybEbxbibea[blbda`a`bia[a/a/a*aMazaualalb)cfb`b/a&b,c%a8bVbBa]bbbmb:braRaXa}b[a|bybXb-b(b=b\cgcrcvcfbTbtaAbNcrb9bbbMbza>bba>a>bVbhc9a8aVaAaybub!bTb}c,cxbab[b]b*cwcwcqcgb<clcEcxcgcxcQbdb7a,a(bobCaLa!cpb7bTaXa!clcMb{bRa3aIbHa;aIbRa3aBbIaKaubRaNaIbIaPaxa}",
"boaIaBbRaBaBbCaIaBbsavaNbsasaKbcasaxaNaIa*cgb(a9bsbyb(baaWbda?aXaubvaKbRb0bRbHbHbObNbTbXbJbObCbwbdaKaQb-bRa;a/bNbfbbaHa&c9a{a]bfaRa:a:bLa~aAaybga`a/bob;bsa,bFbtbib[aKala3akbqb.cOb5bma~bma:brbra2bBaCcDa{awaGbfb|b+bYbSbSbSbKbFbEb3b=cpb~b4b-b[b\b(b1b0bIbwbXb\chcycxclb;b*bHbIbCbka;bdbUbUbHbIb*b%b*b;b[b[b]b^b]b[b.b^b.b-b^cgbXb{cpcwaLbdbsbsbtbtbtbda(a;cecSbTa;bsbwbObUbIbHbebtbtbFbObUbObTbTbTbKbEbEbEbKbybJbJbTbTbNbObObybea;a!aLauarb!b+b/b`a8b#c%a8bVbAbbbrbbbGa-ara[b%cla/bTb}b{b;b*cgclcrczcpb.bYaFbTcrb+bbb)bBa>bba:a]bVa{cDa8aHaGaGa1a\a\bwcyb9bRb;cucMcMcCcxcCcwcxcCcqclclcQbIb(a3a/bybwaWa;cwb$bUaWa0cccCb(bHa3aBbCa,aIbRa!axbCaNaxbRaNaIbCaWaxa}",
"boaKaBbRaxaIbIaBaIbvaxaNbcavaNbdasaBaPaIa!b~b{a/bwbHb-a}aPa|a?aXaubkaDb7b%bUbUbXb1bXbTbNbHbRbIbybdaWa;cxcgbcbNb_bMbfaHa&c9a{a^bAa6a.a~bKa~aMaGa]blaza_cca_a_bIbybEcdaDaxa,aibxbYcOb`a:bbbra:bLbLaUbgaCc9a{awaGa>b[b~bybGbFbwbtbtbybtbtb1b?b]b;b*b(b7bIbybHbtbTbTb;b]b8bNbwa}a<a;a?bka,a}bjbjbobsbIb4b4b4b3b9b4b%b%b9b%b&b&bYb%b(bTb{b\b8amaJaOaYa4a*a!aPafatbeb]a<axa5a)a;a*a4aLaNaKaPa0a*a?a[a=a/a*a/a)a5a4a4a5a1a1a9a9a!a4aXaQaDaxatamajambZb:b/b_a8ckc(a8bVbVa~bra:bya-aobiczcea1bDb<cvb{b1btb+czczb_bybTazbYcvb=bmb!bPbrbra:a>b/bhc%a8aVaGaGbmb.bYb}c1b[b2b(cucxcGcGcCcCcGcGcMcCcwcwcTbCb7aWa9bwbsaOa*cub;b4a4aXb}cMb$bCa3aBbCa;aIbCa9aubwaWaxbIaWaIbHaWaxa}",
"boaNaKbRaBaKbIaBaKbCaKaNbdaBaNbjauaIaNaIaWb{b{a?bHbHb$a_aIa)a;aWasbHaDbUb;bdbUb7bIb7bRbHbCbCbtb1bsaQa|cxb~a;bNb[bPbfaHa8c9a{a^bVaTa>aMazaRavaAbfbua1a;b(bda|bHbsbsb[aza9a!akbibycObWaOaAaoazbZbraUbgaCc(bhawaGa>b&b%bEbqbwbtbtbsbsbwbHbRbHbRbXb9bXbFbaa;a|a|bibtbXb8bObNbwa|a?a;a}bda}a<a_bsbFbFbDbXb9b.b4b2b3b9b4b%b&b.bJb;b?b7a?b]b~b-a}bIbIbRbIbHbIbsa|bkbUb?b0bIbOb2b0bUbIb0b7bUb0b9b$bObObFbwblbybtbebcbcbvbJbJbNbFbybIbIbIbybsbEbubabacmcjcBbVa&ckc(a8bWbPa~bMaRamaoada~cAcgaMbtbtbObIbla)blb1b2bFa,a(aobvb*b4aAa-araAbza-a+bVbhc%bnaHaUaTa:b9bmbSc1b{bDbJb?bHcucwcwcqclcMcMcGb?cqcxbkb{aWa*a}bcaLaYcpb\bXaXaPb~cpb(bCa3aIbCa;aIbCa!axbCa0aIbHaPaKbHaWaBbc",
"bvaDaIbRaBaNbvaBaKbCaxaIbjaxaKbdasaxaNaBaPb~b{a*bobobRa;aBa3a9aQataPavaWbUa}bHb0bCb7bUbIbUbUbjbIbsa,a3a0a(a<babYb/bfaHa&c%a{a^bVaTbbaRanaAaxaAa+baa1bdb$bja}bIbybsb}aIa,aWanbdbicYb`aUaAahaAbYbzaUbgaCc*bQawaGbgb8b-bybtbybsbIbCbobCbHbRbybdbdbdbcbcbka|a?babdbdbaa|a?a|bda}a?a}bsbtbta}a}bkbkbHbXb$b9b(b4bwbEcdb\b+b-b]bObUb?b*a<b]b$b$b~cgcgb}ccccb~b~b~b~cgb~clcqcvcicCcwcrcEcKcKcLcLcMcrclb~b~b}cgb~b}cdcubYbybybtbia`blbabFceb\b}b*b=b[b3b9czbMa&b,c(aCb:bVa\bPa=aoazafa\cpciaracalacafavajaiaxafabahadaha?bkbUaGa-ahaAbPa:a+bVbhc(bnaVa7aVa~bbblbqbsbFbwbHb;bjbHbHbIbHbIb;cccgbvb0a;aNbsaKa9a/a_aBaScdb1bDaXaQb~b*b7bta0aIbva?aPbCaXaxbCaWaBbHaXaKbCaPaua}",
"bsaIaIbRavaKbCaxaIbCaxaNbjasaNbdasaxaNaxaWb<b;a)bdbdbwa,axaKaKaIaxanakasaxaxavavauasaxasasauatananasasaxaxaKaSaYaTa2a%a8c%a{a^bAa#a>a!afaoavaAa+bda)a*b;bsa,bwbebHcpaKa;aKalbablcYb`aUaUahazbZbLa7a^aCc(bQawaybBb9b4bybtbtblbUbHbybybybIbIbHbtbobkbdbibsbkbobobda}a?a_a_a_a_a?bobHbsbjbjblbsbCbHbXb8b1b(b;b[bXb2b{b*b(b*b;b;b{clbvb~b;b$bXb$b?a}bsb?b0b;b*b?b\b<b\b{b<bwb4b<b<b~cqclclccb\b<b\b?b*b*b%b}b]b[cxb0aQaSaLaBaDaDaLa!b*b<b;bwb3b9babFcsbMa&ckc(a8b`bVa~bMa=ajaraba\cpcEaxacaKahambwaxanbCaLaiaxamama?bRbUaOaUahaAbPbba7bAbhc*bna%aUaGaOaRaFaDaxaxavatasaxaIaNaNaNaPaNaKaIaWaKaQaxaBaJaJaLaQavaXb9btbsaXa0b{b\b7bva0aIbka;aIbCaWaubCaWaxbCaNaIbCaWaua_",
"bvaBaxbHasaBboavaBbvaxaKbjasaIbkaqauaNaBaXb~b$ambdbUbobsbvbsbCbdbdbIbdbvbdbcbja_bvbCbjbobdbdbda}boa!a;bRbdbvbYb=cRbBaVbnc%a{bgbAaZa~aRafavavaAa7bia[bdb7bCa4bibebRccaKa(aKanbebscZb/aGa7ahaAb9bzaUbgaCc*a{awaybfbNb8bubqbtbFbUbCbDbwbybJbwbsbkbdbibibebibdbkbda}a}a?a_a?a;a<a}boblbobHbwbwbCbwbCbFbObYb9b[b]b.b\b\b-b(b+b?b(b;clbtb{b%b{b$a<a|a?a4a<a|bcbobsbtbwbka}a_a_a|btbwbXb\b-b[b-b(bXbRbIbJbJbHb0bTbJbCb0bXb2bRbNbObtbDbFbJbNbTbKbybybya\b!bma%b,c%aCb`bVa~bza/ajarada/cecEavafa1amaobDarava}aLaoaDamanbvbRbFaAaGafaObPa~a7bAbhc*bnaVa7bAb}b}b=b}b{b(bwb$b9b7b(b$b$b-b7b{b;ccccccb]b}b*b{b{b}clcpcwclcqcqa4a4b?b(b7btaWaBbsa!aBbCa0aubsaNaxbsaIaIbCaPaxa_",
"bsaKaBbRaxaKbvaxaxbvaBaKbdaxaIbkasaxaKaBa0b~b$aca;bUbsa}a|a|a|a,a,bUa_bobobda}a!bvbRa}a}a|bjb0a,bRaWa3b7bHa}a1bGcYbgaHa8c9a{bgbAaTa~a1afazarava.bea1a?b$bUaQbca`bab.aNa,aKasblbycWbVaAa]ajaAb!bxaybBaCc(bhawaGbfbNb9btbsbDbXbXbDbtbDbObXbsbsbtbtbia}babebebiboa|a_a_bdbaa,a_bjbybjbdblbwbJbwbEbOb2bXbYb9b.b{b=b{b\b.b\b=bNb2b(b]bwb7b[b%bHa9b{ccb}b~clcwcwcrcwcCcxcwcCcCcucwcwcwcpcScNcycrcFcxcwcxcdb~b}b;b9b;b.b1b$b9b.b-crb]b(b;b(b.b=cdb.cdczcUbPa%b,c%a8b`bVa~bKa/ajavaba*b;cHazaha[avambwamaKbIa*aoavalalbvbTbNaTaAajaGbMa~a7bAbQc*bnaHaybAcEbDcdcrclbYa<bRb(b*b;b1bIb0bobRb7b(bTb-b]b.bdbUb9b;b*b?b\bybUcla!aXb.b-b0bja4aIbva,aBbHa3auboa0avbwaQaBbIaPaIa_",
"bsaFaDb0avaKbCaBaIbsaIaNbcataNboasaBaKaxa(ccb(adbca}a|a|a|a|a|bka}a}bvbvbCbka}a_a<bkbsa_a;bcbUbva)aIa0bJbUboa1a/cWbfaHa8c9a{bgbAaZa~a/adazaoava2bqa=bcb?bHaNbca[a`b-aQa_aKasa}blcYb_ambfajaAb)bGaybAaCc(bnawaAa>b9b+bEbybObJbXbybobobOb3bKbsbsbqbda}babebdbdbobda}bdbdbda[a[blbibibtbtbibwbkbFbKbNbYb8b9b9b-b*b=b?b*b.b.bCbDb;b~bsbsbwbHa0a9b[b;b=b-bcbIb$b*b=b~cgbJb7b}ccb~b{b<bcb2b[b^b]b]b0bJccbUbHbwboaWbIbIa(a}a;a;a0b-bRa4a0aLaxa?b;aQbacicIbga^b,c9a&b/bPa`bFa/aoazada5b(clazama|aFaibvamaBb0bHaoamahambca}bFa)araoaAbza:aUbVbhc(a8awaGbfcEb;cececgbFbHb9b7b;b*bXbRbHbIbsb0b1bRb(b]b[bUb1b\b;b*b(b;b*b1cga4aQb(b9b2bkaWazbCa<azbCaWatboaQaxbHaNaIbIaNazbc",
"bpaxaxbHaqaBbvataxboataBbcaqaIbkaqaxaKaxaXb]b7ada<bUb-a;a|a}bdbobdbsbsbHbHbtbababkbsbNa`a}bkbRbCa}aLaWbHbCbsa=a-cOa]apa^cPa8bfbfa1a\a-adaBamava:a<a=bdbHbvaxa|a=bxbYaKa(asana|boc!b/aja>amavbZbKaGbBa8cta&apaAa7b9b9bybEbybDbObtbsbsbDbXbYbKbsblbsbsbcbcbebibaa}a_bkbdbabcbcbpbpbibsbpbvbybDbFbJbwbTbXbXb3b9b9b9b.b-b-b.b}b]cdb{bcb7bIbwaNa)cgb[b\b-b$bIb2b4b9b9b;b(bXb*b{b;b-b-bYbOb&b&b(b8b9bObFbJbDbFbsa|a4a<bsa|a9a4a;a;a<a0aDaxaxavaNbdbqbGcsbfaHb5coa%b!bza\bua9aoavadaLbUcpazafa0azahbDamaobaa}alaiacambUb4bTaYalavaMbza:a2bAaCcta%apaAbfb~b.b*b\clbXbXb}b(b;b(bTbCb0bCbHbRb0b7b(b;b<b9b?b\b;b\b\b;bEb~cdaWaJb?bXbIbkaMavbsaXavbwaNaqboaNatbpaBavbvaIaua_",
"bjaBaBbHataxbCasaubjasaIbdaqaKbdaqaxaNaxa3b-b1aba_a;a_a}a?a}bca_a_bcbFb9bXbDbtbkbibOb2bFbwbpbwbRa|aLaWbRbwbca/a=cOa~aGa]bgaGbbbra1a\a<abaDahava-a;a[bdb(bHaua*bdbtbLa?boa?aIa_bic6b!afa>amazb8bsaGbBawaHaTaGava]b[b2bybybDbFbNbEbybybsbFbKbNbEbubDbtbebibabla}a|a}bkbdbda|a`bkbobsbobsbwbKbNbTbXbUb1b4b1bTb4b9b3b8bXbOb8cgcicpb[bcb$bTbsava0b~b*b?b*b*b*b8bYbTb8b8b8b8b%b%b8b&bOb8b&b3bYb2b2bNbObsa|bja;a(a!a!a?a|a,aLaMa9a0aMaQaNaIaIaIaLa,bFbNcma-a6bMa+ayb:bMbaa[a9amaraba!b\czaJaQa?bwblbDblbdbvbHbdaWaKaobIb*b(aOajazaAbGa=aTbBaHa$aUaAavbgccbTb4b.cub8bJb[b%b?b?bIbCbRbjbob;b{b-b9b(b{b<b$b$b$b;b\b-bFbDb~aQaIb{b$bIbcaNavbsa0axbHaPaqbjaKaubvaJaxbwaIaxa_",
"boaIaIbIaxaKbCaxaBbjaBaKbjasaPbjaqaIaKaxaWb0b0ada;a|a}a}a?a_a_a;a<bdbNb8bwbobibtbebUbXb0bsbiblbXbcaJaWbHbsa;aMa*cUa~aAa`a~a#bubqaSa\a?adaKadara!bcbwbIb;bvaua,a|bsbOa|a<bdaKa|bcc0b:ada:arazbTa}aAbGa>a.aTaAava.b7bIbKbFb%bOb8bObSbEbxbqb$bRbFbDbFbEbva}b0bsbdbkblbsbkbob2bcbsbwbwbwbobwb$bCbFbTb9b%b%bTb?b;cdb]b<b$bOb%b[cucwb~bvb-b$bsava0b{b9b8b%b9bJbRbRbNb2b1bRbTb2b4b2bXbOb2b9b8bTbKbKbka<a}a;a!a?a4a4a9aQa,a,aBaxavaBa)aKaJaIaNa(aIaKa?bocdaSaFblbra\b.bGbea*a)amaoadaSb[czaNbda}bHb{bTbXbwbyb9b(a;a!arbIb%b%aMamaFaFbxa-aObMbra~a:aAambrcrb;b%b(cyb&bsb[b=b.b;b)b1bRbda}bIb0b{cdb{b*b;b9b(b7b;b{b(bXb%b\aNaKb9b7bRa|aWaBbwa,aBbHa0axbvaNaxbCaPaKbHaWaBa_",
"bdaxavbCasaxboasavbcasaBa}aqaIbcaqaxaNaxa0b7b7aca;a_a|a?a|a_a|bkbIbRbwbRbIbdbpbebpbpbXbTbKbqbubEbcaWaIbsbsa!aFa/cRa:aMa<a|a|bibTaQa[a<ajaWadata0a}bcbkbUbCasa/a|beblaqamasala|bic0b!ada#aravbCa!aFb0b0bUbvaOama<b9bYbYbKb^b^b;b2clb]bSa|b0b0b2bTbTbNbHa,b0bvbtbtbtbwbca_b2bsbNbXbTbTbwbCb(b(cgcucMcHcCb0b~cSc5cNcpb]bYb9bcbJcdcGbKbpb-bpaIaIb(b2b0bRbUbIbHbIbRb0b0bIbTbYb(b(bTbNbIbCbHbtbka?bcaWa)a?aQaQaKaxazaMaWaDaxavataBaQa;a)a0a0a!aKaqbNbTb-aOaDbpbFbNbxb8a?a*a;alalafaEbHcqavaBa|aNaxa,aIaNa,aLaWaDaqambKb.b&aJaqaxaDbqa5aOb%b*b2bxaRaja~crb}b<b*cCb}bEchb}b}b]b[b2bRbRbHbdbob1b]clb{b(bXb9bIb(b;b9b2bUb?aNaNb9b0bva_aKaqbsa!axbHaWatboaKasbsaxaxbCaIata;",
"a}araxbwanaBbjauaBbcataNbdavaPa}ataBaNauaWb(b;aca;bCb7a?a_a_bdbdbHbIbIbUbkbkbwa|a}bva<bIblbDboa|bHa3aIa_bCa?aQa_cNa<alaQa!a<a;b2aJa?a?ara0abataWa}bobtbCa?aqa!a;a|bsataNaIaqa[bicZbZadaYamaxbCa3aQbCa}a}a,axama)bvbpbvbdbCb~b?b9bRbHb0bXbwbCbybybwbwbwbobdbwbwbvbvbvbsbwbsbCbIbIb7b-b(b(b(b;b\b-b$b;cgb~cccpb?b;b7bobwbRbHbob7b0bCb$bHbkaPaKcgb~b[b-bXbXb2b(b[b;b;b2b%b8bTb9bsblbwbsbHbCbRboa?btaWaBasasaLa?aQataIaIa}boa)aKa)bobDbla?a(aKaxaqaNb=a1aDbCbJbJa1bOa(bsbkahahafaxbCcwarambIatajbdaiaubsaoajaoajambXb%b8aIatasaKbca4aObwbybea*avalblcub~b^b}crb-bsb]cdb[b.b%b9b0b1b7bHa}b7b7bHb*b[bXbTb-b^b.bXblb{b]aPaPb(b$boa}aWavbva3axbIa0axbvaNaBbsaNaIbvaIasa|",
"a|baa}bobdbcbcbsbsbwbobcbda|a|a?a<a<a(aBa(b$b(afa_a;a_a|a}a?a}a|bIbHbRbHa?bvbva}bdbIbcbobDbtbka4bHaNa0a_bsa;bRbHcGa?aua!bRbIa;bUaJa?a|auaKabaqaXa_bsbdbIa?aKa!a(a;bIa)aNaBana}bJcZb&adaQajaxbRa,aYbRa;bDbdasambobTbJbFbFbTb2b(b}bRa}b.b;cpb?bXbXbNbYb8bYbRbUb9b%bXb-b.cdb\b;b^cgcgclcgb\b{b*b9b3bXb(b(b\cgb*b-b]b[b%b)b[b.b%b-b]bcb%b0bwa3aKcwclb;b(b(b*b(b1bRbUbRbUb$bRbDb0bsa;aXa(bHbwbCbja?a<a)aQaIaBa|bcaKavaxavbkbcbta?a;a(a?bHbaa!a3a(a!a/b~a(aDa_b?b$a[b;a;bTbCacaiaraXb(cCaraubUalarbIaqaBbUaBaoazamamb2b=b-atatavaBbdaXa9bXbybUbdaBambqb9b]ceb{cpb&a?bdb$b<b;bXb1bUb1b$bHbjbCbIa?b7b?b7bwb7b;b9b$btbvb;aNaPb-cgbobIbHbHbwbIbRbRbRbRbIbUbIbRb1bRbFbObTbv",
"bwbHbybUb(b9bkbCbybDbIa(b0b0bIbHbHbHbIbwbkbca!agbdbvbdbca}a_a|a}bvbsbIb(bkbIbtbkbsbDbHbobtbybtbda,aBbDb}a_bda_bscEa?avaQa_bda(b0aKa?a*aJaBabaka?b7bvbRb]bIb(b$bRb-b}b$aLaIaqa<bkcNbSabaQakaxbva3aWbRa0boa(aqajbkbTbtbCbCbybtbybXb7a_bUbIb9b7bRbHbNbJbHbsbybHbObObObOb2bXbYbYbXbObTbTbIbHbDbIbTbXbvbda_bsbFbNbYbYbTb2b4b4bXbUb1bUa?b0bHboaNaKcqccb*b;b$bTbRbwa}bCbRbwbwbkbtbCa,a3aXa!a0a<a}a[bta|aQazaBa,bobcaQaKaNaBa?bRb(bIbaa,a;a?baa(a;baa/a/b]a(aDa(btbUbdb{a/bIbsabajavaQb]cCamaBb-auaubRaraxbIaxaqazamalb1clb4ataBaxaBboaXaYbNa?bca|azaob1b}bFb9b(b.bObwb(b$b$b;b*b(b;b*b$b1b1bUb$b(b1b7b(b8b(b4b7b\b?b=b}aBavbjbHb7b;b=b\b;b\b-bUa}bRb9b1bXbOb?b\b$b$b(bR",
"a3a3a=a[aiaIa(a4aWaPaPaPaNaQaKaQaNaKaNa0a?a|a0a0btbtbibda}a|bdbkbjbvbNb-bFbDbtbsbobkbwbtbibsbHbta!aKbtcla_baa}btcxa}aBa?a?a;a4b0aEa_a;aFaIabaka}bUa}bRa_b0ccb~bwbkb0bRaIaKasa?bvcGbIadaXagaKbdaWaJbRbsa*a)atajbdbwb-byblbtbsbybOb$a|bIbIbIbobUb9b0bXbRbwbvbJbIbFbFbJbTb2b8b&b(bXbTbTbJbDbHbHbTbUbRbIbkbHbDbJbTbTbObNbXbXbIbIb*b$a|bwb7baaBaub~b*bRbRa?a,a<a?a!bca}aWaNaNa,a0a,a;a[bya(aJa/bIbXbIaBaKbabCbFbEa!avaxa,btb1bTbtbCbda)a0bkbka<aXb1bUb;aXaxbvbCbIbsb{a*bRbkaeajaua4cccCanaMcgaEarbIavaxbUaIataDaoamb8crb2auaBauaBbdaXa4bTbFbybkaDamb[cKb}b\b?b*bXbtb*b$b4b(b(b;b<b<b;b<b;b*b$b(b(b*b;b(b4b%b%b*b%b$b?b0bobjbabda|a_a_a_a|a}a|a?a|bca|bda_aIakaLa;a)a;",
"bNbybKbKafa!bRa,a_b-a,a?a,a(a3a!a?bRa(a;bkbRbybHa}bXb7a}baa}bka_bcb]bIbRbJbJbHa}bUb7bdbHbdbtbka(bRaKa`cva*a*a*a`cqa}aBa?a}a}a(b0aDa;a3a!a!abaka!bdaWaWa_boa_bca;a3a|aPaNaPaxbdbwcEbFabaQagaIbCa0aEbHbia[a;atalbda_bobsbkbtbtbwbFb0a|bIbybybDbKbYbXbXbObNbybNbFbwbwbybRbUb&b.b(b7bUbybtbtbtbybsbwbHbwbdbHbFbDbEbEbCbsbDbNbHb0b<b(bdbsbaa_axalb1bwb0bTbta}a0a0aWbkbHa;a/a4a0aKa,bIbiaXbabtbyb1bXbta_bcbtbya}a}a<araLa|bobka/bdbybdaXa}b8bXbHa!bjbHb?a4aDbCbJbJa}b$a(bIbkadamaoaScccKaraPccavaobCaxaBb0aDaoaDaoamb2cdbTaxaBasaxbaaXa3bObXbYbtaDamb3cTb}b}b.b*b~bsbkb[b;b(b*b}ccbRb;b]b;b;b%b(b9bwb]bUb7b%b%b$bkb$bHb$b\b<b*b;bCbUb{bNb(b{b{b~b1bCb;b$b;bvakbdb;b%b3",
"aNaKaKaKakaWbja,a!bdbda,a;a_a,a?a,a_a?a;a|bdbobvbda<bkbsbkbkbda_a(bdbvbHbwbCbca_a<bdbsbCbdbaa_a(bcaJa;b;a;a*a!a}b]a_axa;a_a_a;b$aIa(aEa/a;abanaWa,a0a?b{b;aua)baa_bUaNaWaXaqa}bIcGbtadaLacaIbCa0aQbRa|a;a,asalbsbRbtbwbsbqbubwbJbRa_bJbFbDbIbYbEbTb8bYbYbKbTbObtbvbCbHbHbDbDbJbFbsbHbHbHbHbIbIbHbUbUbHbRbUbIbRbHbobHbRbwbHbRb;b7bdb0bka!axalb.bYbTbYb%blaKaBaLbRbXa[a?a!auaKbdbXboa4bobHbIbTbNbebibibva}a?a,aNaxa(a;a;a|a/babka_bRb1b8bXbRbCbsbCcla3aJbIbwbDa?b;a!bRbtacamamaOb;cKaraYccatatbHaxaIb0aBaraFaoamb0cdb9aIaBauaBa}aQa1bObTbXbtazaobwcdbJbJbJbRbwa?bja?bCbNbXbTbXbRbkbob}b?b-b-b%bFbJb%b(b%b&b.b2bRb0b1b4b2b%b$bRbobHbXbNb[b=b{b$bwbRb7b*bHaqaIa3aWaP",
"a(bsa_a,ata9b-bvbRbUb7bIboa|a?bda|a}bebabJbXbtbCbwbFb=b%bYbNb8bSbJbJbDbTb9bXb2bJbIbIbJbXbEb&b[bFbta}a<aXa!a;a;a<bIa?ava;bwbHa<b(aJa<aDa/a<adala3a;a,bXcdb$aKbdbUbvcpa?aWa<ata?b7cpbtafaFabaxbva0aMbXbea[a)atalbCbObHbtblboblbtbHbTa[bDbybwbDbNbEbOb8bYbYbYbObFbDbybDbHbCbwbtbda(bIbwa}bkbca}bebebdbsbsbvbvbobsbsbca?b(b~bobIbUb$a_bRbca(aKaqcdbDbda}bwa(atataLbUb$babkbca,bCbtbHa|bebibOb0bwbsa}bIbtbca?a)a9a_aWa;a|bibFblblbUbtbFb%b-b9b$b9bTb9cxa3azbkbXb1a_b{a!bHbsabamalaOb.cEara*clamatbFazaIbUaBaraFaoambTb~b4aIaBataza|aJa*bXbJb2bvazara?b$b}b$b1bUb0bHb}b;b;b-b]cdb~b}cGcxbIa<b7b^b9cgc6b~b*b-b&b.b.b.b*b1bTb1b-b1bTb2b2b7bIb;b\b]b\b.b(b(b$bUbIbHbwbRa;",
"a}bRbja_aBaWbUbCbUbIbvbvbja}a,a;a(a,a?a_a|a|a`bebqbebibebsbsbqbubtbwbybtbNbNb8bybCbsbda,a)a;bva?a`a`a`bea`a[a}baccbcauaQbHbRa,b$aDa;aKa3a;adalaIa?bjb;cpbRaNbsbvbscpa?aNa;ata?b0b}blafaJabaBbvaWaYbXa;bDa?ataibRbXbObtbsblblbsbDbXbebKbubsbsbFbFbEbYclb}b7bUbUbIbJbNbIbyboa}a9a;b~a0bkbsbHb0a_bCbjbda_a_bcbsbvbjb-bIa3b?bkbsbCbUa)bka}a(aNaxcdb7bDbsbka(asaqaQbUb7bIbFbwbtbXbybTbpaYa_btbRbIbYbca4bda_a*a,a<a_aWaXa;bsbHbNbDbXbDblbJb;b)b\b-b%b}cxa0ava0b0b-a?b7aXbvbdabaxaxaQb$cEaoa|cpamavbJazaIbUaIavaFaoambTb\b4avaIaqaIbpaMa=bTa=bNbcazajbdb~ccb~b{b<clb]b7b;b}cdb^b^b=b.b\b{cqb}a_a?bUb}b}b^b.b.b-b(b+b9b%b2bTbIbOb*b]bTb9b1bRb;b[b]b=b;b;b-b3bIb*b0bIb~b1",
"a}a?bIa,aBaWbvbjbjbHbjbRbjbda;a?a?a?a_a|a}bcbqbibsbebcbcbebibqbubybDbwbtbFbJbybqbvbpa_a?a(a0bcbcbcbaa`bea|aQbCbvb]a}axa}a?a_a<b;aLa<aJaWa<afanaIa;b$b~ccbRaXbRbpbccgbRbUb0aXa;bIcdbealaJafavbcaMaYbJa<a*a)avaibXbob7bCbsbwbsbEbYbUbdbNbxbqbxbNbwb8b9b-cycEclb.bYbNbJbNbEa}azb(bvbUbwb7bRbvb$bpbJbobca_a_a?a3a,a,bHbRa?cgboa|bobUa0aQbRa;aPaxchb{b8biboa<auasa*b(b(bTbobdbHbRbiblbFbibibxbFb3bXbebdbsa(btbwa=a<aXbaa_bwbUbFbFbEbaa[bXb[b.cgbCb7b]cga3aKbCbkbta_b7a4bva|aeaoaoaOb%cEara<b~ararbwazaqbCaBavaFaraob2b[b%axaNaqaIbsaMa|b8bibebpazajbsb2b{b;b;b$b1b$b7bXb9b\b]b[b[b;b)b9bFb2cpb$aXa}b]b}b=b.b;b-b(b9b8b8bTbNb8b}cxbYbYbXb9b(b;b[b.b\b{b]b)b0b]a;a?cgb?",
"a|bka_a,aua3bHbjbjbCbjbjbva}a?a?a?a_bebebabebibebibwbibibqbqbwbwbwbTbNbJbObFbea<a|a<a9a4a(aWa|bebibibibibca_a*beb~a`aBa}bdbca;b;aKa;aKaKa?akanaWa,bCb9b]bRaNbCbobvcpa}a!bwaxa,bwb}bua5b2a?atbcaQaSbwa;a*a,asakb0bHa}bsbsbwbDa|a<a9a0a)bEbibubNbKb~clcgb-cwcQb]b2bUbTbKbKa}avbUa|bcbpbHbvbCb7bwbHbobkbabka}a,a?a,bjbIa(clbRa}bsbCa!bca<a)a0aBcdb%b0bJbHbCa;aKbsb7b(bXbDbwbRb0bObEbJbwbebtbFbJbTbDbHbIa[bobkaWbtbybsbsbNb%bUbwbRa}a)b.b-b-b$b9bvb$cxa!aQbIbUbTa_bUaSbva|aeaoamaOb-czaraSb%aqaqbkaBaBb0aDavaFaoamb7b;bJaBaNamaIbvaQbcb8bJbXbyaxaibccpb%cdcdb~b%bTb(b-b%b.b=b[b-b&bYb3bYbNbEb&cyb1a3bsb1b;b.cpcrb&b3b&b3bNb3cEcyb3bYbUb1bXb-b%b8b;b{b}b-bUb]bdbCb?b(",
"a<bHboa*aua3bRbvbda_a_bjbCbda?a_a_a|bebibabiblblbvbsbJbvbvbUbKbEbwbybybFbCbvbda|a,a;a4aNaNaPa)bvbvbwbla`bcbsbcbsb~a|axa_a|a_a;bUaBa(aBafa;ajaqaWa;bca_b$bRavbvbwbkcpa)aBbIaBa5bDb^bEaOb9bsarbcaWaLbsa;a,a)atakb1b0bHbwbwbRb-a)a|bcaYa9bRbsbxbNbFbCb$cgcpclcQcMb}b;b9bObybCa}aWa;b7a4bvbwbRbRbHbJbsbobja|a(bIbdbabIbsaWb;a}bRbJb9aXbIbwa<aQaqcwb{b8b0b7b0bRbkbOb(b%b8bObTbXbNbObObNbNbFbTbXbXbXbFbCbRa|blbsa;bHbRbDb2b9b9bXbXbTbNbpb%b-b-b9b.b(b{cwa4aLbUb2bXbcbUaQbsa_aeatalaQb-cyaraMbTaxama}axaWb(aQauaEaoamb$b{byaJaNakaIbsaXbab8bYbYbIaBajbccrclb}b=b;b%b(b4b.b.b&b)b[b.b&b9b9b3b9bYbKbTcdcubCaKb2clcQcMb.b&bYbYbTbNb=b-b8bNbUbRb2b8b8b8b-b{b{b.bXb(bUb(b~b(",
"a?bCa|a!axa(bCbjbdbdbdbjbHbCbdbda_a_a`babdbkbqbqbububHbRbybEbDbybDbybDbDbwbla|baa}a!aIaWaua9a<bwbwbtbobobobtbdbob{a}axa|bda}a,b?aDa;aKaga|amama0bvbDbvbIbdaEbvbHbtcpbsbIbUa<a}bIb{bRauaKaIatbcaWaQbwa?a/a;atajb7bXbybwbtbIb-a)bka|a0a?b7bCbDbJbDb7b;b(b$b(bUcxcGcpb]bXbFbCbva;bcb?a?bTbKbIbRbNbJbCbvbHa9bjbja|bwaKaBa<cya?bIb-b]a9bJa|a)aPaqb~b;b(b(b-b(b9bXbJbXb1b1bUbHbIbHbIbUbUbRbHbwbwbFbUbHbwbIbybXbXblblbwbvbUbXbXbYbTbRbHbHb1b-b*b(b1b-b}cpaWaKbRb-b9bdb$aSbsbcabavaiaSb%cwaoaFbTa1a1b<axa;b;a(araDaoamb%b]buaNaNakaKbvaWbab;b9bYbRaFalbvcycdb\b-b*b$bTb-cdb]b9b.b~chb\b%b.b%b9b3bNbXbOb4cCcxa}bsb~b*b=b-b8b8b3bNbRbIbIbIbUbUb2b2b2b2b9b-b;b-bTcpcpb~cgb7",
"a|bcbva9axa(bHbja,bdbjbjbCbIbtbkbea|bcbsbububsbqbqbqbtbsbtbwbybwbEbFbFbKbFbqa[a?a;aQavaNazaWa|bCbDbtbwbwbwa|bUbRb{a|auaPbRb7a)b-aJa<aIada_amana(bobsbsb9boaKbtbdbCcla!ava0ava}bUb~bTaDavataqbcaWaQbCa(bHa|atajb7bCb$bubqbCb]a)bkbcaSa[b0bCbDbNbObXbXb0b0bObJb%cwcgb]b-bXbDbva)a|b]a[bYbKbNbObNbJbIb0b$bvbta|bJb9aJaDa|cCa;bvb$b$a<bobUa)aWanb{b;b-b%b(b9bUbRbkbUbXb8b2bObUbUbXb2b8b3bUbIbIbRbXbXbtbtbIbTbUaLa,a}bFbXbXb2b2bXbRbHbJbJbUb$b*bCb7b}claPaLa<b?b~bdb]aSbybcabavadaOb%cwaravbsa*aub9aza<b{a*araFaoamb(b[bqaKaIahaIbjaPa|bUbab-boaDambvclcAb^b=b}b-b8b%b=b}b=b}b~b=b-b%b$b$b%b%b8b9b.b=b8cdcNb-a!bwb%b[b8b8b8bTbRbIbObTbYbSbRbXb8b(b9b8b9b9bTcra|a|b;bR",
"a}a,a?aWaxa3bjb7a?bjbja_bCbIbybybqbqbsbwbvbpblbiblbibdbkblbwbtbtbvbwbybEbKbsa`a;a4a0axa(aPa3bsbHbIbvbwbsbda?bdbdb;a;ata(a0a<a,bUaKa_aNaca?anana(bobobobRbCaIbsbsbHb~a(aua?aWa?bJb]bNaLavanasbdaWaPbCa(a4a!auakbUa;bda}babtb[a,boa|aQa<b0bHbUbUbUbXbTbUbUb1b1b2b8b\b[b8bXbIbta,a}b;a_bXbNbJbFbDbFbvbvbsa,bda_bobRaKaBa;cgbvbobRb0a;a|bda!aXanb(b<b(b4b7bUbRbRbIb1b0b7b0bUb0bUbIbUbTbObUbHbUbUbJbObwbabyb1b0aQa!bkbRbRbXbXbTbFbwbtbNbXb2b8b$bsbjbUb{aNaKbjbcbIbkb]a4bHboabauabaMb%cxaraqbdaXaub7azaQb0aOavaDaoamb$b;a}avaIacaKbjaPa?bUbcbcbvaJama}bYbNbTb&b.b.b%b3bXb8b&b=b^b~b]b;b(b(b(b9b8b%b9b[b~b~bTb[crbYa5bTb=b&b3b9bTbNb2bXbXbObRbRbXb2b%b4b2bXbIcubUbkb&bC",
"a|bwa?a9axaKa_bUbHbCbjbdbIbRbHbybxbEbybqbtbtbtbobobobibsbwbybtbsbybIbJbFbKbybia|bca;aBa;a9a}bCbHbHbvbjbdbjbCa?a;b*a?ava;a_bca;b$aIa_aNaba;asana,btbwbsbIbwaBbtbHbOb1a)aJbca0a<bIb]bIa4auajaubva3aNbva}a_a,auaibHbwa`beblbwb?a;bpbca0a;b7bRbRb%b}b%bXbXb1b4b4bXbTbXb%b3bYbNbsa9a)b0a)bTbFbIbIbHbwbtbtbka0aXbva|bkbHbwaWb{b?bjbCbCa0bIbka?a0axb-b{b%bXb1bRbRbTbUb0bUb7bXbXbTb4b$b1bUbIbUbXbUbTbybJb4bDbXb8b9baa_bcbIbUbXb8bObFbIbIbUb1b1b(b$b1bUb$b~aEaLbCbHbRbkccaYbybdabauabaQb(cuaxaha;aEaubXavaJbIaxazaFaralb%b<bdauaBabaPbHaQa\bYbUbXbRaLaoa?b^b&bYb3b8b&b2bObIbIbTb1b4b(b(b+b9b(b%b9b4b(b&bYb%b[b%b2b4cicubsa!b$b.b4bTbXb0bRbTbTbTbXbTbTb2b9b%b8b8cyb8bjb;bU",
"a|bva?a(aBaNbsa}bjbjbtbjbHbNbDbwbwbwbwbsbsbobsbwbvbebibsbsbsbtbwbEbFbJbJbFbxbla=a?a!ava_a_bkbdbjbsbja;bda}bja;bjb;a;axa|bdbda)b;aIa}aPaba3asana(bvbIbDbFbkaIbIbRbNbOa9aIa?aKa?bRb<bCa4axagaubwa3aJbda}a/a(aragbCbobdblbtbwb~a?bkbka0a<b7bIbIb$b4b2b8bUbUbUbUbTb2bYbYbTbObsaLb$bRb7bvbUbIbobwbCbwbtbtbda;aIaNa!aKbcbUa!bUa?bkbIb$aWbIbda;aXaBb]b{b$bUbUbIbHbHbRbUbIbRbXbXbObXb7bUbIbRb0bRbHbRbIbRb4b9b2bwbka?bca0bsbCbJbXbIbIbObIbIbXb1b$b%b8b$b\claLaDbvbDbIbab*aWbsbdacasabaQb*cxavaga,axasb7aBaJbCavavaDaraib?clblaqaxaeaPbCaQbebYbObTbIaJaoa;b;b.bYbTbSbNbFbFbDbObTbOb0b1b1bTbTbTbXb1bYb8b9b9b-b&b%b3b[b3bXcdbRa;a\bXbUbUbTbTbYbTbOb2bTbTbYbYb9b9b%crbvbvb;bU",
"bcbdbva!aKa0bHbtbjbsbtbobEbKbEbxbtbwbtbiblbibpbsblbtbwbwbHbHbtbybFbJbJbNbJbCbsa|a;aKaxa0aBa0a(a}bda3a!a?bda?a(a}b-a?aIbcbcbca(b0aJa|aNabaWaIala0bRb1bDbRbsaWbIbIbUbXa4aIa,aKa<bHb<bIa!aEagaubsa4aLbda_a(a5atahbHbia`a}btbHb~a;bkbjaXa;bIbwbsbUbUbNbJbvbsbUbUbXb9b8bXbObNbcatb(bRbva}bsbsbCbHbCbtbdbobka_a)a|bUa;bRbHa_cqa<bdbkbIaPbdbca;aNaub;ccb7bXbIbCbDbybIbHbCbIbRbtbsbCbCbsbHbIbRbIbIbDbIbIbXbXbXbDbUbka}a}bHb0b1b0bIbIbObRbTb7b7b$b7b9b$b-b~aPaIbvbybya_b-a3bta|ahaxabaMb%cCaBaga(aqaubTauavbCavamaxasahb~cCbtaBaWagaPbHaXa|bXbJbObIaLala(b&b9bTbTbYbObNbTbTbUbTbTbXbXbTbTbJbObIbUbXb4b4b%b;b[b;b&bYbYbObNb4cva}a/bXbObJbNbTbNbIbUbUbUb3b3b3b8b9cga;bHb;bS",
"bda;a;a4aNaQbHbvbwbybtbwbRbUbJbJbFbtbsbsbtbtblbsblbtbybDbFbybxbxbFbKbFbKbybla_a4aXaxaxaPasauaWa}a!aKaWa!a!aNb0bCb{baaKa(b7b(a;b0aKa_a3abaNaPaqa!bwbIbtbHbja3bIbRbObXa0aKa,aBa}bvb{bHa!a1agaBbsa3aQbta0bRa;atagb0a;b$bybibJb}a(a}a_aKa;bwbdbwbObDbybFbCbtb7bUb2b2bXb2bObJbwa<aXaXbRaKa?bdbtbwbwbobobjbjbdbca}a}a|bsa_a_b*a;bdbRbUa;a?bCa}aKasb;cpb$b2bRbRbIbHbHbIbRbRbRbIbHbCbybtbDbIbCbtbDbNbJbNbYbYb9b0bHboa;a;bsbUbUbRbUbobHbRb2b8b(b(b(bsb;ccclaXaIaWb-b[a/b*a0bvbdamaBabaOb-czaxaga,alaubTaraxbJavavaLaxajb-cGb2aqa0alaPbvaXbibXbib-bcaBama,bqb~b%bYb4bUbKbNbObTbTbObTbTbYbTbTbTbYbYbYb8b3b[cdb.b-b%b2bXbTbYbTb%bNa)b9bNbNbYbXbTbYbYbYb3b4b4b%b-b(cgb%bJb;bU",
"a|bCa_a4aBa0bObwbybFbDbFbHbHbXbJbHbHbCbHbHbtbobtbtbybwbtbybsbububwbwbwbwbaa[a<aWaDavavatauataBa;a3aQaNaWa3aNa4a9b0a_axa(a;bda/bRaIa?a3abaIaNanaXbjbHbsbTbCaWbFbJbIb0aXaBauaqa}boccbIaSa*abaxbja0aLboa0aWaQavaibRbaa|bkbsbwccb?bRa!a;bIbtbjbybRbRbRbHbJbOb0bRb1b7bXb2b0bRbRbwa|aDbUb$bdbsbwbobkbsbwbkbsbCbsbvbobca|a?bRbdbkbCb9b7a,bwa?a_aIasbHcqb7bRbUbRbHbCbCbCbHbHbHbIbRbRbRbDbIbIbHbtbwbCbIbHbRbIbRb?b9bva,a,a}bybHbUb1bIbtbUb9b7b.b\b;b0bvb7cwa4aKa}babsa`b%aQbwbaaraxabaWb-cpaxaha!alaubIataxbIavataDamaibCcwb~adaKalaWbwaQa|bRa<a_a<axala(bKbqbJbXb1bUbTbTbObJbJbTb1b4b2bXbYbNbYb3b3b3b2b(b}b-b.b9b4b1bUbXbXb{boaDcdcdb(b%b8b9bXbXb9b9b&b%b2b8b[crb;b2b]bR",
"a<bwa|a(axa(cgbwbsbsbobsbybDbRbRbDbFbDbFbvbsbtbybwbwbybybtblbvbkblbtbubqa|a=a;a(a!aKauauavaKauaBaKaNaNaWa!aWaWa9bUa|aBbdbkbsa<bIaKa|a3abaxaKala9bdbwbkbIbsa0bTbXbHbUaWa?bRa0a?bdccb0aEa*abata_a0aJbca?a)a,auajb0bRbtbsbtbHbjbDb<b0a_bwbobiblbwbJbJbRbTbJbIbHbTb8bObXbXbObNbybtbaa0a;a?a<a<a(a(a;a;a;a;a?a?a;a?a<a<a;a,bcbsbCb7b0a(bIa}a?aKasbscqb0bRbHbCbCbtbtbtbsbwbHbHbTbUbObIbUbUbRbIbJbNbJbTb8b8b0cgcdb%bybybHbsbHb$b$bIbCb1b2bObXb-b.b(bRb9cwa!aQbRbIbHbob;aJbta=avatabaOb.ccauala,ajaxb0aravbwavataBaqalbvcdb.abaxakaWbwaXa*bJbDbybdaxaja,b-bObNbObXbXbTbXbTbObKbObYb3b1bTbUbUbYb3b3b8b-b[b[b8b8b8b;b9bObNbTcEbHaxb[b&bYb&b&b9b8bXb8b%b-b&b%b%b-cCb0bCb7bv",
"a}bvbda3axaWb-cgb7bCbvbsbDbFbHbRbObJbFbFbFbDbCbCbwbCbIbHbvbebibpbsbebaa`a?a<a*a)a,a4aPaKaKa3aNa3aWaIaPa,aNaIbHa|bUa_aBbdblbia(bRaLa|a0abaBaIala0bebwbsbOboa0bRbObIb$a9bCb~a_a?boclb1ara?adaqbca9aKa|a_a;a*axalbUbob(bvbsbwblblbtbHa;bobkblblbsbDbDbJbUb;bHbIbRb7bXbNbTbTbRbHbHbwbwbobdbdbdbdbkbcbkbca|bdbobkbsbobda}bdbwbHbIb0b0a?bIa_a;aIaxbHb0b%bJbwbtbtbtbkbtbsbtbybIbHbRbDbFbNbXbIbHbNbJbOb8b9b9b2b{b]b[b-bRbObDb1b$b1bIbHb$b2b7b-b0bIbob(b?cpa(aWbIbIbHbkb<aNbCa/azaladaOb-b<arala0afaqbvamaqa_amalavaqalbHb{bTadaqafaXbIaXa/bKbDbybdaxala_b1b{b9bRbUbTbObTbXbXbNbJbObXbXbTbTbYbYb3bYb8b3bYb8b2b8b8bXbUbTbTbYcFbUaLclcpchb^b^b(b9bJb-b[b\b]b.b.clcEa_bob$bo",
"a?a|a?aKaBaBbjcqbIbwbCbtbybybFbNbJbFbFbEbDbwbvbsbwbvbEbEbqbca[a<a9a#a;a<a/a;a9a9a)a0a4a4a4a0aWa!a0aIa!a3aIaIa,a4bRa,aua;btboa3bIaKa|a3agaNaWasaWbdbwbebRboaWbHbDbIbRaua3bIasa}bocgb0ahbaaiaqbca,aLbca|bsa}auanbsa;bcbdbobsbkbdbwbja(btblblbtbEbxbDbFbIb0bJbFbUb1b1bRbRbRbNbJbHbCbwbybDbDbCbCbFbFbJbpbkbwbDbFbUbIbwbvbtbHbHbCbTbUa!bvbwa[aDaMbRbwb.b2bUbCbCbHbybDbybybDbNbRbHbFbFbIbIbTbXbXbTbXbUbObDbIbUbUbUb(bXbUbwbIb0bUbTbTb2bTb2b%b9bUa}a}bIcga)aXbwb8bXbvb?aLbHa;aEakabaSb8b;ava9bHbobHb;bIbUb(bobobdaWaobwb-bEaiaqagaNbIa4a!bwbvb9bsaIama<bHbsbHbRbNbKbObObTbTbFbEbybFbObYbYbTbYbYbXb2b3b3b8b2b8bXbXbXbXbXbYcFb8aMcHcRchcuclb[bXb(b;b[b[b^b?bHb<b0bRb0b?a_",
"a?bRbca)avaBbvb$bqbubsbwbDbJbFbybwbsblbsbwbwbsbqbpbebibvbca;a5aQaYa5a9a=a/a5a0aQa5aLaKaIa0a0aNa0a0aWa3a3a9a,a4a<b7a!auaNbHbkaQbRaNa}a3abalaData(bkbIbsbRbvaWbRbdbwbsama?b(atbcbsccbUada[alatboa9aMbca(bIbjauakb(bTbsbsbibjbabtbCbva?bwbsbvbsbwbwbybybCbwbFbNbTbXbNbTbXbDbybFbyblbdbobCbCbwbwbtbwbvbpblbybHbCbIbCbtbtbvbCbHbob9bXa0bva|bcaNaWb(b0b-bXb1bRbDbwbtbybwbDbwbFbRbDbRbTbIbIbNbYb1bXbTbXbRbRbHbRbRbIb$b1bUbHb2b8b9bXbXb8b2b0b7b(b(b0bUbUcga)aKa0b(b7bvb;aWbCa?aDafacaYb2b[azbCbsbCb8b2bTbRbUbUbUboa;ambsb(bwamamataIbCa0a)bRa;b0bvaLama_b*bUbTbTbObybybKbEbFbEbEbybDbDbObUb0b8b9b8b%b3b3b-b9bYbYb8bYbYbYb8cvb0a)cNb^b=b^b.b.b-b.b=b&b[b9boa_a}bRb$b-b{a;",
"a(b0bpa)avaIbxbJbibibXbwbKbKbEbEbpbCb0bobwbtbqbqa`bNbXbibca/a)a5aWa|bka,a=a/a*a)aXa}bdaIa(a)aWa,a0aIbRa|a?bcbsbHb1aWaBbda/a*aLbIaWbda)aeamaJaqa4bcbpblb2bIa9bHbsa}bUara|b(aua_bdb{bUada!alaubka(aWbca|a,a;auaibcbHbTbwa}a|b%bpbvbpbpbUbkbHb0bCbCbybDbCbdb9b1bNbKbwbybtbIb(btbtbsbsbsbpbRb2bsbwbsbsbybHbobdb;bHbHbwbDbDbDbib9b7bUa!bRbpa|aQa9b;b7bXb\bJbObJbwbwbvb9bCbwbDbRbRbvb%bJbDbNbObObyb?bRbObXbXbDb2b(bOb0b2b2bSb~b1bHbUb$b-bDbsccb9b?b.b;b{aPaBbCbobsbvb7a,bUbiavafafa1b9b{ara<bCa|bUbRbCbsbRbRbUbka;ambvb%bEatafazaMbCa4a;b0bJbvbHa0ama(b(b(bTbJbabNbXbDbKbFbEbKbHbwb-bIbYb9b%b%b8bNb}bXb[b9b[bSb2bXb]b0cfcRb7a9clcwcrcdb~b<b}b^b&clcpchboaXbHb?bUbRb;a,",
"aWbHbja;avaBb7b7boa;bFbwbTbTbTbNbca}bXbybFbEbDbya?bpbUbobia`bea|a0bdbva}blbibia|a4a?bvaWa?bva}a}a}a4bdbobwbIbjaXaxaxa3bjbca0aQbRaQa_a!aeamauakaQbwbsbkb0bCa0bwbsbobRaqa}bUaua,a_cpb%abazaKaubka9aWboa;a?a;aQanaianaXbobHbdbjbvbHbCbcbUbsbob0bHbJbJbObUa?bIbUbNbYbObJbkbdb0bHbNbObRbUbkbkb2bRb0b1bXbXbRbCa_b$bUbUbUbTbRbFa?bRb9bXa;b(boa|aWa9b{b(bdb1bXb2bXbXbUbcbHbCbOb2b8b8bdbIbObXbYbYbXa}bXbNb4b4b7bsbyb9bUb(b%b9bkb$b$b(b[cdccb;bNb9b;bXa|a0auaBa_bRbUbdbvbJa<b7a}aiamalaSb8b]axa?bda}bCbHbjbsbwbsbHa?a0aobHb9bJavabaia4b0a?a!b7btbRbIa|auaiata;bTbXbdbdbHb0b3bYb8b2bRa}b1bRb-b;b[b\b%a}b8bXb=b.chb=b%bpb2b-cIc&b~aSb.b&cpcNcIcHcAcybTbTb~cEcpbdccb;bdbsb7a?",
"asa3a0aPatalaYa9aYaOaOa1a1aSaSaSaXaLaOa)a1a1a9a1aXaLaQaXaOaOaQaQaQaJaQaXaQaQaOaOaMaDaBaWaQa!aXa0aWaWaXa!a,aBasauaQa?bobCbva;a(bca?a3aqabaqaqala0bIbwbob(bHaWbka_bdboambcbCaua,a|cxcgakaqauaqa_a?aIa(babja}a;aXaIamaialaWa_a(a(a(aWaIa;a)a!a0a(a(a9a)a;a(aXaXa;a_a/a*a=a*a*bebcbpbobdbca<a|bdbcbda}bda}bca|a;a_a?a?a?a[a[a<a4a;a,a4bCbIbCaYaDa|bsa|a[bobda|bka|a<a!a<a?a|a?a[a<a<a[baa|a|a[a|a=a`bdbda`baa/a/a`baa?a}a|a=bibtblbsbubqbsbea3auasaBa,btbHbRbIbcbHa}bvbIaIafaKala)b.ccaBabagafana9amataWacacaiaiambHbUbHa0axacaxbkbHaWb0b]b(bUbCa|aKanaiamaQaSaOa4a5a1aYa5aYaXaQaOa9a9a5a5a)a*a1a1a-a/a=a\a\a\a#a)a`bebLbiaMa|a=a`bebebibabaa\a)a\babia*baa*a<a9a<aM",
"a0a3aXaKaIaBaKakaqaqaoamalaialamalalamamaoaoaqaqanalaqaqanaqaqaqaqananaqaoamamaqaqaqaiamamalanaqananaqauaxaXa4a,a[bsbvbda<a)a9aIamahaiadaxaoaqa4bdbsbtb*bIaLa,a!a|a_aobka}aua}bCb]b]avbHa0ahanaIa!aXaPa;bjbsa?a4aQaJaIaqanaqaqaqauaqaqaqaqalanaqaqaqaqaqauaqalanamaqatatavavatatauatatauauataqatauasauauaxauanasauauaxaBaDazavaxaJaDaIaIaBavataqaqataqamalaianaqatataqaqaqamamaqananananananaqalanaqanasaraoalamalamakalamaqaqaqaoaoauaxaKa,a;a_bJbFbwbka?a?a|a_aLalada0bCavaXb0ccaNacalacaxbRalaxbvalamaramambCb2bOa}cxbCabanaNa;a0a0bkb$b7b$boa,aXaLatavazazaxaxaxarararaoaoataoaqaoaoaoatamatatatarararavaoamaoamavazatauavaoatauatauarataratalaLa(a0a5a)a4a4",
"bNbsbsa_a(a?bsaNbkbkbea<a?a_a;aWbca)a0a4a!a4a9a0aKbva3a!a!a(a;a,aNa?bIa(a(a0a(a(a4aKbIa!a3a9a(a,a9a)a)a(aNbIa_a|bda?a(a)a)aDamaiamatanakaNaqasa,bkbobtb<b0aua(a0aXa0aqbdaWaxa<a|b;cpamb1bRagasalagasaNaWaKa(btbIboaPbRbka;a?a_a?a;a?a;a(aWbIa(a,a,a?a?a;aNa?boa0a4aKaQa0a0aQaWaWaXaXa3a0a9a4aXaXa4a!a4a(a(a!aNa,a;a?bkbsbvbwbHbwbsbtbjbda?a}a_a?bva,aWa9a)a5a(a;a9a)a9a)a,a(a,a;aPbta}a!a(a!a,a,a,aPbRa(a<a<a;a;a;aLbsboa(a?a,a;a|a}a}a_a,b?bsbRbRbpa(a_bca<aIamalamahbka}aqaWbwb?aQaiatafasbtanaqboaoaoaralakbsb0b0a,b-ccacakananaBaXa(aQa!bUb~b$a;bUbobpbpbsbkbdbobdbcaXbRbca;a}a_a|bia?a(b7a}bcbebibibca4a|bva;a|a_a|a|a|a4bka}a_a}biblbebebeaQa)bvbka_bdbsbd",
"a_a?a;a<a;a_a<a}btbybsbvbDbwbwa?a(bcbda?a|a}a|a,a4a_a?a}a|a}a|bca;a)a?a?a_a?a?a;a;aWa;a;a_a_a|a|a_a;a[a?a,a3a_a,a,a_a)axamaoarauasaqakauaXaqasa!bjbjbab9bHakaWaNaKaxaQb<b$a)a!a|b}b{ana}b{akacasaIaqafaqaXa!aXa3a}a}a}bkbvbvbwbsbsbobja}a(bjbabsbobobsbsa;a3a;boboaQa4a4a4a0aWaQa3a;a,a,a;a!a!a,a<a,a,a;a3aWa!bobDbJbNbNbHbHbRbRbRbIbHbtbkbtbCbCbIbaa|bsbsbvbvbpbda}a|a}bobobobta,a?bdbobobdbsbCbwa;bcbsbtbwbvbCbHa}a_bsbvbCbHbHbCbCbHbCbobjbvbkbkbka`a;atalavatanafaBbHaQaja0bIb1axamalabala_acafa_ajafakagaibwb1bUa(bIclauacaiakasakaua,a}a3aPa;bvbCbRb0bRbTbNbNbTbIbRa}bda}bsbtbCbIbRbva;bobUbJbybNbJbIa_a!a_bvbwbtbCbsboa;a(blbJbTb3bYbYbXbJbvbka_a|a}a_a|a?",
"bobsa}bwbvbobdbdbobobobvbCbvbCbka}bda|a,a;bdbaa;a/a<a?a?a3a;a(a}bda}a|a|a_a_a_a?a?a;a,a?a;a/a,a(a!a(a?a*a,aXaNa)a4axalalataoaoaoaBaXa?aDaXaqana3a}bca_bsbkbcbsbjbobCa|a?b$aLa(a}clb;amaQbibta0asaiavaNasahata!a;a0aQa_boa|a_bca?a_a}a}a}bdbda}bda|a}bda_a|a|bcbkbCbsbkbsbwbobpbpbobobobobobdbobsbvbkbobsa|a|a}bablbsbsbibibibobkbsbobsblbdbsblbsbtbobdbCbkbvbsbdbwbobobsbwbtbsbwbsblbkbobsbvbtbHbCbpbobvbobsbkbkbvbja|bsbkbdbCbsbda}bsbobHbIbCbsbda(auaiaqaxamavaQa*bsa<auaga0bRbHaQbsbIbjbRb;bHbvb(bHbCbCbUa(bkb1bIa4bsb{czbFaSakadalavamaxa*bsa|aKa<bRbIbHbHbwbybIbIbIbDbHbHbTbybHbDbDbIbRbJbRbNbObJbTbUbCbwbwbDbwbtbybjblbJbwbObNb2b2bNbObNbFbwbybsbtbtbsbvbs",
"aXaQaQaQaSaMaJaEaEaJaDaDaDaJaJaLaLaLaLaQaQaQaOaOaQaQaMaQaQaQaSaSaOaOaQaQaOaMaQaLaLaLaQaQaQaQaXa0a4a(a*a(a!a;a_aIajahaianauaKa(bob0bRbjaua!aqaka!bdb7bRbobHb-b8btb7b0a?aNb1ana;a[cCb]anaKa*babFbTa;aBauavaKaxalataXa?a0aWaWaXaXaXaXa0aXa3aXa,a0a4a4a(a,a;a_a;a?a?a?a<a?a/a;a;a;a;a!a!aXaXa4a0aXaXaXaXaXaXa4aXa4aYaXaQaWaXa0aXaXaXaXaQaQaQaQaQaWaWaOaSaWaXa0aXaXa4aXaXaXaXaXaXaXaXaXa4aYaYa0a4a4a9a9a)a*a4a(a!a(a!a(a!a9a9a5a9a0aXa4a,aXa0a5a)bkaQalakasaNaPaWbdbRb\bRbUa|avaeaPbRbdaSbtb$b0b9b7b$b7b1b9bvbUclbUa?bRbDaPbjb$cCcScvb=bOa_aLaBaoalaxa!bda(a4a4a!a!a*a;a*a;a(a(a(a*a*a(a(a(a!a!a,a!a!a!a!a*a)a)a9a*a(a(a(a(a(a*a(a)a9a9a1a4aXa0aXa0aXaXaXa0a4a0a0aXa0",
"amamamamamamalalalalaxaDauanaoataoaqaoaoaqaqaoaoaoaoaoaoaoaoarauauauauauauararauauarasasajanaEaIavaraDaDaDazaralalaua0a<bsbIbXbObIbRbdaqa(aqanaXa_a3a;a,bobvboa?bcbva?bHb$aBa3a,bUbtaua!a?a;bdbTb1bIbsa|a_a0aDavavaxauasasauaxauauasaqanaxa0aLatamataqaqaqaqaqaqaqaqataoaxaBaxaIaKaKaIatauauauauavavauauaqasaKaxaqasarararataqaqaqasaravaravarauauauavavavavavavarararaoaoaoasasaoaoataoataoaravavavaraoaoaoaoamaqaoaqaqanaqaBaIaualalalaqaqaraBaQa,a_a}bDb(b]b\b(bFbUa<axafaQbCa}aDbIbIbwbHbCbHbFbDbCbda}b$bsa,bRbHaPa}bRb$b(b\b}clcgb{b0bsaJamavaMaJazaxaxasauauaxaxaBaBaxauaIaNaxavavavavarataoatataoaqaqaoamataoaoamamataoamamamaoamamamamamalanamamamamalal",
"aravaxavavaxaraoaiata_aWa4adaiakalamamamanaqaqatataoaoatataoaoamamamamalamamamamamamalaiafaxa(a4aWaiamamaoaoaoamadaXbEa<btbHbDbybCbHa9ama)ataqaBa0a0a5bpa?abaQbUa0agaBbsbvalaqaBaJa4aua!a[bablbebRb(b0b0btbia0abaialanananalanalalakakaca!aPa(arafakamaqasaxaxaxaBaDaDaBa3a,a4aXa0aXaNakamamamamaoaoaoamadaJaWa;amamaqaqatarararavarataoamamamamalalalakalalamamaoaravavaxaravaxaravasasataravavavavaqava0axaDaBararaqaqalaqa_aPa0amazaDaFaOaQaLaha)a}bwb2b;b?b7b2bFbva!aBafaYbRa}avbUb7bUbRbJbFbIbIbIbIbUb;boa0bHbwa!bobIb0bTb$b(b1b7b7b7clb-aeafakaoarataoaoaoamaqaqaqaoalama)a(a!aqavazaDaJaJaJaLaJaDaxaJbxbFazazaJaLaMaOaSa4aYaYaQaQaQaQaSaQaMaMaLaLaDaDaxax",
"avavavavauaxavavamaBboa|a_aoaDaJaDazazazaxaxavazazaFaFaOaOaMaMaMaMaMaLaLaJaDaDaLaIaIaBatalaIbdbda)ataJaLaFaDaBatadaNboaLbwbXbybybsbca0ama)ataqa;bsbvbcbUbsaeblcVbRamaobvclavamaIaWa;axa9a*a*a|a?a_b0bwbUbybwbcaqaBaBaBaIaKaPaNaWaPaPaKama|bcbHa4aWaWaQaQaQaMaBaxauauauasananalanananalalamamakakalalalalada(a?bdananasauauasatatataqaqaqamaoaoatararauaxauauaxazaEaJaMaMaQaJaLaQaQaLaLaJa!a3aBaJaJaJaJaLaYaOaXaXaQaQaLaJaxaxb0bwbdamaramahadadadaba_a}bCa?bUcub(b2bXbTaYavafa5b8beazbdb$b8bTbRbJbJbFbHa/b1b~boaWbwbDa*blbIb4bTb$b(bDbUclcucEb{akavaBaJaLaIaKaNaEaPa0aMaSaWaJaxbHbCbsaQa5a*a/a;a;a/bXbwbtbubtbJb4a0aLaIavataoatavaxaJaLaLaMaFaFaDaDaJaDaDaBaxavav",
"aJaDazavataraqakafaxbja;bdadalamaoamaxa(aBasauatava)aMaFaFaDaDaJa0aDa)aMaMaFaLaxasaqaqaqaiaIa|a|a9ataFaOaQaMaKaIalaKbFa[a_a}a[a/a}a}a9ama<azama;bCbibebRa|aebacxbRaxada?b~b{adavaQa*axaLaSaYa4a9a,aLa*a?a|bea_amaBaIaNaNaLaWaXaWaLaDaxalbca)bCa0avaxaIaLaLaWaWaXa0a!a!a!a!a(a4a!a4a!a5a5a5a9a9a9a9a9a!aXasa_bCbIaNaKaLaLaxavataoaoataravaxaxaxaBaDaBaJaJaEaEaFazaDaLaFaFaDaDazazazaDazarbTbvamararaoataoarararararaoamalagaxb2bcbCaBa)a;a=baa|a<ava|a|bcbCbcbUb9bUbJbTa;avadaSb8bsaRbIb0bXbXbObIbJbFbIbcbIb]bwaWbCbwaWbdbybXbYbNbUbJbdbHb\cCb?aoaOa)a\blbFbybJbFbFbta=a[a9aDavbCbHbsajaoaoaoaoaoaoaDaFaMaSa1a#baa=bibxbEbDbsa|a4aIaBavamamalajamamaoaoataravavax",
"ataoataoaqauaxauamaxbIbvbdalaBaQaQaWa1a|a<aLaQaWaXaXaYa5a5a)a*a)a!a3a0aJaKaIaDa0aWaLaNaKaqaBbsbpa0avaLaQaXaXaQaLaqaPbObybsa_bsbva*a?aWama|a0aqa?bobibsbJa?ada[crbRamaeasblcQcraraqaWataDa5a9a4a0aWaLaJa0a5a0aWaIaPa0a!a3a!a4a)aSaYaSaJaobpbpbUaJamataqaqararasauauauauatataqauatarataoataqaqaqaqaqauauauala;bRbUaMaMaXa(a/a=a\babca|a|a?a5a4aQaJaIaxaxavavaravavaravavaxaxazaBaDaBaBaxata|bcataxazazaJaDaJaJaLaLaQaQaLaDaqasb9bwbcalavaxaBaJaLaLala!a<bwbIa|bUccbYbYbJa<aIaeaQb0bsaFa}bRbIbIbFbJbKbEbHa_bIb$bkaWbFbDa(bkbDbRbCa}bDcgbTb9b=cvb;aiaDaJaEaJaQaMaMaMaFazazazaxaqaqbsbHboadamaoatataoataoatatamamalajahafajalataxaQa!a_bdbsa}a_bda}a,a!aXaXaLaDaBaxau",
"aLaJaMaMaQaXaQaJarata3a(a;acananakakaiagakafahalaraxaxaxaxaxaDaBaIaBaBaBaBaBaxaKaLaBaBauagasaWaNaxafaiaiakakaiagabaXbIbia_aPb0b0aWa(aDalbkaWasa_bHbkbsbRa;aba4cicxaiacabaxbkcLc5b-a!aIaWa|bsa}a!a3a3auaqavavanabababababababacaganasasana3aNa;axavaDaIaJaLaLaKaNaNaKaKaJaJaDaQaWaLaLaLaLaIaNaIaBaxaBaxavaka3aXa;aqacabababababadadaialasauaKaNaPaQaQaXa4a3a0a4a!aXa4a5a9a(a(a)a*a)a*a)aMaXa(aQa4a*a}bda}a;aXaXa0a1aSaNaBanaia3aWa!aqaxauaxaxaqanabaXa;bobka,bUb(bjbDbDa}aNagaQb0bkaWb$bRbRbHbHbHbDbDbDbJbwb1boaQbFbDa(bwbCbobca<bob$bXb-b\cdb0abagananakaiaiamamaiaialamamafaka;aXa,alavauavasaqaoaoaoavaqaqararaoamalalalaiadadabababagalaqaBaKaPa!a;a/a/a/a/a*",
"a;a_a(a*a;a,a?a,a,a3a,a,a;a9a3a!a;a(a(a)a)a,a(a!a4a0a!a(a(a!a(a!a!a3a9a;a3a0a0aWaWaWa3aWaNaWa0aQa0aLa0aKaPbCbsa_aEaXbCbla`a;aQaXa*a(aDalbCaManbIb1bybybIa(abaobtcVb}abababakaFbycCcWcEcgbIaWaXbCbobsbRbUbcbkbCbUbHbwbwbobHbca;aIbwb;b;b~a;a;a|a_a}a?bjboa*a*a;a?a?a?a|a_a_a}a[bcbkbobkbkbcbkbkbda_a_babdbdbobwbIboa|a|a|bca}a?a|a|a}bjbobkbvbjbjbdbda|a_a|a}a`blbtbwbtbtblbibsblbqbqblbia?bvbda?aIbHbUb0b0aPa?a|bibebea[a[a<a|bcbsbkbabHa(a_bUbsasa0a_bsbCbaa,bjbtbRbRa,aBaiaWb7bkaLbUbHbHbHbCbwbwbCbHbHbwb9bdaQbIbRa*bwbCa_bca}babdb7b}cqcib$bkb8b{b$bCbIbRbCbwbCbUbFbDbsboa?bdbsbIbFbDbDbybyblbebababkbqbubebsblblbkbaa`blbea`btbya\bebkbaa}bebdbaa}a}blbaa|a}",
"btbwbdbobybybIbybtblbtbtbubublbubybtbubyblbsblblbsbsbtbsbobobsbibkbdbcbia_a}bebebcbibpbsbebabebea\a\bka,a;bRbCbCa,a!btbdbaa!bvbva!a(aDambyaMalbjbFbFbIbXa*afafaBbEc0cCavababakamavaQa=bNbOa/a/b$bTb2b]b[bJbXb4b\b?b*b4bXb9bybiaMa;bDbdb$a}bIbDbObUbJbXbXbybybybJbFbFbNbDbTbObEbKbNbNbFbNbEbFbObObEbFbNbNbFbtbwbFbtbtbubxbybxbqbxbDbFbIbIbIbHbIbIbHbIbIbCbwbybFbybJbTbTbNbFbEbEbKbKbKbFbEbebJbIbya0bka_bvbwa,bdbda}bCbYbYb.bEbJbNbYbYbXb;bkbRb<b7aNaXa;blbsa!bHb;bNbObNa/axaiaYb8boaLbRbCbCbwbtbsbtbCbybybHb$bkaWbIbHa!bsbtbla}a?bsb;b;cqcdcpb;a[bFb8bDbvbNbYbJbFbybNbJbpbsbtbtbDbNbNbXbTbTbXbXbObybFbEbKbSbSbSbSbNbFbybFbqbFbFbybTbObJbObXbTbTbTbObObJbObYbFbFbJ",
"aoaoatararararararazaxaxazaxavaAavaAavararaoaoaoaoaoamamananaoaoamamalalamamamamamamamalamamamamamamamajavaLaBaIaoa0bybtbsa*aXa!a;a)aDambCaLakbCbwbHbkbRa,alauaiaxa}cscZcwa|aBamalaeababababahalalaqasaiaiakaiagagagafafafadafada(a?a0b0aIalananamamamalamamamamalalalamalalalalalalalalamamalalalalalakalalajaialakaiakalalalamanakaqbobob$alagagakananakakafaQbcajakakalalaiahahaiaiaiamalalakakbsa}bda|alaiadabbHb[b[b;a,bca|atananaiagalaqaqaga!a;bvbHa|a(bwbIbNbIa_axaiaQb(bCaLbUbIbHbwbobvbybFbybybyb(bka0bJbwa,a}bobRbRbIa_bvb{cgcrcvb[ahalamababahalaoatamaia0a,alaqaoaxazazaxavauavararavamaoamamaravararararavaoaravaraoamamalamalamamamamamamalalalal",
"azazazazazazazazavaxaxazazaAazaAaFaAaFaFaFaFaxazaFazazazazaDazaDaDazaDazaxazazazazaxavavazazaEaxaramararaoamalajadaXbwbybwbyblbibca,axalbHaQaib?bHbyb}b<a(amaEazaoalara*b:cAczclb;bObCbwb0bcbdb]b9b]cTb{cgb]clcucHclb$b*b$b$b7b(a!aWaLb7b~b9b0b7b(b7b(b<b*b4b\b~b;b;b;b%b-b8b<ccb?b*b{b<b(b(cecpb<b%b4b~ccb*b?b(b<b*b2b%b%b(b*b.b.b2a/cGcLc!bybebqbxbObTbTb4a}b\cCbebIbIb2b2bJbFbTbTbybtbtbda/aMaqbdbcbka}aDaBavala;a}bobcbjb$bUaNbdb4bFa[azabababa,a!bwbXbXb2b2bFbybCa;aIakaEbUbHaLbUbHbHbHbtbybIbHbybFbwb(bca5bIbwa3a,btbUbTb(b9b\cdb<chcdb?afadatb4b9bibabia9b4a/btb7anaqaEa}a`a[a1a1aSa1aXaJa)a=aFa*aMamavazavaFaEazazaxazavaBaxaxaravavarauaoaoavauavavarav",
"avavavavavaxazaxavavazaxaxaxazazaxazaxaBazavararavaxaxaxavaxaxaxaxaxazaDaDaFaDazazazazaDazaFaEaxasaqalalaoamajamaiaLbla|bkbaa}bka}a!axalbDaMagclb\bYcrcia0ava!a(a0aDadadahamazaOa*a/a=a\a`a1a(bybdbabOa`a`a|a}a}baa=a)a)a9aRaYaOa;a|bdbUaSaDaFaFaMaMaJaQaMaEaMaMaFaFazazazaEaDaFazaDaDaDaLaLaMaMaOaFaFaFaFaDaDaDaDaFaDaFaLaMaMaMaQazaobkbabqalahamalaqaqaoarajbibUarauaxaxaxaxaBaDazaDaxaxasavaoaka|bka}bdaqaoamala)bRbIa(a0axaKanasaza!bwb;cebtabaua!bobCbIb%b%bObybwa(aBafaLbUbkaLbUbIbDbDbtbtbFbybHbIbFb(bkaXbsbvaQa0bdbXbRbyb(b$bybdbwbta*avb=c4cGbeazatamaqaLaBa}bDaraxaEa1aPaPazavaxaDazara1cib+ciczaFazaFaLaMaEaLaFaEazaxaFaEaEazaxaEaDaxaDazavazazazavaz",
"bNbKbJbTb4bLbSbYbLbYb3bYbEbGbGbKbLbLbTbObJbJbJbFbEbKbObObTbXb4bTbUbDbKbYbYbLbGbEbGbGbKbMbLbLbTbJbFblbwblb4b*bwaFararaBaLa=biblbibka,axalbyaMaiccb]bOb-cea,axbdbwa_a?amaiaiaiaIaxaJatajaoasasanarasaxaJavavamaiadabaiaxaLaQaQaPauaLaXaSa*a#a/a-a=a=a\a`a`a\a\a[a\babababebebebibibtbtbtbyblblbqbEbtbybFbybtbybybEbFbJbFbKbJbJbFbObJbybia`a/a[a=a[a[a\baa=a=a\a*bubKbObObKbObObIbybKbKbKbKbTbObObJbyb9b:b+b3bKbybEbqbqbia[bea\a/a\bea*a4aLaxaxbacHcSbJaqaIa|bJb%b;b(b1bRa*aBafaQb0bHaXb9bHbybDbDbDbRbHbDbJbIb-bia9bsbwaDa;a3btb$b4b;b;bRa;axaoblcFcvbaaFa}bxbFbFbObYb9b+b+b:b=b:b)b)b3b)b&b)b&b9b!b[b:b|b[b=b+b9b)b+b+b(b+b%b!b*b%b=b3bXbObLb.b%b2b<b;bTb-b4b1bObT",
"a)a*a1a1a1a1aZa)aZaZa6aZaZaZaZaTa)aZa)a1a1a1a1aOa1a)a*a)a1a1a1a)a1a1aZa#a6a#a6a6a#a6a#a#aZaZaSaSaSaSaSaOa`bTb.b&bwaYararauamataxaQa4avaob(a*agb(bCa,bTcrbdaBbaboa|a<auajajaoa_a,a_aQaoaJaSa(aXaXaLaBaraoaoamamaxa)bca<aXaOa1a9aYaOaSaOaRaTa6aZa6aZa:a-a6a-a-a-a#a-a#a#a1a-a/a[a*a1a/a#a-a-a#a#a-aZa#a#a#a#a#a#aZa#a#a)a#a)a1a*a=a=a`a/a/a-a:a=a:a:a:a:a:a-a:a:a:a-a-a-a-a-a-a#a1a1a#a#a#a*a*a#a#a#a#aZa#aZa#a6a-a:a-a-a-a#a-a#a1aOaOaSaFatararaDb9c5b?axacakaDa)bvbHbRa;aIagaQb0bHaWb(bIbIbIbFbEbNbNbNbNbyb;bka!bobHaDa?aXa_bObta;aIaiaub2b-b-baaza)blbea1a1a1aRaSa1a#a#a:a:a:a-a-a6a-a6a-a-a-a-a-a#a)a#a/a-a=a#a)a1aZa#a6a#a6a#a#a-a-a-a:a-aZa-a)a1aZa#a)a1a1a=",
"b9b;a1a/a=a:a\a:a6a-a2a2a.a7a.a2a.a2a-a#a=a=a*aOa4b7bOb8a`a1a-a#a6aZa6aTaUaUaUaUa7a2a6a6a#aZaZaZaza*bTb.a[aOa1a\bybXbTa/arahalajaiajakanbDazafbkcVcIcFc8cgaza?a;a;a;aEajalambcb0cEbtaoaQa,a|aBarararatajataYa}bia)aQa4bIbFbYb%a#a:a:a6a6a6a6a6aTa2a2a2a2a6a.a:a:a6a-a1aSb.b.b}a[a#a-a-a:a:a:a2a.a.a>a>a]a>a>a>a>a~a.a:a.a=aAbib*b-b4aRa-a:a:a>a.a2a2a2a2a7a7aUa7a2aTa6a6a6a-a-aOaFb)b9b%a-a1a#a-a:a:a2a2a2a2a2a2a.a.a.a.a-a6a-a#aFazbNcEbUaxamataoaBbyb{b$aEacacaiana(a|aIaiaLb0bDaMbDb;bUbHbIbFbKbKbJbvb9b]a|a!bdboaKa;aIaxavalafaiaXbkb;b;axaEa=a9aOa*bFb-bLaAaZaZaGaRaya2aUaUa7a7a+a7a7a>a.a>a-a-a#aOb+b=b<bTaZa-a:a:a2a2a2a6a2a2a2aUa2a2a2a2a6a-a.a:a:aAbib2",
"blbNa:bra2a>aVa&cab>b>b>b>cbb>cbb>b>b#bQa$a+a.aTaYbCbcbCbrbba>a>a%ckcbcab>cococbcbb>b#b#bha{a7aUa#a=bxbGb^cvb9a/a1a/a[bJbXbaaxajalajahambDavaka3cdcucAc$cuaDa?a;a(a|aNamalaia_bRcGb1alaKa}boalavaraoaza<bwbcaQaKa_bvbXbXbTbXb)a~bfa$b,cacab>cacbcbcbcocbcbcacabna7a+aTaZbFbqbOa/a+a]a$a^b,cbcbcocococtctcococbb>b#b#a{a&a]aya}bJbtbFa.bza&bnb#b>b>cbcbcbcococbcbb>b>b#b,a%awa:a-aRbLbKbFa#a~a.a>aVbWb>cacbcbcbcbcbcbb>b>b>b#bna%aGaTbFbYcycLb\a)amamamaJbTcrb*aEafacaIa;aIahaQb7bCaWbUbsbObObNbTbObNbOblbIb;bda;btbdaOa*aJatalata(bIb0a_ataxa4aSaMa|b3bTbFbTb!a:a+bgb,b#b#b>b>cbcbctcbcbcbb>b#a8a>a.a#aRbFbwbFbua>a]a%a&b#b>b>cbcbb>cbb>cbcbcab>b#b#a{a%a+aya|bH",
"aXa(aRa-a6a7aHbgbhbhbhbhbhbhbhbhbha{a{a8awa7a6aAazaQaMa0a6a-a6aUaHb5bhbhbQbQbQbQbha{aCa8a&a&a2ayaRaRa1aZa1bab^cmb-bEa)a1a1bibRa*alagadalbwavana(b2b8b.b8bCaXbdbaa}boaQamalaia|bwccb0asaNa;azakataYbibIa}aWaNa?bRbXbybEbEbqa=a~a-a7a7bnb5a{b6bQbQbQbQbQbQbQbhb6a%a7aUaRaAaRaMaOaAa6a>a7aVbnbhbQbQbQb,bQbQbQbQbQbha{a8a^aHa.aAaAa)a1a#aRa>aVa^aCa{bhbQb,bQb,bQbQbQbha{aCaCaVa7a2aTavaZa1a#aAa:a.a:awa^a{bhbhbhbhbhbhbha{a{aCbna^awaGaTa\a~bebEb[cvb-a/arahadaxbFcpb7aXaiaxasafaYb8bUamavaBavaBaBavaBaKaBaIauaxaBbobNbwauaIatakaQbRb9a|aNavaDaDa1bJb[bTbsa/a#babra:a+aVbna{a{a{bhbQbQbQb,bQbhbhbna$aUaTaTavaZa1a1a)a2a.aVa$a{bhbhbQbhbQbhbQbQbQbhbha{bna^awa2aGaKa*",
"aOa|a/a*a=aMa-a>a2a>a>a>a>bba6aZaTa6aTa6a2a:a:aZaOaRaOaYaZaZaTa6a:a6a6a6aUa2aUaUa.a.a.a.a>a~bbbba\a:bea#atauaxa0beb[clb*b(bta9a;a3anabalbsaoaqa(bRbDb8b.b0a(bsbobdbCa,avalaka|bkcpbRafaIataia(bvbpa9a0a)bobCbHbUbIbsa<aLaFa5aZa1a6a-a-a6a.a>a]a]aVbga]a]a]a>a>bba~a~a:a:a:a:a:bbbmbrbrbra>a\a>a7a+a+a+a]a+a>a>a>bbbMa:bmbma~bxaZava-a\a\a~aZa:a>a>a]aVaVaHa$a+a7a+a>a>bbbba>a~a:a:a=a-a:a=a\a:a~bba:a.a-a.a>a.a>a>a>a>a.bMbfa2bPb8brbxbua1a/a[bqbubqbvbka0aiagaxbucebYaoafada0b0b-alafamabaiaxaealaNafaqanagavbUbRbsababatbkbpa;aDaDaQa}bTb{b.bOa`a*aXaLa1a9a:a=a:a\a:a:a|a>a>a]a>a]a+a]a>bbbbbbbbbba~a:a-a#a6a~a:a~a>a>a>bba>a>a>a+bba]a>a]a>a>a~bBbibrbtbubtaX",
"aXbHa|a|bcaza/chb_b:b:b!b+b+bTb)b:b)bTbTb)b4bNbNbOb9b%b(b8bYb.b.b)b+b!b!b!b!b:b:b_cfb_b^b_b_b&b)b)bNb)b}b;a)atavaLa!a=bwb.cdblbtaxaKadambiamaqa;bvbkbpbRbIbcboa}a}bIbdaJakaka?a}cxb-afaIakalbca|aDa;bqbFbTbObta=aWaIaKa(bNb8bwbFb2b-b\b^b_b_b_cfcfcfcscmcmcscecfcfcrcib}cfb^b^clcycKcBcsczcmb_cfb.cfb_b^b_b^b|b_cGb~aLbwbObDbXa}aobiblbaa|aNa)b{cscscicscmcfb`cmcmcicmcicmcfb~b\b:b|b}b}b^b|b:cdcfb_b^b_cdcfb_cfb^b_b~cfciczcpb[cdcrcCcNczbRa*a;bebea!a,bpa;baa4amaQb2b4aqabaXbHb-aqalauagalaBadaka4aiataxakaBbRbDbiabaKbpa|aDaQaDbcbXcdb[bFa*aSaLaLaLa,blb<b\cdcdcAcmcycscscfcfcfb/b:b|b:b_cfcib_b:cfcfcfb_b:cicib_b_cscmb_b_b_b:b:b!b^b:b!b!b_cmb.aSb0b3bxb0bc",
"aLa<bwbsaKaqaDb7a;a,b9a_bdbCa0bvblaSa!a,aYbwbsa9a|a?a[a)aFb-a[aQa9a)aOb8a}aDaXaWaOaDbNbEaBaLaQaQava<bvavb%cxcubYaXaKa(a}blbiaSbyaqaEacasbeamaqa?bRa_a_bIbHa}bibia`bFbua)ahala<a|cyb]ahaDaiama?a(ara_bwbObIa`aBaxaWbdbTb1a?a/b2a)a|bdbsbybcbub.bqbKbGbFbFbsbIb?bdbxbubDbya?bJb9a_bdbva}a5a0bHb0aLaSa!aXaXaLa}b0a0clb[aBa_a<b-bIa_ata4bRbHaWaBaJbCa_bab2a|bybybDa=bUb0bebibqbqa*bYb0a|bibaa?a0bUbDa*a[a|a|a1blbRa)bibebca<a}b~bGb.b2bka`bOcxc1cKb[a;aPa!a|a?a!bObXamaLavbsa9abaQbpb&ava3bsbsbCbJbCbRb7bRbka,aPasbHbxa=ambca_aja,a_avbca|a?bla`aLaQa9bebTb;b&biaObab]b&bFbYbab)bwa1a/a1aLaJaBbUbaa)a*a1aLaXaYbRbaa=aQaza*a<aObEa}aDaFa)a=a`a5bCbFbib~bJaKbobdb(bka<",
"aKbda!aXaNamaJb$a|aXa,a|a?bva;boa_aDa;a?a<a4aOa)a;a1a(a(aDaLaBaBaOa*aOaSaLaQaYaYa)aQaQaQaJaQaQaJavavaBaxaDaJbUcSc1a;aLbsbybuaQbdavaLadaxbvamana;b0bjbsbJbHa_bda`bDb$a*a/azala/a/cycdaiaLalaqbca<aBa}bDblbcaQaqbsb;bObla`a<a4a/a/bdbtbubybta`bibwbKbybubNbFbebybNbKbFbubqbaa\bibubca5a(aQaWa4aQaXa!aXaJaEaEaQa0a;cpb\aIa_a?bob0a|aua_a;a;aWavaBa,a}aXa(a|bibea`a`a[babqbxbxbxbea|bebibtbebaa!a)a=a/a*a/a[a)aOa*a[babebqbea?bibKbNbYb^b[bia1becicXc0bjava}bda|bkbIara*araLa;abaLbvb?ata?boaPbvbCaWa4bIbsa|a(aPalbwb]bFazbpaBarbsbeava}biblbvaWavbFb[cdb^bNb-bSbRbJbqbxbFbTbEa`a*a/bibaaJaXaLa(bia=a/a_a4a/a|a<aMaSaJaxa9a4aLaLaEaXa4a}bwbsa|a=a`bwb=bSaPbda?bdbya;",
"aDbva<aWaQamaDb7bua`a}a|a,bda(a;a!aWa4a;a0aLaMaSa4aDaIaIaxaxaxaxaDaQaQa*a,a4a)a/a<aQaLaLaDaMaJaxaxaxaxaXa;a0aQa?cca!aXbkbtbJaMa}axaXadatbcaoana,bHbkbsbDbya*a}a[blb%aQaSbCala/a/cychalaWaqala|a;axa?bdbybjaLalbHbJblbebabaa|a|bebqbqbxbybFbKbJbFbFbxbtbDbCbRbTbObFbua|a/a;a?a*bibaa/aXaLa!a0aDaSaXaQaDazaFaOa1a;b~b]aDbcbCbHb7a|aqbcboa_aWavaxaKbta,a[a[bebibdbaa`bibiblbxbqbsbsbsbibibla|a(a/a\a;a(a/a[a?a}a?a?bebibqbqbxbFbybtbEbFb1b{a|a(blbycNa}aDbob8bFbcbwaKa9aqaqa)adaQbvb;ava<boa3bUbRa;a0bkbca,aPaKahbIcpbXatboaxavbCbcaxboblbybiaFarbFcvczb[bEbybYbJbybxbFbKbEbYbYa|a?bybFaJaQaLa[bKbea_baa|a_a`a;aDaraxaxaDaxaLa4a*a;a\babtbHbIbIbDbDb]bSaDbdbybibIa,",
"aDbsa;a0aWamaJb$bta=a[bta)a_a,a(a<a0aXa4aLaQaLaWaIaNaQaQaBavaxasaoaLa|a_a<a(a9a5aYaFaDaJaxaxaDaDavavaxaJaQaLbCbscqa0aWaPbsbUaDa|ava0akalbcaoana,bta}a}btbwa4a/a;bibXaLaBaWaPa,a_cycuamaMamalbja_axa/a1bKa_aBahbsbJbXbRa_a|a}beblbqbubsbsbqbybJbObObIbsbsbybtbybsbtbea<a4a0a!a0a4aOaDaBaxaWaQaxavaxaBazavaxaBaMa5b(b9axa?bdbdbRa}asbsa_a?a4asauaWbDbUb3bOblbsbxbybxbybNbybxbwbybybJbFbFbFbObObObNbJbJbEbEbEbObKbObEbKbJbTb(bubXb4bebDbRb9bda;bIbDcGblaNa!b$bIbcbCa0a)aiaxa?acaQbCb?axaKa!aIaXa3axaBaWaIataxanafbUcrb8aia?aKaxbCboaMbia!bHa;aDarb=cUb!b8cdc4b)bJbFbIbObTbYbXbTbwa`bUbHaQaQaJbsbJbDbibpbebebpa;aDaFaMaDaQaEa_bta}bta`btbybXbTbFblblcubYaBa|bwa`bwa,",
"aDa|bca_aNaqaDbva[bia(a4a(a}aWa;a<a5a9a;aYa<a4a;aYaFaDaLaxauaDa0aJa!bibia|a|a[a4a(aWavazaBaLaBaxaxaxazaWaWaIa}a|b{aWaKbda|bkaMbsaBa_aqana}aoana!bHbdblbibwa_bIbIblb$aLaJaIaIa!a|cwcdaraFanana_a;axa*a;a*a(aDajbvbtbybRbaa`a|a`babababka}a?a_bibybDbDbIbIbDbwbtbybya|a[a`a|baa|a|aLaraJaraDaLarararaDaxauasaBa(a;b$b9axa;a;bRbja?aqa}bsbdaWaqauaKbibTbFa*a_bIbHbHbwbtbsbsbsbIbtbDbybCbtbsblbtbsbsbsbobpbCbybybCbvbJbCbpbpbtbJa*b{a[bIbTb%bsa(b9b9cxbsa0bvbobobHbRa0a<alata)adaYbCb-aqaua;agaua!afaqa;anabaqagahbwb\bNafaParaxbRbdaJbdbyblbsaEavcfcOb&b%cdb;bybIb1bIbUbXbObTbTbTbyb$bIa(aQaFbtbNbubsbwbxbubJbtaQaXa[aMaQaXbtbtblbNbobdbFb9b9bFbtbycIb9aBa;bkbCboa;",
"aKa|a;a,aIaqaBa;a(bwa0a0a(a?aWa_a(a0a5a;a?bca`a;a*aJa*a/auaua4a<bdbtbibtbia/a|a!a|a4asasaIa3axaKaBaxazaMaLaLaLa*cgaQaJbobFbKaXbwaBa}asana[amana3bUbja`bdbpa|bybJbub9a0bkbwa<a;a[b$b?avaJanala?a,axa/a/a}a;aDaibCb%bibwbsa|a_a_a?a|babibebybybtbwbobHbFbDbtbybybybybla|aLaXa,a4a4aXaNaxaqavaxaqaqaxaJaJaDataQa9a=cgb$axa;a0bkboa,aqa(a,a,aWasavaKa;bTa4a}bybJbCbRbObDbHbIbRb$bUbUb*b%bHbIbIbIbybDbsbdblbibaa|bebpbvbCbycxa}a(a}bUa[byb1b$bwaLbRb-cvbla4bCbTbDbwbHaWa_atamaXaba!bIb-aoaNbwalaxbdajatbkaxadaIaiaibob%bCafaKanaBbFbaaEbdbNbObvaDazcfcIb:b4b4bUb7bObObJb(bTbTbUbObCbsb9b2a/aQaXbRbYbEbybFbJbybNbsaQa*bcaXa(aNa_a}btbRbwbwbFb%bOb2bNbTcKbSaxa?a,bwbsa,",
"aJbwa<a;aKaqaIbda!a0a,a(a|bcaWa;a|a9a0a0a[bwbla|a?a4a}a4aBaNa|a?bpbvbwbtbia[a=a`a4aEaxavaxaDaEaEaEazaxaBaBaJaXa;ccaLaKbvbFbFaXboaBa}axaka/ajana3bHbdbdblbda|bKbNbFbXaBaLaxaxa;a?b(b7axaFanala_a;ava<a<a|a;aDaibkb%bNbJbtbda_a|a}a}bdblbsbwbwbtbybIbFbDbIbybya`babwbia,aXaLa4a|a;a*aLasanauaqauaNa/a)aSaYaYa;a?a}cwb-aubdbjbabva*ala|a_aPa<avaxaLa;b$a!bsbwbwbsbwbwbwbybDbJbJbXb1bHccbUbHbybIbFblbwblbsbaa,a,bsbdbsbvblb*bwaQa;bHa|btbIb1bta|bObNcrbqa0bHbTbybobva3bjaIanaKaba(b0b-ataNbIalaubwamaubsaBaiaNaiaibIb{byadaIalaxbIa`aEbcbDbIbvaDazcpcFb8b9b8bXb}bRbRcdbXbRbIbTbJbybIb%bYa;aMa/bUbUbFbEbEbEbxbHbdaEa}a?a3aSaXa(bkbFbKbCbsbsb7bRb9bTb-cLbOatbjbCbkbIa<",
"aDbIbdbca0ataIbRa}a[a?a?a|bsaPa<bca;a;bdbibsbia[bia`a!bka<a(bdbsbFbxbsa[a?a(a?a/a(aJaxaKaBaBaBaPaBavaxaNaBaIa4a;cgaNaKbsbwbDaXbsaDa<axaxbsavanaXbtbibabsa}a?bybFbobUaKbdaKaNa;a/b;b0aqaJamala_a<axa<a?a[a)azalbCb.bEbCbCbtbaa}a|a}a}bibibebtbybwbtbwbwbDbsbsa}a(a,a|a(a4a|bdboa}a_aJauanasaIaxa?baa`a;a4a;a[a`bicxb$aubdbva}bCa;albvbsa}a|avaxaNa?b0a5bHbRbNbIbIbHbHbHbRbOb1b$ccb7b-b9bRbHbsbybsbtbsbtbsbia[bHbtbybybob$bsaXbDbObkbHbCbUbobdb3bYcza}aNbsbRbobCbRaXa_aNakaxaba(b9b(ataEbRanasb$axaqbkaxataPaiajb0clbDafaIakaBbHa|aDbcbFbEbkaBarb}csbYb4bXbNbXb0b*b]bRbRbHbRbIbybJb8bTa_aPa*bCbIbHbHbHbIbybHa?aubsa(a/aYbeaLbobXbTbHbCbIb0bUb9bIb%cTb2asbsbHbsbUa_",
"aJbHa|bca0avaIb0a_a/a=a[a=bwa(a<bka?a(bkbpbpa_a4blbibabka*a*bibubybybwa_a}a;a<aQa!aLaraLaKaxaDaLaBaBaDaSaDaza[a|claWaLa!b$b]aLa}aDa|aDara(amaqa3bJbpbqbsa|a?bFbDbobUaLbdaIaKa(a<b(b;asaLamala<a_aza;aOb9bcavalbpb8b9bTbtbsa|a}a}a`a`a[a}bebebibibpbibqbqbea5aXa0a0a_a?a!a_bobsbdbca5axavaxa(a)a`bibaa=a*a)a;bvbHcpb0asbdbdbCbsa;ala;a|a|a;azavaKbab%aYbEbXbXbUbIbObTbUbRbIbRb=clb\b2b}bYbYbxbObRbtbwbea|bebaa`bsbtbaa_bwa(a0bRbDbtblbIb$bwa?b9b9cua|aDa0b{b0bvbIa3a}aPalaBaba;b{b-aoaBbUataob0aEarbkaBaBaNagalbkbTbFagaNaiaIbwa|aFbca;b(a}axamcfcmb.b8bFbTbTbXb[bObJbIbIbybDbJbJb9bTa}a0a_bIbUbUbFbJbIbybIa<aLbIa;btaSbcaLbkbXbNbNbNbTbTbJbJbXb-cMbTaqbsbobHbHa_",
"aKbva(a!aWavaKbvb8bCa[bea`b8bca?bsa}a<bkbdboa_a*bebsbia;a;a;bea[bwbeblbsbea=a(aXaIauaxaWaWaBaBaJaBaxaJaLaxavbda_cpaPaIa?a;boaQa?aDbcaIafaWaiaqa3bRbkbubua}a!bka}bdb0aMbcaIaKa;a_b;bUasaEaqala_a?axa)a0a4aWavakbcbvbRbUa}a}a}a|a?a_a|a_a|babababibibsbsbea,a,a,a,a4a0a,a4a_a?a}a|a/a_a0axaJa?a<a}bqbqa}a9aLa0bvbIccb7axa}a3bsbHa?ala;a)a_a(ataqaIa/cdbSaiaxaxbib\bRbUb1b7bYbNbJb9b}cdb[bNbFbKbNbFbtbybibtbebaa|bdb(axaqaxala;bHbCbcbobUb{bsaQbJb0cla/aBa9a;a;bvbRa)bkaWauaXaka*clb]aoaxbUaramb$aLasbdaxaLaBaiala?bwbsava|akaBbwa/aza_a*a;a)avamcfb9b9bYbTb9bObNbNbRbCbCbHbDbDbFbFb8bYa}a*bwbRbXb2bRbHbJbTbHaXa;bwaXbaaBbca4babUbIbDbRbTbDbsa_byb8cEbUaubIa,bHb%bv",
"aKbRbda;a)axaKb0bia_a|bea|bXa<a;bobka}bebqbxbea;bibvbsbla|a;blblbNbFbubqbaa=a[a|a=axaxaNaBaxaBaDaFazazazavatava4cga5aDbcbeblaWa|aEbdaJaia)aiasa3btbtbybNbpaza*a/a}b0aLa}axaIa<a?b{b2aoaDaoama[a[aza9a<a;a(axaibvb8a=a|bkbibia`a[a[a|bcbebca}bebebqbqbia|a/a9a*a;aNaqaqaXa`a}a[a`bxbqbcaYa)babtbabpbea|a;aQa0a[bccwb{axbjbwa}bRa;ala|bpa|a9atataIa*b=clara1ara/cxbXb\b~b.b;bXbFbYb}cdcdb&bTbObNbFbDbybybybybybwblcgaOaLaXaDa(bDbla|bcb0b~bwa(bybOcua-aIbdbtbkbCb0a_bRa!ava!ala;cdcharavbUavamb%aQasbjaxaXasakaja_btblaxa(aiaIbqa/ava[bEbqa|avaocrcmbLb2b%b;bGbTbYb2bTbTbCbDbJbDbRbUbwa`a;bwb2bXbNbIbHbNbObJaOa;bla*a`aObaa_bwbwbFbJbTbNbXbJbOb=b\cNb8avbRb0bCb?bo",
"auavatataxaqaDb;bKbibibibibTa9a)bkbpbiblbtbtblbibsbubpbia_a;bcbwbNbwbCbvblbibaa;a*a0aLaxaJaLaxaxaxavazaKa9a9a-bscraYaDbcbabiaQa|aJbcaIaia,ahasa,a<a|a|bsa<ataLaXa0bkaIa<asaIa<a?b9bHaJbca0ama[a[aza[a[a?a)aBaia_bIbobtbwbybea}a|a|a|bca}a|a}bcbcbibebca_a=a=a|a!aLaLaWa;bebibwbCbsbpbca;a}a}bwbybibia}a|a[a<a|bdbUbwaNbsaQataDaDazavatatatatara?bcbcb7ara0ara(b$bHb1b]b[b;b0b%b]b(b\b]b;bXbNbHbwbHbIbwbvbybHbybsccaLatavaxb]bcchbebubIccbsa(b4b%cya=aIbdbHbvbwb0bob0a)alaIada)chb~aoaubIaBalb(aQaubcaxa4analala;bkbkava0afaIbEa<ara,bEbqa|avamciczb8chcdbXbTbObObTbYbUbvbDbNbUbUbXbTbsa?bwbRbUbUbXb8bXbNboaLa_a}a[beaDa?bcb7bHbUbJbTbTb2bXbOcdcdcTb(aIaWasauaxaB",
"a0aQaxarakaqaLb~bRbtbsblbob9a;a,babdbibybIbwbqbibibsbqbabsa}a|bobJbFbDbDbwbsbia|a}a<aIaqavaQa)aSa4axaQa<bibcbsbwcqaWaBa_a|baaQa}aDbiaLaia)ahaqa;aNa;a|bpbvb2b-bCbvb7a|a,aKaNa<a?b?bRaJbwa|aqa?a|aza5a*a9a9azaibcbYbqbobkbibca`a=a[a[a[a|a`a|a[a[bca}bea}a`a|a}a?aYa;a|bebNbNbybxbsbebibibkbdbibXbibqbdbaa`a`bHa;a3bRaDaLaLaXa4a0a)aYaBaoaiatavbca|a|a}bvb.bJbCb0bHbHbFbNbRbHbRbTbXbXb]bXbJbJbUbRbDbFbobsbsbkbtbab-b{bDbDa4cEbib=a|bqbvb-boa4b2b4cCa*aDbkbwbkbwb%a,bRa)afaxaea5b[b~aoavbRaLajb%aFata|axa(alalama,bsbsata)afaDbDbeata)bFbibcaxamcfcub3cub{bObUbNbObObNbybybJbXb8bObJb2bsbabHbUbUbUbXb2bTbDbdaQa0aWa;a(axa;bvbTbJbJbRbRbTb3b2bXb(blcLb2axaNaBaWa!a<",
"aQaLazazarataQb-bwbibkbka}b;bca_bkbdbibabkbkbebibibwbia=bebebwbsbYbTbJbJbFbDbubqblbia,aDaLa4a[a[beaFaYbebpbsbtbycraQaxa(b7b1aLbcaMbpaDaja*ajaqa,aub0b(bUa(bXb1blbdb;a,a,a}a0a<a?b~bJamaXamaqa_bcaza)aQbIa?axaibob1blbobobibebaa|a?a[a_a|babea`a`baa`baa`a_babablbibqbsbwbJbJbDbtbibibeblbiblbeb8btblbtbHbRbwa(a3b[b(aJaQa1aFaQa4a_a!avavalataBa|aFbOa,b0b1bIbtbwbDbDbtbDbRbRbRbJbCbUbXbObFbFbDbDbHbHbtbwbtbebkbtbtbybHbUa;aLaXbRa?bobwb7bsa3bIbTcEa[aBa;b]bUbyb9a/bTa!aiaBaba)b\b?atasbRaNaibUazaua_aBa_aqalama?bwbtaBa<aiaKbwa|ava;beb.a}axamb]b~b%b;b8bXb1bXbXbObDbJbNbFbTbYbTb2bXbsbvbRbRbUbUbRbIbJbsa?aKaQaQaLaWaLa(a/bqbybybHbRbUb1b2bJbwb%cTbXaBaLaXa4a(a,",
"a;bCa?alarama9b{bJbsbqbqbkb$a_a?bRbRb$bUbRboa_bcblbwbsblbtbybDbOb?b2bJbFbDbDbpbeblbia?aXa9a;bebabia9a=blbsa;bHb0cwaQaxa0a|boaMa}aLbdaDaia(ajaqa3aNa3a,a,a0a_a_a!aXbHa0atataBa9a(chb3aoaSadama[a<ava!aIa;a0avakbdbwb(bRa}bebabaa}a=a|a[a=a}bcbaa`bdbda|a_a}a}bablbsbobtbHbJbObIbHbCbHbtblblbsbsbvbJbtbRbRa;a)bvbIb~b7aXa!aBaBb$a4a;bsa?amakataIbjaMb(bIaQbRbHbybybCbHbHbHbHbRbIbwbIbcbvbCbvbvbtbsbtbwbCbwbtbdbtbwbwbwbtbHa4a}a!bCa?bkbjb$bRaKb7b;cxa[axa0bjbjbCbTa|bRa!akaBaba*cgb]arana}aIaibsavasa;axa4aqakala?bybyaza0afaIbwa?aBa<a!bda(aBambUbOb~b*bRb(bUbRbRb3bYb2bXbXbTbIbsbUbUbwbHbRbIbUb7bJbDbwbHbwbaa_a!aXaLaXaXaXbwbUbHbJbTbUbIa?a|b7b~cMbFaNa3aJa?b-a(",
"aXanalaqaxamata9bXbFbEbqbkb9a;a,bRbUb2bXbRbvbdbdbkbabkbsbtbwbtbFb;b$bTbIbIbwbobobsbia`a[a|babiblboaXa=bxbwbaa`blchaSaxbda`bqaOa|aDbeaBaha!ajaqa_a,a3a}bwa_afasaxaBa3avaFauaIa)a0clbYama4adaqa}a?ava*a!a4a4axahbkbIa?a`baa}a}a`a|a?a_a<a?a|a|a_a}bcbwa}a}a|a}a}bsbvbsbFbObYbObEbSbJbwbwbwbobvbyb2bYbFa;aXbwb(b-b2a[a*a`aYaqagafava9ahaiakakaqaxa_aJbHcvb2bebebea|a|a|a|a[a|a}bcbvaQa?bRbUbNbTa!a(bHbCbHbCbsbobobobda}a|a|bCbwaXbIa|bkbkbRbHa(babwcra=aDbcbkbtbsbHa;bJa,aiaIaba;b]b[aza,bvbwbJb4bTbybta}a<aIavaka<bpbeauaqakaIbsa?axa_bIbybkaDajb<chbqbTbXb;b8b9b9b8b;b2bTb8bXbHbobRb7bRbIbHbCbRbUbCbsbcbvbwbdbabda_a;a*a_bcbIbRbDb0b0bda;bHb*b2bJa,aNaPaXauaqaqaI",
"bkaxaJaQaLaoaoaoava,bFbwbsb9a|aQbRb0bvbibobCbJbiblbebsbwbDbNbDbXb<b*bObObFbtbububtbsblbibabaa|a/a;a!a(a|baa*a(a}cra5azbdbsbtaLa_aEa}axaha,alanbCbja;bdbUa?aoaKa3a!bsa0a;a}a3a4a!cdbYama9ahama_a_ava!a9a/a,aBaibdbXbibca}a}baa`a`a?a_a_a_a/a?a_a_a}bda}a[a_bababdbkbtbJbXb9bObFbNbHbtbtbCbybIbFb\bHaKbcb(b0bUbva9a|bva?a0aXaxaiaQbcaoamaqakaqaxa;aQbRbUb(b4b4b3bYbObNbObHbFbJbIb~bca0bRbHbCbwaxbHb(bUbObXbKbNbXb2bOb1bTbNbCbsa;bRa_bobobHbva}bTb4czbeaEbdbCbda|bCa*bFa,ajaIaca;clb[ava,bsbebtbibibca,a_a_a9aQaja,bFbDaBaramaLbDa|aza;btbybdaxaobvcvb%b4b4b4b?b*b%b&b%b3b3bRbtbUb9b7b0bDbCbHbUbJbDbtbobdbkbka?a}bkbsbobtbabwbwbRb7bva!bsb;b7bRbaaNaWa!aXa!a(aKaqaN",
"bvaBa!a(aJaraoararataJbwbDbyb(b-a,bsb%b.b4b{bUa?a[a*a;a/a?a|a;a4bDbHbcbcbsbwblbibsblbebaa`baa`a[a*a*a,a<a?a/a`bdcra5axbebObHaOa?aza;auaga;alaqbCbva}btb0boava(a<a<bwaKaKaBaua0a(crb&ama9ahaqbabaazaYaSa;a*axajbobXbabea`a}a|a|baa|a_bca}a_a}a?a?a[a_boboa|a_a|bdbkbwbKbObObXbTbTbRbDbwbybybDbwa3aQbHb(bTb*a;a|bRbCbcaQa,a<aLaqaKbdaqaqaqaiaqaxa}aLa?bwbwbububtbtblbia`a|a|a_a[a|b1bobobtbobkbabvbca;a,a;a;a*a|baa}babebebkbaa(bobabobtbRa}a|bTb2cza\aLbsbybsaWa;a4bwa!aiaxaba/clb[ava4bobFbNbNbwbIbcbsbHaXaKaja?b3b;aQaqalaJbya|aBa4bdbybdaxaoa}cvb%b3bTb7b~b(clccb}b9b&b\b(b0b-b$bUbIbwb2b9bybwbdbobFbObFbDbCbdbwbHbIblbwbRbHa;a_bIbIbIb~a!aNa3a*a|a(a!a(aQataQ",
"bIaBa3a,aDaoatavaBaBata|bXbybtbXb~bwaKb0b]b.bOa|babobJbsa/a`bFbNb7bHbwbJbDbDbJbJbJbsa_a_a?bcbea?a/a4aXa(a,a(a/bdcha1ava;a\a\a`bYaMbeavaea(ajaqbCbCa_bsbXbCaBa?a/a?bCaDa9aDaxa0a(csb:ala1ahaqbabaaAa-a9a\a?aFajbqb8baa}a|a|a[a_a_bca|a?a_a?a_a|a/a|a|bsbaa}a_a}bdblbybFbTbXbXbJbXbObDbyb7b0a(aLbcbRbRbCbJcubYb]b7bIa|aJa9a5azaqaXbvataoatalaqaxbCbwa|a;a;a;a;a_a|a_a<a(a?a?a<a;biavaxazaxaxaxama4a?a4a(a;aWaWa(a0a(a4a!a!a!a_bRbwbcbcbsbXbka|bJbJcCa:azbsbFbFa;bla1bya<alaNaka;b{b-ataqaKaIava(auaIa0axaWasakaha|b?b=aWaqalaBbya\a1a/blbNbvaJava;b~b4bJbJcgb~cpclb$b-b%b2b(b4bUbRbUbRbRbHb0b7bObObIbwbCbCbsbebkbaa}bwbtb1bUa;babRbHbwblbtb{bsbda*a[baa4a!a!a4aDa)",
"a_axaBaDaDatauaxaxaBaxa_bTbwbwbwbyb(b;a?a0bRbybtbybybwbwbqbqblbTb$b$bTbJbvbvbwbFbFbta}a_a(a(a!a4a!aXa3a!a0a4a1a|cra#azaObea)a#bNaObiaxaga4amanbIboa;bdbUbwaJa[a;a?bUaJa4aIaua0a!cmb+alaMafaqbabeaAa~aTaAaOaOambmbYbibaa[a[a}a}bDbka|a=a|a?a/a|a[a|a_a_a_a|a|bebpbibwbOb4b4b%bTbXbObJbUa}aWa|bRbUbFbFbsbscyb^b;b;bka,avaDaxamakaXbcamakaqakaqaxbIbRbsbsbObTbRbHbRbIbCboa?bybHbtb*b0a9a9a1aSaOaxbHbtbabibtbsa}btbsbta}btbtblbtb(b(bda}byb8bka<b=b=cAa:aDa1bJa9a#bNa1bya(aiaBaka*b\b]avalaBa(aqbHaqaDbvasaNanacaja}b=b?azaoaqaIbta\a)a-aRa:aRaOaFaFaMb[cdbXcgb$b;b{b?b<b$b1bXbXbTbIbDbCbCbCbsbwbIbIb0bIbCbvbsbebababdbyb1a}a<b0b9bybybDbFb2b{bHbCbdbDbOa!aXaNaIaxaI",
"a;a_a?a!aXaXavavaxaBaxa|bJbybDbpbCbsbIb~a;aNb7bdbtbtblbsbibtbtbOb$b(bObtbla`a|a[a|a|a?a[a?a!a!a(a,a,a/a?a;a*a/bacsa#aAa]b5a+a-bGaMa`axala4aqanbIbda<bkb7bIaxaXa(a|byaJaXaData4a4cfb9ajaFafara~a\aAa>aVbQbfayaoa~bNbea\bibybibaa}a_a?a?a_a}a}a|a|a|a|a`a|a|bababababybJbObTb(b$b1bOb}bRaxbUbIbRbRbFbFbwbycCcgb]b$boaWa(a|a(a<babka}a}a/a;aMavaBbIbTbybybObHbHbUbUbTbIbDbtbDbHbwbwb$b?b?b;b*b1bRbCbka}bdbkbsbwbybtbtbsbtbobybtbUb;bDbtbFb9bjaXbDbXcya:aAbgb5apa[bZa1bwa(afaIaba9b}cdaraqaKa_arbUavaIbHaqaxalaialboclb;axaoaoaDbwa=aZa:aVb5a+aGava\bubabvbJbFbTbTb8b9b%b8bXbIbUbUbDbybybwbwbwbJbDbybIbRbIbIbDbwbHbCblb$bHa(b<bIbtbwbwbFbDbXcCbTbHb{b}a}bsbHa_a<a}a;",
"bta`a_a|a?a}atalavavaxbdbRbkbobdbsbibpbTbcatbXa`a|bcbdbkbebubybFb8b9bJbtbibaa\babaa`a=a;a?a[a<a<a;a*a<a<a;a*a[becsa2aya^c9a{a-bMaOa`aBaca4amanbUbHa3btb7bwaFa)a/babuaBaXaLaoa*a*b_b+aiaMaiarbma:aAa>aCc(bnapava>bSbEb9bEbda<a?a|a|a[bobIboa?a=a`a|a|a_a|a|a|a|a|babtbJbFb0b$b1bXbNchbRaMb%bDbDbybCbJbDbJcvbXbDbwa_aqbibXa|btbNbTbObNbybia4aIaxbUbTbFbFbNbRbDb.b]b8b&b4bXbFbybDbNbwbybwbsblbsblblbsblbkbsbtbwbybsbsbqbsblbtbtbxb.b4bTbTb9bia|bYbLcBa.aybnc%a8a.bPa)bKa/ahaWaha!b]b{arataWbcatbUaraIbHaoaDanakambocdb2alavaraDbqa/aTbba{c%a&apava>b|b9b0a}b;b9b2b%b-b&b9bXbYbYbXbJbNbFbJbJbDbFbCbJbHbRbObTbObFbybDbtbXbia|b9bvbwbCbCbCbwbTclb-bUb?b$anbFbJbybwbJbO",
"a`a=a(a(aYa|asakaxaxaxbsbUa}babqbaa|a[bRbjaqb7boa/a|a|beblbwbybNb3b3bKbubibibebibsbebebaa`a\a=bca?a?a|a[a/a=a:becja2apbAc%bhaUbgaMbiaDafa9arakbRb7bcbwbXbiaMa/a)a`bNaDaSaQala*a;b.bZajaOalarbba>aGa+aCc*a{awara.bMbGbxa[a`a[a?a_bcbvbDbaa[a=a?a?a|a[a_a_a=a[a|a`a|bobybIb4b%bXbTbFclbJaMb7btbFbtbwbCbJbTclbDa;a/bdata/b9bdbjblbsbsbia|a*aDavaBb0bXbNbNbObObybObTbIbIbXbXbXbXbNbNbJbObwbwbxbybwbsbwbtbsbsbwbybtbsblblbtbybybta\b9bJbFb8b3bca|bZbYcBa7apb5c*a8bbb!aZbEa=aha4aha9b~b~aoaoa0bcaobsamaxbkamaIanaiaka|b.b9aoazavaDbua-a2bfbhc(a8apaAa~b^b-b%bcb\b%b9b%b;b;b&bYb8b3bXbObKb3b2bDbFbFbybDbybDbJbTbIbIbFbObDb2bebcb9bybFbybwbHbwbXcrb=b7b;bUalbabHbIbtbsbw",
"a`a=a/a)a4bcaualavavaxbkbIa_bibia;bIbwbwboamb$b0a;a`a`a`biblbtbFbTbXbybubqbqblbsblbabda}a\a|a[bea|a|a=a=a[a\a-becja2apa^c%bhaUbgaMbaaDaba4aBalbobta|a`bNa_ava1a\a[baaDaOaLaja4a!b)b)aiaAamavbra:aGa]a{c(a{awaAa.bMa~bca`a|a?bcbRbCa}a|a`baa[a?a?a?a;a/a?a<a_a=a|babibybJb7b7b%b2bEcpb0aQb0a(b;bwbCa/bUb(cgbTbabkbUava=b[bwbybIbDbwbia|a9aBavaxb7b-bObDbObUbRbFbDbJbTbXb2b4bXbXbRbFbybybObFbtbvbwbvbsbobobobCbtbObHbFbtbJbNbya|b(bTblbNbYa|aQbZb=cja:apb5c*aCa~b!aZbra/aiaRaja/chb[aoamaWa<ambIaoaxbsanaxanagala}b\b+ajazavaFbma:aUbfbhc(bnapaAa.bcb~b$a}b}b-b%b-b-b(b3b3b2b0b2b0bNbObXbXb.bTbIbHbybDbHbUbybDbNbXbtb(bsbIb;a<b7bCbIbHbwbRclb(bIb$bHala|bRbDbNbDbt",
"bea[a?a!a<bvauakaBauaua}bwbabibcbea|a?bHbjanbUbja*a?a[a}bdbtbybEbIbIbwbsbsbsblblblbaa\a\baa|a|a`a|a`a[a=a[a=b3b3b`a2apa&c%bha7bgaMa\aJaba9aQaka}bCa}bcbUa}aBa9a=bdbyaMaSaBaha4aXb)b)ajaMaoavbba>aGa$a{c(aCaHaAa>bMa~bea`a|a`a|a|a?a[a\a`a}a|a<a;a?a<a;a?a;a?a=a[babibybFbTbYbYb;bKb~bOaSb[bea|bHbIbwa|bkcpb;bJbOb(aDa?b1bwbybFbKbDbsa_a4aIaxaIb$b2bDbsbtbwbNbNbXb3bTb9b(bTbFbKbFbUbJbFbKbea`btblbsbvbtblbkbtbHb0bXbNblbNbTbFbibOb&bFbEb9a|a5bubKcja.apb5c*aCa:bPa#bza=ahaZaja/cdb{arana!a!aqbIalaBbtakaxalafalbkb\b[aoaFavaDbua:a7bfbhc(bnawaAbbb=bTb8a[b}b\b9b-b\b.b8bYb8b3bXb2bNbObTbYbXbFbwbsbFbabJbJbwbwbCbUbFb.bibDcvbebsbRbNbJbybXccbXbHb1bCala?bHbdbIbNby",
"baa|a|a*a*bsatalaBavara}bwbebibabibpa}b$bvanbUa*a;a<a=a|a[bebybNbFbybubiblbsblbibebabaa|a[baa`bea[a=a[a<a[a*a-bmb`a2apa&c%bhaUbfaOa-aFabaLa!ama!a`btbtbRa_aLa=a[a`bwaMa4ataga(a4b%b)ajaDamara~a.aGbfaCc(bnaHaAa.bZbmbibibebFbNbEbJbDbsb3bpa<a;a,a<a?a;a;a<a?a_a?bibFbTbJbYb8bYbYbScrbCa1b\bwbFbFbFbDbybycpb?btb$b-aDa?bRbtbDbybwbwbibda4aQaBaBbUbIbybwbtbibybTbJbFb9bXbIbObTbIbNbIbRbFbta?a}bsbdbabtbwbobkbCbDbFbTbYbybObYbFbsbJbNbNb4b-a\a/bYbOcza.apb5c*aCa>bVaZbGa-afaRamaSb}b[amaoa<aLaobJamazbpalasamadaja|b4b%aoaAavaDbra:aUa$bhc*bnapaAa>cfb:b(a[b~b<bYb8b%b9b.b-b4b9b4b4bYb8b4b4bUbIbwbsbtbebJbTbebpbtbobeb.bobdclbNbObNbRbRbJb2b]bObIbRboala?bRbdbCbybt",
"bwbtbaa[aLbcavalaxaxaua?bvbsbxbqbxbqbib(bRanbUa;a/a[a[a=a=a/bsbDbCbpbebibsbsblbebibibdbdbebebabaa[a<a=a[a\a\a\bmcAa2apa^c(bhaUbfaAa=aBabama_avaQa[blbqbEa<aJa)a/a`bTaQaQanaka*aXb8bZaiaDamaoa:a:aGa+a{c(aCaHaAa.bZbmbqbibebtbEbKbTbNbwbsbaa/a;a<a|a;a/a;a?a_a|blbtbybwbDbObJbJb*bTcMboa!b]bwbEbObHbCbobwcqb$bsbUb$aEa_b$b0bRbybwbybsbsa[aIavaBb0bIbCbtbTbFbTb%bXbCbJbYbYbNbTbObDbsbwbCbHbwbvbibsbdbsbtbobsbObDbtbTb7bTbUbYbYbEbNbTbKbOb%a?a(bObycja:apb5c*aCa~bPaZbLa=afaOamaOb.b[aoara|auaqbOamaIbsalanauagala?b4b=araFavazbma:a7a]bhc*bnawaAa>clb:b9a|b^b9bTb%b8b3b.b*b8b-b&b9b*b.b&b9b$b$bTbybibia\btbablbibibeb%a|a<b;bIbHbHbybFbCb0cpbTbIbUbjala?bCbHbRbIbH",
"bsbia`a;a(bcaqalaxavavbdbwbabqbua}bUbCbwbHanb0a;a/a=a/a/a=a[babsbtblbibqbxbubea`bebibibibabababaa[a/a[a[a|a|a`blcjaTapa^c%bhapbfaFa=aMafaca_aOaDbdbkbibKa;aDa1a=bdbObaaMalaqa;aSb&bNajaFamaoa:a:aGa+a{c(bnaHaAa.bZbmbababaa\a`a/a<a<a/a/a/a;a;a;a;a;a<bebtbaa|a}babsbybDbTbObEbSbycKbtaYb]btb%bDbHa}b.bYcub%b9bTb$aJa*b(b2bTbFbDbJbybsa<aWaxaMbXbyblbUb0bIbIbwbybTbTbTbJbybsbwbsbebDbybwbtbwbobobabkbkbsbtbOb3bYbTbTbObUbTbYbTbTbKbEbKb9a}aMbJb\cBa>apb5c(aCbbbPaZbra1adaFamaYb]b%aoaobOaoarbDamaBbvalaiauagaja}b)b:a4aEavaDbma-a7aVbhc(bnapaAbbbKb^b.bcb{b%bXb(b&b-b9b.b.b4bXb*b%b[b3bYb3b8bObtbqa`bia|bibea=bibXb9a|a_bNbsbUbtbda|b~b9cdbJb1bObjaqa(bCbkbwbIbH",
"a_bkbtbyblbyboauavaBaBbkbaa`bibla\bebdbyboatbya`bablbebababeblblbtbtbubwblbabwblbtbtbtbtbtbta~bebaa\a`a\a`a\a\bmcja2awa&c%bha7bgaOa~a3aiada<blazbIbCbabTa}aPa[bablbXaXaXamata_a,b)bZaoaOamara.a~aGa]a{c(a{aHaAa.bSbmbqbibebeblbea`a`a`a\a_a_a`bebabeblbabea`blbibibwbybFb2bXblbNbycibRa!b$a,b4bObRa}blbycvb*cgb(bHaPbTb%b2b2bTb-a`bwbFbwa_aLaLbUbJbFbFbNbJbFbTbFbObJbIbIbHbHbNbwbtbHbtbobjbtbwbDbobdbtbobybObJbTb4b4bXb2b4bTbNbTb4bXbTb%bla)a~bScOa>apb5c%aCbfbPa-bra)ajaBata/clb(araxb(anaxbFaoaLbtaqaiaKanalbyb^b)amarazaMbra\a7bfbhc(bnawaAbmb.bGb&blclb?b4b-b.b=b\b}b=b?b*b.b~b\b=b=b(bTbFbwbDbFbybybybibtbybJb9bdbjbIa!bTblboa/blbTcpbJb1bDa/aNb0b1bUbUb7bI",
"a3bvaXbtbybtbIaxasaxaBbsbTbDbtbtblbla}b7bCaqa?a}bebibibaa\biblbwbtblblblbibebibebiblbwbwbtblbibia\a[a\a\a}a?a[blcma6awbAc9bha7bgaPbia4aiafa!bRaBb*b0bHb$bCaWa`bababNaNaQaoata_a/b]b%asaPamava~a~aGa+aCcDa8awaAa~b8bmbibababiblblbebabjbtboa}bcbobkbcbda_bibibkbkbjbtbwbybNbFbibTbyb~b0a,b~bCbDbTbUb0bybIcxb(b{bRa(a!bIb1bIa)bHb(aKbHbibFa}aEaIb$b(bTbtbHbObTbTbDbCbtbtbRbRbRbUbUbTbJbybtbtbCbCbIbybobobobCbRbwb(b4b(b4b4b4bTbObNb4b%b-b9a/beb.b9cKa:apb5c9a8a>bMa=bGa,ajaxana<b~b*axaBbHajaxbyaqaKbjaqacaBaqanbIcrb~alavaDaMbma-a2a]a{c2a&awazbmcrcib;bicrb{b9b\cfcfb~b*b%clb|b|cib:b(bXbIb0bFbXbTbTbNbTbIbHbIbybIb7bdbkb*bda}btbtbybob$cxbtbHbjaPaKb0b1b0a!a}b?",
};
