/* XPM */
static char *xpm[] = {
"320 180 256 2",
".. c None",
"ab c #000000",
"ac c #000101",
"ad c #010201",
"ae c #020302",
"af c #030301",
"ag c #030504",
"ah c #040402",
"ai c #040605",
"aj c #060603",
"ak c #070806",
"al c #080b0a",
"am c #0a0b06",
"an c #0b0e0d",
"ao c #0e0e09",
"ap c #0e1111",
"aq c #0f1416",
"ar c #11100c",
"as c #121412",
"at c #12171a",
"au c #121c22",
"av c #14140f",
"aw c #142c40",
"ax c #151715",
"ay c #15232a",
"az c #162834",
"aA c #171712",
"aB c #171c1c",
"aC c #181a18",
"aD c #182226",
"aE c #1a2223",
"aF c #1b1915",
"aG c #1b1d1b",
"aH c #1b272d",
"aI c #1c1d18",
"aJ c #1d201e",
"aK c #1d272b",
"aL c #1d3340",
"aM c #1e2c35",
"aN c #1f2c33",
"aO c #1f7289",
"aP c #201b16",
"aQ c #202321",
"aR c #204260",
"aS c #204a6d",
"aT c #211f1a",
"aU c #212728",
"aV c #22221d",
"aW c #222524",
"aX c #222c31",
"aY c #233238",
"aZ c #233d4e",
"a0 c #236180",
"a1 c #242521",
"a2 c #252726",
"a3 c #26211a",
"a4 c #262723",
"a5 c #262b2d",
"a6 c #263236",
"a7 c #272521",
"a8 c #275573",
"a9 c #282a25",
"a! c #282b2a",
"a# c #293233",
"a$ c #29373d",
"a% c #2b2a25",
"a& c #2b2c27",
"a( c #2b2f2f",
"a) c #2b3c44",
"a* c #2b4b5d",
"a+ c #2c241b",
"a, c #2c434f",
"a- c #2c4730",
"a. c #2e302c",
"a/ c #2e3232",
"a: c #2f2923",
"a; c #2f3637",
"a< c #2f3c41",
"a= c #2f424b",
"a> c #302f2a",
"a? c #314b55",
"a[ c #317fa4",
"a\ c #32332f",
"a] c #323635",
"a^ c #332e27",
"a_ c #333c3d",
"a` c #35271d",
"a{ c #353430",
"a| c #353632",
"a} c #35393a",
"a~ c #362d24",
"ba c #364246",
"bb c #365462",
"bc c #373b34",
"bd c #373b38",
"be c #38332b",
"bf c #383c3c",
"bg c #393a35",
"bh c #394142",
"bi c #3a3935",
"bj c #3a3f3f",
"bk c #3a494f",
"bl c #3b423d",
"bm c #3b545a",
"bn c #3b8089",
"bo c #3c3228",
"bp c #3c403d",
"bq c #3c8fb1",
"br c #3d403d",
"bs c #3d413a",
"bt c #3d413d",
"bu c #3d4242",
"bv c #3e291e",
"bw c #3e3931",
"bx c #3e403c",
"by c #3f4648",
"bz c #403f3b",
"bA c #404646",
"bB c #405c73",
"bC c #41372d",
"bD c #424643",
"bE c #424a4b",
"bF c #433e36",
"bG c #442f23",
"bH c #444a4a",
"bI c #454743",
"bJ c #463528",
"bK c #46473e",
"bL c #464947",
"bM c #464f50",
"bN c #466986",
"bO c #484e4e",
"bP c #489193",
"bQ c #493d33",
"bR c #49463e",
"bS c #495156",
"bT c #4a4e4c",
"bU c #4b5556",
"bV c #4c4d49",
"bW c #4c5c61",
"bX c #4d5455",
"bY c #4e3b2c",
"bZ c #4f4438",
"b0 c #4f5452",
"b1 c #505049",
"b2 c #513124",
"b3 c #51534e",
"b4 c #52392a",
"b5 c #525048",
"b6 c #525144",
"b7 c #52595a",
"b8 c #52814e",
"b9 c #535c5d",
"b! c #544e47",
"b# c #545957",
"b$ c #565321",
"b% c #565e5f",
"b& c #566569",
"b( c #585b57",
"b) c #585e5c",
"b* c #5b5b54",
"b+ c #5b6566",
"b, c #5c3e2f",
"b- c #5c6565",
"b. c #5d4c34",
"b/ c #5d594f",
"b: c #5d6e71",
"b; c #5e6461",
"b< c #603028",
"b= c #606361",
"b> c #615b31",
"b? c #626c6e",
"b[ c #637045",
"b\ c #646d6d",
"b] c #654831",
"b^ c #656c69",
"b_ c #656c6b",
"b` c #666562",
"b{ c #666b67",
"b| c #676763",
"b} c #686b67",
"b~ c #6a7474",
"ca c #6c472d",
"cb c #6c787b",
"cc c #6e797a",
"cd c #6f6b50",
"ce c #6f7676",
"cf c #707a7b",
"cg c #715232",
"ch c #717673",
"ci c #719ba6",
"cj c #726252",
"ck c #76756f",
"cl c #768284",
"cm c #778185",
"cn c #797663",
"co c #798181",
"cp c #7a7551",
"cq c #7b898b",
"cr c #7c3a2c",
"cs c #7da8b3",
"ct c #7e8b8d",
"cu c #7f4b2f",
"cv c #7f827d",
"cw c #7f8482",
"cx c #80774a",
"cy c #818a8a",
"cz c #818c8f",
"cA c #85743f",
"cB c #87b7c6",
"cC c #889699",
"cD c #89742e",
"cE c #899699",
"cF c #8a9598",
"cG c #8b5830",
"cH c #8b845f",
"cI c #8c9595",
"cJ c #906d48",
"cK c #93863d",
"cL c #94a3a6",
"cM c #95a5a8",
"cN c #96957f",
"cO c #96a1a1",
"cP c #96a2a5",
"cQ c #979e90",
"cR c #9f842f",
"cS c #a0afb2",
"cT c #a2b3b6",
"cU c #a3b1b4",
"cV c #a5b0b0",
"cW c #ac9181",
"cX c #adc1c7",
"cY c #ae944c",
"cZ c #af5a3c",
"c0 c #b13c31",
"c1 c #b17738",
"c2 c #b1ad9c",
"c3 c #b1bdbe",
"c4 c #b1bfc1",
"c5 c #b4932c",
"c6 c #bbced3",
"c7 c #becdd0",
"c8 c #c0cccf",
"c9 c #c19f32",
"c! c #c4e1e8",
"c# c #c6a958",
"c$ c #c9ab45",
"c% c #cab792",
"c& c #cddee0",
"c( c #cea92d",
"c) c #d5b542",
"c* c #d9b434",
"c+ c #e1c78f",
"c, c #e4e0bc",
"c- c #e6f7f4",
"c. c None",
"aQaWa1a9a!a(a.a!aCaGa/a|a(a(a!aWa!aJalaQaBakaeacababababababacacacacacacacacacacabacacabacadafafaeaeaeaeadadadadadadacacacacadaeafahagakakanaoarasararavaraoavavaxaralaFaFaxaAaAaFaIaCaFaIaCaFaGaFaFaPaGaPaIaFaTaIaIaTaTaTaTaTaTaTaTaAaoaFaFavaFaTararaCaFaGaAaGaTaFasa1aQaQaVaVaJaQaQa1aWa4a2a1aWaQaWa1aQaVaQaQa1aQaWaQaQaVaQa1aWa1a2a2a4aQa2a1aWaQaQaWa1aWaQaWaQaQa1aQaQaQaQaGaCaGaCaGaGaTaJaJaTaJaVaQaGaCaFaCaGa4aQaQaQaGaGaVaQa1a1aBaialakaka2a%a7a2a9a4a4a1a1a4a4a4aVa7a&asaoaCaTaTaVaVaVa7aVaVaTaTaTaTaTaGaAa7a9a%a4a7a7a4a4aTaAamaoavavamaFaVaVaTaIaAaAaralajajahahahaeacacacacacacadadacacacacacabababaealanaGa!akaQa2a!a(a(a/a\a;a]a\a(a>a&a!a9a1aVaIaI",
"aJaJaVaWa4a4a!a(a/aQasaQa\a/a9aWa.aGana4aWanaeaeacacababababababababacacacacabacabacaeabacafahahafafaeaeafafaeaeadadacacadahahagakaoavaIaVaVaVaTaIaIaFaIaAavavaTaGaFamaxaFaAavaravavaAaAaralaoanamaoaAaFavavavaFaAaPaTaTaVaVaVaVaVaVaIaoaPaPaAaTa1aFaraJaPaGaCa&a(a4asa2a2a2a2a2a2a2a!a2a2a2a2a2a2a2a5a!a2a5a2a5a2a5a!a2a2a2a2a5a5a2a5a5a2a2a5a2a5a2a2a2aUa2aWa2a2aUaWaQaQaQaQaGaxapavaCaFasaxaxaxaAaxavasasasaFaCaCaAasasaxaraparasaCaoaianaiana&a4a1a4a%a9a4a%a%a%a%a9aTa4a9akamasaFaCaFaIaCaIaFaFaIaPaIaIaPasaTa>a1aAaFaGaFaFaAaravamaoaraoaoaFaIaIaPaTaTaVaTaFaAaoakakagahacabacacacabacabababababababacakanalala!bjasaGa!a(a/a/a/a/a]a/a\a.a&a9a1aVaVaVaIaC",
"axaCaIaJaVaVa4a!a&a(a9aCaxa9a.a.a.aoaJa\a9alakaeaeaeacababababababababacacacacacabadafabadafahahahahahahafafahafadacadafafajamaxaTaIa4a9a3aIaAavaoaoamamakakajarasarajafakakamajajajakajadagakaiahafafakajakakakakalamamanamanaoanamalaiaoaoamavaFarajalanamalaQaWaQanapapapasasasasasasasasasasasasasasaqasasasasasaqaqasaqaqasasasaqasasaqasasaqasaqasaqaqasasasasasapasapasapananarasasaparasaparararararasasasaoaoalakalamakakakalajagakafaxa>a9a4a%a&a&a&a(a9a%a9a1aVa9aGabafahahakajakakakamamamalamanamakamamamakakamamamakamamaoararaoaoamaoaoaoaoararavaAaFavaraoakahadabababababababababababacafamaoananala.bdaVana&a]a]a]a\a/a.a.a&a!a9a1aTaVaIaAaxav",
"apasasaCaJaJa1a1a1a4a!a\a1apa1bfaJaoa(a.a\analaiaeagaeacadabababababacadababacacabafafabadadahajahahahahahahafafacacahakaraFaTa1a1a3aFaramafadacabababababababababababababababababababababaeaeaeacabababababacabababababababababababababacacamaTaTakabacadadaealalanakaeagagagaiaiaiaiakaiaiaiaiaiaiakaiaiaiakakakakakakakakakakakakalakaiaiaiaiakakakakakakakakakakakakakakakalakakakakakakakakakaiaiaiaiaiaiaiagaiaiagaiaiaiagagaeaeaeaeaeaiaQa>aVaJaTaVaJaVaJaTaJaJaIa1a%aracadacacacacacacabacacacacacadacacafahahahahahahagahahafadadadadajadadabababacaeagakaoaoaoaoamahadacabababababababababafafalalakanaranaxa]biaraxa\a|a|a/a.a&a!a9a4a1aJaIaCaAavarar",
"anaoapasaxaIaJaJa1a4a!a!a>a9a9aJaoa9a&a.aCaoalakaiagagadabahacabababacababadadacabahafabadafajajagahafafahadacafagaiajaoaVaVaTaIavajafabababababababacadahahahahagagagagahagagahahafahahacamaraoakafafafagagagagajajajajajajajakakakakamaraFaVaIamafahagagaiagahagagaiakakaiajakakakalalamamalakakalalalalalalalalalalalalalalalalanalalalalalalalalalalalalalanalalalalalalanalalanalalalalanalalalakakalakakakaiaiakakakakaiaiaiaiaiahacaeala&a4akaraxaAaAaAaxaAaAapajaQaVaeadadadacadafahafafahafafafafahahajakakajajakamajakamajahahafacadakakahababababacabacahajamakahadadabababababababababaiadakakaganasapasapa9bga{arava.a{a/a.a&a4a1aJaIaCaFavaparapap",
"amamalarapavaCaJaVaQa1a4a9a2aAaxa>a&a.aJapasanamakaiaiagacahagababababacadadadacabagafabacafagagahafahadacacafaiajaraPa1aFaAavamafababababacaianavaxaFaIaIaCaFaFaCaAaCaIaIaIaIaIaIaCaFaFavaraFaFaravaAaFaAaAavavavavaFaFaTaTaTaTaTaTaVaVaIaAalahajakakakakalamamalalalaoalalalamanaoanaoananaoananaoanaoanananananaraparapanaranarapapapanapapananananananaraparaparapaparaparapaoapaoanaraparanarananamanaoalaoanaoalanamalalakakalakaiadagasa.aCaraJaVaVa1aVaVaQaVapara&axabafadafafahahajajajajajajahajajamakajamamamamamamakamakajakajacabalaoajacabababafajagagajajajajaeabababababababababahakafakagakapaGaxaxaxasa9bfbiaFaoaJa&a&a4a1aTaIaFaAasarapasaqat",
"alakakakamarasaFaIaIaQaJaAasaIa.a>a>aJarasapapasapanaiaiafafajaeabababacadafafadabagaeabacacafafadadacabacadadakaraAa3a+aAakahababababaeaoaGaTaTaCavapanamalamakakakalamamalakalakakakakahakavavakaiakakakalakakakakakakakakakakakakajagahahakakamalamalamanamalamanaoanamanananananaoanaraparanaranararaparapapapasapaparasapasaparasapapasapapapapapapapapaparapapasarapapasasararasasarapasasarapaoanarasaramananamalaranamakamalalakadaiaJa>alanavasavasavapasapakaCa9ajadahahahahajajakakajajakakamamamaoaoaoamamaoaoaoaoaoaoamamamakadabamarakababababacahakamamaoalajababababababababacagakakagaialanasa2a4axaCaxasaQa{a|a4avaraxaFaCaAaAaparapasasataua;",
"alanamakakamanararasaravaFa4a9a%a4aAapanasapaxaCasanakakaealamahabababacafadadadabahadababadadadababacacafajaoaAaPavaoarajadacababafaraJaVaAalafadacadadaeaeafafafafahahahafafadahahahafadabafakakahabafahagagagaiaiagagahagahahaiakakakamamanamanamanaoanaoaranaraoanaoanaranaoanaoaraparararaparararaparapasasasasasasasasasasasasasasasasasasasasapasapasaparasasasavapavasasasavasavasavavasararapaoararalalamalakakaoalamalamalalaladalaVaGadafafafaeaeahahahadahaVaCacaeafafahahahahahajahahakajakamaoaoaoaoaoaoaoaoaoaoaoamamaoamakafabaoaramabababadafahajajamakafababababababababadagagakapaiakalapaxaxaCaCaAaCaGaxaAaJa9a%aIavaoamamamakakakalalakalap",
"agagaiagahajamaoavaFaVaJaTaVaVaAananarapasaraxaGanasalalahaAarakadababacadafadadabahacabacadacababadadakaraFaPaPaFaoajafabababacara2a9aAaiadafahajaiajakajajajahajajajajajajajajahahaiagahadacakakahafaiajakajajakakakaiaiakajakakakakakakamamamamalamalaoaoanamanaoalamanaoamalamanaoanaoanaoanaoanaoanaoananaraparanaparapaoanapaparaparapapapanaparaparapaoanararaparanaparapaoaparapararaparanaranalanamalalalalalamakalamalalakalamafanavaAaIaJaJaJaQaVaJaGaGaFaAaxakabahahahahahajajajagagajajajakamaoaoaoaraoaoaoaoaoamamaoaoaoaoamajabaraoaoababababadafahahagacababababababababacaiakakakaJakaoapapasaxaAaIaGaCaCaCaAavasaAaFaTaIaAavaraoakakajakalalan",
"akalamakanaoaoarapaAaIaIaxananaxaoanalanaranapana9aCalalaoaTaoanaeacabacahahafacabahacababacacadaiakaraVaPaPaFavaoahacacabacaoa2a.aValafahaiakakamamakakakakakagahahajajajakakakakamamamakakakakakakalamalamalamalananalalanananananananananaoaparapaoananarananaranananapanapapapapapapanapapanarapapapapapapapapapapapapapapapasasapapasapasapapapapapapapasasapasapapasapapapapasasasasasasasasapaparapasarapapasaparaparanarananamalakakalaoapasapaoapanamalalamakakahahakakakakakakajajakaiakakamamamamaoaoararaoaoarararararavaraoamakacaraAaoabababababababababababababababababadafalalalajaJavalapasasaCaxaxaCaCaFaCaAaxasaranaoaoapasapapapaDa5a6aDanak",
"abacafakakamalakajajanavaCaralasanalanalalanalanaGanaoamaFaFaranaeadababahahafadabahadabafagahakasaCaJaGaFaramahadacababakaJa\a!aragaialamalamalanalalakakamalaraxaCaGaJaQa2aJaIaTaFa7aVaTa3a2a!a!a!a2a!a5a5a(a#a;a;bfaBaQa!a]a;a(a(aWaJaWa5a(a2a5a/a/a_bfbjbjbfa_bhbha}a}a;a}bja;a}a_a#a/a/a_bfa}a_a_bjbha_bja_bybybabubabhbfa_a_bhbja_a_a}a}a_a_a}a}a}a<a_bjbabhbhbhbja_bja_bfbja_a_a_a_a_bfa_a]bfa}aUa2bububfbhbEbAaUa(aGaGa!aQa(a}bfa!a]a;a(a/a/a/a!a1a!arajaTa4aFavaPa3a+aPaFaAaFaFaAaFavaAaraoalakamaoarararararavaAararavavavavavaoamadaJa%aracabababacacacacababababababababacaeakanapaoanaraVaoanarasasasasasasaxaxasasaparanapatataqaqaua6a<aNanaeacac",
"ababababaeaiakalamajakalaraCaAanakanaoalalalalanalanaoaFaParaAakagaeababagaiagafabafahamaoamanaQa(aWaCasanajafacababafaCa|a]aCajahalarananaranapanakalasaCaGaJaQa4aVaVaVaVa4aWaQaVasa7a%a!a&a#a/a;a/a;a}a_bjbjbhbybybyaGa5a(bfa;a(a(a2aQa/a]a/a/a5bjbHbSbHbMbXbXbSb0bXbXbObubha}a;bMbSbSb7bUbUbUbSbUbUb7bWb9b7bWb9b&b%b%b%b%b7bSbMbMbEbEbMbMbSbUbMbUb7bSbEb7b%bUb7b7bUbSbSbUbSbMbEbMbObybubEbybubjbMb7a}b%b\b?b7b9b9b%bfa/a2a!bjb7b+b&b+b%bUbEbAbhbja}a/a.a\aFaoa>a{aVaFaTa3a~a3a3aParaPaPaFaPa+a%a1a4aGasaranarasavavaxaAaAaCaFaCaFaAaAavaoaea(bpaxacajamamamamakamakahabababababacadaiakalapasavaraAa7avaoananararaparararaoananapaqaCatataDa$baaNaxaeacacaeae",
"adababababaeaeaiakakakaiahakaravanakakakalamalalamaraPaIaraAanakagadabacakakagadajamaraFasasaQa(a1axapakahadadagakaxa&a]aQalakanarasasasasasasarapaAa2a!a!a2a2a2a4a.a}a.a!a]a(a/a]a.bda]a;a]bfa_bjbhbybEbHbMbXbUb7b%bXa5a]bAbEbybAbja(a(a}bub0bObjb)b?b-b-b\clcycOcPcIclcmb+bSbhbyb9b-b\czczcmb?b:b\clcqclcmb~cmcfcmcbcbcfcfcfcbb+b&b-b-b?b:b+b~b?b:b?b-b\b~b:b+b:b\b?b+b+b+b+b9b%b%b7bUbXbXbybEbHbSb=bfb%b\b?bfa!a.a/aWa1a9bfb#b~cfcqccceb\b?b?b%bUbra\a}biaTaFbRa|a4aTa4bebibwbwbebebebea^a.a\a.a.a/a.a!a2aGaparasaCaGaJaTaVaJaTaJaIaIaFavagaQbiaCadakaoararavaoaravaraoafababacadadaialalarasaraAavava3aFaraoakakalalanamananaqatatataDaYa<aXaqaiacadaeafagai",
"ahacababababadahahaiakakajahajamananakaiakakamaoaFaPaAaAavaoaiaiagacabaeakahafakaravaraFaWa&aQaCaxaoaiaeahahafakaAbubVaCajamaraxaxaxaCaCaxapapaGa!a!a(a(a(a/a/a]bfbua_a]a;bja}a}bfbAbAbubjbfbjbua_bjbhbubybMbSbubLbAbfa]bXb#bMbAbfa/aQa!bfbLb)b)bOb;b\b~b_b+cocFcOcOcFcFczb?b+cfb9b7b~cfcEcCctcqcCcCcCcCcLcEcCctczcCcLcLcCcEcLcCcEczcfcqcfclcbcqclcCcCclclcqclcqclclcmcqcfcfcfclcfb:b+b9b%bXbMb9b%cfb%bja(a{bia!a\a&aVaTa1a4a1a1a\bdbLa]a\btb0b;b#btbfa|brbiaPa3bsa|a%a1a\bIbjbAbAbubHbAbhbAbubhbfa}a}a]a}a]a/a!aBasavaCaIaTaJaVaQa1a4aVaTaCamaCa|axacalaoararavaravavavaAamababacadaeaeakalanavararaFaFaraAaPaPaAaoakajakalalapaqaqatataBatalaeafadadaeagaiaiak",
"agadabababababacahagahahahagagagaiakakamararavavararasaralakakagacacabagahakaoavaPaAaCa&a!aQaAasakahaiakajakaCa]a&aFaAaoalaFasaCaCaGaCasapaJa\a5a/a}a]a_a}a]a_bfbfa]a/a/a/bjbjbhbububAbHbObEbHbHbHbHbObSb#b#b)b9b-b)b+b\cfcob~b\b~cfb0a!bHb#b7b~b-cocob~cfb-cwcMcEcOcFcOcFcycOcOclcfczcMcTc3cLcMcMcLcMcScTc3cMcScScScTcScMcUcMcMcScLcCcCcOczcCcCczczcFcqczctcCcCcEcCcEcEcEczcCcLcScMcOb~b+cqczcFcOczbtbfbta%a|bVbDbzbza&b)cycwb\clcqcfcfcfb~ceb-b3brbTb`b-b7a:a3bVbLbIbDbubTbDbHbLbIbubAbja}a]bjbAbAbubhbubja}a}a]a]a2axaxaCaJa1a4a9a4aQa1aIanaGbja/ahakaravararaAaAaAaAaAalacacabadadaeagalalanasavavaPaPaoamavaFaFavavaoamajafafadafafakasasakadaeaeaiaiakakal",
"ahafacabacacabababacagakakakakamaoaravavavamakakanaoakaialalaiadabahamapavavaAaPaIa&a&a9aJaxanajaiakakakasa.bua/avaeabaka9a&axaCaCaxavaCa.bhbfa;bja_bjbhbja/a/a/bubAbHbAbubfa{a]a|a]a|a|bda]a|bda}a|bfbdbrbpbdbfbpbfbtbDbIbIbIbubxbga|aIa9bDbcbLbpbzbubxbubrbDb0bObLbLbTbDbIbHbLbHbububLbAbObHbHbEbybEbEbEbMbMbEbMbEbEbEbEbEbkbybubybAbybkbEbAbybubhbubhbybubybhbububybAbObObEbObObObObHbLbMb0bSb1bIbdbibia\bzb1bzbsbza&bdb3bVbDbIbLbVbHbLbtbLbLbubzbDbTbIbDa&a1a|bzbdbdbdbdbpbjbcbzbtb1bXb0bMbEbfa}bjbEbAbububAbhbpbfa]aJasaxaVa9a&a9a&a1aTasa/aUbHaQagaoaravaIaIaIaAavaFaoacababadaeagaiaialalamapavavavaoaoamamaoaoaoavavapasataBaBaBaCanagaeagaiaiakakalalan",
"akafadacadadacabababababadaeahajakakakajagaiaiagagagakaiaiaeacababakaFaVa1a>a1aQa.a9a1aCaoamalakamajaoa1btbpaGaoanaraoavaQavasaxavaFa3bebhbubua_bhbubja;a!a}bOb7bTbja\a&a%a7aPaIa+a^a9a&a\a.a.a&a9a%a>a>a>a>aTaPa:a+aTaPa^a^a+a%a+a+bwaIaTa>a&a+a4a+a+a+a:a:a.a\a!a!a>a(a&a(a/a/a.a.a(a.a/a/a/a;a;a/a}a;a]a;a}a;a;a;a]a;a]a]a]a]a;a;a/a/a/a]a;a;a/a/a/a/a/a/a.a\a/a(a]a]a.a/a]a]a]a]a\a/a.a]a>a9aGaGa7aPa1a&bea|aTa7a>a9bea^aTaPaTa4a%a&a>a.a>a\a9a>a\a>a{a>aTa3a\bea.a>a&a.a\a>a+aPa`a`a+bobDb0b-b%bHbfbubHbAbEbAbAbAbAbAa]aQaCaJaQa1a9aVa1asbHa/aUbLa.anamavaAaAaAaCaAaCaracababacaeagagagagalaoalaoaravaoaoaoarasaxaqatauaHaXaDaqagacabacagagaialanapananapap",
"axaladabadadacabababababababababadafafahafafaeaeadadacababababaiamalaoaIa.bcbza\a4aFaoahakaoanamaoaIa|bxa9apaoaBaIaIaAavavaAavaAa:bFbsbibhbybybEbHa}a(bub)b)bHbga|a\a^a^a>a>a%aVa3aVa7a1a3aVa7aVa3aTaTa3a3a7a3a3a+a3a^a+a%bea^a^a:bCa|aAa3a9a3aTa3a7a+a:a>a>a{a.a(a&a(a.a/a>a(a.a(a(a/a/a\a;a/a/a]a/a]a/a;a;a/a]a/a;a/a/a/a/a;a;a]a/a/a/a/a/a/a/a/a/a/a/a/a.a/a/a/a/a\a]a\a/a/a/a(a(a.a.a(a.a(a.a&a4a^a9a9a&a&a7aVa1a7aVa>bea\a^a\a\a\a>a>a>a>a&a4a&a%a%a%a7aTaTa9a1a%a%a4a&a&a&a`a`a`bvbva`a~bCbdb3b\b~bXbjbhbHbObHbEbAbHbTbTbjaJaCaIaIaVa9atb7b0aQaCbjbpaGararasaAaAaCaFavababababadaeagagagaeakalamamakamanapatatatauaHaNaDanacacacaeagagaiaialapatauauauataq",
"aJaxanafahafacabababababababababababababacacacabacacadaeaeahamaraAaJa>a&aTa&a\a9aIamajafaranamava{bDa\aAanaxaJaJaFaIaraoamaAa3a:bVbVbHbubybXbXbya;bfb+b_b(bAbubzbDbia%aVaFavaraoaoaoaoaoanaoanaoanaoaoaoaoanamalaoaoaoararararavaraoamaoaoaoakakanaxaBalajamaoaoaoamanajaialalalaiaiakakakaiakakakakakalakakamakalamakakalamalalamalalalalalalalalalalalalamakalalalalamalalalakaraoanakakalaoanarararamalaTaGaramaoaoaraoarararavararararararaoanaraparaparapararaparaoanaoaoaoanaravaAa+a`bGbJbwbFbub7cfcebMbrbEbXbSbObOb%bTbpa.aTaxaAaFaGaBb=b#a.aAaoaIa.a:aFaoavaCaGaCaFalabababadadadaeagagadaeagaiakanaqatatauaHaNaDanacacacaeagagaiakanapaqatauauauauatat",
"aQaxasaraoamagabababababababacadacacafahakamamakakakaiagakapaAaCa4bwbKbFa&avaravavaoalacakara&a|beaIavaraAaJaVa9a1aIaoara^bwa\a.b%b9bXbEb7bSa_a]bXb~b=bAbTb1bVbpa.aTasaoaoamakaiagahafadadadaeaeafahaeahafakakakadadadadadafahahahahahahaeaeadaeakaQb7bSa2anaiafafabacaJaWbXb7bEaVa(a>a.a5a}a;a;a;a]a]a]a}a;a}a}a]a]a;a}a_a}a]a;a]a;a;a]a;a;a]a;a;a]a;a;a/a;a\a/a]a]a}a/a.a(a\aWbAb#bTaWaJababadahaiana2b1b%a!akafahahaiajakakakaiadagakaeacalaoaeanananananaoanalanalamalamalanamaoaraoaoavaAa`bCbQbIbDbLb)cmb~bObubTbXbXbXbTbTb(bVa|a7aAaCaQa]a4a1a%a9aFaraPa:a9aAaraCaIaIaGaracabacacadaeadaeaeaeagalanaqatauayaNaEanaeacadaeagaiaiaialakaqauayauaqapaqaqataq",
"a2aGaparaCaCamafababadafacafamamajamaoaoavavaoaoalakamaravaIa3a^bsbRa>aVaAavahabakagaiapaWa}a&aTaoama4aAaVaQa4a(a1aCaTbdb)bja]a/b&b7b7bMbua/bOb~b}bLbHb0b#bDa>aTaAasaoakacababacaeaiakakakakakakakakakakama1a%a9amalananalalalalakakaiaiaiaeagaeadagavbfb)b=bUbObAbua!b#bEcIcTczb=cyb}ckb}cOcIcOcEcOcOcOcOcPcMcScMcMcMcMcScPcPcMcPcPcOcPcMcPcPcPcOcPcEcEcEcFcIczczcIcIcwb)b5chb3cocVcIbOb#a.bObTb0b#b=b)bDaGakacadadacadadadababalaGaJakadaWa&anadahafafafahagagagahahafafadacababadagamaoaravavaPa+a~bQbVbDbHb_cmb|bybAbMbXb0b#bVbTb3bRbQa:aIaVaIaAaraIaIavamaoa3a^aVavaxaGaTaVaGanafababadaeaeagalanatatauayaHaDapacacadagagagaialanapatauauauauauauauauaqataX",
"a2aQarapaJaJavamaeabahahakafaraoakaravaravavanakahamavavaPa`a^bebwa:aPavamafahagajaraWbdbua(asakakaFbwaFaQaWa4aWa1bdbLb1b7bubybjbWbXbya5bfb-b=bda&bxb3b3a|aVaCaAarajabacalaGa2aWaJaCasaranalalamalalalanaoa>bCbeaCaCaJaQaQaQaWa5a(a/a/a}a}bfa}bfbfa/axakalaCaQa!a(a\aQa&a!bfbzbfa^bFbGbJa&a|bfbfbjbfbjbjbhbubububububybubybybububybubybAbybAbAbubAbububAbLbAbtbgbFbQbRbCbJbQbQbobfbVbIa\a|a7a|a>a9aVaCalaeaealanasapaoamalaraJa(a/aQasaQbLbjanakamanaoamaoaoaoaoaoaoanaoamamamakakahacabacakaoaAaCaFaPa3bFb3bTbAbOb?b~bTa}bAb7b_b3b1b*b1b!bQa3aPaVa7avavaFaTa1aVaAava3a+axavaAaGaJaTaIasalagadaianaqatauaDayaEapadacacaeagagaiakalapauazazaHauauauauaBauataKbybM",
"a9aQaranaGaJaAarakadafamamamaraoaoavavaraoamadajaFaFaPa+a3a+a+a+aTaAaoajajakamaoaGa]bta]aGarara7aAaFa7aIaVaJa4a]a{bub\b7b7bEbHbEbObha/a1bDbVbAbLbTbLa|a4aJaFavakaiakaxa/a}a/aJanakakakanapasaqataxataxapakaGa%a\aAamalaiakakakalanapapaxaCaBaBaGaGaBaxapalalakahahaiajaxaCa&a!a!aPaVa3a+aGaTaJaQaJaQaJaQaJaQaQaQaQaQaWaWaQaQaQaQaQaQaQaQaQaQaQaQaQaJaJaJaQa1aWaQaVa1a3aVaVaVa3aFa%a{a\aIaCaiakagalasa2bfbAbAbububjbubybHbSbLa}a.a(a}bubfaQaCbhbXb7b7bXb%bXbTbMbXb0bEbIbubjbfa}a.a4a4a1aVaIaoahakavaCaIaTa1bibXbObEbAbua}bDbrbrbVb0b(b*bVb/b3bGa3aFaPaTaVa1aVa9a.a>a1aAavaTaPavaraCaIaTaJaVaTaxapaqauauaDaDaqagacacacabacaialanaqatatauauayaDaDauaBauataXbSb+a}ap",
"a2aQaIanaIaGavarakadajaoamamavaravaAaramahajajaoaPbibRboa`a3aTaAamajakaoamamaCa.bpbdaQanafaoaFaAamaGa2aQa1a}bLbLa}bfb)b7b9bMbOa_a!bOb1a]a!bib0b0bua4aIaTaCaoaeabaxbLbTa#axaianaJa(a/a/a/a]a}bfa}bjbjbfbfa/aJasasaWa]a5a2aWaQaWaCasapapapapapapapasaxaxaCaBaGaGaCaGaGaCalakanaranakakakakakakakakakakakakakakakamamakakamakalakamalamalamamamamakakalakamamakakamakakakalakakalakarasavalaoaGaJaCaxaparasaCaWa(a]a}bda]a!aTasaxa2a2aGasasa!bHbXbMbXbXbXb#bSbObHbLbHbEbjbjbfbubDbXb3bla\a|bibeaVarakamaxaIaJaIa!bpbObSbuaWa(b0b(bMbubVb1b3b/b!bYa3a+aPavaPa4aVa1a>a&a&a.a1aFaFaIavamaxaIaVaVa1a9axaqatauaBakacabacabacagaeadakatayayauanalalatayauaua6b#b~b#aFaeal",
"aWaGaJasaGaGavaoakafakamakamaoaravavalafamaoava3aPbobRaTavavaoamaoaoamamaxa&brbda2anaoa2aIaJaVa1a1a1aJa(bubTbHbEbHbHbHbMbMbfa}bfbLbta.a\a|bIbLa&aIaCaCaragabakaQa(aQa\aVapa]bTbja1arakagahajajajajajakamamanaoananalalalalalananananaoananaoananamanalamalamalakalalamalalasasavaxaAaxaxaAaCaFaxaFaAaxaAaAaAaFaCaCaFaCaFaCaCaFaIaCaCaCaCaFaCaFaCaFaCaCaCaFaFaCaFaCaAaFaCaAaCaFaAaxaxaCaralaoananaoanaoalamalakakakamalanaoaoanalalamalamakaiagakakamamamamakakaiakajagagahaiaoaIbfb7bLa]bfbtbfa>aTaoajaoaCaGaCaCa(bDbTbAa(a2brb)b0bfbgbDbZb/bYbvaAa+aoa3aTaVa1a&a&a&a&a&a&a9a+aParamaraFaVaVa4axapaBaCaiacacadaeaeacaealaqanaialapaqaqaqatatauaua!bTbLa:aiaianap",
"a2aGaCaxaJaIavaoakahamamakaoaAaAarakahapaFaFa~a~a+a3araraoamaoavavamara1bjbta!asanahanbiaQa&a.a9aQa&bfbdbLbHbHbHbHbHbEa]a_bOb`bTbLa9bub3bIa(aIaCaCavakafaiaxa}a}aJalaka!bSbLaValagaialanarapalalanananalaoanananapasaqasaqasaqasaqasapasaqasaxasaCaxaCataCaxatasapapanakaiaiaiakakakakakakakakalalamakalalalalalalalalalalalalamalalalalalalalalalalalamalamalamalakakakakakakakakakakalanapasaxaCatasasanalakakalalakagaiakakakakalasaxaxaxaCaBaGaGaBaCaCaxaxasapapasaparanalakamaVbSb=b7bAbAbjbda&aIaoajaraGaGaCaGa/bHbIbfaVaTa]b)b0bdbFb1b.bJbva+a+boa+bebgaVa4a9a9a9a&a&a+aTa+aTaoaoavaTa1a1aBanacacadaeagaialanalaialaqaqapananananaqatauaEaBanafabaialalal",
"a2aWaIasaQaIasaoalafamamafaoaramagaiasaGaVa\bRbwa3a3aAaoaoavaIavamaCa|bua|aCanavaIaoajbiaQa4a1a4bfbObLbObObIbAbHbHa}a/bub7b7bjbIb1bHbTbcaGasaCaAalafaiapa!a_a(apasa/bObOa%analasaQa.bfbda]a}bdbjbtbubpbhbubIbEbObXb7b%b+b-b-b?b-b?b+b+b%b+bXaWa2aUaUa5a(a5a!a2aWaQaGaxasanalalalalanananapanananananapapapapapapapapananapanananapapapanapapapapapapapapasapapapapananaoanananamalalalanasaCaJaQaWaWaQaQaGaCasapaCasa]bObSb#b-b?b\cecbcfcfccccb~b~b\b-b9b7b0bTbMbAbAa}a}bfbjbda2axanaoa2bXb-bUbAbAbrbda.aIaoakaraGaGaCaJa(a|bjbda!bjb9b-b1bibZb.bZbZbZbJbebZb=a\aVaJaVa1a9a>a4aFa3a^aVaraoaoaGaFacacacaeagakaiapauazaLazauaqaqaqauauauayaKaBanalagaialalakaiagak",
"a!aWaJasaJaJavaoakahaoamajaoakafagasaxaJa.bLbVa\aVaPaoavaFaAaraoa2bDbua1arasaIa1a1avahbiaCaTa/btbLbEbDbAbAbEbHbua]a}bMb0bHbubfbEbTbpa1axaAaAanahafalaBa;a]aBana!bHbOa.apalaCa(a}bjbAbhbub0bTbObObObHbAbLbAbAbEbObOb7b7b%b-b-b?b-b-b-b?b?b~bHaqbfclctcfb~czcFczczcfcmcqcbb?b7bubybEbObEbMa}bubEbXb7bUbXbMbSb7bXbXb7b~cmcfb~cbcmcmb~cfcfcmb~b?b+b&b+b?b\b&bubSbSbMbUb-b7bybfbjbubfa]bjb?cfcqczcFcFcFcFcEczb~cfczcFbuaxbOb~b\b\b\b~b~ceb~b~b~b~b~b~b-b+b%b7bHbAbObTbAbTb7b9bAbjbHbDbfa!axalapa.b7b%bObAbububta\aIamakavaGaGaxaGbfbObDbjbdbLb7b)bDa|bKbRb1b1b*b*bVbKbca&aVaVa1aTaFaTaTa1a:a3araFaAavabacaeagaiagaiaqayazaMazazayazaNaYaNaKaBapagalatayauagalanananan",
"a!a2aJavaCaJavaoajajaoamajakafacasaJasaVbLb}bDa&aIaravaFaAamapa.bTbjaCavaVa1a1a9a4aFaha9a.bcbfblbjbublbAbAbAa}a}bHb0bHbubAbDbLbpa9aCaxaAarakakaoapa2a}a5apaGbHbXa/asalaxa(bjbubjbjbhbXbOa2axaQa!a5a2a(a2a5a!a2a5a!a(a]a}a}a}a]a;a;a(a(a(a5a;apaxb?cSbObHcmc4c6c7cTcScScCb~b~cfclclcfb~b?bEa}bMb~clcqb?b7b+cFcFcbczc3c&c&c&c&c-c&c&c&c&c6c8c8cLctcSc8c3czbUcbcqcqb~b~b)bIbLbDb)b+b%b+b+czcEcScXc7c7c6c4b?b0bOcSb|aBasa]a(a.bfbpbAbHbTbLbLbLbAbubfa/a/a/a!a/a]a;a/a\a!aJa\b9b;bAbubHbAbja&axalasbdb%b-bUbHbHbHbxa&avahamaCaIaCaGa!bAbHbDbda]bfb0b0bfa|bsb1b#b1bLbKbDbza|a\aIaIaTaVaVa+a9a&aFava&a7aracaialalatalalaialanaqaqatayaDatapaiaialauazaDanaiapauauauaDaD",
"a!a5aJaxaJaJavaoajajamakajahacaiaJaBava1b~cvbsaVavavaAasakaoa!bTbDaCaraTa1a1aVaTaTaAaJa\a|bda_bAbjbububua}a]bAbXbObAbubLbHbAa.axapaAasakakaoasaQa;a#axapa}bXbdaxamasa(bjbAbEbjbub7b7a/aBa/bObAb7b+b?b0bHb0b9b?b\cfcfcmcFczcEcEcOcEcFctcCb%b7bXaCatb(cmcmcMc3cXc7cScCcqb:b7b?cqczcOcqcyczb)bEb\cEcMcLb&b7cmcTc4cMc3c6c-c-c&c-c-c&c-c-c&c&c&c&c8cTc7c&c&c6cTcTc4cTcFb%b0bLbDbLb+cfcqcfb7bMb~cFcMcTcTcTcOclb~cebTaGaGb#b7b\cMczcMcXcXc8c8cXc8c3c3cPcEcIb;b#bTb`czclb\b=b7a}aQbdb?b%bjbubHbEa|aQapakaCbub-b+bXbMbTbDbcaVarajaoaxaCaCaIa.bAbHbAa}a/bub#bHa|bjbTbTbHbLbDbDbzbsbsa>aIa3a4a4a+a&aVaraTa{aTaoapauauauauaqalanaqaqauauatalaialaqauayaualalaqauayaDayaKaNaH",
"a(a4aJaxaJaJavaoajahakakahafabanaQaCaxa{cIcwa\aIaraAasakaiaGbDb)aVaraTaVaVaVaAavaAa&bpbfbdbdbhbubha}a]a/bjbObHbjbpbubHbLa]aGarasavalahakapaGa(a/aJalaQbybuaJakana5bjbububjbubUb%bjaQa}bXbHbAb%byb+b\a(bLb)b3b%coctczczcLcMcEcEcqcqcqccb\clb?b+b%aGatb9cMcScLcMcScLcqctclb~cEcScqcfcfcqcOclcfcOcScTcMcFcqcOc3cXc4c3c3c8c8c8c8c8c8c8c8c8c8c8c8c3cTcTc4cXc4cTcUcUcScEccb#bHbTb#b;b~ctczb_bUb+cqcycfb~cfczczcIbXaBaQb=b+clcMcFcMcTc3cPcTc3cEcOcScXcTcOcfbxb*bAa!cfb?b)cfb9b0b=bjaUbAb+bHbjbubDbfa\aJapanaGbAb-b%bObHbDbtbgaVamakaraxaCaxaJa\bHbObDa\a(bfbLbfa.bpbTbTbVbsbzbgbwbsbeaIa3a4a1aVa7aIaob3bgaxauauauauauauayauazaYaKaqalalatayayaualalatauayazaNaNaMaNaNaN",
"a(a!aQaxaJaGavaoagafajahafafacaxaQaCaGblcMcva4aIaoavaoahapa9b{bTasaFaTa1aVaVavara^bea]bjbAbubhbja/a(bfbObAbfbfbrbDbObfaQavasaAaoahajapaIa#a/aWanaCbpbAa2ananaQbfbhbubhbhbXb-bAaWa/bXb0a!apada}b-bEb\b9a}bfb3cecfczcEcCcOcLcEcCclcqclczctczcOceb%b%aJata!a(a/a/a2clc4cScEcMc4cOa;a/a]a;a;a;a;a;a;a}a}a}bfa}a}a}a}a_a}a}a}a<bfbja<bfa}bfa}a}a}a}a}a;a}a{a}a}a]a/a]a/a/a/a/a]a\a/a.a_cIcVclcFcTc3b-a5a/a]a|a.aCaQb~b?cIc8cOcMc3c8c8cUcTcXcMcMcUc4c4cOczb=bjbpb_clb+cybManaxa5b9b(a/aUbHb%bSbfbubAbfa]aJananaWbOb)bUbIbAbIbja.aFakamaraxaxaCaQbdbHbLbua/a2a}bga1a|bDb1bIbtbzbtbtbRa^aAaTaVaVa%a%aob3b=aIauauauayazazaLa)a$aualalauazayaqalapauayayazaMaMaMaMaNaNaNaX",
"a(a(a4axaCaIavaoagabafafafahadaGaQaCaGbVcVcea4aJaoaralafaCa}cya}avaIaVa1aFaAaoa9bda\a/bjbabua}a2a;bObSbubibjbAbHbzaWavaravaoahahaIa%a5a]aWapana/bIa(aralaGa}bubhbjbjbMb-bXa2a(bXb9a]aQa]bjaJacbAb?bSb~cbcfcmcfcmczcFcCcOcLcLcLcScMcEcOczcOcPcOcmb%b+a!aBaGaGaGapa}cVcMcCcOcXbSaJaJaJaGaGaGaGaGaJaQaWa2a2a2aUa2a2a2a5a5a5a!a5a5a!a5a5a5a5a5a2aWaWaWaWa5a2a9aWaQaJaJaQa1a1aVaJaJaJaGbTcXcPcOcTcSa(asaAaxaGaJa!b~b~cMc&c3c8c7c7c8c8c8c3c4cTcScUcScOcEcFczcIczczb_cwb7ana.bIa}aJa_b)bXa!a!bOb9bubfbhbAbja(axalara!bMb9bObAbHbDbda4aFamakavaxaAaxa1bjbTbAbfa/bdbfbDbgbdb3bLbDbIbIbzbxa>aoaFaIa1a%avbKcka3aEaEazazaYa)a;aualanayazaDapalaqauayazaMaMaMaMaMaNaNaNaHaDau",
"a!a9aUaCaGaJaraoafacagafahahaeaCaGasaAa{b=bta1aFamarahahaBbLcIa2aAaIaVaJavakaJbja}a}a_bjbja;aUbfb0bHbzbpbubHbra2avararaoaiafaraQbFbRa{aFalaQbja]asakaxa]bAbubjbfbAb7bXa(aWbAb%bja2a|bSb0bXbHaWalb-b9b+cfcbcfcmclcqczczcEcMcUcScUcTcTc3cScMcScMcScEcbb+bXbUbAbfa(aBczcob\cFcMa\a}bububHbEbObHb7b%b~b\cbcfcfcmcmcmcqcqcmcqcmcmczczczcwcqctcqcmcmcbb~cfb\cbb~b?b?b?b~b=b0bTbXbXbIbua|a&cMcIb\cwcwaJa!brbAbOb7b~clcSc8c4c7c7c&c&c8c7c7cXc3cScScMcEcFcocqcwctcwb?b?ccapa/b#b#b%b7bfa2bjb9bLaWa(b0bXbjbdbDbua}a2asalasa/bXbTbObHbHbjbia4arakanasaAaxaCa9bpbDbubdbfbLb)bIa\bIbLbDbsbzbzbsa+amaAaIa1avbzcka4aEa5a$aYaHaqaiaqayazaDapanatayazaMaYaYaLa6aYaYaYaYaXaDatalai",
"a(a9a2aJaJaJavanafabahadafahaeaxaQaJaQb#cObTaIaramaoafajaGb9cIaQaxaFaIaFamara_bjbja_bhbha/aQa_b0b3bIbObLbLa]aAaravarakadanaJa.a!aFaGaFaGbda}aGakapa!bjbubjbdbhbXb7a;aEbjb7bAa2a]bMb9b9b9b0bja;bXb?b9cbcfcfcfcfcfcqczcFcqclcqczcyczczczcFcFcFczcEcFcFcocfcCcScobMaJb0bDbAbLb\a(bOcwcOcMcFczczczczcFcFcEcEcOcPcScPcMcMcMcMcMcVcMcScMcMcMcMcPcMcMcMcPcPcOcEcFcOcOcIcEcFcfb~cocFcyb`bDa1b=bDbDbDb#a2bOcycVczcwcycOcOczcIcOcOcMcPcMcPcOcFczcFcIcScOclcococwcqcwclb%b~b)bAbAb#b%b_b-b0a/a1bAb7bjaWa}b0bOa}a_bubja]aWapakaCa]b0bXbHbubja|a4aFaralaraxaCaxaGa}bAbubHbHb#b`bpa.bIbtbDbDbzbFbFaraoaTaVaAbDcka&aQa5auanaiapauazauapaqauayazaMaMaYaMaYaMaYaMaYaNauaqalaiakal",
"a9a!a!aJaIaJavamahabahadahahaeaxaQaQaQb(cVb0aVaAajajafakaBb-cIaJaAaAavaoaga2bybabhbybybaaQa(bXb-b0b0b0bTa>aAaAaAaoahaiaCa.a]a9aragapa(a]aJananaWa_bubja]a}bHb7bfaQa;b7bOa!a2bAb9b)b%b%bHa}bTb-b%b+cfclcmcfcmclclcqb~bjasanasasaxasasapasasaxasasananasapaBb~c3b\a2bhb~b0b=bya(cec4c3bSaFaCaGaGaTaGaGaGaCataCaCaBaGaGaJaGaGaGaTaJaTaJaPaJaGaTaJaJaGaBaBaCaBaGaGaJaFaCaxasaxbScScIb(a4bzchb)chbDa\cfc4ceaGapaxasaxaxasasavaxaAaAaxaxaxavapaxbDclcqcwczczczcqcycyb?b?b`bSbfbOb|b\b?b)bLa9a!bOb0a;aQa_b7bHa]a}bAbfa/aJalanaGbjbXbObAbja\a&a9aAamalaxaGaGaGa]bubLbObOb=b(a|a\bIbLbKblbzbFa%afaAaVaAa{b=a+a4aralaqaqanalaialatayazaYaNaYaYaMaYaNaYaNayatanakaialalalal",
"aCasaGaJaIaQavamahabadacafahagaxaGaJaWb)cPb0aIaAahadahalaGb-cyaGavaAarajala}bububkbybEa;aEbuccb-b)b%b#a]aVaPaxamafalaJa;a\axalaGa}bfa2apalaGa;bja_a]a;bAbXbuaWa(bSbTa&aQbfbLbXb%b%bSbfbAb%b9b%b\cfcfclclclclcqclbXaGasa2a]a&a!a(a(a.a/a/a(a(a/a(a.a!a2a!aQalb?cSbLaGaJaGaGaGbMcEcOa/aGbIbfa{a]a]bdbfbfa}a]a;a]bja}a}bububjbfbfbfbfbjbububjbjbfa}a;a}a}bfbfa}a\a]a/a.a!bibLava!czcIbOaGaTa1a1a2bTcMb`aka9a(a%a(a\a/a]a{a]a/a|a{a]a\a(a]buaWanaBb#czcOcIcqcwcqcqcob?b7b9b%bHbub#b^b?b)b(bja1a.bObMa(aQbDbMbua]a}bubja#aGalaoaWbubTbHbubda.a&aVavakavaVa4aVa}b0bObHb)cfbVa.bDbVbKbIbKbzbwakamaIaFa.b*a3a.aWauapaqaqalaialalaqaqaqataqaqaqaqatauatalagaialanalalalal",
"a(a1aCarasaxavaoahacahadafahagasaQaWaQb`cIbTaIavahafakamaEb-cyaGaranakacaxbjbabhbabAbyaUa(b`czb\b-b_bDa9a1aIamaganaJbpa>araxbdbAa&asalaCa/bjbfa;a/bub9bHa!a!bHb0a|aQa/bDbSb7b0bHa}bjbXb7bXb-cbb~cbcbcfclclctcoa;aFa%bObLa(bfbVb1bSb0b)b\cfcececlcfb-bLa9a]bzapbHb~b9bTbSb0b9b_b~a4aWb=bObLb0bVbLbLb#b(b#b~cFcFb?cmcEcIcqczcIcEcMcEcMcUc3c3cMcFcFcOcPcOcOcMcOczczcob|b#bgbzb0aGaQb~b~b#bLbLbDbTb|bLaxbLbibibVb9chcfcwczceb~b\b?b-b=b7bIa\b0bAa4asa]czcIcycocwcqclccb~b-b7b%b%bAbAb0b%b=b9bTa\aJa/bTbEa2a!bubMbda/bjbja}a5asalapa!bAbObubjbza.a7aAamaAa1a&a2bHb+b?b~cqb|bda\b1bVbDbKbwbFaAafaFaIa%bRaTa(aQanauayazayazazaHayatapapaqapanananaqapalalaialalalalanaq",
"a/a(a1aJaFaAalakahacahadafajaharaGa2aQb;cObSaIavahafakalaEb~cyaCanaoaiabaGbubhbhbhbybhaEa;czcOclcwb~a]a&a4avahamaCbjbgaraJbDbfaCakasa5a}a_a]a/a}bEbHa]aWbjb0braWa&bzbHbTbSbTa}a]bHbSbMb7b?b\b~cbcbcmcfcfcmcFb`a2bzb3b=bub1b=b)b_cecwcIcIcOcEcScUcScScIb\bDa}bDaxanasavavaxaAaxasa(b(bjb~b^b=cEcMcwccchb;cFc8c7cEcPc7c7c4c4c7c8c7c4c3cXc&c&c&cTc8c8c7c6c7c8c7c7c8cXc4cVcwbDa\b0a]aFaAaxavasaranaoaGbVbibFcfcIcMc3cScScTcOcEcEczcwcfccb}bLbVcfb3bdaGb`cOclclclcmcocbcmccb~b+b7b)bSbdbub#b)b#b0bta!aQbfbXbjaWa&bAbAa}a]bja_a(aEapanaCbfbObAbAbpa|a\aTaraJa&a\a}cfcFcCcLcIbIa9bVbLbKbFbwbQa3adaAaVa7bwaTa.a5ayayaMaMa6aYaXaKaHayaHaHaHayayayayayayayauauauauayayayay",
"a4a4a4aJaVa4avakafacafadahajahasaBa1a2b;cIb3aJaAafafakaoaEb~cwaxanamagabaWbLbhbubabybjaGa_cScPcEcOb~a/a\a9amahasa.b0aGaCbfbTaJakaJa/a}a}a/a}bEbEa/aGa(bHbAaQa1bibDbIbObHbda]bubObEbXb&b;b&b?ccb?bublb~cmcmcqcoa%bub3b\b=b)b`b_b_b~cmcFcEcOcEcMcTcMcOcEcwchbVa/a.a1aQa2a2a4a2a9a|bAbTcfcOb%b?c4c3cCczczb~cFcSc8cUcTc8c6c3c6c6c8c7c8c4c7c&c8c8c3c8c8c8c8cXcTcXcXc8cXcXc8cSb}b}bIbta\a4aJaCaCaJaVa4a{a\b/b=ckcVcUcVcMcScMcOcEczctclcfcfb~b7b;cfb3b5a(cocIczczb~bjbub\cob~b\b\b~b)bXb3bLa]bub0bUbTbHbra2aQbubMa}aJa/bLbHbja}a#a(a!aJalaGbXbXbAbAbxbpa{aAaCa.bfa]ctcMcTc3cSbTa9bsbVbLbQbwbQaTadaAaTa9bRa3a(aQaHa$a6a6aXaHaHaNaYa$aYaYaHaNaNaNaNaYaMaMaNaMaMaMaMaMaNaN",
"a\aCaCaxaQa2aAamahacagacahajahaxaGaWa2b|cVb0aVaCafajakaoaGb~cwataoakahaba2bDbjbubybya_aJbfcVcUcMcMb~a\bia1ahaiaCbDbIapa!bXb9asaGbfa_bfa#bhbXbfaGaEbfbXa}aFa9bxbDbubLbua}bpbObEbOb7b&b%b%b&b%bLa(a%avapbHcqcwcFb\a}bub}cfb`b=b_b\cecoclczcCcCcEcMcScMcTcVcycob)b~b=b1bLbVbsbVb|b}b}cIcTcSb{b?cTcLcTcScIb?cEcOclcOc4c8c6c7c7c6cXc7c&c&c7c&c7c8c6c7c3cXc6c8c3cXc8cXcXc8cTc4cOcOcIb=bRb*bFbwbCbFbRbZbVb5b|ckcqcVcScScScScMcOczctctclcfcfb\b?cvb)bRbFchcIcFcybTaCaFa1a2bLb~cfb~b~b~b?b7bMb0bAa|bdbAbTbIbpa.aGa|b(bAa!aQbpbXbpa5a!a/a}aGasb%b?bHbHbDbubga9aAa|bja}cEc3c3c3cVb0a&bsbVbVbZbobQa3abavaIaVbwaTa%aragaEaXaKaNa6a$a$a$aNauaqapaqatauauatatatauayaHaHaHaHaHay",
"a]a(a/aBaCaBavamagadakaeahajahasaCaQaWb{cMbTa9aCahahakaoaBcecoaCanamaeaca2bDbjbAbubla}aEbuc3c3cMc3cfa.a|aVacanaJb0a]aCa{b-b|aqa2a}bfa]a(bXb`a2a4a;a}bIbAa>a.a>a{bia{bjbObAbEbUb%b%b%b%b%bIa(a!a|bubDa>araUb\czcEcyb0bjb)cfb~b=b_b~cfcqclctcCcCcOcMcMcMcScMcScMcMcMczb#b3bDb}cVcOcMc3c3cMb~clcTcTcScLcEcqcMcEcfcSc8cXc8cXc4cXc8cXc7c8c6c&c8cXc8cXc3cXcXcXc4cXc8c4c4cXc4cXc3cScVcOb\cob|bRbRbZb{cIczcIczcOcMcScScMcScOcOcOczctctcfccb\cocwb3bgb#cIcIcfb`a!aVbVb(bVa\a&a/b0cececbb\b~b?b7bMb0bda&a}bubfbgbzb)b)bLbDa(a9b)bTa}aQa;a_a(axb-cfbSbXbHbubta\axbgbubdcEc3cScXc3b3a&bcbVbVbRbFbRaFacaravaTbsaTa>aAadasa$aXa6a6aXaDaqapapaqauauauatatauayayazaNaNaNaYaNaNaH",
"a\a#a}a5aUaUaCaoahadahadafahajarasa4aWb;cIbHa&aIafajamaraBcecoatamakadaba!bLbubEbubAa;aQbycVc3cVc3cca\a|aJabanaVb#a(aJa]b-b?axaWa]a_a(a]b7b~a&brbhbda]a}bjbubpa]a;bAbEbybMb7b7b7b7b9b0a;a%a|bAb7b-b\b|b#a>aAbycwcFczcobAbLceceb_b\b~cfclclctcqcFcEcOcEcOcMcMcScScVczb^b#b(b=cSc3cTcXc4cLcqcEcTcUcScOcCclcOczcqcMc8c3c3cXc3cXc4c4cXc7c6c6c7c4cXcXc3cTcXc4c3c3cXc4c3c3c4c3cSczcMcScfcIchb3b/b1cocPcOcOcEcOcMcMcMcMcOcOcEcEcIctclb~ceczckbLbIcocIcIcfbuaIbLchcfcfb~b=bTbga.a]b;cbb~b~b~b~b?bXbMbHbdbib3b0b3bTbTbHbHbDa]chbObjaBa;bja5aGb\cwbXbUbTbAbta|aCa|bLbfcCc3cTc8c3b#a>a|bVbVbVbKb!aAadaoavaVbeaFa|aIajavbaaXaDatanapaqauauauatatauayazazaYaYaYaLaYaYaLa$a$aL",
"a]a&a;aXa5a5aJapakadagadacagajakaoaVa1bLb*a^aTaAahajamaraBb~coatamakacaba9bza7a\bAbEa}aQbycTc4cVc3cea\a}aIabanaJb)a.a2a}b=b?asaJa;a]a(a]bXcea2bibhbubhbAbAbAbjbubEbLbEbXbXbSb7bUb7b%b3bibAb)b?b+b?b\cbcfb|b1aVa2b?cwctcIb=bfb7ceceb\b~ccclclclczctczcFcEcOcOcOcMcOcEcob9b_cecScScTc3cTcSczcIcScTcUcMcCcCcEcFcFcScTcTc3cTc3c4c4cTcTc3c8c8cXc4c3c3cTc3c3c3cTcTc3cTcUcTc3cTcEczcMcMcqcEchb-b*b#cqcOcIcCcOcEcOcOcMcOcOcCcCcIctcob~cycyb#bzb}cIcycyb=a7a|b^cycwcwclccceb~b)bLbdb0ccceb~cbb\b~b\b%b0b7bTb#b7b7b0bObHbHbua]cobObfaxa#bua5aJb?cmbUb7bXbHbta.axa{bEbjczcTc3c7c3b3a.bcbKbVb1bVbQaTacamara4beaIbsaAakaoa(aqanaqauauauauaqauauazaMaMaYa$a$aLaLa$a,b&cCcXc6c7",
"a&a!a#a!aXa!aEarakafakafadahahamaAaVa%bVcvbRa^aFadafakaraGcbcoatalakacaca3a^a`bebIbVa_aWbAcVc3cScTcfa&bdaCabanaJb(a}a!a]b;b_apaGa#a/a!a/bXcfaVa/a}a]bfbrb)bTbEbEbEbMbMbSbXbXbUb7b9b7b;b%b7b(b?b?b?b?b}b~ckckcka|asbpcfcqcFcwbObjb-coccb\cccbcfclclctczcCczcCcCcEcOcOcyb-b?cocMcScTcTcTcSczcCcMcTcTcUcEcFcEcFczcScTcUcTcTcTcTcTcUcScTc8cXc8c3cTcTcScTc3cTcTcTcTcTcScScTcScqcbcMcOczcFb~b=b(b}czcOcEcCcCczcIcIcEcOcCczcqclb~cfcIb~bzb#cIcvcvb}bzara}cvcvb3b%cocqclccclb_b7b~coccb~b~b~b\b~b?b-b=b=b;b-b=bSb1bDa]bubua(cfbSbzaqa/bya/aJb?cqb9b9b7bHbza%axa\bEbjcCc3cTc4c2b9a|bibVbVbVbVbVa4acamaoa>biaTbgaAakalaXauayauauauauauayaHaMaLa)a)a$a$aZa?cbcsc&c-c-c-c-c-",
"a|a9a;aXa!aXaVapamadakahafamaraFaTa3a&bRb}b`beaTajafaiapaBcecfaCarakacadaTa:a3bvbxbLbga(bEcVcVcMcSb~a&a}aFabapaQb0bja4bib=b_apaCa5a!a!a!btb=aCbjb3aGbibfbLbfbrbubEbHbEbObMbUbSbUbUb&b%b7b=b=b7b\cfb(bQb.b}b*bza>aGanaJb9cmctcFb~bubOcecwb~b\b~cbcfcmczcCctcCcqcFcCcOcFb\clcFcMcMcScUcUcMcEcEcMcScScLcOczcEczczcLcScScScScScScTcTcTcTcXcXcXcUcTcUcUcScTcScScScMcScMcScMcMcfb?cLcOczcFcfb#b{cocFcPcEcFczczczcCcCczczctcfcbczcyb1bIcwcOcvchb)aVapaGa4a]b#b}b)b1b_cycob_b=chb=b%b~b\b~b~b~b\b?b-b)b=b-b+b(bdbDbDa.bfbua(cfb0bAata(bya;aJb\cqbXb9b1bAbga&aFa\bjbfcFcTc3cScOb*a{bwbLbVbVbVb1a&abarambgb3a%bgaFajaoa$aKayazaNaMaMaYaLa$a)a)a$aZbmcbcTc!c-c-c-c-c-c&cXcC",
"a&a9a#a5a2a5aQasakafakadadaoaraAaAaAa1b1cfb~bFa4aFamacalaCb)b}ataoahabacaPa+a+bvbsbRa\a!bLc3cTcScOb_a.biaCabaoaGbVbLa4a}b;b-avaCaTaJa(a\a1aVaJa|b0a&a(a|a.bubAbubLbHbhbAbObMbXbUbUb%b%b9b7b-ceb~cecob=bVbza:aCaxaCarapaoa}cfcqczczb)a}b=b?b~b}cncvb~cfclcmcfcbb~clcQcIb}cycQcQcQcMcNcPcEczctcFcFcQcOcQcNcMcQcNcOcMcIcOcCcCcOcEcLcScVc3c%c3c2cVc2cLcLcEcLcOcEcEcOc2cOcQcOcvb|cQcwczcFcob=cccocfcIcNcNcNcycNcycNcfcfcccocIb|btb=cOcyb}b`a{asaxasaPaxasa1bzb=b\cfcob~b}b?b-b3bDbLb`b~b\b\b?b_b-b-b%b-b9b0bObja\a}bAbAa(b~bTbAasa(bAa/aJb_cfbLb\b1bzbia7ava\bda_czc4cQcwcIb=bwbcbVbLb6bDbza%adaFama|bRara>avajama<aXaYaMaYa$a$a$aLa$a,bBcqcXc!c-c-c-c-c-c&cTclbba)aM",
"a&a9a;a!a5a5aEapakadajafadafaraCaAaFbgb)b=bRa>aAavalakaIa2b_cOa(avaoabada3bobvbYbKbKa\a!bAc3c3cMcVcca.biaFaobwbwcIcMbrbdb|b-avalaxaPaWa!a!a4aCa2a/bAbMcobObObSbXbUb|b-bjbEbHbSbUb7b%b%b7b9b+b_b~ckb`bIa|aVasa|bVbVbxaGapapaGb7cqczcFcvbubwb=cAcHcpa~bebUbAbyblblcDcYcHcAc5c#c)c$cdbKbUbkbSbkbcb*c9c$c$c$c(c$c)cYb)b/bkbkbka=bQcpc)c)c)c)c$c(c#cAbMbMbMb%bmbMb>cNc$c$c#cKcKcYcNb>bMbMbSb%b%bHcdcYc9c9c9c9c9c9cdbCbTb%b~bVbTcwczb|b)bLaGaxaxa9bLbDbFbeavaTa.bib`cfcfceb~b%b+b;b+b~b~b\b\b\b\b?b-b%b%b7b0bXb0bUbMbObDa!b~b1buana5bja.aJb~cyb1b0bTb1bza>ava|bjblcEcVb~b\cNbVa:bFbVbTb3b#bwa4aha1aoa>bxaAa&arakama<aXaMaYa$a$a$a?b:cCc6c!c-c-c-c-c-c7cLb:a?aZa$a)a$a$",
"a.a9a;a#a5a5aQanakahamafafafaraJaFaFbeb3bZbRbCaPavaramaTa2bVb~a9avaTahafa+bobobZbVbKa}a4bEcTcScOcOcoa9biaIaoa|bFcocEbDbjb`b-aAahaCa%a/a{bAbjacbfa!a}bOcobHbHbMbMbUb7cwbjbEbHbMb7bXa;aJapanaWbSb+b?cfb`bDbwbVb*b3b#b{b)a]asasapa(b~czcFcIb}bibQb!b1a|a9bja$a;b$cYc#c5cKcAc5c)cNb$a_bMbOb#bDblcKc$c*c(c(c9c$c$cna-b*bybababcb6c5c)c*c*c*c*c)cYb^b6bEbkbkbkbZcpc$c$cYcYcYcHcHcxb=b6a;bEbSbybLb;cKcYc9c9c9c9cKb$bDb;b\b=bIb\cyb#bVb1a(asaxaGbrb_b~b`bTbzb/a>a|b)cob~b\b7a!apasa2bub?b\b\b~b+b%b_b-b=b;b)b9b#b#b0b0b0bVbDceb(bDana!bfa(aBb\cwb3b0b1bVbsa|aAbgbubjcFc3b`bTcwa~a\bFb1b#b*b#bVa1ama&aAa4bsaAa\aramama6a6aYaMaMaMa)clcXc!c6c&c&c&cXcCb&a*a$aZa)a)a)a$aMaH",
"a.a9a]a#a5aUaGanafacahadaeaeajanaoavaPa&bwa:aTaravaoadakasa.a|apadajadada+bZa~a~bRbFa&aTa]cScIcycIcoa&a|aFaja1a9b;b~a%a/b{b-aCaGa\bjbua(bLbAajbza/bfbScwbHbObHbEbEb7b~a/bEbXbSb|buajanaoakacaka/b%b?cfcob`b3b0bVb7b-b^b;bLaQasaxapbucmcFcIczb5a{b1b)bMa<bocdc5c9c9cYcRcKcNb>bCa}a<byb#b{b>c5c*c(c)c(c*c*cYb$a_bybXbabhbjcDc$c)c(c$c9c)c(cnb$a=bkbkbybjbTc5c)c$c(c$c9c#cYb;bKb{bHa}a<bcb*cdcdcRc#c9c9c9cDbAb)chb~b3b0czcMcIcebpaxaxaxa!b7b\b~b_b?b)b0b0b)cwcob~b+a(akafarapalakbzcfb:b-b7czcwb7bHbTbHbLbAbDbAbtbububpbia/a1ala2a;a!aGb|b\bIbia^bzbRbiaAa|bHbjczcOcoczc2a7a^bwbRb!b!bVb/beajaxamasa7aAa1anajakaDaDauauaDayaHa$a=a=a=a?a?a?a=aLa)a)a)a)a$aLaMazayay",
"bDa9bda#a!aXaIanafabafadafahakavaFa+a+bVb!boa&aAacacabalaJb9b=aqabacadaha3a^a3a3a`bea7aFaPb*ckb}cOcwa.biaxaha9bgcycIbfbib|b-aCa!bububEa/bDbfava}bcbdbucfbXbMbHbybAbXb{a/bEbXbUb?b1aGbjbibia&arahaxbLb?cbcocfb=b#b#b#b?b\b`b9bfaGaxasaEb=cqclcIb~bFbRb}b|cKcYcRcRcYcKcYcxbZa.a;a<babSb>cHc*c*c*c(c(c*c#b[a|a;bhbEbSa<b$cYc)c*c(c(c9cKcNb$babkbybybabacAcYc5c#c(c)c(c(cHb>bHbab=b0a/bDcDcYcAcxcKcRc#c5b6b6b\cfb`bHcecOcIcwb=aUasaxaJbLb-b\b~b\b-b9b)b=cwcFcmb~bLapafasa.bDbta}a1bIcwb+b9bUcIbHa;bObHbEbAbubAbfa}bibdbda}bia!aoaWa/aWaJccb|bjbxa|bgb1a\ava\bHbfczchbFb*b*a^a:bCbobCbYbJbea~afamamaGa>aIa2akadaeauaDauauauayayayaHaHazaNaYaLa$a$a$aLaYaMaMazazaHazaH",
"bDa4bja#a!a!aGanahabadahajajakaPaGa%a\b3cvbLa9aTabadabanaEb(b+aqamaoagagaPa+a`a+a+a+a7aAa3a:bzb3b_coa&bxaCafaCbgbDbsa1bub;b`aCa(bybAbMa]bDbuama1aGbubAb~bMbUbHbEbMb9b\a}bEbObXb?b1aJbDbubHbObDa!alahaUb7b\cbcwb\b`b{b#b%b_b-b;bTa!axaxasa;b\b~clczb=bQb/cdcpcYc5c9cYcxcpaYa;a$a$bFb*c5c*c(c9c(c(c)c5b6bebca$a<bEbcb[c(c)c(c(c*c)c#cDbca_bjbabkbab$cHc*c)c9c9c(c(cYb$a$bfbabybDbMb>cYc#c5cpcAcDcYcpb$b9ceckb#b=cIcIcIcfa}apaxaCa]b%b\b?b?b-b%b#b(ceczcwcmb-a!akama2brbObXbVbHa]bHcwb+b9bXcybybEb7bObXb#b0b3bTbTbHbLbIbDbIa{anaWa!aGaxb?b7btbVbza1bDaQara\bIbfcob-a`a~bQbebobZbQbQbZbJbwbeacamaoaCa>aVa2aiaeanauaDauauaDauaDaDayayaHaHazaHazazayayayayayayazaHaMaz",
"bKa9a]a#a(a5aBanahabahahakakalaJaQa&a;b0cwb0a&aIabacabaoaQb7b;axaparaiafa4a{aPaPa`a:a:a~a|bFbLbRchcva\bxaCabaAb#bVbDa(bjb-b-aCa&bubyb0a}bDb1akbjaQbjbub+bSbMbXbMbMb9b~a]bAbObMb`bTaQbIbXb#b;b7b0bxaIadala_b-b\clcob_b\b|b#b=b|b-b(blaGasasaCbyb\cocIcvbKbZb/cdcHcKb$bOb}a;a;a#a;b>c9c(c(c(c9c(c(cpbCa|a<a$a$a.b6cRc)c*c(c(c*c(c5b6bca_a<a)a<bcb>c(c)c(c*c9c9c#cDa;a#a<a;a<a<bYcxc(c(c9cRcdcxcHb.bTb=b~b(bVcocIcOczb7aCasasaWbMb\b~b?b;b7b7b#b|cwcqcfb\bfasaeaGbub0bTb0b7b0bIa]bHcqb-b#b7cwbybfbubLcob3bLb0b7b7bXb(bLbVb1bpavaJa!a;b(cfb0a|bia9aJbxa1ama.bAa]chb~beb1b3bibebKbRbRb6bVb6beacamamaGa>aJa5aqaqaqaqatatatauatatatatauauauauauauauauauauauauayayaNaMaN",
"bsa%a\a!a#a!aGapahabakajakakamaQa4a9a]b#chb#a\aTajakabaoaWb7b{aqasaraiaha9a%aoa7a~a+a%bwbibtckbVb|cha>bpaCacahaVb3asa(bEb-b|aBa/bAbEbXa}bLbLaibdaJbfbhb;b#bUbUbSbMb9b\a]bAbObSb;bTaQbDbLa}bda]a;a.a}a.aradaGbMb\b~cwcob}chb)b0b;b{b)b1a>axaxasa&b+cfcwcFb=bFb/b*b7bubAbTa$aXb$cKcRcKc(c9c(c(cYb$a.bca$a<a#a#b>c5c*c(c(c(c(c(cxa-bca_a<a_a/bscRc$c*c(c(c(c$c5b/bea$a$a$a$beb/cRcKc9c9c9cRcpb/b1b(b;b)bIb(czcIcwcea\asaxaCbdb)b\b\b~b)b0b)b)coczclcebXaGafaFa>a|bIbXb0bTbLbDbDa|bHclb-b7bXcobEbdbfbHb=a|brbOb0bSbTbxbxbDbDbLbIa1a\bWcTcMb+bfa&aGambia9ama>bubdcfchbdb|bVbDbebebobCbwa+a1a+acamaoaIa>aVaUapanapaqaqaqaqaqaqatatatatauauauauatauauayayayauauauauayay",
"bDa9a|a2a9a!aJaraiabafagajajalaIaJa\a|b)chb0a\aVaoarafara5b;b-aqaAaragaha2a7aoa:bebwbcbga|b)cObDb~cka.bgaVacagasbLaQa;bLb-b\aJa/bObHbMbdb0bLafbdaQa}bub^bUbMbEbEbOb%b~a/bhbLbMb;b1aWbVbdaPa+a:a+aTaAaJa]a%akaka(b+b\b~cwchchb}bTb#b|b)b/bDaVasasaCbub~cfcFcyb!bzbTb#b7bEbeb.c5c$cYb>c9c9c9cDa.a.a;a$a$a6bYcKc(c(c9c(c(c(cYb$a.a]a}a$a_a6b>c9c)c(c(c9c(c(cxbJa#a_a;bha\bcb[cRcKcAc5c5c#cKb/b/b|b?bVbLcfcIcocebVaCaxaxa9bTb-b_b\b_b)b)b=b~cIcwcfb?a/aiabasa%b}b~aVbIbta|b3bta.aWbTclb&b0bScobEbjbhbHb_bObObXb0b0bMbObDbHbAbtbta!bgbWcPcPb+bda!aVala&a2aka.bda}cfcybLcob*bDbwbwa:a+bFaPa>a9acamaraTa.aCa2aGanalalalalalalalalanapapaqaqaqaqaqaqaqauayayauauatataqap",
"bLa9a|a4aWa&aJaoaiacajahahahakararaIa+bZb!boa+aAaoaoafaoa2b)b`aqaoahadada4a1aoa%a>bzbtbja\bTcvbzb(b;a|a{a4afakaka]a}a(bAb=b-aQa/bHbObHa;b0bIaebdaQa}bjb?bXbMbAbAbHb9b\a(bjbHbMb{b1a2b#bDa^bRb!bJbFbRa|aJa&a|aCahapbjb+b-cfcob~b~b*b3b;b|b;b1a|aCaxasaWb7cccmcIb_bzbVb#b/cDcKcDc9c9cDc5c5bKa~a9a#aYa6a&b>c9c(c(c(c9c(c(cDa-a9a#a6a$a$bJcDc*c(c(c9c(c(c5b$a9a#a#a$a;a6b$cYc5cKcHcdcRc9cpb$b=b~b`bDb_czcoceb7aQapavaGbdb#b`b~b~b;b)b)b\czcIcfb~bOaCabaGb#b0aJaoaGa&b1a>bHc3cfaGanbfcob%bSbLcebHbfbjbAb_bXbTbSb0bMbObHbHbHbtbzbiaQa/bXcwcfb+a\a2aCaka&aQaja&a/a|b~cfbDcvb)bFbKbVbKbFbRaPa\a7abakaraIa|aIaVa\aKauayayauataqaqaqaqaqapanananananananaqaqaqaqaqanananal",
"bLa&a{a9a9a&aQarakacamajafahajaraAava^b*b/bCa>aFaoaoajamaJbTb)axajajafaba(a\ara|a}bda&bHb(bHckbzbDb#a\a>aQaiamajaWbHa!bub)b=aEa]bHbHbHa]bVbuajbiaJa}bub|bMbMbObHbMb7b~a(bpbObTb~b1a4b#bIa]bDb/bZb!b=b=b1a/aJa{a&anafaJbXb-b?cvcob}b`b0b)b|b;b(bDa(asasasa}b?cfczcIb3bFb3cdcHcRc5c9c9cAboa+a-bca9aUa\cDc9c9c9c9c9c(c5b>a-a:a;a6a6a&b$c5c)c(c(c9c9c(cRbca9a#a6a$a6bJb[c(c9c5cRcHb$cdb>b3b`b_bTb9cIcIcmb`bfaxasava!bIb#b-ceb{b9b=b;cfcIczcob)aUakarb#b\a>agalakaFb(b*a>a(cobLalanbdccb7bUbHb~bHa]bjbIb{bDbIbHbTbMb7bLbubIbja{a{a\a}b~cPcEcmbfa/aJaka&aVaja9a(a\b{b^bxckbIb#bRbcbKbDbRaGa\a:acamasaGbgaIa4bsa!aEaHaHaDauauauayayazauatapanapanaqalanananalanalalanaq",
"bIa>a&a4a&a&aVaralafamahafahahaJaTaJa(b#chbTbiaJajamajalaGbub#axamamafaca9a9anaCa|bHa.a|bHbAcfbibLb=a|a.aQakarakapbAa(bfb)b=aJa(bubAbEa;bDbuahbiaEbfbyb=bSbXbSbSbOb9b~a.bAbObOcobTa1b7bLbpbVb/b/b5b}b~b?b=buaVa1a{aJahala/b;b\cfcwceb}b=b0b`b?b(bXbuaGaparaCbScccocEcvbDbZb/cDcYcKb$a1a9a&blbMaJb$cKc9c5cRcRc5c9cDbJa-b!a(a#a.a]cDc9c(c9c9c(c(c5b$a~a.a6a6a6a&bKc5c(c9c(c5cRcHb,b6b%b{b0bLcvcPczcebSaQasasaTbrb1bXb=b_b)b=b)b_czczcwb~a}aoaca&b0bDarana\bHbuaxaCaVavbfcvbTaxapa|b~bSbHbAb~bja\bfbDb{bSbTbSbTbTbHbibDbxbfa^a>a]a]b?cEcFcfbda(aJaka4a4ama4a&a(b|cybDbDa%b1bwa|bVa^a&aTaVa%acamaxaIbiaIa&bFaCalanananalalanaqaqauaHazazatanalanalalanaqanaqatauawaL",
"bVa&a9a9a%a1aVaoakafaoamahahajaGaJa1a}b)b{b0a4aFaoaoajaoaWbdbIaxaoaoafaca2a&araxamaQa!aJaJa>b*a>bDb=a|a/a%akaraoalbfa}a}b(b)aJa(bubjbua(bIbfaja}aGbjbAb-bXbSbTbMbMb(b\a(bpbObOcobTa2b0bTbDb3b=bZb!b`b~b?b\b+bDa.aJa>a.aradaxbEb_cecocob}b`b7b%b\b=b+bTa.asasapa9b&cwcFcIb`bFb3b|b*a.a!aXa#a6bYb[cDcGcKcRb$b$cRb$a3aVb6b6a#a6b$cRc(c9c9c9c9c(cDbJa4a&a$a6a5a!cDc5c9c5c5c9c9c5b>b/b;b=bAb=cOcEcyb`a/asasaIa|bTb#b0b=b;b)b)b_cwczcwcfbXaGacasb0b)a1ahaTbOb9b%b9bHa\a&aCa!b`bfapasa\b~bUbHbub_bja}bfbub{b0b0b0bMbObAbubAbDbja>a:a/a/b+cEcEcca}a.aVama4a4ama7a.a(b?cybfb~a{aVa:a:aVara:aFaVa%abamavaGa|a1aTa\aEauauataqaqauauaqalanauaYa?a=aualalalapauauayayayaMaLaY",
"bVa>a9a4a4a9aVavakafarakajahahaQaGaQbdb7b\bXa&aCaoarafaraJa]bTasafaoajafa&a(ava>aPaGaJa1a/bScka(b|b_bia\a!amaFaFaia(bja/b%b)aBa(bjbubua(bDbfajbiaEbfbyb\b#bSbTbMbMb9b~a&bybHbMclb3aWb#b#bTb#cjb3b/b|b~b\b:b~b%bXbxa&aWa{a4akaha2b9b\cfcwcfb|b=b7b+b?b=bSbtaQasapasblccczcOcobVbLb=b`byaNa4bKcDc9c9cRcRcRcDb>a`a&a9aEbsbKa`b[c(c(c9c9c9c(c5b$a+a1a9aNa5aXb$cAc5c5c5c5c5c5cDb>b;b^b#bTczcMcmb~bLaBapava9bLb(b)b)b(b)b`b;b\cycfcob+a2ahaibDcebDakara!bVb%b%b%b9b7bXb0a&aqb)a]alaxa|b~bUbObub`bfa|bfbub`bpbIbXb0bObObObybDbua{a>a]a]b&cFcEb~a}a/aQala%a!aoaVa|a\b0b{a;cvbIa>a:a+a^a^a^aPa|a\acamasaGa\aAaTa&aXa#a$aYayayaMa$azatanaqaLbWbWaLaqapaqanayazazauauayaDau",
"bKa^a&a:a4a&aTavajafaoajahahafaQaGaQa]b=cfb7a7aAamakahaoaJbza\asararakaja>a4ava3aAa%a{bfbibDb}a{bTb{bga{a.aoaGaTaiaJbha(b9b)aBa!bybEbAa(bLbjajbzaQbfbhb-b#b{b9bXbMb9b=a5bAbObMcob0a1b#b)b0b0b}b`b)b=b?b~cfb\b?b&b(bSbxa1a9a|aIafanbfb+b\cfcmb\b|b7b(b?b-b#bSa{axasanaEb#cfcqcIb{bDb3b\bSb$cHcDcRc5cRc5c5b>boa&a;aXa9bcb6cDc5c5c5c5c5c5cRbJa~a.a6a#a6a^b6c5cYcDc5c5c5cRcDb6b|b)bLb_cPcOcmb7aWasaraCbfb0b#b-b|b9b=b{b{cocfceb-a]amaca2b_b)axama!bLb7b)b%b)b9b#b7bXbVa/aJcfbtasaCa|cfbUbHbhb=bfa.bibub`bObOb7bXbXbObHbEbIbAbea%a!a(bEcfcwbUa/a!aIala9a&amaTbia\b+cobfcfbFa>a|bFbRa7a3aTbsbeacamasaCa>avaIaVa$baa?a=a)aNa)a,a)azauaqazbmb:a,aqaqataqaqauayataqananal",
"bza&aIa+aFa&aVavakadamafahahafaQaGaFa(b-cfb(aIaCaramahaoa9bfbtaxaCavakaja&a4aFa>avara\b)bVbub}bwb~chbra{a.anaTa&alaCbha5b7b#ata(bjbAbua(bHbjajbzaQa}bjb=bSbUb-b\b+b%bTa.bAbObMcfb#a9b#b7b)b=b#b=b)b)bWb+b~cmcbb:b-b+b#bMa|aQa\a.aoacatbLb?b~cocfb_b=b0b)b?b;b)bLaWasapara;b_cfcqcwb3bzb`b}b|b)b#b(b;b*b#b#b)b)b%b%b7b#b(b*b0b#b3b*b6b#b6bWb^b&b\b-b%b)b+b;b;b;b^b^b~b{b)b(btb1cycFcmb\bdasarapa4bLb#b)b_b=b%b}b}cecfchb\bLaxabarbXb\a.agaCbzbXb#b7b7b7b%b%bUb0b0bVbiaEcebfaxaCbdcfb9b0bub;bfa]bjbtb)b#b0bObXbObOb0bDbzbDa\ajaxa(bMcMczbya/a{aQama4a>aoaVa|a\b)b~a&b|bDbibVbIa3a7bQa+bKbiabaoaxaCa9araVaIa)a?bWbbbka)a=a?a=aYaHauaybWcbbbauauauauananananalalaiai",
"bDa%ava4amaTa4avamadahafafafagaJaGaCa]b#b~bOa.aIaoamahama%b3b3avavaramaja.buarakaoakahaCa7a>bRbzcfb}bubia\alaVa.anaxbjaUb#b9axa(bubhbAa/bTbjahbDaWa}byb7bUbUbUb)b+b~bTa(bubObOcob#a4b0b#b9b+b)b)b7b7bUb9b&b?cfcbb?b+b+b%b;bLa9a2a{aQajaja5b7b~cbcfb_b`b#b0b%b)b)b0a]aCapamaxbOb~cfczb}bfb3b|b{b9bUb7b)bWbUb#bUb7bUbSbUb7bUbMbUbUb#bmbUbUb#b%b:b^b?b9b%b%b)b-b-b:b;b;b`b0bdb\cIcwcebOaGaranaCbgb0b%b-b=b)b|b{b^cocfcfb`a(ahaha}b\bValama.bLb0b7b7b7bUb%b9b7b7b#b(bVa\a.b}a!aAaCbub~bUbTbAb-bfa]bjbfb(btbubTbXbXbHbDbzbLbVbfana1bpb%cSczbya.a|aQama4a.ara1bia\b3cfa>a{a&a%aFanaPbFbea1bVbeacaoaxaCa&asaJaAbkb&b:bBbma=a?bWa?a$aHauaybbb:bBaEauayayayauaqalalaqatat",
"a|a9araIaIaFa1aAamadahafahahaiaQaJaWbfb0b{bAbdaQaoaoahana%b/b3araoamafaha.bTa+avaPavamaAa|b1bTcfcob)bpbia/aoaQa>anaxa}aUb7b%axa5bAbAbAa(bTbjahbfaGbfbEbMbUbUb9b+b?b~b#a(bDbObOcfb1a2b1bObOb0bUbSbUbUb7b%b&b+b+b~cfb~b?b+b+b+b3bdaQa&a&avafaoa_b-b\ceb~b_b{b#bTb0b0bTbda1aralakaWb%cbcocyb*bVb}b|b#bUbMbTbUbUbUbUb7b7b9bWbUbUbMbMbUbMbUbUb9b%b~b~b~cbb:b-b:b-b)b#b)b=bIb#czcwb~bXa1araoana4bDb0b9b#b0b(b{b`chcochckbAaracaJb)b=aGahaGbjb1bUb)b+b9b%b%b%b7b(b0bTbTbVb)cOb|ara4aGbub~bXbMbLb|a_a}bLa]a!a.a\a}a]a}a]a>a/a{a]a!alaGa2a5bja(aCaxapanada1a!aoa1a{bzb#cvb~bIb1a{aIaIa:a4aAa+b1a|abanaAaIa.aCaVarbmcbbnb?bmbkbbb:bBa?a)aNaya$bWbWaYauayaNaNaHauatauazazaN",
"avavaraoaFaAaTaxamadajahahajaiaJaUa/bDb#b?b)bDaWamamahana&b1b1araoajafaea!bVa%aTa:a+aCaVbyb?cococob#bda.a7aoaJa>alaJa/a5bXb9aCa!bAbAbEa(bObjahbiaCa}bEbEbAbMbMb7b?cqb}a(bLbTbOchbVa9bTbLbSb0bUbMb7bUb7b&b)b&b-b-b~cfcfb?b&b%b%b7bLa.a1a.a4akadaCbMb?b?b\cfb}b)bTbTbHbVbja%aralakalbjb\clczchbLb3b`b=b#b3b%b9b+b?b\b\cfb~b:b?b:b-b&b^b%b&b-b:b~b~cecfcbb\b-b{b0b(bLbuceczcob?bpasararasa>bHb#b9b0bTb=b`b^chb~b}bOaJadanbLb_bfakasa/bLb#b9b%b%b%b9b9b7bTbTbtb)b}b#b~b|beaoaGbIaQbDb?bAbHbfb;bja;bEbAa}aWaQaWa1a1aJaTaGaGaGaCagadadababaCaEasararaIa\a1akaJa{bub#chcfb)b\bIa%aFaPaPaTa3bVa|acamana2a]aCa&aoa?cbcbbNbUa?bBbnb&bma?a=aHaya$a?baaNaDaHaHaDauaqazaNaNaN",
"aQaJaWa1aCapaAavaladahahafafahaxaQa4bpb#cebXa.aWaoamahaoa/bTb3aparamafada!bLa&aPa4a+aIaVbOcOchb%b~b)bibLbxaxavaJala/aWa}b7b9axa2bybEbHa.bDa}ajbfaCa/bAbMbja;bpbEb7cfb\a(bDbTbOchb1a9bTbVbMbUbMbMbSbUbUbUb9b%b&b+b\b~cfccb?b9b%b7b7bUbDa.a9a>aCahaka&bUb(b|cwb~b(bTbubrbrbia&aoava.aCaEb(cocccfb(bDb3b)b|b_b_b_b`b-b-b\b_b~ceccchccb~b~b~b~ceceb~b~b~b\b{b;b(bVbDb=czcwb\bTaQa9bDaJaIa\bdbVb#bVb#b;b;b\b~b=b0a%ahaia\b_b0asana.bIb7b;b%b%b%b7bMb0b7b;b_cfb`a]a|aAajajara&bDbxaJbTb_bHbHa(bAb0bybXb7bUb0bTbVbVbZbLbRbVbLbTbpalanalagalbubMa!a.a1a4a&avaGbVbIbub0ckceb7chb3beaFaPa3a+a^bVa{abafana.aQara&aoa?b:b:b&bWa=bmb&bWa?a)a)aHatauaYa=a=aYayauatapaqauayauau",
"a!a.a&a!a4a1aVaCamadaiadafahafasa1aQa.bTbLbta.aJaoaoahaoa/b0b#asasamadaca!bIa:aPa+a+axa1bOb~b~cocyb)a/bib_cob=a2ata5aWbub7b7asaUbjbubLa(bua|aibiaxa/bjbHbfbzbfbEb7b~b~a(bLbTbMcebIa&bTbLb0bUbObMbMbUbUbSbUb9b%b+b-b:ccceb+b7b7bWbXb7b#bMbpa1a&a&avajaqa}b9b-chcob=b#bDa&a^a^bdb)b\b)a\aCa/b#b=b\ckb_b}b}b}b}b{b=b=b=b|b=b|b|b|b{b|b{b{b|b|b=b(b#b(b)b*b}ckb|cecocwccb)a(aVbIb~cyb}bVbsa|a{bTb|b;b{b|b)b#a/anacaCbub|a9aiaIbgbTb0bXbUb7b9b_cfcocfb`bOa\aWaJapajaCa4a\bdbfbgbgb7cob)bObObIa5aQa(a!a/a(a>a2a+a7a7a7aVa7bHbLbfaoaJaJanaqbHbfaQaJaxaoaUb~cyb%a>bib3b=b}b|chbIbea4aPa~bwbsb3a{abafaGaJaoaTa\aoa,b&bNb&bWa=a=a?a?a=a)a)a$azatataya6a<a6aHauapalanapaqaq",
"a/a/a.a!a9a9aIaIamadajacadahafaxaQaCa1bfbLbIbda1aoaoajana.b0b#asaFarajaca9bDbwa+a^beaIaVbHb~b~cfcyb=a(ajasbjcwcSb#aFa;bub7b#asaQbjbhbAa!bpa]afbuaWa/bhbObubfbubHbMb?b{a/bObTbTb;bxa9bLbIbXbXbObEbMbXbUbUbUb7b%b&b%b+b?b?b&b9bMbUb9b&b+b7b0bHa|a9bia4amagaGbDb7b;cfchb(b1b=b~clcmb?b?ccccbraQbjb)b+b%b?b~b~ceb~b?b?b~ccb~ccb\cfcoclczczcqcfcvb=b`b`b|ckckb~b=b)b)b=bLa(bTczcqb*b|cocycochb=b=b}chb`b7biaCacala.bza&aeakaVa|bDb#b}cfcvcochb#bjaWaCaCaGa1a>bibDbgbda|bgbIb0b{ceb~b(b#b0bSbTbMbHbubububrbia|bia^a{a{a(aCb*bDbfava2a(aGapbSb7bra|a5b#cTcza{apanbfbZb|b}b}cob0bFa9a+a~bsb6b#a\abalarajaoa>a.ava$bMbmbmbUa,aYaYa?bkbma?bma?a$ayapaqaDaXa6aXayatanalalal",
"akalanapaxaGaFaCamacahacadagafaxa2aGa.bIb=bLbda2aoamagama/bOb0aCaIapajada!bHbRa^bzbFaGaGbHb\b/b!bKb5a\alajava9b}c3bTbfbjb7b#asaJa}bfbAa!a}bdacbibdaGaQa/bXb9bHbOb7b9b(a/bDbObTb#bda9bIbDbXbTbEbEbMbMbUbSbSbXb7b9b9b7b%b%b9b7b%b9bUb9b?b&b#bUbTbDa&a9a>avacaiaUbSb)b\b~b3ceczczctcqcCcOcFb~bVb#b{b+b+b7bXbzbzb1b1bXbObObObXbEbSb9b%b+b`b*b*b*b/b*bzbzbzb!b=b)b*b(b(b#b0cwcMcMcwcfcocIcVcIb=b|b~b`bTa1ajaeaGbub3aGaka1bDb~chb`b`b0bia2aJaFaJa1a/a|bpbLb0b#bVbDbrb0b\cfchb-b#b#b3b)b%b0bUbXbXbSbMbSbObOb!bVbVb!bSbLa}aQb|bVbuaqa!a]aWapbEb7bAa}b7c3b~aJasahaxbubLbRb;b;b|bDbsaPa3aPbob/b#a&abaeafava:a^a9afaHa=bka?a?bUa?a)a$a)a?bka?a?a=a$aHaqapataKa6a6aNauaqalag",
"ajafacabadafafaranacafadafafaeapaJaQaIbDb;bTbdaQaraoagala/bAbVaxaIarahafa2bTbVbDbKbgaIaGbIb}b*b*b)b3a\aIaoaraxa\cocoa]bfb7b7asaJa;a]bua_a4bua{alaCaxasabasbHbHbHbMb7bTa(bDbLbTb)bza4bIbxbTbXbybEbHbMbObEbObSb7bUbUbUb7b9b7bUbUbWbUbUb9b-b%b9b7bUbTbdaVa2aTakabana]b#b;b{b)b}cEcTcIcCcfb=b)b`b%b&b)b%b3b3bRbibzbLbVbIbLbVbHbHbMb7bUbUb*b3b*b)b*b/bLbwbzb3b*b=b)b=b=b|b#b0b|cwcPcIcIcIb}b6b`b`b#a\aoalaoamb3cvb0bfb#b#a&a1aCaqapaxaIa1a4a%a\aVb(b_b(bVbDbLb)b~cocfb\b-b%b9b0bTb3b3bUbXbMbSbObMbObHbMbSb#b!bVb!b7bja/aXb`b7buaqa5a}aWapbybSbua}cmcma:aCaFakaQbjbRa7b0b|b~bDbeaFa`b2bFb6b(a.abafavaTa:a^a4ajapauaYa=bkbmbmbmbkaYaNaYa)a)a)a)a$aMayaqapauaXa6aYayauaq",
"ahafacadafahahamanacajajahahahakaoaoa1bTb;bOa.aJasarajala/bAbTaCaCaoahaha2bLbFbFbwa:araIbyb\cfb{ceb%a|a4aiaoaka%b(cobfbjb7b7apaJa]a}bha}a|a\bLbza>a.a\b3aBaQbja}bjbXb#a!btbLbHb0biaQbDbxb3b0bEbybEbHbEbEbEbXbMbMbMbMbMbSbMbUbUb7bUbMb7b%b&b+b+b9b9b7bLa!aTa%axacadaGbAb9b=b}ckcIcyb`b)b)b?b%b9b%b(b1b3b!bLbRbRbVbRbVbVb3b9b#b%b%b%b7b*b)b*b=b)b*b/b3b3b/b3b#b)b`b{b)bVb#b}b)b=cIcIb|b/b*b/bDaFajara&bgasavbpa&aAavamanaCaVa4a9a.bDb)b)b~cfcobza\b0b\cfcfb~b;b%b%b)b9b)b%b(b(bRbRbSbAbububhbEbEbMbMbSbSb3bXbXbXbSbyaLb`bWbEaqaUa}aUaqbEbSa}bjcob9a2asasala!bfb1bzb0b`b0bHbeaFbvbJbKb!b3a/abamaPa3a4a:a#aXayaqataHa$a=bka?bmbma)aMaMa)a=a?a=a,a)aNauaqaqaDa6a<a$aX",
"aQaGasanamajafahamafaiagahahafaxaAara.b;b=bubfaQaraoagana(bHbTaIaAarakafa9bLbCbCbFbeavaJbAcfb~b+b_b=a.a!alaragaWb0chbfa}b7b0apaCa]a}bfaxa.a|bfbIbLa{bLb=aQaQbja/a|bDb)a>btbLbLb0a.aTbtbfbTb0bEbybybEbybEbMbMbEbEbEbSbSbMbMbEbMbUb9b7b7b%b+b+b+b9b7b7bXbOa{aFaQa7anadala2b0b)b}cfckb|b?b-b+b+b#bua/bjbAbAbLb#bLbrbububAbAbHbHbEbEbybybEbHbAbHbLbEbubVb)bSbLbObLbfbTb`b_b|b-b_b=b}b}b*b|b(a%akajaxbdb1bTbDaGaxaCaIaVa1a(btb(b_b}b|bTb=bIbRbia&aGa!chb`b-b`b?b?b-b+b%b%b%b%b(b#bVb3bLa}a}bfbfbya<bybSbSbWa<babfaRa}bkaZb%bSbyaqaKa}aUapbybHa;bjcebXaVaoaqapa/a}bVb/b(b`b)bLa|ava+bwbLbRbLa&adaraPa3aAaTa_a#a)aYauatauaHa$a=bka?bSa*a6aMa$a,bma?a=a=a$aHataqauaEaEau",
"apaCaBaCaGaGasamakafakajajajafaxaCaCa.b=b3bjbdaCaoaragama/bubIaGaAavaiaha9bDbFbFbRa\avaIbycwb\b~cob-a\a%alaraka1bLb}bua\bXbXanaxa(a/a1ana\bjbibfbra\bibuava2bDa|bIbIb0a9bdbDbAb#bVaVbzbLbzb3bMbEbybybybEbHbMbEbEbEbMbXbSbMbMbMbMbMbSb7bWb+b+b+b&b7bUbSb0b1bzaQaAa\aFaGa1apa]b7b(b+b?b-b%b)bLa(a2aWa#bja;a_b7bua#a_a<a}a<a}a<a<a_a<bfa<bjbja<a_baa/a_b|bAbubya;aUa5a}b0b\b{b{b|b5bVb/a{anasakaVbibLb0b(b;b)bIa>a|b#cfcycebVa/axaiacaiaeaeahafaka/cwb?b0bEb)b*b(b{b+b+b%b9b)bSbDbXbubjbybubkbEbkbkbbbWbBaZaZa}aRawbSaRbBbSa=ataUbfa5apbubya/byb~bVaVananata;a;b#b}b#b-b|bLa\avbwbVbRbVb1a.ara3a7aAavava;aKaHa$a$azauapauaMa)a,bka?bMa,aYaMa)a?bka,a=a)aYaDanagagae",
"acabababababasa1aladakakakajaiaxaJaxa&b)b^bEa&aCaoavajama/bMbTaIaCavajaha2bDbubIbIbgaGaJbucob)b9b~b=a/a&ananaoa>bIb=bDa7b#bXanaWbubua!apaAaGaJaJaGaGaxaGaCa]bpbubIbEb}a.a!brbAbOcvb#a>b#b|b3bLb3bHbAbEbEbEbMbMbMbSbUbSbMbMbMbSbObEbEbUb7bUb9b&b%b9bMbMb%b(bubVa%a9a]a!b#a]anaqbub=b?b=b#a|aWa5aUa6byb9b7bUb7bMb7b+b&b%b%b%b%b&b%b&b+b%b&b%b&b%b&b%b7b%b9b%b+bSa]a(a(a2bdb|b|b=bVbfaxaka1bDa>a.bVb(b)b*b1bgbLcecyb}bfaPakakaraGa1a%a%a&a%a4a3aFa4b_b0bVa&b!b3b5b`b\b\b?b%b-b0bObXbhbjbSbSbSbSbBbSbBbBbBaSaSa[bNaSbBaRbNbSbyataMbfaUapbybya$bEcfb(a!aoanata/a$bXb=bybScwb|a{a9bKbVbVbKbLbcavaAamajavaoa$baaYayaMa$aYayaqaqaza$a,bka?bbbka)aYaYa)a=a?a=a=a$ayaqalal",
"a/a(a9aWaGanaGa2anadamakahajafaxaJaxa&b#b;bdaWaxaAaoaiala/bXb0aIaCavahafa5bEbhbjbpbfaWaQbAb~b7bHb=b9a{a&apamala.b7cob3a(b#bXapaCa!a/a\a/a.a/a}bjbAbubAbAbAbubjbybEbub9cob(bga}bjbOcockbLbRchckb!bIbVbEbMbEbMbMbUbMbMbMbMbMbMbMbEbEbEbEbSbMbMbEbUbUbXbUb%b=bzbRbxa/bda(b-b7bAaVana}b=b)bIasapaBa}bWbEa}a#a#a;a$a;a<a}a$a;a$a;a$a}a;a$a}a;a;a}a}a}a<a;a#a#a;a;bEb%a_aEaxasb3b#b(a>ajaxa{bIb1b#bzbzbVbza\bIb-b?bjasakava4a|bzbIbRbRbRb!b!bZbQa~aTa7b_b(b0a1bob!bZb5b)b{b%b-b)b(b%b|bWbHb%bUbWbWbBbNbNbNbNaSa[c&cBa8bNaSbNbBbyauaMa}a5aqbubaa)bkceb7a/ananata/a}b7bya]bXcob9a|a&bRbKbFbFb`bsamamaravaFaFa$bka=a$azaHaMa$aNauapataMa)a=bka?bka=aYaNa6a=bka=a)a$aYaNaH",
"a]a]bdbfa\aJaQa2amadaoakajakafasaQaGa/bTb0bfa.axaoasamala5bTb0aCavaoadafa5bEbjbhbubfaWaQbub~b9b7b)bUa\a9arahana\b9czb)a(b7bMasaCa!a/a/a/a]a}a]a}bububAbAbubfa_bubAbAbAbOb~cob3a\a}bjb-cyb~bRb3b}b=bVb#b#bUbMbMbMbMbMbMbSbObObMbEbMbEbEbEbMbMbXbMbUbMbMb%b)bVb3bsbdbda!b-b7bObVa.anbDb1bzasapala}baaKayaDayayaHaHazaNaLaLaLaLaLaLaLaLaLaLaLa$aLaNaHaHaHayayayaEbaa}anapasbVb(bzaka4bzbVbTb3b1bVa{a4a\b+b?a&anaoa1bgbIbVb1b3b1bRbQbQbZbQbRbRbLbga\b=b3bVaQa:bzbFbRbRb#b3b`b}b`b7b?b-bXbSb7b%b9bBb%bNbNbNaSbBa[bNaSbNaSbNbNb<auawa}a5aqbya<a*bBcob%a]analata$a}b%bWbMb&cob)a\a&bRbVbIb#b5a.aIa7a1a4a&a9a;a_a)a=a)aYaHaHaYaYaHataqauaNa)a)a)a=a=a$aXa$a,a=a$a$a$a$aY",
"aGaJaJaQaQaxaGaWamaeaoakakamafapaWaQa]b0b;bDbdaGamaralamaWbOb1aCaoamadafa5bEbabAbha}aQaWbyb\bXbUb#bDa\a4aracanbib7cfbTa(bSbTapaBa!a\a(aGaCaxaBaGaCaCaBaIaGaGaGaGaQaQa;bububMcfcobVa{bdbIb|cqb}bDb3ckb/bRb#b3bTbUb7b7bXbMbObEbEbHbSbAbhbEbMbSb9bUbUbXb7b)b/bKbVbtb1a(bAb?bVbDbDbzaJa/b#bzaxapana#baauaZaOaObma?a?a,a,a-aZa?a-a*a?a-a*a?a?a?a?a-a,a,a?bbbnaOa)aBa<a#alasasbIb3a>aGbVb3bLa{aTbFbFbga|b9a]analaVbgbLbVbVbKbzbDbRb1b)b}b`b=b=b*b*bia>bVb5bRa7a>bLbwb!b=b*b3b!b3b)b(b=b)b3bzb!bSbXbBbBbNbNbNaSbNa[bNaSbNaSbNbBaRaua2a}a5aqbaa}a,bBcfb=a}apalaxaLa$bWbSbMb9cob)a\a&bIbVb#b;bVa&aFa4a&a>bca3a$bEa=a)a)a=a$aNayaHaYaMaDapaqaya$a=a=bkbka)a$a,a=a$a$a$aYaN",
"a2aUaUaWaJaCaJaQamadakamakakaharaCaWbdb)b;bEa|aGamamahakaEbTb1aCanamacaha5bHbybybubjaEaWbAb_bUb0b#bAa.a1arabana|b7cebLa/bIbOapaGa.a|aWa(btbIbHbTbTbXbObXbTbXb0b\b=a.aQaJa}bHbAb)cwcfbVa]bfbOb~cwb=bpb)ckb/b!b!b/b9b%bUbXbMbHbMbMbMbAbybybEbMb9b9bUbXb*b3bRbRbLbTbjb#b\b%b0bAbLbTa1a&b#bzaxapana#baaya?bna?a-aObPbnbnaObnbPbPbPbPbnbmbPbPbPbnbnbma-a)a-a?bna?aBa<a#anasaqa{b3a&a!b3b3aVa7aoaka1bwbRbRb0a9aJbgbIb1bLbsbIb(b_b_ckb}ckb3b*b5bRbQa^aFa~a^a&avaPbebZb!b/b!b/b3bVbFbubVb!b!b!bZbybQbSbBaScrbNaSbNcFa[bNbNaSbNcraSaua5a}aHaqa<a6a,bBcvb=bfapakata$aLbSbMbUbWccb)a.a&bLb1b1b(b3a9aAa1aFaIa^aTaYbMbma?a)a$a)a$aNayaDaNaYazataua=bWbmbWbma=aYa<a=a)aYaNaHaD",
"apakalalalalaGaWalafaoamakakajapaJa!bdb9b|bEa(aIakakadakaJbXbTaIaoakadafa5bEbhbhbua_a2aWbyceb7bUb)b0a&a1arabana.b0b~bLa.bAbHanaCa2biaGaJbta.bfbdbjbubAbububhbybScecob(a}aQa!bubDbgb#cvb}bpbca_bTcfcwb3bDb`ckb!bZb*b*b7bXbXbMbSbObEbybAbEbObEbSbUb0b9b/bFbzbVbubfb-b\b+b%b7b9bXbOa4a.b3biasapana#bkaya?bmaNazbmbnbnbnb8bPbnbPbPbPbPaObnbPbnbnbPbnbma-aLa9bma-aua=a#apaqapbwb1a&a.b0b3biasafaCa&aCa4b#b~b\bTbpbwbwbVb`b~b}b=bKbRb/b5bRbZbRb!bTbVbLb3b0bTbububIbRbzbQbFbQbQa{bebQbCbwbCbibobEcecmb`b<aRaSbBbNcPa[aSbNaSbNaScrauawa/aWata<a;aYbSceb7a}apakataLaLb9b%bUb%cfb|a.a.bVb1b0b#b3a4aFa1aVaIa%aPaKa<a=bkbka$aYaYa$aNayaNa=a=aYaNa?b:bBbWbmbaaMa=bWa?a)a$aNaH",
"aUa!aWaEaGasaCaWalafaoaoamakajaraJa(a_b(b-bDa\aJaoamaeakaBbObIaCamajacahaUbHbhbhbjbfaUaJbub\b%b%b-bMa>a1aracaAa>bVckb1a\bAbHanaCa1a|aCaWbLbDa{a/a]bfbhbjbja_bjbfbfbMcfcyb)a{aQa!bpbDbAb;cvb|bjbpbfb1cocvbLbLckb|bZbZb(b(b7bUbUbMbEbybAbMb9b#bOb0b/bVbFbFbLbgbAb_b+b+b+b9b%b&b0bSa&a.bVa|apapapa#bkaya?a?aHaKa-bnbPbPbPbPbPa0cicsbPbPbPbPbPcscsbPbPbmaKaKa?a,aDa)a#anapasbgb1a&a(bVb3bxa1a/b+bXaxacana/b0b=b=b0b(b)bRbRb3b!bRbFbRb*ckcycycycfckb~b`b)b)b{b}b`b=b`b(b7bLbzbCbwbQbFbCbCbub#b?bSbyaRa5b<aSaSaSbNbNbNcraSc0aSaRataza}aDatbja(a5bSb`bXa>aFaiaqaLa$bWb%bWb7ccb)a.a.bTb3b0b0bVa9aAaVa&a%a4aPaXa;a$a$a=a=a$aYa$aYaHaHa=a?a$aYbbb:b&bbbma=aNbmb&bba$a$a$aN",
"analananapalaCaQalafaoaoamamajaraJa.a_b#b;bEa\aJajakadajaCa|a\avakakadagaWbAbhbhbhbfaUaWbAb~bUbUb)bHa&aVanacaAa\bTb}bLa\bAbLanaCa%a{axaWbja}bfa_bfbjbjbjbjbhbjbjbububjb0cwcybVa2aCa2bubHbUcccyb=bpbdbub%cwb}bfb1ckb*bwbQbVb*bXb0b0bTbxbDb3b)b!b5bZbwbzbDa.bLb\b+b%b9b%b&b;b%b#bTa9a&bVbpasasana(baaya?bnbmbmbbaObnaObWaOaOb[aOaOb8aObnb8bnbnbnbnaOa-bmbmbPa?aEa<a#alasasbDb3a&a9bTb3bda(b)bOa2akagababaka(b#b=b`b|b1bCboa>b1cecycvb~b`b=b*b0b3bLbDbzbzbIbLbVbRb3bZb!b!b3bVbfa|a:a^b3b/bRbfa}a3aPawb<bBcrbNcraSbNaSaRbNb<aRataPa/aDaqbua/a/bXb`b9a>aAaiaraMaYbXbWb%b+cebXa.a\b1bTbLb0b#bdaraTa7a%a|a\bua$a$aYa$a=a)aYaYaYayaHa$a=aYaYbbbNbWbbbma=aNa?bWa,aYaMaXaN",
"aWaWaQaEaBasaGaQamafaoaoamakafasaWaQa.b0b;bIa]aIahahabaiaAa|bgavamajacaga5bAbhbhbha;aQaQbyb?b7b9b%bOa%aTanacaCa|b#cfb3a{bdbDanaCa9a{axaQbfbfbjbfbhbjbjbhbhbubhbububAbAbubub%cwchbua1aBa(bHbUb9cocyb/a}bdbub-cob#bib3b~b/b1b=b{b;b3bVbzbfbRb/bZbVbRbIbia\bHbObMb+b%b7b7b%b+b+b#bMa2a2bVbpasasanaKa<aDaYa?bmbmbma-a?bmbmbmbmbma-bma?a-bma0bmb[bmbma-bmbmbmbma-aua_aYalapaxblb3a.a&bTbIaQb0b9a5akaAa>aJalaCa&axa>bRbVbRa9b3cycyb}b#b3bTbDa(aJaCaxarasa|a2amaranasaCa:a|bRb6b/b(b)bza~boa3bQa:araraPbvaRcraSaScraScraSb<bBb<aRataDa(aDapbua}a$b?cbb+a>aCagapaKaXbSb%b%b+ccb7a.a{b1b0bTb3b#a|aoaFa9a&a{bcbaa;a$a$a$a)a)aYaYaYaDaya$a)aYaHbmb&bBa?bka<aNa=bma)aNaNaHaH",
"asalananapanaGaQalafaoakajajadapa1aGa/b3b;bEa]aIajamadahaAbibgararajafafa5bubjbjbda/aWaJbyccb+b%b)b0a7aPalacaxa|b#chb0a|a]bpanaCa!a{axaQa}bjbhbja_bjbjbfbhbybubybybybubhbAbAbyb-cwb{bpa1aJbdbMb3b;cwcobLa\a}bLb~cvb3bzb1b3b#b3b3b3b1bVbRbzbgbzbRbDbzbtbVbjbfbXb%bUb9b%b+b&b0b#bTa2a!b3bdasapanaXbaaDatauaCaQbvb2bvbvb2b2b2b2aXaQa#a-a-a-a-a-a-b$b$a-a-a-aIaIaEbaa#anapapbzb#a&a9bIa4bub\a]agavbibta&a;b9bzaIajaraIa.cecyb`b(b#bta7araoaraFa1a|bia>bIbia9a.a7aIaAaraoasa1btb/b3b!bTa>aFaparaPbGaHa}bBbScraScraScraRbvaSbSb<ataya5auapbja}aXb&b\bXa>aCagapaDa5bSb%b%b+ccb7a>a\bTb3bTbTb3a|aoaAa%a|a|bzbaa;a$a$aYa$a6aYaYaYaYaYa)a)aYaHa*b&bma)a5aKaJbdbRbKbQbCa\a9",
"aQaWaEaCaxasaJaQalahaoakahajadapa2aJa4bTb)bIa|aGalaoaialaTbwbwaAavamadaha!bubdbdbfbfa2aQbub\b7b9b{bXaVaIamacaCa|bXccb0a\a]bpanaCa!a|axaJbfbjbjbfbhbhbjbhbubybububybubhbhbAbEbMbybEb\cyb)a\aQaJa}bAbAb=cwb|bdbhbHb%cfchb{b|b;b=b`b;b;b`b=b=b-b}ceb}b)b#bRbdbLbUbUb9b9b%b0a\bibfb1a!a&b0bdanapanaXbuaXaCaCbvbvc0c0c0c0c0c0c0c0a+a`a9a-b$b8b8b8b8b8b8b8a-a-aVaIa9a-a$anapaqbzb1a1aJa>a%b\bSanana|bza]bub{b7bRbFaFaja]cfb}b0b)bLaTasaTa7bgb`cIcVc3c3cIcwcocmcob^b#bDbibea>aTaraIbzbVbVb!a}axa3a`bib<a}b!bBbSbSaSb<aSb<awcraSbyapaDa5aPapa}a;aDbXb~bXa|aGaeapaDa5bSb%b%b+cmb7a.a\bVbVbDbLbVa\amaFa%bgbFbcbha6a$aYa$aYaNaNaYa)a=a$aYaXaMaNa?b&bba)a;aXaVa&bJbYbYbJbea+",
"a5aJaJaGaGataJaQanajamaiadafadaraWa9a.bLb)bLa]aGahamajakava>a>avaraoahafa!bua}a}bjbdaWaQbyb\bXb7b;bEaPaTanabaCa|b7b~bHa!bfbtanaGa9a|axaJbjbjbfbububjbjbububAbhbububybubybubEbMbMbMbyb0cocfbza!aGa/bLbDbrb`bubjbHbHbObUb7b7b7b9b9b7b9b%b%b%b%b(b0bZbVbZbVbDbHb7b+b%b%b%bXbfbia}bVaWa!b#bdapagagaBbfbua^aPbva`crc0c0c0c0c0c0crbva`aVa-b8b8b8b8b8b8b8b$b$a-a9a-a)a)aBagakanbpb#a4aFaCbub=a2aka>bDa|a/b+b3b3bRbFaQbLb~b#b3b3a7apa3a|bVcyc4c8cOcfb(b#b7bTbXbHbMb7b-b{b(bVbzbia^aFaoa!bVbLb0b!a3a^bQbLbQbvbSbSb<aSbSbSaRbvbBb,aRaraWa5auapbfa}aDbLb?b7a]aFaeapaJaUbSb7bWb-b~b7a\a{bDa^bIbVbVa.amaFa4a\bcbKa_aXaNaMaXaXaKaHaYa=bma)aNaNaHaNa,bBbEaLa#aKataqapasapaoanaq",
"aCaBaGaBaxasasaCanafamaiadafacalaQa(bcbTb0bca9aCajamahamava>a%aParaoahada!bfa}bjbda}aQaJbucmb%b7b9bAaGaPanabaAa|b9b~bOa9bjbtanaxaVa{axaQbjbhbhbAbubububhbubybAbAbybubjbhbubEbMbMbLbdbIa|b}bfa1a|aQbTb0bIbLbibjbHbSb0bSbTbUbUbXbUbUbUb7b9b7b7bXb0bQb!bCbZb0bXbXb;b+b+b%b9b9b9b7bDaJa2b0bjaVakagadaCa_a5aPa3bvb<b<b<b<b<b<b<b<aPaPaEa9a-a-a-a-a-a-a-a-a-a-aIa9a)aEadaeafaVbDb)a%araGbXbDapaIbzbDa2b1bHbebFbRa:bhb_b)b#b1asaTbIa>b)cMcVcobLbLb3b(b0b3b(b*bIbVbIbrbub#b{bVbia^a|bzavaTbVbVb3bLa7a~boa/a:bfbSbSb,byb<aRa`bfbSbfapaPa5aFapa}a/aKbHb\b9a>aFadanaJaEbMb%b9b%b\b7a\a|bsbgbcb1bDaTamaAa7a\a|bRa;a;aYaYaXaNaKaXa)bmbma=aNaNaNaHa=bUa*a$a=a$aHaHaNaHaHayayaD",
"aeaeadadaeanaJaCanafakahacahacanaAaVa9bfbVa&a1avakaoafamaPbfbFa7akajadadaWbfa_bjbtbfaWaQbyb~b7bUb9bLaIaIalacaxa\b9cebOa!bdbjalaxa%biaxaJbjbfbhbAbAbubEbAbAbAbAbAbhbjbjbubybHbHbEbLbObtbjb#a}a2bfa2b7b1bsbza{bfbIbEbOa(anaraparasasasasaxaxasasapaoaravavaCaAasaJbHb%b9b7b7b%b0btaGaWb0bua&aralagaBa;aWauatauawaRaRawaRawauawaRaRa*a,aYa9a#a-bba?a-a*aEaEaKaKa<aEaianaAa|bAb)a!ala!bLa1ala>bKa(a}b3bRb!bQa9a&b)b;b(b#aCaoaGaVbAczcvbVbub`b|b7bTbua>bFa|bwb3b#b#bVbibzb#bVa&aPaTaGaka:b!bzb#a>a:bibQbQa{bybybya$a5bvaua}bubzalaua5atana]a;a(b9b?b7a.aCadanaQaQbOb%b7b%b\b9a.a>bsb1a{bKbzaVaoaIa>a|bFbcbabUbbbmbka,a<a)a,bmbSa=aNaNaXaHa)a?a=a?b:bbaYaYa$aYaNaNaNaH",
"aUaWaQaEaGaJaQaxanadamaoanakamaAavaIa%bgbKbca>a1aAakamasa9b3b3a&arafacacaEbjbjbhbubja2aEbub+bSbUb#bAaIaTamacaxa{b7b+a_a(bjbpamaCa9a|aBaJbjbjbhbubhbjbububAbha_bjbjbfbhbAbEbEbEbObMbMbHbEb#a}a&bfa5b9bVbsbDa>a}bAbLbHa1axaIaTa1a1a1a7a4a4a9a9a4a9a&a9a9a%a+a3avajbdb(b#bTbXb7bVbjaCa9b#bAa{aCapaiaBa}aHaDauawbBaRa[aSa8aRawaSaSa0a[a8a8azaRa0a0bqaOa0a$ayayaya_aKalaqaWbfbLb7a2ama]bIaxava|a|aIbVb!bZbRbwaTbpb)bXb(a|ava|a\bIb)b|bubfb=bSbTbHbObLa|bzbibzbDbVbVb3b#bFa9b(bDaVa&bwa{arbwb3b*b1aTbebQbQa{bCbLbyaPaHaWaua{bza/ata7a5aTapa}a;a5bHb\b7a.aIadanaWaQbhb%bUbWb+b9a.a>bDb#b(bxbgaTaoaTa%bebcbwa<bmbmbbbMa?a=a)a=bka?a=aNaNaNaDaYa<a)a)a?a=aKaNaXaNaKaDaDat",
"aJaEaJaGaGaxasaralafaAa>beaoaFaVa7a%a>bzbLbFa>a&a%ajakava!b1b3a&aoahahacaGbjbjbubua}aQaQbyb\b7b7b)a_ara7anabaxa{b7b-bAa9bubjamaxa9a/axaJbjbubjbububjbubAbybubAbMbHbHbObEbEbEbybMbMbMbSbOb9bfa!bja!b9bzbgbTa!a]bLbObHa&a(brbDbHbTbMbTbXbObTbIbtbVb1bObTbHbFbFa:aAbzb(bVbza(b7bXbOaIa9b0btbgaGapaiaua}aDaHauawa0awa[aSa8aSawaSaSa[a[a*a8awaRa0aSbqa0a8aZayayaya)aDakata4bLbObXaQana|bdamara4aCavbzbFbFbea:aQbHb9b3bLasa>brbub0b=bOa!bTbLbTbObLbDbVbTbIbDbrbubObTb1bVb3bia>b)a{a7bfbza7aTbQbRb/aTaPa`boa:a2bAbzatbfbza}a}a}a}bfbubaa(ana}a}aJa}b\b7a\aCadala2aJbhb%b7bWb?b9a\a.bVb(b(b0a\aTaoaIa1a+bcbca_a(a6aYaYaYaNaKaMa)baa$aKaKaKauaDa6aYa$baa)aNa$a<a$a6aYaKaD",
"a2aWaWaWaQaxaiasaCaraoavavavaFaTa9a>a|bxbIbzaTbIbfavaraCa9bTbta%arajahadaBbjbubjbjbdaGaQbMb~b9b7b9bfaoa4arabaFa|b7b\bEaWa\bdanaFa1a.aCaBbjbhbAbAbubjbububhbubybAbHbMbMbUbUbXbUbUbSbObEbEb9bua!bfa2bOa>bubVa4bjbHbObOa(a|bAbLbHbXbSb0bUbXb0bTbLbVbObHbTbHbLbLbeaPbub)b(b(bEb7b7bXaGa4b0bLbtaJaqalaBa}aHazauawaRaSaSaSaSawawaRaRa8a8a8aRawawaSa8aSa*a*awayazaya<aDalaqa!b1bXb7a\bib0bTbrbVb#bTb3b(b5b3b1a>aWbXb(b0bzarbfbibAb0b)a}a\bIbTbDbDbjbIb#bza{a>bzbpa.bLbLbVb1bVa:b/bLa^a^a>a%aTbwa^b!a9aCa]bAbzbybSb!bfbHbSbSbHa}a;a;a(a5aJana]a]aEbfb?bUa.aGadala2aJbjb%bWb7b~b7a.a.bLb3b#b1bDaVaoaIa>a&arbca}aEaDaDaDaDauauaDaXa)a6aDaDauatauaXaYa$a=a)aNa$baa)a$a<a$aX",
"aJaCaGaCananacalaralamaoasarasaIaJa4a4a!a&a4axbpa}aJaEaWaQbda|a&arahahafaCbjbhbhbjbfaJaWbEb\bWbUb0bhaTa1anabaAa|b7b?bHa5a(bfanaAa4a\axaJbjbja_a}bjbhbhbubybubabububybybEbEbMbObMbUbUbUbXb-buaQbfa2bHa^bFbDa>bAbXbAbXa]a{bLbAbAbOb0bXb9b9b7bXb0bMbTbObLbHbVbVbgaIbub-b%b9b7b7b9b0aCa1bXbObIaWaqalata;aHazazawaSaSaSaSaSaZawaRa8a0a8a0aRawawa8aSa8aSa8awawayaza$aDalaqa!b9b7b0a.bVbLbLbVbTbLbVbRbDa^b3b!a.aWbXbzbLa|aPbra]bpbTb%a/bdbubIbzbua/bfbzbibubza\bza>a|bDbRbzbRa^b1bVa>bibga^aTa^a~bRa>asa|b!bibibObObHbybzbybua}a}a_a2aJaxala}a\a2bub-bUa.aGacala1aWbjb%b9b7b?b9a(a.bLb1b3bTb3a&aoaAa%a|a&bKa_aKaKayaKaDaDaDaDaXa<aYaDaDaBataHaYaYa$baa$aNaYa)a$a$a$a$aX",
"a(aUaWaJasaladagapadamaAa%aravaJa9a.a{bgbxa|axa\a(ababalaFbcbRa7amajafafaCbfbjbjbjbfaQaJbEb-b7bMb0buaQa1alacava{bMb%bHa5a]bjamasa1a\axaJa}a#a]bjbEbHbHbSbUbHbEbEbEbEbybAbEbHbEbEbHbObMbMb;bla2a}aJbHa>a^bDa%bAbTbUb-a}a|bDbDbIbMbUb7b)b;b;b(b7b0bMbMbTbObTb3bRaVbda{bAb#bMb%b7bOaAa2b0bMbIaWaxalata#aHayazawbNaRbqa8aSaRawa8a8bqa[aSa0awaRa8a0bqa0a0aRawayaya$aDalaqa!bObXb7a9asaAavavaAaFaPaAaAamaoavalaxbAb1bVbzaVbxa.a\bdb0bda2bda|bfbLbfaTbgbibzbzbzbzaVbrbDbRbibwa%b(bza4bwbga>a3bwa`bZa4afaravarasaPaQaPaBaCaxaCaCa#a(a(a;aJaia/a/a5byb-bUa>aCadaka2a1bjb9b9bUb+b7a.a&bLb0b3bVbVa4aoaFa7bebsbsbubaa<a=a<a$a6aXaYa$a<aYaDaDauataya6aYa6a<aYaHa$a$aYaXaXaKaD",
"aGaBaxaqalaiababagacajakamamalarasaAaGaQa1aIaracabababalaAa>a>aTamajahafaBbda}a_bpbdaQaJbEb?b7bSb0bha4a1alacava.bOb9buaWa.bdalasaJa{axaGa]a}a_bObUbXbUbUb7bUbXbXbUbObEbMbObMbHbHbEbHbHbHb(bla2a}aJbHbHbObTa9bubEbOb-a|a\bubDbObObMbUb0b#b;b)b0b3bMbObObTb#b#bVa3bdb)bVbVbHb9b#bLaCa9b9bTbDaJatalata$azazazawa0a8a[aOa8aSawa0a8a[bqa8a0awaRa8aObqaOaOaRazayaya$ayalaxa!bubHb0a2asbDa2adaeadabaiaxararaoahala]b1bLbVaVbza{a4a.a]b0a&bdbDbDbHbLa/aAa]bDbLa.aTbdbVbLbLbRa>bKb3a3araTa1a4bebRbobZaGamavavavaraPaGaeaGaQaJaGaQa&aWa9a}aQaka/a;a(bHb%bXa\aIadaka!a9a_b0b7bUb~b&a&a.bLb3b0bDbta9aoaTa&a|bsbIbaa#a6a6a6aNaKaKaYa<a<aYauaEatataHa6aYaXa6aHaya6a$aYaXaKaKaE",
"apapalalafababababababacabababacafajakaoamajafacababafasaTa|a|aVamakafafaJbda}a}bpbcaJaQbEb%b7bMb0blaWa4alacaxa/bHbXbIa5a(bfamaxaQa{axaGa]bfbjbObUbMbHbMbMbHbEbHbMbAbAbHbObEbMbObEbAbAbyb0bja4bfaQbEbEbOb0a9bfbAbAb%a(a.btbtbubDbHbTbEbHbTbHbHbObObHbLbHbRbVa|ava/b9bMbSbTbSbTbtaxa&b%b0buaJatalata;azayauawaRaRaRaSaSaRawawaSaSaSa8aRawawaSaSaSaSaSawazazayaLaDalataUbubAbMa2aCb#bDalaoaoamaia.bzbwa^aPalaQbVbVbVa\a.a|aVa1aQbrbVa>bpbIbDbDbpaWa.bubLa&a.bLbLbVbRbebzb3a+anaAa4a\a&bRbwbRbzamaPa`a`a7a:a/a!aha\bHbDbubAbfalalanakala\a]a/bOb7bMa{aGafaka2a!bpb0bMbUb\b-a\a&bVb3bTb0b0a&aoaTa%a|bsbKa]aCauatatataqatauaXaYaHauauaBataHa$a6aDauataDaXa6aXaKaDaDau",
"aEaJaBaxakaeabababababacadadabakaraCaTa4a9aVaJamababahasaIa>a&aFamakadadaGa{a\a{a|a>aCaVbub7b7bUbXbja1aWamabasa\bHb7bua4a(bpanasaVa\axaGa;a}bjbEbMbObXbXbObEbububububhbybAbAbubybfa.bfbdbObca2bfaUbHbEbAbHaQa;bubyb7b(b3b/b*b)b/b*b*b(b3b(b(b3b*b=b#bVbIbDbFa9a2bEb#bUbSbMbXb3blasa4b#bTbpaQaxalata6azayauawaSaSaOa0a8aRawaSa0a0a0a8aSawaRa0a0aOaSa0awawayayaLaDalaqaQbpbubXa2apbLbLaraxaIaAalaGbDbFbFa^araoa\bVbzbKa%a!bzbia&aGa|bLbia{bgbxa\a}a4bibda9bibzbRbzbzb/b3a:alaPa{a&a7bzbwbFbFaPara3bGa~a7a{a|a\aCasapama|bza/ahahaiafala/a]a(bLb7bMa\aCacaka2a!bfbTbHbMb+b+a/a9bIb1b0b0b3a!aoaTa%bgbsbca;aJaDauaBauauauaCataqataDaDauataKa<a6aBapaqaya6a6aXaXaKaKaH",
"ananalakaiafabababababacafadabanaCaWa.bpbDa\a9aracacacafava>a&akamamafafaJa{a|a|bca%aAaQbEb+b9bUbTbha4aWakabasa(bHb7bHa2a(bpalaxaIa\axaBa;a]a}bhbubAbHbObMbObObHbAbjbhbubububhbjbfbxbia\buaQa(bjaWbHbHbHbOaWa/bjbAbAbTb%b=b|b|b%b)b)b(b)b-b|b+b-b`b-b?b?b_b-bSbDbMbMb0bObAbTbTbDasa1b7bAbfaQaqaiata6ayayauawa0aRa[aSaSaSaRa0aSbqbqa8a0awaSa0a0cBaOa0aRawazaua$ayakata1btbybXaUaibjb0aIa&a|a9aFada.bza^bFa:akarbdbKbzbza^a{bgaIaGaGaQa|bfbebea4bzaCaQa4aVbDa|bRb!b3bzaTasaoaCa7aIbibzbFbRa4amava3bva3a>a|a{bwbia>aWapbzbzbialasaGasala/a}a.bAb9bSa\aGadala2a2bjbSbObOb%b-a\a9bDbVb0b3bLa9araTa&a&bea|a;aUaKaHaHaDaDauaBataqauaXaKaBataHa$a6auapatauaKaXaKaKaKaKaD",
"aQaQaBaCapakacabababadaeahahacanaCa!a}bDbLa]a9asacadacalaTbzbgararaoahadaVbda|a|a|a&aFaVbhb9bXbHbLbja9aWalacaxa.bMb%b0a4a!bdanaCaTa{aCaCa/a]a_bAbHbObHbEbAbAbubjbAbubjbjbubAbubhbfbubfa!axa1a/a]bfbAbLbHa\a2bfbubAbubububybAbHbLbAbAbAbHbHbHbfa}a_bfbfbrbzbjbgbpbAbLbIa(a1bgbgbLaxaWbTbfa{aJaBanaua(ayayauawa0a8a[aRa0aRawa8a0a[a[a0a8awaRa0a0bqa0a[aRawauauaLaDanaBa2bjbjbTa2aca!b#a>a>bsa9aVakanbdbFbFbCaAahapa|bLbZbFa\a3a>a7axasasaFa4a&a1bpasaFaTavbia>bfa>aJaCasaxa:a>a%bDbRbLbRa:aharaPa`a+aAbebwbibia\a{a}aGbDbzbialaBaWasala/bia/bLb7bHa.aPaeala2aQbfb0bHbOb9b+a\a&btbLb1bTbVa1araVa%a>bKb1a}aEaDaDaKaKaEauaDaDatauaEaDatataKa$a6aXaKaBaqauaEaDaEaEaDaB",
"alanalalalaiadabababadadadadabalaCa!a|bDbIa]a4asacadadafara&aVaoaAaoahadaJbga|bebea&aTaTbhb)bXbObHbja!aQalacaAa\bOb%b0aUa2bfamaCa9a\axaxa]a]a}a\a}bAbObHbybubjbjbfbja_bfbfbpbhbubAa/aAaxa!a(a}bAbDbDbRa%aJa|bubDbDbDa|a{a>a>a>a.a>a>a\a.a&a9a2a%a!a\a}brbtbgbfb1bTbHbLbua.a.bDbDaFa7bVa/axaxaBaEa#a#ayayauawawaRawaRaRawawawaRaRaRaRawawawaRaSaRaRaRawauawatawa6aWataBaWbibLa(abasbLbDaVbia>a%aTakaxbsbKbCa`amabana\bRbZbZbQa\a^a:aPaxarananaCbfa|bia|a|bfaFasaqaraxa3a^bibLbRbRbVbVaPafaoaAaPa+avbvbzbzbIbDbubrbfaWbRbia{alaGaQasaoa.a|a;bLb7bOa>aGadakaQaWbfbXbHbHbAb7a.a&bzbKbVbLbxa1araTa{bsbKbVa/aGaDaDaKaDaDaDaDaDaBaqauaEauataKa$a6a6aXaDapalalanananalal",
"aWaWaJaGaxanahacababacacahafabapaGa!a|bIbIa]a9avacafafafarbia%araIarajadaVa|a.a.a^a+aJaVbhb+bXbTbObja&aJalabaAa\bHb)b0aWa!bfanaxaJa>axaCa]a|a]a.a/bfbubAbAbAbubAbjbjbjbfbfbubDa}aIaxa1a&a;bubAbAbza^aAaFbibFbLbRa:avamamamamakamaoaoaoaoaoaoaoamahahasbgbTbIbIbHbVbTbIbybHbHbDbxaGa7bTa\akahaeaWaXa(ayayataubSb<b<crbBb<awaSa8a0a0a0aSawaRa0aSa8aSa0awawauauaLaMa5alakana|bVa/aoaeaWbTa.a.bDbea:aJakara}bCa^a>a%a7aoaVbubZbFbFbFbibwbea&a3avaoamanaxaoalakanaoaFa7a^bibzbLbRbQbRbGaFakaravaPa+aPaPbGbzbLbLbIbubAbzaJbRbza{alaFaQaraoa{bia/bLb7bOa\aTacaka1a4bjbTbHbAbAb9a>a&bsbKbLbIbzaTava1bebsbKbKa;aBaDaDaDaDaDaBaHaDaBaqauaKaEataHa#a6aXaXaDaqaqaqapapananal",
"alanalanakaiafadababahajahafabasaJa9a]bLbIa|a!asafafafaharbza|avaFamafadaJbga{a\a3a+aIaTbhb7bTbMbTbda(aJamabaAa\bLb0bDa2a.bfamasaCa>aCaxa/a/a]a]a}bdbjbpbjbfbda}a}bdbfbtbjbgaTavaQa!a/bjbLbHbLbiaFava^bFbzbRbiavaoaFaFaraoaoararararavavararaoamamavalama/bTbVbtbDbTbjbybLbAbza|avaVbLa.anasalaEaUa5auayatawcrb<c0crb<aRawa8aSa[bqaSa0awaRa8a[csa[a0aZauawauaLaXaXapaqapa{bLa>aCamaea!bTa.bgbFa^a3aFajafbdb;b3bVa>a7ajanaWbpbRbRbIbIbtbsbwa^a7aPava3aAaraFa1a>a|bsbDbFbibCbzb2a+akava`b2a3aFara+a`bGbubLbLbLbDbubzaGbzbza{alaFaJavana\bia{bzb7bLa\aGadaka7a%bfbVbAbubHb%a.a&bFbzbKbIbtaTaFa1a>bibcbDa;aBaDaEaKaEauaDaEaHauaqataKaEataKa6a6aXaXaEauaEayaDaDauauat",
"a2aQaJaBaxanakalacabajajafahabapaGa9a|bLbLa|a!asahajahahaIbDa{avaAaoadadaIbfbea9a:a+avaTbjb7bObObTbja&aJamabaAa&bubHbDa4a!bfamasaFa>axasa!a!a]bfbdbda|a|a}bgbda|a|a}bga|aGaraGa&a(a}bAbObLbdaVavaVbgbRbLbwaFamaPa%aFava3a3a`a>a{a\a>a.a>a^a%a3a+aParaFaAahaJbDbLbLbHbjbAbHbubtbiaxaTbwa~anaCanaDaUaWauauaFa`craScrb<aSb<awaSa8a0aOa8aRauawa0aSa0a*a0awauayauaza5aHaua;aqa:bFa2aFa4ajaia(bTa|a^a:aTava1bIbdbua9a&a1araeacadalaGa/brbLbLbVbVbDbIbDbzbgbfbDbLbHbVbwbebwbCbobvaPanakahara3bva^bGa+a`bvbQbAbzbDbzbDbzbiaTbCbza{alaFaTasaoa\a{bobzbXbLa\aTacamaTa!bzbVbAbubLb9a&a%bwbFbsbRbIa9araTa%bcbzbDa/aEaKaDaDauaBaDaEaBatataNa6aDauaNa$aXaKaKaDauaEaKaHaEaDauaB",
"anakakakakalarapafabajafadahabaraCa2a|bIbDa|a&asakamahahaCbIbgavaAaoadadaIa{a^a+a3aPaFaPa&bXbAbTbHbja&aJalabara%a|a4a{a1a&bfalavaAa%axasa%a4a.a>a\a/a.a\a\a|a{a{bga|a7araAa7a!a]bAbububdaVavaPa^bwbZbzaTakava&aJaFa:bGbJbJbJbzbFa}bfbfa]bfbtbRbFboa:aoavaIakasbubObHbAbAbIbjbubiaPaVboaPamanalaWaKa5aGaGapatazbvawbvawaPauauawawazawauauauayayayazaYayauauauaYaXaXata#ala3bQaQava{a&anaka9bHbDa1aVb(cwb|a\aAaGaJanaxaAaoakajaeaganaCa2a]bjbubAbAbIbIbObVbAbLbza{a2aJaxarakakaravaoakara+bfbQbzbibobQbza3a`boa^a:bia3bQbQa]amaFaTavarbebibGbGbfa|a&aPadamaTa^bzbLbLbubOb)a&a9bFbKbKbKbLa9araIa+a|bsbIa;aEaDaBauaKaKaDauaBaya#a$aXaHa$bmbka$aHaKaEatatauaBataqaqan",
"a!aUaQaEaBaxasasahabakafadadacanaJa4a\bIbLbda.asamamajajaCbtbgasaAaoafacaIa{a~a3a+a+aPavaPbDbObLbubja.aJalabava&bFbVbFa&a!bralasaGa2axana.bga.a>a.a.a\a{bebea&a|a.aAaAa4aWa(bjbububja9ava3bebQbQbFa%aoaoa4a1aAa4bFbFbDbRbDbDbia]a#a(a(a#a(a/bgbDbZboa+aAavaVaoana|bLbtbjbjbjbDbxaVa4bQa:akarakaKaUaUaEaDaHa5azbvawb<awawawawazazaMaLaLaLawaMazaya-b[a-aYayataDaKa5ataUala+bQaQaCbgbza&aoacapa\b0chb}bFa3a2a]aWagagaBa%a7aTaAaoamakajaiaiakananapaqasaqapapananalamaoaravaPaPa+aPaPararaoaFbvbjbAbCa{bJaPaPb2aQaPb2a7b!bQa{alaFaTavarboa^bib,bybia:aPaeanaTa:bzbVbfa>bHb7a&a4bwbKbzbsbKa9araIa%a+a>a|aJaEaDaDaKaKaDaBaDa$a<a6aHaHa=bUbWa,aXaDaKaKaNaKayaDaDauauat",
"alakagadacabaQaJakabakahadafacapaGa2a.bLbLbda1asamaoajajaIbDbiaravaoafacaTa|a~a+bva+avaPa9bTbTbEbpbla/aGakacaoaVa|bLa|aVa&bfamanaxa2a(afaiakamalamalaoanaoanamanamaBa(a&a}bubjbfa&araAa:bwbZbsa^arama1a9aFaTa|bRbfbfbfa]bjbua}a;a;a;a;a;a/a(a5a;bKbRbwbQa4avaIavaka9bAbra\brbsbiaTa1bsa9amalalaUaUaEa5a/a/a/a/awa/awb<aLb<awbGa$a/a$a;a;a;a$a;a$aYaLa$aYaYaEataEaUaqa(anaQbia1aJa|a|bia|aGaGbub*bea+a/bga5apagakakagaiapaIa1aTaTaFavaraoamajabacaPa3aPamahamaraAaPa3a3aPaPaPaPaPbvbvaPbvaFaraPbvbvbvb2a`bvb<bvbvb<a:b,b,a;alaFa3aAarbJa:bGa}bGa(a7avajaoaPbvbub!bfa{bHb0a%a4bwbsbRbFbxa4araIa+a1a&bga(aJaDaKaEaBauaYbabaa6aHa$bkbma?a$aKauaDaXa)a$aXaHaDaDaDaEat",
"akakakahafama!asalafamahadadacapaCa!a|bIbla.aCavakarakajaCbtbiavaoamafacaVa.a`a+a+a3aPaTa.btbXbSbDbAa&aJalabahaGa\bDa>ara&bpalapaGaGa/a/aJaJaJaQaWaWaWa2a!a&a5a(bfa]a/a}bdbra\axaoaVbebebFbFaAakaIa%aTaPa>bFa}a]a;a;a/a/a;a/a#a(a(a5a(a#a/a(a#a/a;bub!bKbwa^avaAavaja!bAa|a{a%a\aIaQbta>analalaKaEaGaBauaGauaPayaPatauaza5a5aza2aHaWaKaUa5aDaBaDaBauatauaCaBataDaUalapapa\bVa9aJa1aJbgbKb3bLbQa:a7a\a5asaeakanarapapanakaeakapataJaQa1aJaTaAakama:a^beaFavaTa3aTaPaPaFaAaPa3a`bvbvb2bvbvbvbva3a`bGb,b<bvb<b<b<bvb<b<bSb<a}araPa3aAarb<a5bvb<bya}a7alaharaPbGb,bybIa}brb0aVa4bwbsbsbsbDa+aoaFaIara3bga_aEaKaDaBaDa$bka<aNaNbkbmbmbaaXaEaDaDaXa6aNaKaKaKaDataqanan",
"ahahakakalaJaJaxamafamahadadacanaAa9a.a|bta9avarafamajahaCbrbiasamakahacaVbga^a~a`a+a3aTa&bIb0bObubua!aJakacama&bTb)bxasaVbxalasaJaGaJa1a2a!a(a/a]a|a]a}a\a]bjbfbda]a\a}a.aIanaJa\a|a{a\aIajara%aTaFa&bFbda]a(a/a;a;a;a}a]a#a(a(aXa(a(a(a(a#a/a#a;bfbtbDbFbFa>araGaraxbubtbta{a\aIa9bta&alalakaGaKaGauaGaDauaPauaPapa5a/a(a/a$a/a6a6a/a6a;a6ataJaBauaBaBaBaBaEa5aQagalana{bTa\aGa\aJava9a>a4a/a\a!anafaGa7aFapaoaxaGaIaxapanalaiagaiakalanapalaoa%a&a>aPaoasaAaraAaPaPa+bvb2bvbvb2bCbJbobzbobGbQb<bycrb<c0cZcZc0b<b<crcra$araFa3avarb,bvbvcrbSbVa(anajaraPb<b!b<bybja{bLaVa1bwbFbDbFbwaVaraPa3a&bcbFa5aQaDaDaNa<a<aNaKa<bmbmbyaYaDaEayaXaXaKaya<bWb&a<aKaEaBaBat",
"aJaGaUaWaWaUaGasalafamafacacacanavaAa9a\bcaFaramacalahafaGbpa|asamajafadaTbia^beboa~a+aFaJbLbLbTbDbLa(aJakabama&bTb-btaraGbgalapaFaCaCaxaGaQaQaQa2a4a4a9a!a/bdbfbga|a|aVamaCa.a|a{a\aVamamaTa1aFa1bwbda]a]a/a/a/a/a}a]a_a]a/a;a(a(a(a5a5a5a(a(a(a/a_bzbzbFbwbiaTaTaIasbrbpbubga{a!bdbga.alalagagata2aWaDaJaDaJaDaDataWauaDaDaDaJaDaDaJaDaJaUataQa6a2a#aUaBaEa5aCaiaialana.bLbTaWbgbta4akakaQa/axacabafakaFa%a|bfa&aJaIaVaVaCaAavapaoalakahacabapa\bzbiavavaTa~bobCboa+bvbGb4b4bGbjbfbobQbjbzbfbjb<bycrb<c0cWcZc0crcrcrb<buaraPa7aParb<bvb<crbSbLa5arajavaPb<bLb<bkbubFbVa7a9bcbsbsbRbiaIaoaAaPaFbgbca(aBaHa$a<aYaya6bkbmbMa$aKauaDaUaYaXayaXbkbmbEa6aBasaCaGaGaG",
"a(a#a!aUaQaEaGapakafamafacababanaFaCaTa>a>aAaoamafajadafaCbfa|aoajafadadaPa^a~a^bebea9ava4b(bXbAbHbHa/aJakacama%bOb;bfavaCa>anajasaCaCamaWa/a.a(a>a\a]bdara2a{a]bia{biasa1a\a|a]a.avahaAa7aFaTa^a|a\a/a/a/a/a(a/a#a/a/a}a;a;a;a;a;a#a5a5a5a5a5a5a(a;bgbLbQbFbcaPaVa4axbrbubia.bgbIbtbia.asafaeagagakanalakakaiakapakalalakakakakakakakakakalakananalalaiaialaiaeaiagaiaCa|bDb3bua%a{bga9aFaragafanaranamagaiasa!btbVbDa|a9aVaIaIaIaFaFaAaoakacaxbibibiava+a^bibDbubia.bDbzbIbZbQbjbua^bfbQbzbQbub<bLcrcrc0c%cZc0crb<crb<bfataPa7aParcraMbvcrbSbLa/araharaPb<bSb<bkbybibRaVaVa|bFbsbsbzaTaraAa3aVa9a|a/a5a<a6aHaKa)bkbma<aXayaDaDaXaYaEaDa$bkbEaXapaeadaeaeaeagae",
"a9a#a9aWaJaGararaoafakacabacacalaoaoaAaTaTaPavaramajacafaGbra|araoamadacaTa\a:bebwbca4aAa.b#bLbfbdbTa!aGakabama4bub#a{axaVa.anapa!a\a!ala4a%a%a&a&a&bibzalaCa.a&a\a\btaTa\bga]bda9akaTa4aAa:a|a{a(a(a!a(a5a5a(a(a5a5a/a(a(a/a;a}a;a/a;a/a(a#a/a(aXa;bgbIbRbQbeaTa\aVaJbDbia|bHbLbDbDbfa\a%araiahaeagaeadaiaxanaeagaiaiaiaiaiakagaiaiaiagagagagagabalaBakacaeaeagagalaIa\bgbLbVbDa\a.a>a|a1ajakalava7a2aJaxaoalakanasa1bibIbVbDbga9a>aVaFavamaeasa!a!aVara%a|bpbLbda9a!bDbubDbRbwbjbubibfbza}bCbub<bycrb<c0cZcZcrcrb<crb<aZaPaPa3ararb<bvbvb<a*b,a/araharaPb2b,bybybfboa{a3a4a{bgbzbxbiaAaraFa3a&bea1bjbHaKaDaYbabkbaaYaDaDaDaXa6aUaDaNbabEa$aCakagagakalapanalan",
"aQaVararavasaoanakahagadadalanaxaAaGaVbib3bdaTaFaoaGakafaJbga\axaIakacabaVa|bebcbwbca9aIbhb)bSbra/bAa!aGakacahaAa(a|aAaFa!a{anasa&a\a2aka%a.a%a&a>a%a|bialaCa\a.a.a{bdaJa|bpa|bpa&ava&a%a&bia]a(a!a5a2a5a2a5a5a5a5a!aUa5a!a(a;a;a}a;a;a(a/a;a#a/a/a/bibxbCa^a.bxa>avaVa{bgbLbDbpa2a9bfbda\a4aAakahahajagakaranaiaiakaiaiakaiaiakakaiaiakakaiaiagahakapalajaiaiakavaVa>bgbubza1a9bfbDbzbzaTakafakaPa4a&a!a%aIasarapaqapalapaxa2a\a]b|b#b)b#bVa!axa(ataoaFa>bgbtbHbua/a/brbubia\bibjbjbibzbibza}bzbzb<b<b<b<crb<b<b<bvaScrbGapata+aFaqbya/a7bva5a7atahajaraPbvbSb<a=bja^bia3a&bibzbtbIbzaAaravaFaPa3a9a/b#aKaXa<baa$aXauaBaHaXa6aHaya<bMbaaUanaialananaqauauaDaNa$",
"axaGaGaCaQaUaQaBaiaeakadacagalaxaAaTaTa3a|a>aVaIakamacahaJbia&araramadaba3bebebcbwbwa&aFa]b#bubfbAbAa(aJakacahaVbtbVaJaxa.a]anapa(a]a(apanasaxamakalamalahaPa\a.a/a|a&aVa|bpa]bua\axa>a|a\bia(a&a5a2aWa2aUaWaUaWaUa2aUa2a5a(a(a/a;a;a(a(a/a;a(a(a(a/bwa{a4bwbia7aFa4btbubIbIbgaQaVaVaCa9bda\aVavaraoaravaoajamarararararasarararararasavarararaoamamaoaravavavaAaIa9a|bza>aJaVaPaPbzbzbtbLbia&avaoaFa4a%a9b1bIa&a&amahakapaqasapaqaGaxaJaQa2apahapaCaJa9a|bzbfbDbAa}bfbjbjbjbzbjbfbfbibfbia~a7bQbfbabyb<aRb<aRb<a}bvb<aRb<akata3aparb<a$aPa`bua}a3agaharaPbGbSbybza(bvbCaQa^bzbDbDbzbwaTa~bCaFa3a&a^aQbhbEaDaXaXaKaDaDaDaKaKaDaDa_bya#atakalalanapaqataqauaHa$a<",
"aWa\a!aGaUaUaJaCaiacaiadacagaoaxa1a9aVa9a{a2aIavakadabaeaGbda!akacadababaPa~bebFbcbFa%aFaVa\bja]brbAa\aJakabaoa%bubraGaAa.a]anasa!a]a/aWa9a!amasaJaQaQaQa&a.a\a]a\a}a.a1bdbtbdbDa|aAa&a]a|a]a!a5a2aWaWaUa2aUaWaUaUaUa2a5a5a(a5a/a/a;a(a/a/a(a(a/a}bfa>bebFa&aIa3bdb0bTbIbra1avaQa{bia.aTaCa%a(aTaPaGaPaAaoararavaFaFaPaPaFaFaFaFaFaAaFaFaFaFaFaFaravaoaAaFa3a7a4a>a|a&aGaWa]a]a(aTana7bzbLb1b3bLa%aFaTaAa\bubFbzbibdbda{aCasakakalanapapapanasaxanalalapata2a/bubybfbfbubububfbjbfbjbfbibfbIbzbfbzbfbjbQbfb<bya}b<aubGa}a}apataPatapbfa}a7a7a}bQa(apafaraPbvbLb,a<bzbibGaCa:bxbDbKbzbgaVaFbZb6bwa9a>aJasbWa6aKaXaEaEauaBaDauaGa/a;aJalakalapapanaqaqanalatauaDaD",
"aJa.aJaCaUaWaQaxalacakahaeadadaiajaharaIaIaFavajacagabahaGbia!aiabafacacaTa+a>bwbebwa&aAa4b3bObubrbHbiaJaiafaQa\bxa4aFara2a\alaxa(a]a/aGa%aGaka7aVasaGa.bia/a.a/a]a}a|a2a|bxa}bDa\axa&a/bia\a5a2a2aUaWaUa2aUa2a5a5aUa2a5a(a(a(a(a/a;a/a/a/a/a]a}a|a\a|a>a1aTa{bObVbubDa.aoaoaTa%a>a>a>a>a7aFaGa>a>a&a^a^a4aTaTaIaIaTaJaJaJaIaGaGaTaGaIaIaIaIaTaTaPaPa3a:a^bea|a{bgaGaGa.a/a/a/a/a/aQanana%bubQbVb3bwa%aVamama&a7agasaCa]a.bubDbda.aWaxanakaiara1a1aJaCasapalalanaBaUa]bhbububjbubzbjbibfbDbia{a}bibia}a/a/a/a}a}aMaPa}b<aZarataPatarbza}a5aPa2a}a}a7ahakaPa/bybua}bybCa7aPa&bzbDbDbza\aVahaIb/cvbca%aJaja/a(aHaKaEauatauaBataBa!aJaoakanaqapapalapanalaialaqaqaq",
"a\a/aCaCaEaQaEaxakabagaiahafadanaoanaVa.a\a\a7aoacahabahaGa|a9amamajadadaVa\a3a^bFa|aVara!bLbAbHbLbOa}aCala1bibta&ara&araQa!anasa(a(a&aWa9axaoa>aJa1a]a.a(a2ananaBbda|a2a{bfa|bLa\axa(bibda\a2a2aUaWaWaUa5a2a5a!a5a!a5a2a5a/a(a(a#a(a/a;a]a|a:a7a.a{a4aPa9blbTbIbIa}aAacafanaPa7a!a&a>a%a1a>bia|a{a|a&aFananaoananananananarapanananaoanaoananaoamanaraoaAa>bgbgbfbfa.a2a!a/a]a}a/a2apahahaGbFbFbYbZbwbeaTajaoaGbiasahakaiakanaxaWa/bdbpbda\a2aGaxasasaxaoanapanalaialaqaEa(a}bfbgbda\a}a|a(a>a|a{a{a{bva5a`aPbva}aua}bua}anataPaqarbfbza5a7aqa7a}a/aPakata:bjbybzbybea3aTa&bzbsbsbxbda4acaha1cnb1a1aAahaCaBaKaDaJatatatauaqaCaEaCanalanapananananapalagaeagaial",
"a&a(aAaGaEaJaJaxalacagahadafadalaoaoa1a%bca&aPavajajabafaIa.aJamaoajafaeaFa+a3bea+a7aTaraTbda\a/btbAa\a4a\bibga4aoaja&avaCaCanaxa2a2a9a2a%aGakaQalaQa(a{a.bta|a!aQa|a.a2a{a.a{bfa4aIa&bgbfa\a2a2aQaQaQaUa2aUaUa2a5a5a2a5a!a(a(a/a/a/a/a}beaVa4a>a7a1a4bsb1bDbubua4aiaiarasamaiaFa%a!a7a%bfbDbdbfa(aCakanaAaIaIaIaPaGaPaIaGaJaQaJaQaWaWaWaQaQaGaIaIaPaTavalakaxa>bfbtbObua&a2a/a/aGakalaAapajala!bQbQbYbZbRa:aoahava>a%aTa1a1aJaxapalalalapaBa2a\bda\bIbda9aGaoajaiakalalaiaeana!a}bgbga{a|a&a\a|a{a/a{a/a(a/a(a}a{aPa/a}a{akataPaqara]bua2aTataraPa]a/a:a3a5bzbia}bza>a:a1a%bsbxbtbzbza2ahahambwbVa+axafaBaQaDaEauaqaqatataqaBaWaBaoananapanapaqataqananalaiaeac",
"a9a1aGaCaEaEaGasakacajajahahafamaoaFa&bzbca9avamamajadafaGa\aVamaoajadaha4a&aPa+a:a^aTavaTbxbIa/bAbHbiaQa%a4aAafakala4aJa&a2anaxa2a2a!a1a9aIaia1anaWa.a]a.a/a\a\a\a]a/a1a>a\a{a&aVaIa&a|bja{a2a5aUaWaQaUaUaUa2a5a5a!a5a(a(a(a/a(a]bdbga\a9a.a&a1aIa\bTbHbrbua\apakaxaVa>a|a{aFajaAaVa\bIbIbta}aJalalavaIaTa1a4a%a&a>a(a.a;a\a;a]a}bda_a_bda}a\a.a&a^a%a7aTavakakaJbjbubIbSbpa9axajaJbcbca(aQapahaAa|bYbGbQbZbeaIaoajaTbga|a{a{a.a&a2aUaEaBaqanalalanaGasa(bubzbgbsbeaAavaxaoaiaCbfbfbfa|a{a&a&a>a&a&a!a^a}a}a{a/a(atbva}a}akasaPaqana/bza5a2a2aPalata2aJasa:a}bza{bfboa^a9a%bsbLbDbDbza1ajaraja1a|a9aTamaqaGaDaBauaqaqaqaqapataEaxananananananapapaqauayayaHauat",
"a!aQaGaxaWaWaBapagabajakajahafamamara3bebea3avaoamaoafahaCa\aVamaramafada(bpbea.a~a^aAaAa&bLbLa/bdbtbiasamafabacanaoaVaVa(a\anasa2a2a9a1a.aGaja1ana2a/bia(a]a(a.a/a]a\aJa4bgbwa3aTaCa1a.bga|a&a!a5a2a5a5a!a5a2a2a5a!a(a(a(a(a/a;bfbia&a.a.a&a4a%bubLbrbubiaJalaraVa(bia|a|a>aVa4a|btbububfa!apakavaTaTaGaCaCaGaVaQaWaWaWaWaWaWaWaWaWaWaWaWaWaWaQaJaJaGaIaGaTaGavahaoa!brbtbubLbta{a%bpbIbla}a9aCakakaGa>bvbvb3bVa>aAahaoa|bta|bjbAbjbja}a/a(aUaWaBaqanagagaiapata\bDbRa+aAaAanaJbubjbfa]a}bDbzbda|a|a]a|a{a{a/a^a(a}bja/a{alaqaPasala/bua/a(a5a2atakadakala&a/a}a^a>bebFa4aIa\bsbRbzbga1afaramaoa7a1aAaoanaBaBauataqapaqaqanaqaBaqapaqatataqalagaialatauauaDaKaK",
"a2aQaGapaEaWaBanaeabakakakahadakamaAa+a~beavavamajaoakajasa\aVamarajadacaVa\a1aVa4aTaAaIaTbfbIa.a!a!a.aTaiabagacanaraGaTa\a|alaxa!a!a%aQa&aGaga2ana4a.bda.a]a/a.a/a/a.aVa&a\a^a%aVaAaVa.a\a|a(a!aUaWaUa5a2a2a5aUa5a!a5a5a(a/bibia\a.a>a&a&a4a|bLbubfbja2alalaFa1a\bibia\aVa4a|bDbxa{bua}axaiaoaTaTaxaAaGaTaVaVa1a7a9a4a4a4a1a1a1a4a4a4a2a7aTa1a4a7aVaPa3a3araraPaCamahaxa{bfbpbTb3bpa4a>blbpbga!aJapagalaVa>bjb1b)btaVaoamaTbfbia|btbjbjbubja}a]a(a2aWaQaBaqapanakaiaGbdaCarapaQbAbfa]a\b%b)bHbHbHbHbLbHbybLbybububza/a(a2agapaGasaoa(bja/a/a>a!aVaAafaoaTa>a}a]a>a4a4a^a7a7bebKbFbea{a1abalamakaVaTavaoapaxatataqapapapanalaqataqaBaXa6aXaNaDauauaqapanalapaqax",
"a2aQaJanaEaWaGapadabakakahagafakaoaraPa:a:a+amahafanaoajaAa.aAamaramahacaFa>aAaFa3a:a%a:a:bFb}bca{a{a.a1aoacamahasaxaIaVbdbcalaxa2a!a(a1a&aCaia2ana1a&bxa]a\a.a(a\a/a.aQa&a\a|bDa4axa%a>a9a|a(a9aUaWa2a2aUa2a5a2a5a!a!a!a\a}a{a>a.a>a>a4a9bgbDbdbra.apakavaVa!a{bia|a>a4a\btbLbDbga|aQakajaAaTaFaAa2a>a\a|bzbxbubxbgbLb3bTbTbVbTbLbLbIbDbgbpbpbpbFbwbvbva`a`a3aFaraIaAajama1bfbtbLb0bTa{a4a\bpbda(a9aGapahapa(bfbjbTbLa\aIaoaoa>bta|a}bjbjbda}bda/bda}a]a\a!a2aQaGanaibda!agasaWbHbja.a!bua(aCaWa!a5a!a5a!a5a2a2aWaQaJaJaxahasaCapala.bjbza|a4a\a9aFafara&a7a}a\a2b1bLa\bobCbCbwa{aTa>a4acaiakaka4a3aAaranaxaEauatataqananalanapalanatauaEaKaXa$a$a$a#a]bYbJaIav",
"a!aGaCanaQaWaJapaeabakamakajafalaoaraPa+a>aPasajafanamakara\a1aoavaoahacaFa>avaTa%a9a%a>a3a4bKa&aTa&a&a4asabakaiapaxaPaTbpbdanaxa2a4a&aWa%aCaka2alaQa.bza]a(a&a!a(a(a.aQa&a>a\bda1axa&a>a&a|a(a2a!a!a5a2a5a(a!a!a5a(a.a]a{a&a\a>a^a&a&a.bfbzbda|aGakaraIaVa>a.bga{aVa>bzbLbDbtbDa.aqajaraTaCaAa4a%a\bxbcbjbjbfbja|bdbubDbDbHbIbHbEbLbTbLbtbDbDbubRbCbGbvbvbva~boa3araAaVasahasa{bAbAbHb0bDa&a4a\a}a/a!a2aCakaeaGa}bubAbTbDa&aCamaGbzbfa.bfbjbjbja9a.a.bibja}a}a]a9aAakbfa(alaxaQbEa}a(aWbLa(aUa/a/a(a\a]a/a/a/a>a!a9a!a2aTalasaCasala2a.a\a%a1a4a9aAabaxa>aTa{a]aJa>aTa1a~a^a~bGa^aTbza>adakakamaAaFararapasa$a6aYaNaHaHayayayauauauataqapapatauaDaNb4c#c+c*cjbG",
"a!aCaCapaQaUaBapakacajakaiaiafamamaoa:bebeaPajadaialalajaoa.aTalavaoahacaIa%araVa&a+a>a&a&beb#a.a|bza9a!aAabakaiaxasaPaTbxbfalaxa!a!a(a1a&aAaga2ala1a\bia(a(a2a2a2a(a\aJa&a>a\bda4aAa&a>a\a{a(a&a(a.a!a!a(a(a!a2a(a/a|a.a\a\a^a+a1a>bfbzbfbfa%alamaFaJa1a\a>a>a3aVa|bDbza|btbfaJakanaVaJaxaJa>a\a!a>a]bpbpbhbAbAbfbpbjbubAbAbAbDbHbHbHbDbAbLbybAbRbFbvbvbvbJbFbwboa~aPaAaVaGalakaJbjbububLbTbda%a(bia/a/a!aQasaiala5a}bjbHbObgaJaoala>bpa(a]bubAbfa.a_bubAbfa}a|a&a1anbua.alaxaVbya_a(aQbAa(a5a;aWbObTbububtbpa|bdbLbfa.a.a1aJa9bub7b+bXbLbia4ava1axacaFa&a1a}bjaVa(a{a7a>a>a~bea%a3bLa.aganamaoaPaFavaoapasaYa6aYa$a$a$a$a$aYaYaYaYaNaNaHayaEaBauaQbGcAcYc1bCbZ",
"a2aGaGaJaQaUaJapaladakakajajajamakamaTa~bwa3anajakalanajala!aTanavaoahadaTa{avaVa%a1aIaTaTa7b1a|boa^a7a&axafaiakaCasaIa7btbdalaxa!a&a.aQa>aCaja2anaQa&bda/a&a2a7a&a.a\aQa%a>a|bga9ava>a>a|a{a&a(a\a(a(a.a/a.a!a(a|a{a&a.a^a%a+a&bgbgbibda\axajaraTa%a.a{a:a:a1a%bxbta\a{bia!anakaIa9aCaGa&bdbia|a}bfbfbrbububAbDbrbubDbAbDbAbAbHbHbObTbTbLbObLbAbRbFbvbvbQbZbsbKbxbxbCa+aFaFaVaxajana!bubjbAbVbLa.a2a/bia;a(a5aJapaeapa(bjbhbHbIa.aGaoaCbda|a/bpbubAbEbjbhbja]a/a&aTapa\aWalaCaJbAa_a(aQbya5a5a!aGa]a.a\a(a/a(a!a{bIbia1a1aCaraFa5bubya}a2a4avahaGaAacaCa&a1a|buaVa>a:a3a7a:a4a^a7aIbIa.aganamalaPaPaAaoapasaHaHaDaDaKaNaXa6a$a6a6a6aYaXaXaXaXaHaDaEaUa6a5aHaJaQ",
"a!aJaJaQaUaUaBapakacajajajakajamakamava:a^a1aAamararalajaka4aIaoaramahahaIa%avaIa1aTa1a{b1a|bLa>a7a4a{a\axaiacalaAaFaAa&bgbialaxa!a!a.aVa!aPaia!amaWa&bfa\a4a1a%a.a\a\aJa&a>a{bpa&ava>a^a%a\a%a(a\a.a(a.a/a.a{a\a&a.a&a:a+a4bia|a>a{a|aJajamaTa9a>a|bea^a3a9a|bDbfbga|a(avagaoaVaJaFa9bibibzbfbrbAbAbubububAbLbHbDbIbEbIbEbAbHbObObObObObHbObObHbVbFa~bvbKbKbVbKbIblbFbea~a:avaFaJaoafasa/bhbubEbVbfa4a!a}a]a/a(a2aCakaiaBa]a_bhbTbDa2arala9bfa/a}bjbda\a}bja}a/a1aFaQbLa>ajasaJbAa}a&aQbya5aUa5aBa;a!a!a(a/a!a(aWaWa&aWa7a2aPaJa(bubEa;a4aVavahaAasacaGa%a1a{a|a1bIbzbVbza.a7aTa7aAbfa>aganarakaFaTaAarasaBa<a)a$aYaKaDaDaDaXa$a<a<a=a<a=a<a<a)a$aXaKaHayaDaDaD",
"a2aJaJaJaUaUaCapalacakajahajajajahamaraPa4a3asaoapaoalahama9aVaoavaoaiahaTa&avavaFa4aGava%a\a%a%a{a{a\a{asagahaxaTaoaFa>bia|akaCa9a!a&aJa&aPaia&ana7a\bga{a4a4a9a%a.a|aJa&a>a{bra&axa^a4aPa^a>a.a{a{a\a/a\a\a&a%a&a:a:a3a&bfa^a>a|a4alakava7a>a|bea:a:a:a\bxbra|bia]aGakakaCaTaxaVa\bia7a\bubIbua!aQaQa]bAbLbLa/a!a2a}bHbHbHa}aUaWa5bAbHbObua/a(a>bsbYbYbKa^a&a&bgbKbRbCa:bFa:aPavaTaGajaiaGa}bububHbVbia!a/a]a/a(a5aEapagala2bfbfbEbVbgaCamaxa]bia/a]a}a]a]bda(aAavara2aCahanaWbAa}a5aJbua5a2aWata}a;a/a(a(a(a(a!a5a2a2aVa%a%a%bhbXbXbja!aCaradaxaracaGa%a7a]biaTa7a}biaPa7biaGaFaoa3a>aeaparaiaFaTaAavatata$a<a=a<a=a)a$aXaKaKaKaKaXa$a$a<a<a=a<a=a=a<a$aXaHaD",
"a2aQaQaGaUaUaCapakacakaiagakajakajamavaFa^a7avalasaralajajaWaGaoaxaoahahaVa&aravakaTa>aTaPaAbIa&a|a\a.a{aFasaAaAaoaka3a9bia|akaCa9a9a&aVa&aFaia(ana1a.a|a.a>a>a&a&a.a}aVa%a>a{bta&ava&a7a3a~a\a{a{a\a|a|a&a9a&a:a+a+a%a4bea{a\a>axahaoaTa>a.a{a\a^a4a&bzbubrbfbfa!anahavaQaxaPa&a{a|bza{bDbIa/asaeala5bDbHa/axaiana(bLbObAaWalagatbfbObyaWanalaBbrbVbFboavajara&bKbVa|avaIbDbwa~a4aPaCaQasahala2bjbhbAbHbta\a!a\a/a#a(aWaCanagaqa/bubhbObLa!avamaQa]a\a\bja|a.bda{axa.a]aWakana2bya;a5aQbua5aUaQaCa;a.a(a(a/a(a(a5a(a!a2a3aVa:a3a_bMbSbha.aJavafaxapacaGa!a2a.bia2bgaFa%a>a|a%aoaFara9a&ahalamakaIaTaAamalapaKaDaDayaKaKaKaNaKaKaDaDaBatauatauaBaEaUa\bcbsbwa|a.",
"a2aEaQaJaEaQatapakadakahaiakakajajaoava3a^aTaraoanaranajaka1aJanaAarajafa1a1amaFarahakamara+bVaVa|a|a\a|aFahacanaGaraTa>bga\akaFa!a%a(aTa>aFaka&ana4a4a>a.a>a>a>a>a\a|aJa%a>a{bta%ava%a7a3a+a`a^a{a{a^a7a4a:a+a+a9a|bwa9a:a>aVajajaFa9a%a{a|bea7a7a>bxbzbpbra]aCahalaPaFava7a{a|a{a{bjbta}axaiala5bubVbjaBadaeaGbhbObAa(apakaubjbSbTa(alacana;bSb3buaJaoapa!bLb3bDaIakaiaWbAbxbia^a\a2axaGaGanaiata/bhbubDbIbfa%a.a]a/a5aUaKataiakaDa}bjbAbHbiaJamana!a\b1b;a|a|a2apa4a>aTaoasaWbha}a&aEbja5a2aEaBa]a(a!a/a#a(a]a(a(a!a2aVa3a7a3a;bHbMbua.aJavadasaoacaGa!a4a.bda2bDa&aPaAaoamava3aAa%a%afananakaFaAavafaba!a$aYaXaDaEauauaDaDaKaKaXa6a6a(aKaKauaBaBa3bebYb$cgb>",
"a2aJaxaxaVa&aFanaiadakajahajajamaIaIava3a>a1ajasaoanaoaiaoa1aQaoaAamahaha4a9akaFaPaPaPa+a3a:bLa7bia\a7a>aPafabapa!apa3a{bga{akaBa%a&a/aVa>aFaka&ana4a>a|a{a>a%a&a>a\a|aJa&a>a{bza%ara%beaFa3bva`a:a3aVa%a+a7a7a&bzbibea|a7amaharaTa%a>a&a>a%a1a%a|brbga|a|aWamahaAaTavaGa>a{bgbia\bfbjaCagagaBbjbLbDa2alaiaqa]bAbua!anaiapa;bOb0bjaCaialaQbybTbuaWalaoaVbFb6bTa.anaiasa>bfbDbAbhbia{a]a/aJaxaJaCakakaJa}bhbjbDbta\a%a/a;a#a(a5aDapaiala5bfbjbDbLa&arakapaAa\aWaGaqanalaralakaraVbfa}a!aGbja5a5aWaCa}a;a/a;a/a>a\a(a&a!a2aVaTa3aVa]bEbhbua(aGavadararacaGa2a%a.a]aJbubea^a:a+a3a+a3ava>a4aeanalaiaAamapakaBbEa$a$a$a$a6aXaXaHaDauaBaDaKaKaXa6a;a_bfbca.a4aIaTa+bC",
"a1aFa+bGbJbJaAaoamadamahahakahajaravaAa3a4aVakapavanaralaoa4aValavarajadaVa9amaPa+a+a7a:aFa%b5a&a^a&a:a&aIakacapa(axaVa>btbialaGa!a>a.aVa(aIaja&ana9a{bga\a>a>a>a&a\a\aJa%a>a{bFa4araTbFb5bza^bea>a4a+aVa3a1a\bzbga|a>avafamaPa7a&a&a>a9aVa7a\bdbgbdbia!arajaraIaAaFa%a{a{a|bra}a]bjbja.a(a/bubDbubja}a}a}bAbAbubja(a/a;bhbObHbHbjbfbjbubObHbHbja\a|bwbZbKb1bHbfa}a}bubDbpbDbybybubja}a}a]a!aCaxaGapagapaUbfbhbybta|a4a9a;a;a;a/a5aBanaeaqa/bjbubLbpaTamapaBalana5a#aGapaxasavaTa]a]a!aCbjaXaUaWaBbfbfa;a;a;a!a!a2a(a!a2aTaFaFaIa;bHbabha!aVasadasaracaxaJa1a>a1aGbza>a4a^a^a\a&a3aAa&a%aeanalakavaoasa&a5aqaYa$a$a$a$a$a$a#a6aYaXaKaDauaEaDaUaXa(a/a]a|a#a9aJaC",
"aVaAbGboa~a~avaoakadakahajajafakaoarava1a|aPaoalapapaoajama4a1aoaAarajadaTa7akaTaTaIaTa&a4a{bwaFa3a4aIa%aIakabana(axaTa{bzbgalaGa&a>a.aVa>aCaja!aoa1a\bwa>a>a>a&a>a|a\aJa%a>a{bga%araPaTbebRbza\a:aVaTa3a&a|bgbia\aPaiakaFa7a%a>a>a:aVaVa%bibfbgbfa\aCajamaFaFaAa1a>bibzbia|btbfbjbububrbtbubtbtbubAbAbIbAbAbAbAbubAbLbAbAbAbAbHbObObObHbHbHbHbHbIbIbZbCbsbVbObObHbAbAbAbububybybubAbubja}a;a\aWasaCaCalakaxa/bubhbybia9a2a&a;a/a;a6aUauajaiaEa;a}bubza>axaoaxaJaWaUa2a!a!aGaIaVa]a]a!aqa_aUaUaWaBa}a|a\a]a;a/a(a#a(a(a2aTaCaFaFa;bEbMbua(aJavafasaracaGaGaTa2a7ara!a&a%a&a1aTaFaVaIa\a4aeanalaiasamasaoalana$bababkbababaa=a<a<a<a<a$a6aYaXaXaXaKaNaXa;bcbLb6b6",
"aVavbobva`a`aoaraladajahahajafaiajakava9bwaVaGapaoaranajala1a1anaAaoaiafaTa>avamaoaraoavbza4ava+bxa.aFa7aFakabala.axaTa|bza|alaJa&a.a\a1a>aAaja!aoa4a>bga\a>a\a>a\a{a\aJa%bebibFa4aoaAaPaPaPa3aPa3aTa%bzbza|a{a1amaharaVa&a>a>a&aVaTa4a.bgbsbgbiaVakahavaPaFaVa>bibzbpbza!a&bfbfbdbzbrbjbpbububububDbAbAbDbAbLbAbAbDbAbAbAbAbHbHbHbObHbHbObHbObHbDbDbZbwbKbLbObObEbububAbubububybybEbEbAbua;a/a#a(aBasaJaxakalaQa_bhbubua{a9a!a/a;a}a#a(aEapagapaUa;a.a]bwa&aCaJa!a;a(a!a&aFaCa1bja;a!aBbua5aWaEaBbfa/a;a;a;a;a/a#a(a5a2aJaFaraGa;bybEbaa&aGavahasapabaGaGaQa]a(aGakaAa\aTaraoaravaVa|a9aeapapagapakaxasapapa$a<a<a<a)a=a<a$a$a$a$a$a$a#a6a6aYaXaDaEaDaDaEa!a\bc",
"aTaoa`a`a~a`amaralacahahahajahamalaraIa%bga4a1anamanaoajama1a1anaAarakafaGa\a&a&a:a^a1aAbCaPa{bKbIa.aFaVaFakacaka(aCaIa>bzbialaJa&a{a\aTa9aAaha&aoa7a^bia^a^a&a^a&a|a>aJa&bebebga|a>aPavaAa3aPaTa3a\bFbga|a&avafakaFa4a>a^a&a7aTa1a%a{bgbibga&arafaoaFaAaFa+a\bebdbibzbga4a2bibfbjbzbfbfbdaBbzaGa&aWa!a!a2bfaQbraJbLbuaQa]a2a.a!a2bdaBbAbHa]aBa2bLbjaIbsa\aQa!bjaJaUa!bububububybEbybybybEbya_a(a#a#a5aqaxaGanaeapa!bjbabAbfa9aVaUa/a;a#a!a5atalagaqaVaQa.btbwa4aVa9a&a2aTaVa\a.a_a;a2aCbuaXaJaUaBbfa_a;a}a;a;a/a;bDbfa2aTaCaoaxa(bubMbha!aGasahaxaoacaGaGaVa!a2a\aQava>aTa1a1a+a&a9bpa2agasapaganakasasapapaKa6aXaYaXaXaXaXaXaXaKaXaXaNaKaUaKaKaXaKaKaKaDauatat",
"aVaobobJa~a`amarakacajahahajahaoamaoaVa{bsa>a4apaoaoalahala2a1amaAaoajafaIa.a\a>a&a+a3aAa\bebpbVbDaVaFaTaFakacagaWasaFa|bzbialaGa.a{a{aTaVaFaea!ama7a^bwa\a>a^a~bebea>aGa:bea\a:b1b*b#bKbFbca9a9a|bwa|a>aIakafara3a%a&a:a3aFaTa4a.bgbwbga{aFajakaAaFaAaPa+a^bibga|bgbpbza&a9a|bdbfbzbfbpbdana&apaWaCasa.a]a|asa(apbLbHaGaQa]asa]aCa!anbDbHbHasbfbTa/asbiaVaJa}bfapaWbubAbubjbubAbybybybybEbHbEa_a#a#a#a#aEaqaCaCalaiata/babybja/a1aJa9a(a(a!aUaBanagakaBa5a/bfbIbga{bcbFbDb|cfbTa#a;a5atbyaUaEaUaGa}a\a]a;a}a;a;a!a.a|a4a4a4avaIa;bubMa<a2aQarahaxanacaCaGaCaQa/a}a.a&a.aJa9a|a\a9a\bAa5agapapaganajanapapapa$baa=a<a<a=a<a$a$a$a$a$a6a6a$aYa6a$a6a6aYa6a6a6aXaK",
"a3ava`a`a~a`ajavaladahahahajahamamamaIa\bga4a9asalaramajara.a.amaoamajadaJa{a&a\a>a4aPava9beblbIbpaFaAaVaFamaoapbfa}aFa4bFbgalaGa>a|a\aTa1aAara|a&aVa\bea>a^a^a^a^bea\aTa:bea^a^a^bebKb1bVbFa^bCa|bea1arasaxaAaTa+a:a+aAaIa1a%a|bgbza|a7aoajaraFaAaPa+a^a|bFbzbia|bgbzbxa\a.a{bfbxbpbgbfbiala/apa2aGaJa2apa!avbdapbDbLa.axbHaxa!axa(ana/a}bLapa}bAaCaQaWa(aGaGaWapaQa/bubAbubhbubybubybybybEbybya_a}a;a;a/aXaCaqaBaxakalaEa_bubybta(aVaQa4a9a(a2axakaxalanaUa/a/bdbpbtbLbTb#bza!a;a}a5aBbyaUaUa5aua5aUaUaUa#a(aXa!aWaUaUa1a1avaJa;bybEa$a2a&anadaxanacaCaGaCaWa/a]a/bda.aTaIa1a.a;a]bha5agaqasagaoalaoapapapaXa$a6a6aYaXaXaNaXaKaXaKaKaNaKaKaKaUaKaKaKaKaXaKaKaK",
"a3ara`aIaAavaoasakacahafahajajamaoaGa7aTbga>aJapamaoamajara.a|anamamahadaIa{a&a.a.a&avara1a>bIbrbzaVava7aPahabada9a{amama:a|akaGa>a|a{aTaVaAakaJavaVbea{bea&a:a^a~boa\aVa^bea^a:a~a:a^a^a~a^bobFa^a\bta{a\btb#bga+aPaFaVa%a\bgbia|a^avajamaAaAaAa+a:a{bwbzbzbibibga|bdbza{a\bdbpbubxbrbjbfa&a}a.a}a|bra/a/a}a]bta\bAbDbja/bAbra/a]bua(a(a]bAa/bububfbAa}bLa]a/a}a/a(a(bubybubhbybybybEbEbybybEbybhbhbja<a;a#a;aKaxataCapagapa(babubja}a1a1a7aVaVbib#bDa%a/a}a(a(a6a;a$a#a(aJa5a;a$a<aXaDbEa(aKa#a(auaqaqapaqaqaqapapaqaqapaiakanauaDa$aHasanajakaCapacaCaCaCa2a]a}a_a}a9aTakasa\aWaCa;aUagapapagamalaxasapanaKaXaXaXaKaKaKaKaKaKaKaKaKaDaKaDaDaDaEaDaEaEaDaDaEaD",
"aTamafajaraIaxasakabahahahajahagamaCaIaTbFaVaparamaoalajara&a>amamamahafaJa|a.a>a&a9avara>bLbga&a\a&ava3aGahacabaWa/ahaAbea^akaJa\a{a^aTaVaxaiaWara:bebCa^a^bobobCbJa1a7bebea~beboa~bobebobCbea:a+a+bzb*b`bVb/b}b3a1aVa.bibea|beaTakakaAaAaAa3a:a^bebFbia>a>bibia4bia\a>a{a\a.a&a(bia/bda>a/bfa.bza{bububDbda/a.bfa2a2a/bDa]a]bAa]bua]bfa]a/bua(a(a/bfbda;bubAbAa}bjbHbfa/a]bua]a_bya;a/a;bua;a;bhbfa;a#a_a}a$a;a;aKasaCaCalaiaBa$bababfa(a!a%bLb*bLbjb%b-bOa;a#a$a(a6a<aDaKa$a<a=a=a;aqa<baa_bababfa}a;a;a}a;a;a(a;a/aUaBaialaiagacanaqatanaiaqaCanaeaCaGaCa(a;a_a_bfbjaGakapa&a;a}bjaKagaqapagaoaraCapapanaNa6aXaXaXaXaXaXaXaXaXaXaKaKaKaKaKaKaKaEaKaDaEaDaEaE",
"aVakahaoavaVasasakabadafahajahajaraGaVa&beaAaJaoakaoamaiara^a>amaramahahaIa{a>a&a&a:aFava|b3bia/bia\aFa7aPafamaGa9a!aTaGa{a{aiaQa{a%aVaFaTaIahaJaoa:bea~a1aTa+a+a:aPaPbCbebobobea~a:a~a~a~a~a+a`a~a`aPa`bVckb{b3bIa9bebwbwbCa1aoaharaFaAaPa^a^bebwbFbza3aGa%a|biaoa!a%axa7aGbgana>a!asaTa2aCa\axaJaGbfbgbuaJasaQa}aiaGa}aWaQa/bdaxbfaxa2aJaBa!anaGa]aWaGaBa2bAbyaQaGbEaqa;a(a(aBa/a}apaEa]a/apaQbjaEaBa5a_a_a<a;a<a;a5aBaqaBapagana5babababja&bDbubVb+b%bka<bka=a<a<a)a<a$a=a/aua$baa=a6auaKa6a$a$aYaYaNaXa6aXaKaKa5a5a;a5akalalaiacauauatapakanapajaeaCaCaCa(a;a}a}bhbjaCapaUa/a}a$a}aWagapanalaFavaGasapanaKaXaXaXaXaXaXaXaXaKaKaKaXaKaKaKaKaEaKaEaDaDaDaDaEaD",
"a1akaharaAaJaranajabacadafahahakasaAavaVbeaFaVapaoaramafara^a>araoakafafaFa%a4a4a:a4aFava{bVbjbjbua/aPa7aFafava^a&ara4a7a>a{ajaraAavaraIa|biaWa(a3a7a&a:amararaAa3a:bCbCbCbobea~a~a~a~a~a`a`a~a`a`bobva`a`a~b(b#a^bebCbwa%arajamaFaFaFa+bea^bebwbwbFbzaPa1bibFaTaxaxa>araQaAbzana|a>asaGa&aTaWaGasaQa|a{bra/a2asa(ana2buaGaQbfbfaxbfaCa2aQaGa(apaQbjaWaGaQaQbOa(aBanbjanbhbua2aBbja]alaJbfbfa5aGaUa}a5aBa/bja<a;a(a}a6a6aQatataBalaiata;bababja}b#bLbabaa=bka=baa=a<a$a=a)a=a=aMa<baa)a=a<a$aUaHaDaEaEanata#a5aKaWata/a(aUalapaqagacaDaUanapanalaiagahaxaBaCa(a}a;a;bybfaCaJa/a#a(a#a;aEaiapanasa4aAaxapapana$baa=a=baa=a=a=a<a)a<a)a$a$a)a$a$a6a6a6a6a6a6a6aYa6",
"aVamajamaraxavapakacacadahahahalasasava3bFa3a1asakaoajafara^a\amaoamafahaAa&a&a&a:a+aFava|bVbdbfbza{aFa3aAada:a~a>aFbFa7a\beakaTa7a+aAaFa:a:a3a:a:a~a|boava3aTa3a+a~bQbCbwbCbobobeboboboa`a+a`a+a+bva~a+a3aPa`bebFboa&aFajakavaFaAa3a~bCbebCbFbwbwbFbza^aVaTa>aTa\aTa|aIaIa4biaFa|a|aVa\a1aVa/aCa|a2a|a/bta!a!aJa\aBaJa!a/aJaGa]a(a(a(a/a(a/a&aJaGa9a5aQaQa]bEaUa/aEa}a5a5a2a}aJaQa/aBaGaUa;aUa5a5a/a5aUa#bja$a;a(a6a;a#a#a6aEaqatatalalaua;baa=bia!aGa]bkbka?a=byaYaDa<a=a=baa=a=a=baa=baa=aUa5aXa#a;ataEa_a$a6a(aBa;a(aKalaqaqalacaDaUaqaCaCasaoamakaxaBaCa;a;a}a;bubhaCaJa(a5a;a_bjaEaiapapasa%aFaJapapapa?bWbWbWbWbWbmbmbmbMa?bMa?bkbkbkbaa=baa=a<a<a<a<a<a<",
"aGakaoaxaGaGaCaoahacadajahajahakararaIa&bZa+aQaranamakajara^a&amakakadafaCa.a%a%a%a9aPava\bLbzbzbra}aPaVavacamaPaIavaraTbibeahaoavaoaoamaFaParaAaPa~bCbwaFa+a`a`a`bCbQbCbCbCbCbobobobCbCbGbvbvbvbJa`a`a3a+bCbQbQbeaIamajaraPaAaPa`bebwbCbwbFbCbwbwbFbCbwbwbFbgbwbibFbzbgbibia{bibfbwbpbzbga|a]bdbrbtbubfbdbjbjbtbubfbfbfbjbfbjbfbfa}bubAbAbubububjbhbAbubjbfbhbDbubLbybAbubhbubububAbybybjbubabubybybhbabha_a;a;a;a;a;a;a$a#a5aUaxataGaqakakaDa}bkbka}a5a$babkbka)a)a=a=baa,a=a=a=bka?a?a=a=a$a6a$a<a_auaQbha$a6a/aEa;a(aWalataBanacaQa6aQaGaGasaoaoanaCaxaqa/a;a;a;bAbAaCaQa;a}a<a_bhaEaiapaparaVaIaxasaqaqaYa)a$a$a$a$a$a$a$a6a$a6a6a6a6a6a6a6a#a6a6a6aYa6aXaX",
"aCaIaJaCaAaoajahaeababahahajaealaCaFaTa>bZa+aGaoakamamajaoa~a^amamajacadaFa&a9a4a:a:aIara:bRbzbga&a|aFaVavacafa1a>a\aPa3bwbeaeasaPaPaIaoaTaTaoa+bva~bCbFaFa`a~bGbJbJbYbJbCbCbCbCbJbCbJbJbQbJbJbJbJbva`bobCbQbwa+aoajamaFaPaAaPa`a~bJbCbCbCbebCbwbwbwbwbwbwbFa%aPaFa7axa7aFa>aTaTa9axa1aFa1asa1a.axa!aCa|axaCbiaGa!aCbdbdaCaWa2aQasaQa}bubuaCa]a;aBa2a!aQaJa5bfaGaUa!bya}aBaQa5aWa2aWa}aEa5aUaWaUata;bhbhbha_a;a$a(a5a;a6a;a(a5a5a5aEataBaCanagapa$a=babaa%a:a5a/a$a=a,bka*bbbka*a?a*a?a?a=a=a}a$a<a<bhaDaDbha<a;a;aGa/a/a5akaxaBanadaEa5aJaEaFaxarararaxaxapa5aWa/a;bra]aCaQa#a}a_a_a;aJaiananapa7aIaJasaqapaYa$a<a$a)a$a<a<a$a<a<a$a<a$a$a;a$a6a6a6a6a#a$a#a6a6",
"aIaxavamaiamasaCaxalahabacahafanaxaGaTa>bZa+aGaoajamamahaoa~beajajafabadaFa&a4a%a:a:aTara~bRbzbza|a\aIaVavacacalaramaFa%a{a{ahaxa3aTaTara3a+ava`bobGbCbQaAa~bGbGbYbYbYbYbJbJbYbobJbYbJbJbYbYbJbYbYbYbJbYbCbQa\aoajaraPaAaPa3a`bvbCbCbFbCbCbCbwbCbwbebwbwbFbFaVaFaGa4ava4aFa1aVa1aCaraJaFaJara.a|ana2asbDaQaJbDa!ana(bja]apa]asaJaqa]bhbua(aCaWa]axaQa2aGaEbjbyaUaJa2bua(anbjbfaqa;aCa5aCaUaUaUaUaBa;bja_baa_a/a(a(aWa5a/a5a2aQaWa5a#a#aEaqaGapaianaWa<a<bia:aPaPa5a}a?bbbba*bBbbbba*bbbbbka,a<a$a<baa_auaUa}baa$a;aBa#a;a(akaxaJanaeaQaUaxaGaFaCavararaxaxapa5a/a;a;bfbdaCaJa(a/a#a;a}aEaeananasa4asaxaqaqaqa$a<a$a$a$a<a<a$a<a<a$a$a$a<a$a$a<a$a$a6a$a#a6a6a6a6",
"avamakanaIa4a&a(a9aJaxalababacaoaxaGaVa>bZa`aCaoakajajafara~a~aoakahabafaFa>a4a9a+a:aTarbebRbIbtbza.aTa4aAafabalarajaAa:a{a&ahara3aTaPavaTa7ava`a~bvbYbZbFa^bvbGbJb,bYbJbJbYbYbJbYb,b,b,b,bYbYbYbYbYbYbobobFa|amaka3aPaPa+bvbvbvbCbQbCbCbwbCbwbwbCbwbwbFbwbwaVaFbFbgava\ara1asaGaQara&bgaJara2a.apa.asbraJaCbfa}ala}bja}asa2aCaJa2bubjbjasaWapa(axa!aBaBaGa(bfa2aWanbja/aqa!a5aEa2ata5ata/aBaUa5bybha<a_a_a<a/aXa2aWa!a!a5a(aWaJaQa(a#aUaBasaJanakaQa=bkbza:a+aPa:a\a,bSbbbBbbbbbba?bbbba*bbbka)baaYa!a|baa_a=a<a/aqa(a_a(alaxaGanahaQa;aQa5aPavaoavaoaxaxapa5a}a;a;bubraCaUa;a#a#a;a;aEagananapa(asasaqaqapaYa$a$a<a<a$a$baa$aXa$a<a<aYaXaYa6aXaXaXaXaNaXaKaXaK",
"asaVa&a&a&a!a9a&a(aQaCanabababalaoaxaTa4bZa`aAaoakahahafara~a~arajadabacaFa>a7a%a+a+aVaoa~bZbzbFbxa{aVa1aIajacakavamaVa7bea%ahalaPa3aIavaPa+aFa3a+a+a`bGbRb6bwa:bJbYbYb,b4bYb,bYb,b]b,b]b]b,b,b,bYbYbJbJa~bCbdalaja3aPaPbvbvbva`bobobobCbobCbCbwbwbFbCbea^bea^a^a|bCa&a\a%a>a9a&a|a&a\a.a.a4a1a/a.a|a(a]a(a(a|a}a.bdbfbfa]a.a}a]a}bjbjbfa/a_a/a]a;a_a]a]a(a(bfa;a/a}bjbja]a;a}bfa#a}a_a/a}a#a;a;a_a_a<a_a}a;a;a#a(aUaVaGa4a!aXa}a;aKa!aQaWataWapalaJa$a<bja(a+a+a`a+aXbaa8bBbBbBa*bBbBbbbbbbbba=a(a/bMbMa)a$baa)aUaxa/a;a5akaraxakagaUa}a1aVaFaraoavavaAaxasa5a;a;a;bfbdaCaUa#a#a;a;a_aEaealanaqa]aBaqaqapana$baa)a$a6a<a<a)a$a6a$a$a6aXa6a6aXaXa6aXaXa5aXaXaXaX",
"a|bcbjbsbda|a.a1aJaCasanabababalaoaAaAaTbYa+aoaoamamajafarboboaoamadabacaAa&a7a7a:a:a3aoa~bQbFbFbza|a7a%a%aVajagasakaAaVa4a|avadavaVaTavaFa:aPaPa3aPavaoaFbvb!b!a~a:b,b]b]b,bvb,b]cacacacacgb]b4b,b,bYbJbCbCbiakamaTaPa+a`bJbGbJbJbJbCbCbobobebCbeboa~a~a+a+a`a`a3a+a7a4a^a^bea^a\a{a.a&a.a.a\a\a]a{a]a/a]a]a]a]a]a]a]a}a}bfbfbfbjbfbfbfbjbfbja_bjbfbjbfbfbja_bja_bfbfbfbja_a}a_a_bfa_a_a}a;a;a;a;a/a6a;a;a;a}a6a/a(aVaFaFaVa5a;a<a6a!a(a5ata1asala2a}aXa!a(a3aPaPa3a2bfbBbBbBbBa*bbbBbBbBbba$a5bEbMa<ayatauaXa$aUaBa/a#a(alaramafaCbda2aFavamajamaFaTaTaGaCa/a;a/a;bia/aCaWa(a#a;a;a;aEagalanaqa_a6aBaqapaqaLa$a<a<a6ayaDaKaXaKaEaKaKaKaKaEaKaKaKaDaKaKaDaDaEaD",
"bfbca]a/a9a4aQaIasasaxanacababalamaCaFaTb.bvaramajafahafarboa~aoajahacacaAa>a+aFa+a:a+aoa:bFbRbFbtbRa\a{a\a^a4arapasajaAaJa.bza4ajaoaTava+a~aPa+aoajamaoamajaPbJbVbRa~bJb]b]b4cacgcacgcacgcab]b]b]b,bYbGbJbQa>alaoa3aFaPa`a+a`bva+a`bva`a`a~boa:a~a~a:a3a:bwbzbzbxbtbwa7a+a:a+a`a:a:a9a9a4a>a\a.a(a&a&a.a]a}bga]a]a]a]a]a}a}a}a_bfa_bda_bfa_bfa_bfa_bfa_a_bda_a_a}a}a}a}a}a}a;a;a}a;a;a;a.a.bubtbDbLbVbua]a(a;a;a(a#a!a2aQa!a5a5a(a5aQa!a5ata2aCaraWa_a/a<a(a>a3a+a+aUbhbBa0bBbBa*a*bBbBa=a$bfbSbkaHatatauauakala#aWa;a(a!alahama(bDa.axaoaoamavaTa4a&a%aQa&bja}a}a]bga]axaUa#a<a;a;a;ataganapapa;aEataqaqapa?bMa=aYa$a=a<aHauaEaNaXaKaKaXaXaXaKaKaXaKaDaEaKaKaE",
"a]a.a4a1aVaIanaiajaxasanacababakamaAaIa3b.bvavajadaiafacara`a+aoajajadacaFa:a:a:a:a:a+araTbFb!b5b5b*b)a|bia{a\a\axaxaraeaAaVa&bubVaGajavaTbea+boa&avaraPa3aPajajaPbYb/bsa`bYcucgcGcucab,cucgcacab,b2bobGbYbQaVavaPa3a+aPaPa`a3aPaPaPaPa3a+aPa3aPa3aPaPa3a\a|a]bibfbjbcbga+aPaFaPa3a3a+a+a+a%a7a1a9a4a9a>a&a&a(a.a/a.a\a/a]a/a]a]a/a;a/a]a/a]a;a;a/a]a]a]a;a]a;a/a(a!a(a!a!a(a.a(a9a9aVaTa4a&a{a.a\a}bja|a>a4a!a!a5a5aUa2aUa5a5aUa2a5aQaGaGaWa2aFaraCbabaa\aJaBa2bya$aQaUbbbBbBa0bbbBbma)bjbXbmaYatauazaHaEauasaWa]aGaUa(axacaCbHbLa5aPaoakamaAa4bibtbia>a]bLbEbubhbta}a2aqaXa;a<a_a<a/aBaialanaqa(apaqataqapa?bmbmbMa=a6a$a<baaYauauaKaXaKaDaKaUaXaKaEaXaUaHaEaE",
"a4a1aGasajafafalaxaAaxanacababalaoavavaTb,bvaAamacadafadara:a:aramajahacaFa:a+a+a+a+a+aAaoa^bVb/b/b|ckb~bga|a|bgbfaQaAakacalaIaVa|b0bxanafaPbea:bFbRboaPa3a`a3avamaobGb.b/bFb2cgcgcab,b]cacab]b4b,b,bYbGbYbZa:aAa3aFbebKbCa~bobva~a~a~a~a~a~bobJbCa+aAaIa{a|bibibibeaIa9bgbFbFbwbwbwbFbzbDbDbububububIbAbubDbDbDbAbLbLbLbLbHbHbHbVbHbObHbHbLbybAbAbLbLbAbAbAbAbAbDbAbDbDbubIbLbLbDbubza|a1ava\a|a|a|a|bfaTaTa\brbhbda}a]a}a_a_bfbfa_a}a}bra(aAaFaxaVa<babiaPasaxa=bka(aCaZbmbBbNbma$a;bUbWa=auatayazaUaDaxa2bubDa(a5aWanaia]bXa;aTaBaraeaoaQa]btbpbia\bpb)b)b0bObDbja/ataEa;a6a;a_a#a#aDagananataYauaEaqaqaqa?bMbka?bmbSa?a)aYa<baa$ayauaDaKaKaDauaKaKaKaDaDaKaK",
"axanacacalavanaoapasaxanacababanaoamamaAbYa`avamahahahacara~a~aoamajafacava:a3araraPa3aFaoaFbob=cncncfcQcIb0a{a.a!a]a\aJavaiadaraJaVbjb3a(agama3a^bob1b!a+avaPa`a`aAakaPb2cgb/bwbGb4b2bGb,b4bJbvcacgcab,b]b]bFbVbFbeaIaTa4a9a4a4a4a%a+a9a7a:a%a&a>aTava:a&b3b#b#bga|bzaCaGa>a/a{a/a.a/a/a/a/a{a\a]a/a{a]a]a]a]a]a]a]a}a}a}a}bda}bfbfbfa}a}a]a}a]a}a}a}a}a]a]a}a}a]a]a]a]a]a/a]a]a}a}a|a1ava>a4a.b)b(b)bfa\aJa1a.a.a(a(a&a(a&a!a!a&a(a&a2aVaFa4a|bAbpbha;a{a:a7aFaybka?aYa*bbbWaZaXbAb&a?azauayaza(aNaCaJbDbTa_a(aWapadaJbHbhaQaCasakakaCa/btbgbia.a|b7cfcfb|b;b(bAa(aGata(aXa#a}a;aXa#aBagananaqa)ayaEauaqaubmbmbka?bmbmbmbmbka)a$bkbma=aYaNa6a<a$aXaYa$a$aXaKaX",
"acaeajamaoaAalalarasaxapacababalakaraFa3bva`avajahahahacama~a~amajamafacaoa:aTaoaraPa`a+a+araPbob*cvckcIcIcIcwbLa>a4a&bda.aIanafakavaIa4bDbTaGaeava3a~bob1bFaPavbvbGa+amaoaPb,cgb5a~b4cab,b4b2cacgcab]b4b,b,b,b.b}chb#bxbgbga|bcbgbjbpbtbtbububDbDbga:aPa3a%a>a7a|aTbjbzbTbLbTbLbObTb0b0b0b0b0b#b#b9b#b9b#b%b(b%b%b)b)b%b)b)b)b)b#b%b(b%b)b)b%b)b%b=b%b%b)b%b9b7b#b#b#b#b#b#b0b#b#b#b#b1a]a>ava>a/a|bia!a1a|bfbVbLbIbLbLbVbIbIbDbIbIbLbDbDb3b\b?bka<bka=a6a<bjaKaBa6bbbBbBa*aKa_bWbmaMauayaMaYaMaQaBa|b1bya(a!aCadatbjbuaWaBaFanahaoaWbjbDa{a4a\bMcocqcocwcfb{bLa5aBataKa6a6a6a}a<a#a#ataiaqanauaYaqauauaqauaLbbbBbWbbbbbbbbbmbbbWbbbmbWbbbWbWbWbmbmbmbmbmbmbkbm",
"akamakamalamahanaGaAasapacabacakaoavaAaFa+a3avamafahafafara~a~aoafahajacajaTa+aFa`a+a3a`a`a3arava+b!cvcvcMc2cOcOb~bRa\a7a#bsa&asakadakaxaGa>bObpasagaPa~a`bQb5bCaPa3a+aPa+aPara`b.b.bwa~b,cacacacucabvbvbvbYb,b,b4b,b!bFbCbwbwbFbFbFbubRbDbzbIbzbzbea+aAa:aFa3aAa^a7a4a>bDbIbHbLbHbHbObObObObObSbTbSb0bSbXbXbSbXbXbXbXbXbXbXbXbXbXbXbXbXbXb7bXb7bXb7bXb7bXb7bXbXbXbXbXbXbXbXbSbSbObHbHbua!aQaGa|a>a&a7a(aGa2a/bjbubfbAbHbEbEbEbEbHbEbjbfbubya<a6aXaYa)baa)a?bkaMa$a?bBbbaXa(bkbMaLatanauayaYaQaCa(bVbEa;a(aBakala;bEa/aDaAaragakaxa\bHbja{a|bub\cIczclcfcfb\buaEaqaCaXaXa#a#a#a#a;a(aUalaiaqaqaqaLatauapanalalauaZa*a?aZbka?bka,a?bka?bka?a?a)a)aXayataqaDaKauat",
"amalakakamaxaJaIaxaxaCalacabadalamaAa3a+a`a3aAajajajahadavbea:aoahahajahadajaPa3a+a+a`a`a3a3a3aFaoara`b/cycQcOcMc2cfb*bsa&a1a\a/a7aAajadalaxaVa{bHbcaoama+bJa~bZb5a~avava`a+aPamara`b.b.bwboa~a`bJbJboa~a+a+a~boboa~a:a+a3a+a%a7a7a+a&a:a:a&a^a:a:a>a3a3a~a+a+a3aTa^a7a4a%a&a(a>a.a.a/a\a]a\a{a\a\a]a\a]a\a]a]a]a]a]a]a]a]a]a;a}a]a]a}a;a]a]a]a}a]a}a]a]a}a]a}a]a]a]a]a/a/a\a\a]a\a/a/a.a.aGa4a\aTaVa&a&aWaQa!a9a&a(a.a.a.a/a&a!a&a&aVaJa2a!a4a1a9a!a!a!a!a(a;a/a=bkbybabmbUaMauaqazauatasasaQbLbEa}a#a5anagaUbEa}aEasalasanaxaQa]bua{a&a;b7cIcFcqctcob~bHa5aCaqauaUa6aUa5a#a#a(aXaKalagalaqaqauaLauauauauauauayayawaRa8a*bba*bbbbbbbka?bka,aYaXa$a)a<aXataqaDaX",
"akajaraIaQaJaAarasaxalabababamavaAa:bZcjboa+aPajahajahacara%beavakadahakafafajaPaPaPa3aPaPaPa`a`aPavavaPa`b}cQcVcVb|b(b=bRa.a1a1a|a|a1arahafamaxaVbibTa&ajaAbvbobCb!bZaParava+a`aramaPb4cGcjcgb.b.b.b.bZbZbZbZbZbZbQbZbFbFbwbibwbzbzbzbDbzbDbzbDbDbga^bea~a~boa~a+bebjbibfbububIbLbLbOb0bXb0bTbXbXb0bXbXb7bXb7b7bXb7b7bXb7b7bXb7b9b7b9b7b7bXb7b7b7b7bXb7bXbXb7bXb0bLbObTbSbObObTbXbXbObAbda!a4a>a&a&a.a9a9a(a/bfa_bAbEbybHbObHbEbEbEbMbMbEbybMbObMbMbObhbEbSbSbmbSb&bNb&bbayauazaMaMaCapaBbfbOa}a#a#axaeaBbfbhaUapakaGbua}aJa/a}a]a4a!bub^b~cfcfcqczbUa#aBatauaJaXa(aXaXa#a(a6a<aUalaiaialaqapataLauauauazaLaLaRa8a0a0a0a0a0a8a*bbbbbba*a?a?bka?a=a6aYa$a_aYaBaq",
"asaVaQaCararaCasakacadacabaeavava+a~bQb6bCa~avahahajahabahaTa^a3aracadahajahahafavaPaPaPaAaPa+a3a+a`a+aPaPa+bZckcMcQb)bwb(b#bga%a>a{a>a&aIaoahajamasa1bpbuaJajaPa`bGbCb!bQaFaraPbvaPamaocacucGcab]b4bGa`bGa~b2bJbJbJbJbJbGa`a+a`a~a`a:a+a+a+a%a:a1aIa:a+a:a+a~a:a~a+bxaTaGaVaQa2a2a4a2a!a!aQaWa2a!a!a2a!a5a2aUa!a5a2a5a!a5a!a(a5a(a(a(a(a2aUa(a/a/a!aJa(a(a5a!a!aIaraJa2a!a9aWaQaUa5a2aQaGa.ara1a4aQa4aGaIa|aEaEa5a6a(a5a6a#a$a;a<a<a<a$a}a#a<a<a_a#a&a;a5a;a?aZa,a?a?a,anaqaZa$aYaDasa&bkbEa<aKaBaiana/bja5apafasbjbua.a2a;a]a(a!a|bXb-b\b~cfcbb9a/aKaqauaUaXa#a5aXa5a5aUa#a;aEalaialaianaqaqauaMauauaqaqayaRaScic!c-c!cBaOa0a0a8a8bbbbbbbmbmbmbMbmbaa)aXa6a<a$",
"aGasasasaxapaiababafagadajaraIaVa:a&a`a~a^a3amafajahagafabakaTa|bwavacafajajahahafajavaPaPavaPa`aPa`a`a~a`aTaPbvb6b}b3a\ckcvb=bVbFbea{a%a9a1aIa1a1aramava9bsbgarahaFbGbGbFb!bvarararaPa3cab,b]b2bGbvavaPa~ara+a+bGbGbGbGboa3bvboboa`a:a:a3a7a4a7aIa>chb{b_cecfcfcfceb}aGaJaQa1a4a4a9a!a!a(a!a!a&a!a(a!a(a!a!a!a!a!a!a(a(a(a(a/a/a/a/a/a/a5a(a/a;a/a2aGa!a(a(a!a9aCavaFaIa9a2aTaGaQa9a2aQanb^cfcfcfcocccmcmcybhaDaUa(aXa(a#a;a#a#a<a_a<a;a#a<a_babhaKasa;aUaCaQaqaxaparaxatauaDaXaJa2a<bybMaYaBaiaiaUa}a(axafama\bIa.aEa!a]a/a4a\b|cfb~bDbDbIbMb#aEapataHaXaXa5aUaXa(a5aXa#aUapakalalaialalanaqauauataua,aLauauaLa8a[cBc-c-c-cBa[a0a0a8a8a?bbbma?bkbkbkbkbka<aXaX",
"apaxaCaoaeabababafakaraFaVa1a9a&a4a%a%a3a+aIajajajahajajaeabajaFbwbVa&amadahajahahahafakaPa+a3a+a+a`a`a~a~a~a3aPaAavbCbsb/b*b~cNcwb#bwbea9a9a&a1aIa1aIajaoaIa\bsa.akama+bGbGbDbZb,bJb2bGb,b2b2b4b2bva`aPaFa+a`a+bva`bvbGa~aPa+a`aPa3a+a+a1a1a+aVaAaPbubDbDbVb1bVbVbTbuaAaIaQaIaJa9a4a9a&a!a!a(a(a&a!a(a&a(a(a(a(a(a(a(a(a!a(a(a/a(a/a/a;a!a(a#a/a/a/aJaJa1a!aVa7aFavavaFa9a1aTaCaIaVa2aJalbdbSbSbXbUbUbUbSbUa/aBaUaUa5a5aXa#a#a#a;a;a<a;a6a_a<a<a_a$araoavaraAaPa2aQaCa&a=bSbka=bAbyaYa<aXaiadaJa}a/aJakaja9bDbiaBaJa(a(a1a4bIb{b~cfcvb~b(bhaBatanauaYa$a!aEaGa(a5aXa#aXaxaiaianalaialagalaiaqauayaDaua=a*a*aZawawaZa0aOcsc!c-c!cBa[a0a0bba*a?a?bkbkbabkbkbybaa<",
"apakacabadadaeakaraIa4a>a{a\a9a4a4aVaVaFaTaoafahahahafahagadabadara1bFbsaFahafahakahafafahaoaPa+a`a+a+a~a~a~a`a`aAamara~b5b*b/b=ckcnb}bRbea%a9a1a4aWaIaAaoajara1a|bwaVahara3a`bGb,b,a`bvb2b2b2b2bGa`a`a+bva`a`aPa+a+a`a`a+aPbva+aPa3a3a3a3aTa3aTavava^a:a&a&a^a%a4a:a%avaGaJa1aVa2a4a9a!a1aJa!a9a!a&a5a!a(a!a(a5a(a(a!a(a&a(a(a(a#a/a/a#a&a2a2a/a/a(a!aIaAaVaPaJaFaIavaVa7aIaVaTaJaIaWaJakaWa#a/a#a;a(a#a(a;aKaEaWaWaUaUa5a5a(a(a#a;a;a#a;a;a$a#a6a;aJaxa3avaEa(a<a#aUaUbaaNa6bka#aKaQapadaxa}a]aQapahaJbVbLa!aGaEa(a9aQbfb^b~chb^b^b)bHa6auatayaNaYa/aKaBaJaEa!aXa5axakaialalalalaiaiaiagaiauayaWaDaya<a=a,bba*aRawaLaSa0a[csc!c-c-cBbna8a8a?aZa)bkbkbkbabababa",
"acadafahakaraIa&bca{a{bgbca.a1aIaFavaFavajadajajahafafafahaiahababajara3a\a&avafahajahafafafajaAa+a`a+a`boaPaPa+a+aAararaPbJb5b6bCbVcjb/b3bFa&a%a4a9a2a4aIarahamaAa1bgbgaFadavbva+bGb2bvaPbvbGa+a`a`a`a`bva`a`bva`a+a+aPa`a+a`a+aFaAaPaPaPaFaTaFaraAa+a:a^a&a^a:a7a7a7avaGaJaQaTaWa2a4a9a4a2a2a2a2aWaCa1a(a!a!a!a!a!a(a!a(a!a(a(a(a(a.a(aVaJa(a/a(a(a(a1aFa%aFavaFaIaJa9a9a1aTaraFaIaJaGakaWa5a/a/a;a;a;a(a5aJaGaQaQaEa2a5a!aXa(a(a(a(a5a#a;a/a/a(a!a1aGa7aTaWa5a!a2a!a2a/aGa2a\a4asaeana(bja2axakala{bta/aJaBa2a(a9a.b0cccfb-b;b(b#baayauauaMa)a$a)a<aDaraCaUaWaxalaianakalanalalagagaealaza5aQaBaDbaa=a)a)a,a?a*a*aZawaLaRa0aOcic!c!cBbnaRaLaZa)a$a$a=babababh",
"afafajaoasaAaAaCaVa>bza|a1a1aJaFanajamaiafahaiagahafadacacaeaeadacababajara3bwa^aoafafafahahafacajaPa+a3a3aramaPbva`a+aPavaFaPbYb!a\aPa3b/cdb)a|a&a9a2a9a9aTavamajavaTa9bxbiaoajaoavaAaravaAaPaPa3aPaPaPa3a+a9a+a+aIaAa`aTaPa3aPaPa3aPavaAavavavaoaAa+aPa3a+a:a:a+aTa1aoamavaFaJa1a1a4aCaIaCa1a2aFaIaQaQa!a&a!a!a(a!a(a(a(a&a.a/a.a&a(a9aJa4a/a/a/a(a9a4a>a&a1aPaCaVa9a!a.aJaIaIavavaxamalaQaCa(a(a!a(a#aWaBaCapaJaGasa2a!a2aQa5a!a(a5aJaJaxaGaGaIaIaCaFaVaQaWa9aBaJaxaxaJaJaVasaeaia5bfa(aGasaiara.a(aTaxaCaQa2a.bLbUb\b\b~b7bUbMayalatataya$a$a=a)baaKaxarapanagaialanakalalalakagagaqa}bIa!aCaqauaDbybka=a)a)a,a,a*a*aZawawaRa8a8a0a8a,aLazauayaLa$a6a6a<bua_",
"anaxaJaJaGaxaGaJaGavava9a1aAavaoajafacacahahaiagafacabadakananahababababacahara^bwavafafafajafacacacamaPa+aPaParavaPaPa`aFaramaPbvbZbRbFbFb`cnb}b1a|a&a1aVa1a7aVarabamaFaIa>bta&aoajamamamamamamamamamamamamamamamaoacaha3aAaAaPaPaAavavavavahaTaAava~a+a3a3a3a3a3a+a&amajaAa1avaFaIaFama9aIavaGaIaVaQaCavaFaJaGaAaIaGaVaQa1aWa2a1a1aVaFaraPa4a2aVaJaVaFaIaIavaIaAaAaFavaTaAaAaAamaraWalaka2a(a!a!a2a!a2a5a(asana4aoaxaVaQaWaQaQaQaxaranacaealalanananalalalalaialanaeacaianagagaGa}a/aJaxarabakaGaPaJaQaIaGa9bxb#b0bTb#bAb%b&bbaLaualanapaMauaya5ataPaFavalaiakaiaiakalaialakaiagala]b#bda4apalaiaiaDa(bEbSbka$aYa$aZaZa?a,aLazayawaZa*a,a,a,aZa)a<a=baa<a6a6a$",
"avaIa(bAbSbhaQaGaCaAaraAaGamajaiadababadaeafafacabacamaIaTaVa1aVavafabacacabadaka3a:avacacahafacacacadadara`a`aPaPaPaPaPaPbva+aPava+b4b/bQbeb3b6b=bZa.a\a4aIaJa1a9aFafahavaFaIa9a\a&aVaTaTaTaTa3aVaTaTaVaVaVaVa1aVaIaIaFaVa3a3a3a+a9a+aTa+a1a1aFaAaAa+a3aTa3a3a3a+aPa3aFaVa1a1a4a1aWaJa2a!a2a&a&a!a(a4aJa9a/a]a|a]a.a&a\a]bdbdbjbpbpa|a(bda}a&a.a|brbgbpa}a|a|a\a|a]a\a&a2a\a/a\a.a\a!a2axaJaVa1a1a1a1a1a1a4aCaGa!a!a\a\a}a]a\a/a}a/a(aQaQaQaEaWaQaQaWa5aUa2a2a5aQaQaJaJaGasaCa1a!aGaxasakadaoaFaIa1a1aJa4a\blbVa|a!a!a]a?bba,awaZaZaLauapapanaxaraFavaoalaeaeadagagalalaiaiagaiaJb3b#a{axanaiaiaeapaGaWa(a;bEbmbka)a$a)aZa,a?a,awatauaLa)aLaNaEayaKaEaDaKaEa;a_",
"aCaCaCa.bjbubjatavasaraoaoahafacabababacaeaeabadaoaTaVaVaTaTaVa1aTavahabadacabahamaAaFajacafahaoaFaTa:a~aPajaraPaPbvbvaPbvaPbvbvbvbva+b<bZbJa`bCb!bRbVbRbFa&aVaTaVa4aVaradaoaAavaFaTaTaTa3a3aTa+a3a3aTa3a3a3a3a+a+a3a3aTaTaPaVaVaIaTaVaVaVa1a1aVaIavaFaAaFarararaPa3a3aFa1a2a4a4a1aVaQaQa!a!a!a!a!a!a9a9a2a&a(a/a!a!a2a(a&a#a(a(a/a/a(a2a(a(a!a!a!a/a(a/a(a(a(a!a/a#a(a5a4a!a!a(a!a(a(a5aCaIa1aAaIaTaraIaVaVaGa1a5a5a!a(a(a(a!a!a(a5a!aWaWa2aUa!a5aUaUa2a2aUaWa!a4aQa4a9a1aJaVaFaxaCanadamaAaPaVa%aVaTa>bcbFa.a.a]a|a,b&bBaLaZa,a*aRaLawaBapapaBavanakata/a!a2aWataiaialaiacana/b*bsaGanagagaiagagataCaCaJa!a]bpbMbUbka)a$a)a)a=a=a)ayauaqanaqauatapapapanagaiaD",
"bjbca(a4axaQa!aQaoalajamahabababababadadacagaraTa7a7a1aTaIaIaTavaFaoajababacabacamaFaAajadajaAaTaFaFaTa~bwbQaFaoaPaPbvaPbvbvbvbvb<b2bva`bvcab.b4b5bFa^bFb*bFa9aVaIaTa%a^aIakafakamalamakakamakamakakakakamakakakamaoanamaoamamamaoamaoaoanaoanaoaoamaramamamaramaoaravamaraparapaparapararapaparaparapasanarapananalapapapasapapasapapamaparapapapanapapasapapapapapapapapapapanapapapanalasavamanaoakaoararananapapananananananananananaiakalalapalaiaialalaiaeaeaealapakanasarapaiaharaFaPa3a7aVa1a\bwa\a{a>a\a?b:bNaZaZa*a,a*a8a*aLaMaMayauaqaeaqa/a_a;aJaJaJaJaBalaiacala>bRa{aAakacacacaeagaialanasaCaJa9a(a}byb7bUbaaXaXa(aXa<a<a$auaeadaDbMbyaNaXa5aDanad",
"a}a\a9aWaAaraGaAamamakabababadahaiakakamavaTa7a1aIaTaPa3aIaIa1amarajabababababacara3arafadavaPa3a+bCboa+avaPb2aFakamaPbvbvbvbvbvbvb2bvbva`a+b2b4bvbQbVbFbebKbea%a4a3aVa1a7aVaFaoalaoanaoanalamanaoanaoanaoararavapasasasasasasapasasavasavaxaxavasavarararaoaoaoaoarapasasasasasaxaxaxaCaCaCaCaCaCaGaGaGaCaGaCaxaxaxataCaCaBaBaCaBaBaCaBaBaJaGaGaCatasataxaqatasaqaxaxasaxaxaxaxasasasatapalalanalananapaoarasavasavapapapapanarapaxarasararanavasasasaoanararaoapasanararaoaoamamararaFaTa+aTa7a9a^a4aVa&a\a.a_bBbbayaLa*a*aRa,aZa,aLaLaMayalacata6aBauaUa/a}a}a(aGataiacaBa&a|a>akacaeacaeacacacacagalapasaGa1a9a>bjb0b7b7baa#aUa5aXa;a}aXatacaiaBa6a(aBa#a;aE",
"a9a9aWaIapalaraoaiadababaeagaialapaAaGaVa&a9a1aIaFaAavavavaraAakacababababababaja+aAafacava+a~bea~bCbwboa+avaPa+akajakarbvaPaPbvbva`bvbvbvbvaPaPa`bGb6bZa~a^bwa|bea&a:a3aTa+aVaTaTaTaIaTa3a3a+a:a+a`a~a`a1a1aVaVaIa1a7a9a~bobJbYbYbYbCboa^a1a1a2aVaWa1a4a`bobJbYbYbJbCbobobCa^bea.a&a!a.a!a!a!a!a2a!a(a\a{bcbYb.bZbYbebcbcbca{a{a{a.a(a(a/a(a.a|bFbQbZbZb$b,bZbYbca~a9aWaUa2bebebYbYb$bZbZbYbYa~a9a3aJaJaJa9a~bCbYbYbYbYbJbYbJa~a9a3aVaIaIaQa1a9a&a&a7a3aTaTa3aIaIaTaVaVa+a1a:a:a+aTaPa3aTa3a4a%bwa\a&a\a|a|aYa6aqauawaMawaLaLaZaZaLazawaualaialazaHauaHa/a#a;bfbjbfa(atacanaWa&a{a!aiacacaeaeacacacacaeaianapava1a^a|bsbhbSbUbybabha;a$a_bhbua<atadagaKa;a5aEaB",
"aQaJaAanajalakafabacaeagaeaiananasasavaxaVbdbVbga%aIaraoaoahafabafajakamakahajaFavacahaPa9a>a|bcbwbFbCa+aFaravaFajajahahaPa+a`aPaPa+a+bva`a+bvaPaoavbvbGa^a~a:a%a%bea:a~a+a+aVaTaTaPa3a+a`a+a+a3a3a3a+aTa3a+a~bobJbYb$b]b$cab$b4bJa`a+aIaIaIa3a:bobYb$b]b$cgb>b>cgb$bYbJa+aTaQaUaQaWaQaUa2a2a5a!a5a2aUaWa!a9a&bcbZbZbZbZb.b.b.b.bKbQbebea/a&a5a(a.a.bobCbZb$b$cgb>cgb$b.bCbea9aWa1a9a~bobYb$b$cgb$cgbZbYbea+aJaJaVa9bobYb$b$cgb>cgb$bYbJa&a3aJaIaIaGaVa1aTaTa3a+a+a^a^a&a~a^bea:a+a:a+aTaTa%a\a>a1a%a&a9a!aUatalauayayauauazayazawaMaMaualananalayayayayauaHa6a/a/a!a\a\aqacakata9bfbdaxalalalananalakacacaiaiasaVaVa&a9aUa2aUaUa/a!aEaGa;bEbybAbya#apacalaWa]a_",
"axamaiakagadabacagagaiakalanalanavaAaGaVaQaCaAa9a>a1amakaeababamaAavaAaPaFavaAavajava7a&a{bgbcbca^bcbJa3arararakajahahafamavararararararararavavaramajava`a+aTaPavaPaPa3bCbFbwbea^a+a:a^a^a+a%a&a4a%a&a>bebcbCbobCbJboa~bCbZbKbcbcbcbcbKbDbIbKb/b6b6b6bZbZbCbJbCbCa:a&a^bcblbEbHbHbTbHbObXb0bSbTb7b0bMb0bXb0bLblbKbVb6blbVb6b)b;b*b*b/b3b0b1bHbOb0b(b0b1bHb1b#b/b6b*b*b*b*b*bTbHbMbObTbVbKb1bVb6b6b6bKb6bVbKbAbLbDbsbsbsbRbKbZbKbZbFb6bKbKbKbDbDbDbga|bgbibpbzbgbibca|a+a&bgbKbfa{a|a\a1a.a&aCaTaAaVaJaWauapaqauayayauauauauayayazazayaqaqaqaqalaqauauauayazaMaXa;a_a}bfbfa2akaeaqaQa\bda\a2aAaraAaraparakacadalalasaxaCaQaoasaJa!bDbAa&axaQbybMbAbybEa/apabakaW",
"agafahababadaiaiaiakapasasapaGa1a9a2a1aIaVaVaCakaJa&akababaiavaAaAavaAaAararararaVa>a&a>bga{a:a%a:a+a+aPajakakaraPaoarajaraPararaoararararararararavajaoararaoaoamaraAaoaIaPaGaFaFaFaFaGaFaFaAaFaAaAavaAaFaAaFaAaIaAaIaIaIaTaIaVaIaIaIaJaJaJaJaJaVaJaVaQaIaJaTaIaAaIaAaIaIaJaJaJaGaQaQaJaWaQaJaIaJaJaQaQaQaQaWaWaJaGaQaQaQa4aWa1a2aQaQaQaJaWaQaQaWa2aWaQaQaUaUaUaUaWaUaUa5a2aUaWaWa2aQaWaQaWaQaJaJaQaJaWaWaQaJaQaJaVaJaVaIaIaIaIaIaIaFaIaFaIaIaAaFaIaFaAaFaPaTaTaTaFavaAavaAaTaIaJaIaGaxaxapananapaqaqasapauataqaqauaqauaqataqauauauayauauauauauaqalaqalauawazazaYa)bububzbua|aCaialaBa9a]bfbiaVasapaAaAaxasaiacadalavaxaiasaWa4a2a(bDb0bTa.a5bAbAbEbAbEbAa(anac",
"acabababafaiakakanaxaCaGaJa4a/a_bfa_bda(aFaoavamaoa!amacaoaAaAaAaAararaoararaIa&a>bebcbgbFbwboa`a~a+avahaoavaPaPa+aPaPaPa+aPa`aPa+a+aPa+aPaPa+aPa3aPaPa+aPaoavaPa3a+a&a~a9a>a\a\a.a\a\a\a\a.a(a.a.a.a.a.a.a.a.a.a&a.a>a&a.a.a>a>a&a&a^a&a:a:a%a+a.a.a.a.a.a.a&a&a\a\a]a\a/a.a/a;a]a|a}a}bca}bca}a\a]a]bda}bda]bda}a}a}a]a]a/a/a;a]a}a}a]a;a}a}a}a_bda_bjbjbfbjbda}bfbfbjbda_bda_a]a}a;a;a;a]a;a;a]a;a]a]bfa}a}a#a/a}a}a}a}a/a&a\a.a9a%a1aTaTaTaIaTa&a:a7aTaPaTa3a3a+a1aVa:a9a3a7a%a&a^a&a3a+a`a`aVaAapapa!a(a(a(a5a(a6aXazaHazayazaMazawawauazawazawaqaqalauawaLaRa?bkbkbububzbxa5alaeaqa!a.a|bga!aGasasaFaJaIaracacaoalajasaCaJaVa1a4bdb0b(bTbpbhbybubEbAbEbAa!",
"abacahakakalapaBaGasasaxaGaQa2a/bfa}a.a!a1aoanafajaCamavaFaAaravamamaoaoaraTa%a&a|bFbZbFbYbZb]b,a`aoahaPbvbvbGbvbva`a`bvbva`bvbva`a`a`a`a+a`a`a3a`bva^a4aIa7a~bebobCboa~a4a4a1a1a1a4a&a.a/a\a\a\a.a>a.a.a{a\a\a\a\a.aVa&biaPa%a&a%a9a%a&a%a%a>a>a.a.a(a.a.a/a\a\a2a2bda9a/a/a\a|a\a.a\a|a|a|a}a]a;a]a|a\a/a]bdbda}a}a}a]a]a/a]a;a/a.a(a(a#a/a/a;a]a;a]a]a]a]a]a]a\a]a}a]a}a}a}a}a_a_a}a}a;aGa;a!a/a]a}a}a;a]a;a/a#a]a}a;a}a}a;a}a}a}a]aCa.aQaFaIaTa9a%aVaPaAaFaVa:a4a:a+a1a+a+a1a3a3a3aVa+a~boboa~a+a(aCaxa\bja}a]a}a;a_a_a<a<a<baa)a)a<a$aLazauawawawawaqaiauawa8a0a*a*bkbybjbdbfa\atagalaBa!bDbDbfa9aGasasaFaCavajakakacakapaxasaCaQa1a!bjb3b#bLbga_a}bhbhbAbA",
"ajamaiaianaCaBaCaparaxaAaBa1aQaWa2a!a1aCaAakababahaxaTamamaoaCaQaQaJaIaVa4a&a|bibebwbYbJcucub]bGamaoa+a+a+a+b2bva`bvb2bGbvbvbGbvbGbvbva`a`bvboa~bebia4aTa&a9a^a^bea~a&a9a&a4a4a&a.a\a\a\a\a\a.a\a\a\a\a|bfbIbObrbAbDbpbubtbfbDbtbtbpbdbpbpbsbDbTbAbMbTbAbHbLbMbHbububDblbubAbAbAbAbHbObObObMbEbMbUbUbSbMbMbMbObMbMbMbMbObMbMbEbMbMbMbMbMbMbHbSbHbEbMbMbSbObEbEbEbObHbMbMbObEbybybEbEbUbEbHbMbObybObUbUbMbMbMbMbXb7bEbybybEbubMbEbAbUbHbAbAa_bjbubfbfbda1aJa1a4a1a7a%a>a&a7aFa+a:a+a3aTaTaTaIaPaTa1a&a^a&aJaCa/a(aXa;a;a}a<a<a<baa=bka,bka*a,aZaLawaLaLawawazaqauaRa0bNa8a?a)a/a6bubla}babEa<bhbybEbMbkbMbAaWanananahakacabadakaianataGa1a2a2a\bDb=b*bLbca_a}a_a_",
"akakanaCaGatanakanaxaGaJaQaGaCaCaCaCaxalahabafagahakaoaCa!axaoasasavavaxaAaIa|b#bZa^b,cacGcGbvaoaPa`bvbvbGbJbGbGb4b4b,bYb4bYbYbCbCbCbFbCbCbebwbwbga1aTa&bJbQbYbZb.bYbcbea\a{a\a{a{a|bdbubLbTbTbTbSbTbAbja{a}a\a/a/a\a\a/a.a.a.a.a&a.a.aVa9a.a]bda;bjbjbdbfbhbHbEbjbAbEbAbHbEbubjbhbLbEbEbObMbEbybMbSbMbMbUbUbMbMbSbSbSbMbMbMbMbSbUbXbSbMbUbMbUbMbSbUbSbSbSbSbMbMbSbSbMbSbMbEbkbybybubEbjbhbEbybybEbEbya_bja<a_bjbha}a(a#a(a;bja;a}a_a}a}a_a}a_bhbhbja}a!a2aVa&a]a}bda\a(a9a1aTaVaQaVa7aVa1a1a+a~bJbYbsa`a]aUataUa6a;a$a;a$a<a)a)a,a*a*a8bba8bbaSa,aLaZaLawawawauauaRa[a[a*aZaYa<bua#aEaUa(aWaqapaqapaxaxaqaxaxaxaxalagagagadacadaiapaBaQaJaWa1a1a.bDb/b1blbxbyby",
"anaCaJatalakakanasaGaBaCaCasanaraqanaiabaharaJaVaQaJa1a9apadajalaoaraxaIa%a\a%aFa`bZcrcZcGbvara`bvbGbJbYb4bGb4b,b]b]b,b]b]b,b,bYbZbYbZbFbFbQbzbFaVaTa>a>bCbFbobea^bea\a|bgbDbLbSb0b7b7bSbLbubda.a%a1aTaTaVaVaFaFaFaIaIaTa&a}a&aWaVa%a1aCa1aVa9a/bua]a.a&aJaVaGa4aWa2a!a/a/a(a&a(a9a2aQa1a2a(a/a/a#a#a(a#a;a#a;a;a#a;a;a#a;a;a;a}a;a#a#a#a#a#a;a;a;a}a;a;a;a#a#a#a#a#a(a#a#a#a#a#a#a#a(aXaWaUaEa5a5a#a;a#a}bEbEbaa_a(a5aQaWaGa5aWa5a;a;a#a(aUaJaEaEaEaQaUaQaWaWaQaJaWaUa(a#a]a]bfa}bia/a!a4a1a~a-a~a^a9aEaXa}aXaua6baa=baa,a?a*a*a8bBa8a0a0bNa0a0bBa8aRaRaZawawawaqalaRa[aOaRazataDa(a(a]bEa_aGakakakagalaGaJapapaBatataqaxaxanadacaianataxataCasaJa.bdbLb3bKa|bf",
"aQaBanakalaxaxataCaCaxaparalaialakacadanaCaGaJaVaJaJaIajabaiaoaxaFaVaVa>a^bebobJaPb2c1cuavaPbvbGbGb2b,bYb2b,cacgcGcGcJcJcGcGcGcab]b.bQbYbZbZbFa7a7bebYb.b>b]bYbYbcbea|a.bjbTbta}a.a9aVaTaVa7a+aVaTaTaTa3aVaVaFaCaIaFaCa1bAbHa1asaIaVaAaVaVa7aCa|bSbAa|aCavaIaFaIaIaTaIaJaIaIaCaVa4a(a\a(a.a#a!a!a/a;a;a;a}a;a#a;a;a}a<a;a;a;a;a#a;a;a}a}a}a;a}a}a;a_a_a_a}a}a}a;a#a#a;a;a;a;a#a;a;a;a#a#a(a5a#a#a#a;a_a;aEa_bSbUbjaEaQaUaQaBaQa!axaQbMb+a}aQataGaDaBaBaDaEaEaUaEaWaGaDaBaBaEaQaUa!a#a]bfa!a1a7a%a&a|bcb.b6b.baaYaua)a,bka*a*bNbNaObNa[bqbqbqbqbqa[aOa0aSaRaRaZawawawaqaRbqa0auaZaZa=bja}a_b7bUaXanabadaxa.btbua!a2aUaBatataBaCaqalabacakalapaqaxaGaxaJa9bdbTbVbs",
"asalapaCaUa!aUaUaQapalalakakaiaeabalaCa2a2aWaJaxaAaxahabaiasaCaTa1a9a%a\bobocucJcaaPcJbvara`bvbvb2b,b,b2b,cgcGcYc,c,c,c,c,c,c)cgb]b4bYb.bZbQa+a7bJbYcgb.bJbGa9bobcbea\aAaFaVaIaIaCaFaCaTa7a7a7aTaPaGaVaTaIaIaCaFaxaAaAaCaIaIaCaFaVaIaAaFaIaTaTaTaVaVa1aVaPaFaPaPa+a&aPaFaFaPaTaAaTa1a!a(a!a(a!a/a]a/a;a;a}a;a}a;a_a_a_a_a_a_a;a/a<a_a<a}a<a_a;a_a}a_a_a_a_a_a_a_a}a$a;a}a$a}a;a#a;a}a;a;a;a;a;a;a;a;a<a_a_a}a;a<a}a#a5aUaWaWaxa2aQaGaDaUaDaBaDaEaEaEaEaEaDaDaEaEaBaDaEaEaJaJaBaJaGaDa5a5axaJa;a}a|bKb$cdb6bKa)a=aLaya)a?bba*aSa8a0cic-c!c-c!c!c!c!bqa0a0aSaSaRaRaLawawawaSawa0bqaOaSaYaYa!a#bMbUa}atacagasaGa&bHbDa|a#aJaBauaCaBaBaqagabadakapatapaCa1a4a9a\bDb)",
"aGaEaEa2a#a/a!aJaxanaeaiakahabagasaCaJaUa2aJaxaxalafacanaIaVa&bcbFbsbCbeb2cGc5cZbvavb<bvbvbva`bvb2bGb2b,cucGcRc+c+c+c+c+c+c*c1cGbJb,cgb]bZa+a3bCbJboa~bJbYb$boa~bea\aFava3a3aTaTaGaPaGaGaFaxaFaGaTaIaGaFaGaCaAaxaxaxaFaTaTaxaFaFaTasaAaAaFaIa3a9aTaTa:a%aTaPaPa3a3a%a:a+a%a+aTaAaIaTaVaIa2a.a.a/a]a_a_bja_baa_bfbha_a_a_a_a_a_a_bfa_a}a}a_a_a_a_a_a_a}a_a_bja_babja_a_a_a_a;a;a;a;a#a;bja_a<a}a<a;a}a_a_a_bha_a_a_a}a#a!aJaWaGaGa(aUaUaEaDaDaDaEaDaBaDaDaEaEaDaHaEaKaUaEaEaKaEaGaDaQaEaUaUataEa;a_babaa$a$aZa)bka?aLaya)a8bBa0aSaObqcBc!c!c!c!c!c!cBbqa[a8aSaRaRaZaLaLaLaRawawa[cBbqa8aLaNa!aUa_bmbhaWagacanasaQbubTbda.a!asaraoapaparalababaiananaBaGaxaJa!a&a]",
"a;a;a}a;a(aUaGaBaxanakagacadanaCaJaEa2aQaxaramajadaiasavaxaCaVa9a>a&bvb,c1c1cubvahara`b<b,a`bvb2bvbGb2cgcDc+c-c,c,c,c,c,c+c1cGb4cacgb]b,a+aTb2b,cacab$cgb.b4a~bea\aIava+a+a3a3aTaIaTaGaFaVa4a7aTaCaFaIaCaJaCaAaCaIaIaVa4aFaxaAaIavaxaIaTaGaAaTa7aVaTa3a:a&a3aVa&a.a&a\a.a.a&a1a4a.a.a(a9a/a}a_bfa5a]bja_bjbha_a_a_a_a_a_bha_bhbhbhbhbja_a_a_a_bfbha_a_bja_a_bhbababhbha_a}a;a_a_a_a_a_a_a_a;a;a;a;a;a}a_a_a_a<a}a<a#a#a#aWaJaWasa2aQaEaEaDaEaJaDaBaDaBauaDaBaDaEaKaEaDaDaDaKaDauaDaDaDaHaKaKaqaEa)a)a)a=bVb*b[cpb\bUaLayaZbbbNaOa8a0a[cBc!c!c-c!c!c-c!bqaOaSaSaZaZaZaZa*aRawaiauaOcscBa[aLaza9aUa_bEbMa$apacaiaxaGa\bMbEa\a(aGapaoasasapapakabacaianapapaGaJa1a2",
"bjbua_a(aQaCapasapakadacalasaEaEaQa2aJasaramaeaeaoaCaCaCaVa9a(a4a3bvcZc1cGb<ajajaoaoamaFbvbvb2a`bvbvb2b4cgc1c(c#c*c)c*c9cZcGb4b]cucubZa+aPb4b,b2bJbJbGa~a`a~bebeaIava~a~a+a3aTaPaIaIaCaVaVaVa&a^aVaJaTaVaGaAaCaCaJa1aVaGaIa1a!aIaraJa4a4a(a.a(a\a\a.a/bcbdbpbca]a]bjbja_a]a}bda.a2a&a/a]a}a_bfa/a(a]a}a5a#a;a}a}a;a;a;a/a_bja_a_a_bhbhbhbhbhbhbha_a_a_bha_a_bhbhbaa_a}a_babha_bhbhbabha_bha_a_bha_a_a_bhbha_babhbha}a_a_a;a5aQaGaCa{a/a2aKaUaEaEaEaEaDaGaDaBaDaEaKaDaDaDaDaDaDaDaDaDayaHaHaYaEaqaHa$a)bkb>b*b6blaZa*bBaZayaRa0a[bNa0a0bqcBcBc!c6c6cBcBbqa8aSaZaZawa$a=aMatauaqaiauawbqcBbqa0ayaUa(a;bEbUbaaEaiadalapaQbLb0a_a}a.aBasataBaBatapagabaeakanapataJaQ",
"a;a;a/aWasaparanafabagasaBaQaQaQaEaxaoamakafakasaGaCaIa9a&a!a%a+b<cDc1b<aoakaPaPa+a`a`a`bvbvaPa+a+bJbGbGb4b4cacrcucucGcucgb,cacab,b,a+aPb4cabGbJb4b$b]bYbobebeaVaoa:a`a:a+a3aTaTaTaVaTaVa1aTaTaTa1a%a.a%a1aJaVa&a1aJa1a&a&a!a{asaCa4a(a}a]a!bja/aUbfbubhbjbhbjbha_a}bja_a_a_bjbhbfa;a_a_a/a]a]aQa!a/a/a;a!aQa!a/a#a(a#a;a;a_bjbhbabha_bha_babhbha_babhbabhbhbhbabhbhbaa_babha_bhbja_bhbhbha_bha_a_a_a_a$a}bhbha#aUbpa5a5a_a;a5aUaAa>bzbwa{a(a1aWa4a&a!a2aWaGaDaEaEaEaKaEaDaDaHaDaDaDayaKaMaNaYauata5a)aZa?a,aZaZa)a?bNaOa$azaZbBaOa0a[a[bqbqbqa[a[a[a0aSaSaRaRaLaMaMaMa<a$aYaLazatagawaSbqcsa0awaKa5a;bybMbEa5apacaianaCa;b0bIa;a\aWaCaGaEaJaBaBapadacaialaqaqaB",
"a(aQaGaJapapakacaeapaBaJaJaBaBaGaCasanajakapaCaJa&a/a\a]a.aJbvcgcJcrarakamaPa`bvbva`bvbGa`a+bvbvbvbobJbJb4b,cucGc1c1c1c1c1cGb,b,bYa`a3b,cDcucgcgb]b2bJbobebea1aoa+a~a+a3aIaIaTa7a7aTaVaJaJaQaQa2a2a2aJaGaVaWa!a.a.a]a|a\a|a}a4axa.a|a]bjbda/bjbfa]bjbububhbjbjbhbhbjbda/a/a]a\a/a/a/a\a]a]a_a}a!a;a(a.a;a(a(a!a(a(a;a_bhbhbhbablbabybybybabAbybabubybabhbhbhbabababhbabjbaa_a_babababababaa_baa<a_babhbababubya_a#a}a#a(a_a_a]a!aWaCbwbwbebea|a|bea\a>a|a|a2aEaGaDaEaDaEaDaDaKaKaHaHaHazaNaNaYaYauaua$a=a,a,baa?b>b;cdccbNaRazaLa0bNa[bqcBcBcBcBcBbqa[a8aSa*a,a=a)a<a$aXa6aYaUaHaMauagalaRa8bqa[aZaza!a\bfbObUa_aGaiaealaxaWblbMbpa]a]a2aEaEaEaEaEaCalacaealapap",
"aJaxapasalaeadalaCaEaQaJaxasaCaCapaoalalaxaCaQa!a]bda|a\a:bocacaa`aoahaoaPa+a`a`a`bvbCa3a+a`bva~bobobGbJbJbYb]cacucGcucucucab4bYa+a3b2cgb,b2a~a+a3a`bea~a-a&araTa`a+a3a+aIaTa1a9a!a4aWaQa2a!a!a!a.a/a/a]a}a}a}a}a]bfbfa}bga]axa4a}a]a;bfbjbdbdbjbjbjbja}a]a_bda(a\a}a&a2a(a9aIaIaTaTaIa1a.a]aQaQa}bjbfa_a}a_bhbhbhbhbfbhbha_bhbhbababhbabAbybabAbabubablbaa_a_a<a}a_bhbaa_bababha_a_bha_a;a;a_a_babha_bhbhbabhbabAbabububha_a/a2a(aIa%bwa>a>a%a9a4a%a1a2a2aEaJaDaDaDaDaDaDaDaDaKaKaXaKaNaYaYaLa$a$auaua/a,a=bkbma?bka?a=aObNaZawaRbNa[a[a[bqbqa[a[a[aSa8a?a,bka=a<a<a<a$aUa6a5aKa2aMaHanagauaSaOa[a8aHa2a.a|bEb7bua5anaealasaJa}bUbHbdbda/aQaEaEaJaEaQaBakadaian",
};
