/* XPM */
static char *xpm[] = {
"320 180 256 2",
".. c None",
"ab c #383733",
"ac c #3d3b38",
"ad c #3e3c3a",
"ae c #45423f",
"af c #484742",
"ag c #4c4a46",
"ah c #51504c",
"ai c #54534f",
"aj c #565651",
"ak c #595854",
"al c #5b5a56",
"am c #5d5c58",
"an c #5f5f5a",
"ao c #62615d",
"ap c #65645f",
"aq c #676662",
"ar c #696763",
"as c #6a6965",
"at c #6c6b68",
"au c #6d6c65",
"av c #6f6e69",
"aw c #706f6d",
"ax c #716f6a",
"ay c #73716e",
"az c #74736e",
"aA c #757471",
"aB c #777673",
"aC c #787670",
"aD c #797976",
"aE c #7a7872",
"aF c #7b7a77",
"aG c #7c7a75",
"aH c #7d7c79",
"aI c #7e7c76",
"aJ c #7e7e7b",
"aK c #7f7e78",
"aL c #7f7f7d",
"aM c #807f79",
"aN c #81807a",
"aO c #81807e",
"aP c #82827f",
"aQ c #83817c",
"aR c #84827e",
"aS c #848481",
"aT c #86847f",
"aU c #868684",
"aV c #888681",
"aW c #888886",
"aX c #898883",
"aY c #8a8a88",
"aZ c #8b8a85",
"a0 c #8b8c89",
"a1 c #8c8c86",
"a2 c #8d8d8b",
"a3 c #8e8d88",
"a4 c #8e8e8c",
"a5 c #8f8e8a",
"a6 c #90908e",
"a7 c #91908c",
"a8 c #919290",
"a9 c #93918c",
"a! c #93938e",
"a# c #939391",
"a$ c #939493",
"a% c #949491",
"a& c #95948f",
"a( c #959593",
"a) c #969591",
"a* c #969694",
"a+ c #979692",
"a, c #979796",
"a- c #989793",
"a. c #989897",
"a/ c #999894",
"a: c #999a98",
"a; c #9a9995",
"a< c #9a9a99",
"a= c #9b9a96",
"a> c #9b9c9c",
"a? c #9c9b97",
"a[ c #9c9c9a",
"a\ c #9d9c98",
"a] c #9d9e9e",
"a^ c #9e9d99",
"a_ c #9e9e9c",
"a` c #9e9f9f",
"a{ c #9f9e9a",
"a| c #a09f9b",
"a} c #a0a09d",
"a~ c #a0a1a1",
"ba c #a1a09c",
"bb c #a1a19e",
"bc c #a1a19f",
"bd c #a2a19c",
"be c #a2a3a2",
"bf c #a3a29f",
"bg c #a3a3a1",
"bh c #a3a4a4",
"bi c #a4a39f",
"bj c #a4a5a3",
"bk c #a5a4a1",
"bl c #a5a5a0",
"bm c #a5a6a7",
"bn c #a6a5a1",
"bo c #a6a6a4",
"bp c #a6a6a5",
"bq c #a6a8a8",
"br c #a7a6a3",
"bs c #a7a7a5",
"bt c #a8a7a4",
"bu c #a8a9a9",
"bv c #a9a7a3",
"bw c #a9a9a6",
"bx c #a9a9a7",
"by c #a9aaaa",
"bz c #aaa9a5",
"bA c #aaaaa7",
"bB c #aaaaa8",
"bC c #abaaa6",
"bD c #abacac",
"bE c #acaba8",
"bF c #acacaa",
"bG c #acadad",
"bH c #adadab",
"bI c #aeada9",
"bJ c #aeafaf",
"bK c #afafab",
"bL c #afafad",
"bM c #afb0b0",
"bN c #b0b0ae",
"bO c #b0b1b2",
"bP c #b1b0ad",
"bQ c #b1b1b0",
"bR c #b2b1af",
"bS c #b2b3b4",
"bT c #b3b1ad",
"bU c #b3b3b1",
"bV c #b3b4b4",
"bW c #b4b3b0",
"bX c #b4b4b1",
"bY c #b4b4b3",
"bZ c #b4b5b6",
"b0 c #b5b4b0",
"b1 c #b5b6b4",
"b2 c #b6b5b3",
"b3 c #b6b7b7",
"b4 c #b7b7b5",
"b5 c #b7b8b9",
"b6 c #b8b7b4",
"b7 c #b8b8b7",
"b8 c #b8b9b6",
"b9 c #b9b8b5",
"b! c #b9bab8",
"b# c #b9babb",
"b$ c #babab7",
"b% c #babbbc",
"b& c #bbbbba",
"b( c #bcbbb8",
"b) c #bcbdbb",
"b* c #bcbdbe",
"b+ c #bdbdb9",
"b, c #bdbec0",
"b- c #bebebb",
"b. c #bebebd",
"b/ c #bfbfbc",
"b: c #bfc0bf",
"b; c #bfc0c1",
"b< c #c0c0bc",
"b= c #c0c1c3",
"b> c #c1c1be",
"b? c #c1c1bf",
"b[ c #c1c1c1",
"b\ c #c2c3c2",
"b] c #c2c3c5",
"b^ c #c3c2c0",
"b_ c #c3c4c6",
"b` c #c3c5c4",
"b{ c #c4c3c0",
"b| c #c4c4c2",
"b} c #c5c6c5",
"b~ c #c5c6c7",
"ca c #c6c6c3",
"cb c #c6c7c6",
"cc c #c6c7c9",
"cd c #c7c7c5",
"ce c #c8c9c8",
"cf c #c8c9ca",
"cg c #c9c9c6",
"ch c #c9caca",
"ci c #c9cacc",
"cj c #cacac8",
"ck c #cacbcd",
"cl c #cbcccc",
"cm c #ccccc9",
"cn c #cccdcd",
"co c #cccdcf",
"cp c #cdcdcb",
"cq c #cececd",
"cr c #ceced0",
"cs c #cfd0d1",
"ct c #d0d0ce",
"cu c #d0d1cf",
"cv c #d0d1d2",
"cw c #d1d2d0",
"cx c #d1d2d4",
"cy c #d2d2d0",
"cz c #d2d2d4",
"cA c #d2d3d2",
"cB c #d3d4d2",
"cC c #d3d4d6",
"cD c #d4d5d4",
"cE c #d4d5d7",
"cF c #d5d5d3",
"cG c #d5d6d6",
"cH c #d5d6d7",
"cI c #d6d6d4",
"cJ c #d6d7d5",
"cK c #d6d7d9",
"cL c #d7d7d7",
"cM c #d7d7d9",
"cN c #d8d8d7",
"cO c #d8d8d9",
"cP c #d8d9da",
"cQ c #d9d9da",
"cR c #d9d9dc",
"cS c #d9dad9",
"cT c #dadadb",
"cU c #dadadc",
"cV c #dadbda",
"cW c #dadbdd",
"cX c #dbdbdc",
"cY c #dbdcde",
"cZ c #dcdcdd",
"c0 c #dcdcde",
"c1 c #dcdddc",
"c2 c #ddddde",
"c3 c #dddddf",
"c4 c #dddedc",
"c5 c #dedee0",
"c6 c #dedfe1",
"c7 c #dfdfdf",
"c8 c #dfe0dd",
"c9 c #e0e1e2",
"c! c #e1e1df",
"c# c #e2e2e1",
"c$ c #e4e4e3",
"c% c #e6e6e5",
"c& c #e8e8e7",
"c( c #ebebe9",
"c) c #ededeb",
"c* c #f0f0ef",
"c+ c #f4f4f2",
"c, c #f9f8f4",
"c- c #fbfcf9",
"c. c None",
"cybWbDcOb?bFaTaTc$c6cgb2bCbnbIcubWaqb.c&bra2ceb|cecbb.b&b2bQb9b4bKbkbkbrbEbTcpc$cgaWa2cec&bQaWb(b/bKa{b-bfaOaxa\bEb6b-b/b7bRcFctaRaVa{a\a;a;a+a+a+a-a^bdbvbTb?cpc4cNaBbucCc&b.ayb&b)b1bPbHbRb$bja6cyb|bxaza|b?b&b)bUaGa!bLbKbRbKbIbzbIbEbEbIbXb$cgcga;bfcHc2c9c9c9c9c9c9c9c6cQc7c+c(a{aKb+cBcOcQcQcCcoclcycScycIc!c1b{bTa{a)a=bCb^cDcSctb4bFbkbfbBbNbLbUb|bBb.b\b[b.b7b4b&b8b:b`b[b*b&b7b?cjcjb/b&b|cBcJb(bBbIa;a=a=a_bfbyb)ccccb[bcaYa0cma4cmbibrb?aUbRc4c1bCa,ctcab.b!b4bUb4bLa#cIb|a}aAava4a+bkbkbia|a?a=a^bibzbkbfa{a+a0aGbkctbsa#bxbFbLbQbsa+aschc2b9aUbFbfa`bkb[bxaUa6a=bXb-bXbzbPb$b(b)b-b?b:b4bXbQbLbNbxbbbna.cycJaUa0bLa#bxb/cFcJctcdbpaUbQcqcGb[a~b.cj",
"b)b2cScdbza|aEb+c)cqb6bzbibrb2a;ataTcBcNa7a|cjclcBcAcAcqb{b(a-aJbdbKb0b-b9b0bba#aRa7bNcFc&bpaObRb&b!bzb2braSaKa?a}b?cgb+bEbfb6bKaVbkbKbba=a-a;a/bfbLbTbKbNb9ctb4a7aOaHb>czc&bWaOcgbHbfbPbBbHbFbKbjcBb+bAauaTa5a)bEb2a-bkbHbga;a\bFbWbIbEb$cacgb{a+aNa!b/cBcSc5c6c6c9c9c9c6c5cDb!b.c7bvaXb+cmcCcOcMb~cpc8c$c$c1cabdaZaZa^b2clcJc!c4b-a9awaObvb0b0bKbPbwbAbFa?bXb6b(b{cdb?b/b{b-b4b)b&b.cBcyb-b^cAcAb/bta=aZaZa2a5bdbvbra^a5aTaYbfbUa}aya*cta4cmbEa;bEbkbochcubHa.cIb0bfbTbzbnb4cabsctcda}aYaDaJaJbob4bkbsb$b{b6a{a;a\a9a9a9a?a=a=b0a=a7brbRb8bsaLaGaWcnc1b{aWbtbza[a_cdbBaYa,bxa%a9a5bIcdcIcVcIb(a9bzcdcab`b!b1bKbka=a:cdc1a,a8a_a5a=b2cmcmctcjb/a[a}b)cecqb:bEbA",
"cdb&bTa=aTaEbpc&cNb\b$bKbKbTaZaMa|b6c8b-aFb2cVcFcgb8aVaRa\bza\a1aXa{a|bWblazaZbdb+cdcbc#c&a)aZb|caa-bKbtbvaJa9b-b(b|a&aEaKaXa!a1aQa\b|b4bEbva0bfbnbibUclbWa|b6a|aIbCb)cjczc$bCaXcta?bLbLb1bsbwb(a/cpb9bCaubdb>cpcmb1blbdblb0b<bKa7bwb/b!bUcjbza\a&a-cdcycKcXc2c5c6c6c7c7c7c2cQcob?cScaa!bTcacjb|cucIcucacab0a1aKa7bTcmc4cFcqcScda=auasb0cmbIaXaIaJaRaPaZaYa0bbbUb$b1bWb-cjb?b>cab1cjc1b/b/cVcda{a7a-a*a6aHaFaHaDaJaRa5a\bTb4a^a3a%b0b`b?cqa0bEbIbwbnbrbbcecAbXa%cga7bCb+b>bAa/cjbCb{cjbba/a!bNbga{a%a9b/cja+a1bIbTa3bWbKbza}aIaLaVaOaOaYaUa_b0aXbRbRclc7cBaWbFbHbRa_cjbHa-a7b*b_b1a(aRbTb|b0bIa1a!bTb6a+aGaZbPbPbIbta?bKc1bVa6b!bia7btb-cjcJc1ctbPa%a-bkb9b1b<ct",
"a9aTaTaKa9cdc*cDbKa\babCb0b+a1a1b2cIcJa7a5c#cNb^b>cmcgb4a7aWbWb8a^aBaVa&a&a9b?cpcwcwcwc)c1aYbkbUcgbib6a?blaEbdb{cabEaIa\b6b{cacacab<b/cya=bTbCaTbib1bWb4cta7aVa|b0cachcocNc#a{aZb+b/bWbaa\a\bEbvaYcIbTblarb^cubBaIaCaXa!a9a1a^cab(a1b2cDb$bba;aQbCb{cAcNcWc0c2c5c6c6c7cZcTcZcYcKb\bybPbCbEcgcucmb+b$b0blaTavaZbTcpcVc&cgcmc#b-a1apaRcScmaXaCa7bkbLbNbSbYbNbBbea>a?bxb-b-b4cmcdbXcmcSb1cBcNa\a1a;aZaxaqayaPa6a<bgbobsbka|a-bIcjbIa?bkb?cjcjaYbRbRbnbka|a{cbcAb-aVb8bKbvb2babCbNb{a:b2cubsa|a)b$b<bUbcbkb6aZbacgb9aScIb/a%b9aHa-b6b-b/b?b?b!boa)a7b)b-cbcJcFaUbjbga_a[cjbUbna5b#b~cfb~bwa\aNaMaVbab>b9a=a%b4b0bLbHbUb1bIa)b:cha.bubUa_a/bXb)b&b$b?ctcdbga:a-a;a&a+",
"bzbnb&cNc2cwb?bUbzbdbibnbzaXava\cjc4bfaJcIbaauaEa+a^bRbWb$aEaDbfa{aWb6b/b^cgcucDcHczcOc)b:aybNcab!a(b/a-a/aEbRcgctceb-cmctcycAcFcJcJcyc1a9bib<a\aVa;a/bWcaa5a;b{cjcmcscxcVc4a3a7b9bLb4bLbtbWbEa9bgc1bva{aRcSbIaEaOb6cmcVc4b/a}b{cNa3bHc$a=aza;b0cpcJcTcXc3c3c5c5c2cVcScScXc5c5cYcPcob8bFbgbjbTb(b4bAa1aEaVbIcmcVcucab<cac%b<bvata9b$c%bvaGbxchc7cFb?bGb5b;b]b_b=bUa>a<b2cgbRcdb}bEb1c8cgaVa/a+ataraYbqb4b:b}b`cecVcVcjb)b$b4cBb)a!b6bQb4cpaWcpbna9bEa&a|b-ctb^aSbTb0bPbvbRb$bHbxa5btcIbNbia)b2b{ckb~bNa%a)a3a*a4c!c1a`bfb!a#bXb|chcqcscvcvcfb&b|cdb}b)cwcNa<bgb!b4a<bXb!bFaYbMb.b.bQa}bJbOb*bLbFbfaSaDcmbWbEa;aUasaybebBa,cjb~a]bybha;a}bgbYcpcVcdb9b?cycebYbnbE",
"cJcucBcNb/bRa-a\btb9b|cFc8a}aUcqc8bzawb$ctaoaGbibla&a5aIa?aTa#bIbxb4cectcBcDcHcOcOcCc&c&a6a,bYb:b/bLbTa|aVa1b/cmcAcDcJcGcNcNcLcOcEc9cSa|aWcqb|bia9a7bvblbaa/b9cgcqclcHcsc8cJaHa-bIbwb9b2bLb.b2a#bsczbia9a<cSbIaMa}ctb+bWb$bra<cXcmaJa1a!aNbKcjcucLcTc0c0c3c5c5cPcFcBcSc4c6c9c6c5c5cYcPcvb}bXbna{a;a=a^brcBc(c!b{b0b+b9c4b{b/bwaOb4b(cJb?a*bXcFcdbKb^bKa!b3b_b}b5bDb5b5bub:ctbUcjb!cFcdaQbfa5aqa7b3cbciclcockclc*c$cdcNb(a=b2c4b6aTbKb?cecmaXclbibzb>a?bzbRctcja2blb9bda\bEbfa)bCa|bacIb!bca#bIb{ckcsb7a.a9a[bub^c*cbbKa6bFb1bXb2b~crczcCcCcEcHcsclb`b*crctb1aUbwa}bba}b.bwa(a.b7b#b3b#b~b]b=b]b#bjbcbta=asaxapasaJaYa:b1a8bBcvchbsbBb+bIb9cucmb2b9b4ctcActb}cdc%",
"bKbWbIbIbEbzbzbvb4cyc$b.aOavcdc!blaCb7c$cqbNbvbCa|blbWb(b6b6b|cmcscwczcCcEcLcOcOcHcZc)ceaBa\b|b.a7b-a=bdaIbicdctcDcJcNcScVcVcVc1b|bwa+btc1c%b$a{a3brcjcpcpcpcqcucvcoc0csc8caavbzb^b9bNbNbYbUbIa2bRcdbCaKaZc1b-bza=bib&b8bNb)cAb-aVaIbzb9cactcAcOcTcZcYc3cWcQcpcdcNc4c5c6c9c9c9c7c5c0c0cQcNcBcwcqcjb|cFc&c!b^bIcacmcacyc!a+a!b-a{b3ceb&cnb|b(bWbfbKcdblaza_bYb#b#b_ccb]bJa#cecdbQcqcja0a}a?arbjcecocscscvczcscfc2caa}bCa5a,ctcgaZa0b2b|cqcja0cpbQbkbFbAbfbgcqcpa_aXbTbRb+b2bxbgb2a|a=cwcea8a0bib>b}cncwczcucAclb~c#cBb&b&bca4aSaVb#cncvcCcCczcvclbXbBbZb]clcDa2bBbQbXbgb7bFbEaWbLb*b]b]b]b_ccckcrcrb~b&bDbfa.a.a[bIbAbIa}bxbxbHcmcrbSa_a[bYbLb2b|b(bWb?b?b$bib/b|",
"biblbWa|bdb8b9aFbPb+a&aza,cJcma5aMb/c%c$c$cAb9bda{bnbTbWcdcpctcAcCcHcLcLcOcQcTcOcPc(c!aYa#b/b`b:bKbWa-a3aNb8cpcBcJcNcGcGcNcVc1cVcycFc7c!c(cIbda/aRb2cjcqczcCcEcHcCczcVcLc%bCaJcgbPbnbNbUbIbIbWa7cmbUbTaxaTbPcpceb.bYa=a3a!a&aZaRa!b(cmctcDcScUcWc0c0cXcLcDcyctcNc5c6c9c9c9c9c9c9c5c3c3c0cUcWcQcOcMckb2bga9aXaIa^cVcNcgcSb(aCa=a{a<ceb`bMbUb&b^b|b$a;apaha8b7b]ccb]b*bDaYbuc#c%cVcScpb^cjb4a6bYclcsczcEcEcEcEceb3b)b)b2b!b+bzaVaXbYb!b7bJcaaWa}bEbFbFbBbfa(cectb0aRb$b9a^bibFbnbFb$bfb)cqbga}a-b+b}cpcwcKcKcKcCb=cycDcwb?bXbwa\a!b5chcscsclb}b?bDa`b<b~b;cfclbBa4brbbbka~b?bHa(a$b5b*b*cocvcscrcscscrcib_b.cdbRbtbPb8b/cab&bRb6a}b4ctb[a]a2aHa_bCaObwbEbra+bbbIbr",
"b(b<b6azaIa7aGaGa&a\b0cFcqa{aGa3cpc8cGc1cma_bibva?aVaNazb7cpcvcDcKcKcOcOcQcTcPcPc%c(bRaFa}b4cpaUb<a=bdaCa^cacwcBcpcecwcGcycqcDc!c1cqb?cpb+a{a=aRa&cactcycCcHcKcKcvcYcAc#c4aTa\cga?bPb&bYbEbibPa_cIbnbIaubvblbActcNcjb<bfaIa{bzbrb|ctcBcJcOcQc0c0cZcTcJcIcNcVc5c9c6c9c9c9c9c9c9c6c5cZcXc2c3c3c0cWcTcOcucdb>b{b{bIbbb|cacpcFb?a_a0bccdcrccbQa_aZaBauaqapaSbSb*bZbDa[a(aLa6bfb9b(bza|a|a{bia5ava[cgcscCcMcHcHcHcEcfbQbca;a7aWa3bkb?cnbYa?bNb|aUb$b4bkbCbBb?a^b4ctb}aRb+a|a=b6brbKa9b2bUa[cIb\bsa-bWcdcpcvcEcMcOcOclb*b~cbb:b7bga=a{b[b7b}b`cgb2a7bfb4b|ccb[b;cscua4bsbca[a.bHb!bAaWbqb*cicscscococscvcvckb,a<a.a{bWb6a\a|b/bxbHb|bsbfa^b!cqb\bqa*a$a=baaTaBa8bUbYb/",
"a#aMaya1bLbWb-ctcVcBb(a9aIa;b\cAcSc(cqb|cdbHbda=a+a;bkbIbsb$crczcHcOcOcPcTcTcQc#c*chatbdb|b:bLbLbCbnaXaQb$cgbUbYcecIc#c(cyb.b9b(a;a&b{bda-a-aNa5b-cmcwcDcJcNcScGcxc9czc%b<avb6b>bKbfbzbka{bPa+bIcgbCa;aIb8b{bFbCc4b\a3bdaXa{aWaZb:cFcHcPcQcUcWcWcVcAcucVc5c6c9c9c9c9c6c6c9c9c9c7c5c2c2c5c6c5c5c3c3cYcXcXcOcKcGcsb}cpcactcqcmb6aTbQctczcsb}bLa0aPaUa:bpbqbha4aYa:bma2aWbGb!cpbzb/a.bHb4b^bLa7bAcacscBcEczczcHcKcHcDcqcab>b?cgcqcwcBb}bXcdcaaWcgbia/b(a)b$a<bocAcma%a\b(a/bna^bibib2a`a5cqcIbHbbbnb`cmcvcCcMcOcOcOb_bGb!b4bXb/aVa4b1bBb!b.ceb)bXbHa[a*bSb\bZb~chb)a#a.a}bka4b2b4boa$b*cickciclcrcxcrb#bDb#b>b1bvbPa\a!bfbkbgb/cabUbFbca:a[bHb>b`b}b|b.b8b)bUbgbabf",
"bfbEb{cFcDcpb<bza=a3a5bvcvc7cVcJcab{cjb1bLbKbPbWbfbibIa&aybtcfcvcHcLcUcUcTcOc#c+cLaJa=bIb^b(a+b6baa;aCbvcacqcjc1c*c(c!a<a/blbia)aEa+a?a1bdaza/b<cmcwcDcEcKcOcNcwc3cHc9c4a1a&b>bib6b?bPbrbda)a0cybzb6aGa?b^cgcmb$caaLbBcNcebXa4bHbnbKczcLcQcUcXcQcBcJcWc6c9c9c6c9c9c9c6c6c9c9c7c5c5c7c6c9c7c5c5c5c5c3c3c3c0cWcUcQcvb%b!bUbkcab(a{bKcmctcbbQbpaUaJbZbVbea$csbNa6bJa,a0bsb7b+bfb|bWbxbEcabxbra=a*b/ckcrcocKc!b7crcOcMcMcHcEcDcBcDcGcGcwcjb)cma1cmbfa|b-a|bXbxbHcqclb2aLbWb0bIbWbPbWbnb2bIbKcSb8bna=b(cgcrczcHcKcOcMcEb~bsb1bibEaWazbcbHbsa.bgb`cbb}b2a.a}bUbybDb_coboaWa-a0a#aWb&b7bha]b,b_ciclckb#a~bGb7a<bWcab+bPb>bXbibkbUb9bobFb9bXbXbXboa[a:bgbHb$b|cdchceb&bD",
"bvbfa\a&a!a&a=bWbCbrcacFcLc9cqb^cpb:bLbEbnbibibiaMaxa)a)a3bKcectcEcLcTcQcKc6c+c6aYaDb)ctbEa^b<a{bdaxa&b{ctc8c1cJb7c1b$a1bza7aMaNa3bIa)aGa3a9b>cpcAcFcJcJcDcDczcCc#cCc&b/atbKbzbibzbwbaa|a=aZbfcnbabCaCb6cgctcDb}a8aWcpb7cFcjaZa/a7a9cgcFcOcPcScLcNc2c6c6c9c6c6c9c7c7c5c5c5cTcUc3c5c7c7c9c6c6c5c5c5c2c3c3c0c0cWcWcXcsb4bga]a<bfbEbba;b&bsa}aUaPbSb#a]a~bJb1b/b(cpcqcycVcjb^c8cmaAcaboa)cgbIbvb$cycVc4cqcBb9aUb!cucOcOcOcOcOcKcKcEb=b*a~bhcpa6cqb1bbbobxbcbsbob5cfcja6bab$b4bFbHbLbKbIbba/ctcqbBbobAcacncwcCcEcHcCczcvb7bjaLaWaAayaYa.bgbQbUcdb&a*b)b^bUa[bGbqb#clcAa8a8boa_aYa0b-b4bga<bVbZbSa[a8bub~b?bLb$a-azaVbBbobtbWb1bIb<b-a|b2b>b1cmcgbEbEbga:a_a:bfbrbsbB",
"bnbzbIb<cycac&bkalasaEb|bXb(cFaNa5cab6bKbTbva|bibCbIbPbWbCa|bAcqcCcHcKcHc9c+c1aPa7b^b)cpa\b(a|biazaQb(cmc!c1c1b1aScwa|avayaVbvb-cgcdb0bTb$cacpcBcBcFcIcpcmcNcHc%cCc#c1aVa[b$bCbibnbCbPbka;aEcpbwb0aTa5b>cpcycNb}a#b{c)aHa5a9apaTa?a&bIcycHcOcPcXc2c6c6c9c6c6c6c5c5c2c5c0cXcXc2c5c5c6c5c6c6c2c5c5c5c6c5c5c3c0cZc2c0c0cUcEcvcbb!bMbja;a2aSaAaHbqbZa>bDcgcBcBbUbKbzbPb6cdcycBbzaBbHcpb>a5a)b+b>b6bLbAblbba^bjcpc!cIbXcqcHcOcPcUcPcBb/a;a*b2cta8bkbAbEbEbnbfa,b4bYb7cjbXaRb(b/b/b2bBbAbPbUbsbFcNb&bJa}b(chcqcxcxcCcvb}bxbBbja.a:a?bjbYbYboa8a(b:b-ata}b`b{bBa,bGbjb7cebNaJa%a/a,a6a%b.b&beaBaFa$bebSb)b&bXb(b|b{b`b-bgbsb/cFb-cpcaaqaXcmbib{cgapaqaFbHb$b&b}b1b?b9bs",
"b(b|cec*cgb|cya[aIbvbKbWa/bzb$a-aXbWb0aTa1b+bKblbzbTb8bva^aNa(cdcsczcKc%c+cxaTa7bxctbXa[b/a^bdazaCbTcgc$cga^a5a3a1aXaIaGblb<cgcpb2bra?bkcwcJcNcJcJcJcJcJcTcXc#c9cSc&bEaGcgbwa;bTbEbKbrbvaKa|cjbfbzazbKcgctcIcNcJcacmaSaFb$a#b|bkaIaZbKcmcBcNcUcYc2c6c7c7c9c5cWc3c2cPcVc1c5c6c5c5c5c5c6c6c5cXcZc5c5c5c5c2c5c5c5c5c2cZcUcQcOcOcEcscea6a8aSaSa`bGa<a.bqbebxbWctc1cNcycjbWaZaya3bUbFcyb>a[bga!a5bnb8b.cgcycBb^b|b6a9a9b{czcHcPcPcAchb\cecrcocpa8cmb0a)a|a^b$a}bLbLa%cdcda&a?b{bza-bnbIa^bPb9a?b{cHbVbEbsb`cmcscob:bDbja~b*b~b=bmbrbXb8b&b:b3bga6aSa+a[a2a}bXbXa,bua<bJa~b)a,bebja7aXa.bUbJa`aWa4a~a~bSbmbfbEbWb{bUbob9cmcVbda9cta7aAbKb0a^bKaTaEbebGb4bBcqcncVb7cJcd",
"cgb0c(cta#b^b+b0a)aZb8bNaPbAbKaraVb0b$a1aubTb>b6b(b$b>cacta;brb{cocHc&c*b[aDaWctcab-bfb9blbnaCazbIb{ctb6baaGa1bTa9aEbib+cgcgcyb-aQaRbvb+cBcNcVcVcScScVc4cYcYc&cLc)cpatbzcya?b9b6bWbIa{bTaVcjbtb$aIa5b{cpcycNcScIb9bia,bEa-a5bAbtaEaTa/b>cAcJcTcZcYc6c6c6c9c5cZc2cXcQcWc5c6c5c5c3c3c5c5c5c6c6c6c6c6c5c5c7c6c5c3c3c3c3cYcUcQcOcCb_a!aza4aObmbJa`a]bybZbOa~aOaBaUa&a=btayaVa}a_a-cdcub7bta+a9aPa.bobza!bna&aEaCa!bzb<cjcvcEcCcob~cscPcWcKcrcga0cmbia_b+a7bXa^bLbQa8cicfbXa7b<a|bPb1b1bIblb(bLa/cBcnbUbwbKb/bYa}a*bjb5b=cccvcsbSa_bjcjbwb1b\b?bGa*bubKaXaPbnbAbta8bsa*bQcbb`aYa*bEbqa)aYbHbVbhaJaOa>b=b;b2bUbFb(b.cgcjcFcgana+caa)a9axbra{asaFa_bHbHbxcpc8a*cjb.bLcg",
"bXb|cNb?aKbIbrb9bIaIbwb>b.bUaNaEa^b+a!aVaXbPb{b$a&b<c4c+c+bCa-b^cOc*c#bpaGbCbLcdb(a%b2blbrazazbKb{cmb{aIaraIbda?aMbPcgcpcucjcab6bva!b(cBcLcSc1c1c1c1c4c7cWc&cQc)c!aYaVb9bPb-b0bkbdbia/a5bvb?bIbdazb0cgcucDcOcVcDb}b&bWa0bKbdaxaIaNa\a5b/cucHcUcWcYc3c6c9c6c5c5cWcWc3c5c5c9c5c5cWcYc3c5c6c6c6c6c6c6c6c6c6c6c5c3c3c0c0c3cWcUcHcqa<awa}aBa.bubmbubJbZbOa~a2aDa]b,b,cNa|a,cab?bpbBb?ctbFa&aVa#b4ceb&cJbzbzb0b-b|cjcpcqctczcrcfb`cfcEcRcWcKcrcaa0cpbna{bRa_bLbwbKa_a:b]cfcja:a/b9bvbKb0bnb6bEbza7bfcNb)bBa3aFa2bgb%b~b~cicvcEcHczb}b.b|a;a}b?b]b~b&a~bbaJazaKa7bRaSa,bDa]b*chcea#a;a7a9a/a6bjb7bZa$a<b*b#b.b?b>cdcua\b-b|cmaQa/bab6a7axa&aTa5bRbUbFb1ctcta^aJctb-bfb2",
"btb|bRb$brbkaZaTaXaVbib{cjcmb`b`b$braRa9bfbEa5a{aza?b$b9a|aNbfc8c*ceaXa5a^b>cga{bzbWbna{asaEbKcacacma^asa{b$b<b(b(cpc4c4cVcpcacqbdaXb{cwcNcScVc4c8c8c6cZc$cUc$c(bvarbIb(bvbWbTbibra{a5a&cBblb9axa?b{cpcFcJcNcNcda;a/a\a&cgcaa=bibia)aRb+cwcJcUcYc2c2c5c5c5c3cXcTcZc9c6c5c6c5c2cXc4c7c6c6c6c9c6c6c6c6c5c6c6c6c5c3c3c3c3cYcKcob;bubja:aWbybMbSbJbua`a6aHaWbJcrcxcob2a#bFcqczcCb*b#b9a^aQbdcdcucxclb+aObHb>a;bNb|ctcJcIctcmcjb<b4bUb)cecrcib>a0cab6brbrbtbfbibra=babobXcpb:a0brbXbKbxbUbCbbb6a|a9b9cGb3bKaWbcb)b~b_cccscCcCczcrbZb#cma5a}b&b%b%b3bUa}bcbfaSaHb+a(a8bZbSa~bSb=b_a;a0bWbwa-a7a:b(b;bGbhbGa]a.a)a\a9azbba7a+aza)a^a/a2bNb4b8b>b?b&bPa-aOa0bsb}cja}bfbz",
"bab{a-aga=bIbTbvaGa-b2cacqcwcCczcBcscpcjclb[bEbxbzbWbEa|a}cac*c9bkaRa5cab^b&bvbEbIbva9aoaKb6cacmcgcgblaMb<b2cactcycgb+b>cmcFb(b{bPbCb2b>cNcScZc1c4c7c3c%c5c2c&bTapbzb0bWb9bIbIa-b0biaZcqbKb$aVaKb$cgctcDcJcJcIcwcmb$bKa|azaQa5aCaXaIbrcmczcLcQcWc0c3c5c5c3cUcQc0c5c6c6c5c5c6c6c6c5c5c5c5c6c6c9c9c9c9c6c6c9c5c3c5c3c0cWcOcrb;bubqbmbqbSbObybha]a2aDa$a]b_cKcKcHcEchb&cbcDcHcLcOcibLa[bLcdcrczcCcsbUbGb&b?aNa%a=a=a}bcbkbtbNb<cmcjb:bXbyb\b|a2bkbBbEbAbba}a7b0b9a\a|aJcDcub9a2b0b+bobcbcb)bQbLbtaUb?cGb7bQbgb&b;b~cocrcvczcob]bYb)b.bHb4a}a3aZaWa|bUbea?a\a*cAa8a*b3bZbJa~a`bqbsa}a2a.brbUa_a(bLb[b*bDa]a4a<a*a<bsa[a[bcb2b}ceb}cbcfchcicfb~b]b)a}bKb$cjb6aia$bgbp",
"bdbIb6aXa3a&axa1aZbPcacpczcEcLcHcNcNcLcLcHcEcDcwcscncuc7c+c&b2aVa7b+b^cdbza^bTbvbiaGama!b{b9bPbPbWb4b0a|b-a&b/cycBb)bnbaa=bib(cJcpb}bXbkcJcScVc4c5c2c%c#cZc(b+asa|b+bibdblbnbEbfbKaHb$b-bKbdaubEb|cpcAcDcJcBb+bvcmb0bIbfa5bvaVaXa9aTbNctcEcMcUcWcUcUcUcWcNcwcQcZc5c5c6c9c3c3c3c5c5c5c5c5c5c6c6c9c9c6c7c5c5c5c3c3c3cWcRcxb%bqbZcccib,bDa`a<a>a$aHawa_crcHcMcOcOcOcUcWcQcQcQcQcQcUcLcCcBcBcEcHcEcCcCcxcfbJbJb}chb}b)b1bNbAbga`bkb?cBbiaLb8b|aSb>bAa2a{a8bTbbbKbWa?bIaBb#cHcBbka0b+bzbnbEa{a:a_bTbna,cmcNb!bMbob)cecocrcscsb~cobcb}b)a4ayasavaAaWbgb1bGb&b:ctcpbrbwbsbwbLb1a2aLa$b4b:a}a,bkbcbEbwa}bsb&b#bObubJb5b,b*b,cbcqcvcvcxcxcvcvcrb;b5cfcob3bfa5a0aSa%b6a_bR",
"blblb0b$b(a1aIbib0b|cmcycEcLcOcOcScVcTcTcQcOcEcEcTc&c+c#bKaTa&bEb(cBbWbBb2bIbva/arapbab{a!a9aRaJa0a/brbWbPa&b<cFcIcLcscfb^b1bEb^c4cga|brcycSc1c4cZc$c#cOc(b?aubdb{a)bTb6bTblbzbKa7a|cmbkb6aua;b<cjctcBcwcmcab6bTcma9bibla;a/aRbva;a3b:ctcHcOcUcOcGcAcIcNcBcJcXcTcXc2cYcPcZc5c5c3c3c5c5c3c5c6c6c6c6c9c6c5c3c3c0c0cUcOcCb;a,a[bSb=bVa~a]a]a>aYaYaWbucrcEcOcQcQcUcUcUcUcTcTcTcTcUcUcQcOcOcOcMcOcMcEcCczcrb;b*b~cocococrcrclceb.a}b1cvcybca.b{aJb!a:a|b-aYbLa<b2b7bgbTaYbececGcua.a.bHbka7bIbvbia;bWa}bkcwcNb!bNbQb`chcncrcocfb#a[b-aSaDa6a^a^a;byb#b,b#b3b\bwaUaGaBaFa0bkbUb4aWa8bqb#b]bQa~bYbLbka:a5a5a_bUb#bJbGbmbScccvcCczcCcCczczcsb*bhb_cxcvcob[bsa[b4cjbBbpbQ",
"bKbCb<b0bva+a5b-cjctcvcEcMcQcScVcTcXcXcTcTcZc$c)c(csbiaQa-a=b$cpbRbFbIbWbza{aEanaTbCcdbdaVa^b6bKa{bKbKbKb(bIbicqcJcybIa/b9cqb|bLcNcIcda%cacScZcTc#c!cNc)b{ava&b9b{babTb0bza^bvbba?cmbib<aGaXb(cdcqcycGcBb|a0aZaza1a5a1a-bWaZaTbza7bdcjcycHcOcQcQcLcLcTcTcXc5cXcZcYc3cUcUc5c6c5c5c0c5c5c3c5c5c7c7c7c7c5c5c2c2c0cWcOcEb:boa>bebea`a.a>a~a>aPaPa$bScCcKcOcQcOcQcPcUcTcXcTcTcVcVcTcTcUcQcQcQcOcOcHcCcxczcrb]b~b,bJbOcfcscvccbYbsb$cBcgc!a_aLb{aJb+a|a*bPbsbFbxbXbcbxbWa2bQbgclcub}a#bLbsa,a_a}bxa[bHbfa|a<cjcDb!bUbQb]cickcfb3a<bQbGa(ceb2aSayava.b5b#bMb.aWasaQa:bsb.bLa}bEcya&a0a.a>bQb&b[bqa`bWb8bTa?aZa&bgbYb;b=b%b,cccscEcEcCcxcrb*byb=cxcxcxcob#bubRbBbBbRbNb4",
"cdcFa|a3aCa+bIcacqcAcEcKcOcUcXcTcXc5c$c(c*c)cOb6a+a1a)bncmb(bUbkbibIbzbdaMapbrb+cpb-blb6bdbIcmbWaNbEcacab.cmbbb(cBcFcBcab2cgb/bncNc%a\a5cmcJcSc7c9cMc*b{axa/cgbvbTb.bIbia-bda&a0ctbfb$aIaIb2cdcqcycIclcLc4a0b9bBa3a&aQaQavanaMaZbdb(cqcDcOcUcWcUcOcOcHcTc3cUcUcYc5c5c3c3c3c3cOcQc3c6c5cWc2c7c6c6c6c3cZc2c3c0cYcPcEb=a$a.bqbua`a`bhbha>a$aLa$bDcrcMcRcUcUcUcUcWcUcXcXcWcWcWcWcWcUcUcQcOcOcMcEcCcCcCcxcscfbJa2bmcfcrcxcCcib&cebNbkc1b|aDaOb+aRbWbIbibibra|bgbLbsbsbWaYb4b1bDckcpb4aWbxbnbkbcbobUbBbFb[a|a)b`cubUbMbJb[b_ccbJa4bObqbobLbzavawa[bZb*bSbOa&aqa#b!b#b,ctb&a#b{cdaLbWb^bXa_a2brb$b<bNa$bcbYb$bIa)a#a^bLb;cicib;b#b_clcfb5bDcccCczcxccbSa]a(aWaYa<a,cdb?",
"cyb(aya5b9cdcpctcxcCcHcOcWc5c9c&c)c*c&cEbWa-a7a+a;cab-b9bWa\bvbIbza{aTauaCa=c$cIcjbaaJa%baa/a1azaKbPcacmcjcNbxbHcBcFcJcwcFcNbabzc)cqaRb6cFcSc1cVcpc(b(aua&b0bda^bnbnblbfa=a3aZcpbvb$aMaxbKcacmctb}cucjcDa|axbla5a/braZapaCaNaVblcdcqczcLcUcWcWcQcJcBcEcXcUcPc3c3c5c5c5c0cUcUcLcXc5c9c5cXc0c5c5c5c3c3cYcYc0cWcRcHb\a*a#bubDa~bubybqa`a<a4aObLcvcKcQcUcUcWcWcWc0c0c0c0cWcWcUcXcXcUcQcOcCcxcscscEcCcxcxccbya.bUcccocscxczcibQbgbocqb>aYaBa8b[a0bfbtbrbibibna%bIb7bgbRaUbXb&bGbJcscfbKaUa[bsbsbfa{a;a{a^a?aZaYb7cbbDbubGb;b=b1a#bEbHa]a~b4aFa4b3b,b;bDb1aJaDbLbXb)bja#a0a)a^aJa=cAcdb>btasaQa+btb1b)b7bga_bBbNb!baa2a0a;bgboa4a(bDbVbSb=cccicfb#bha4a8b5cicrb8bkb<cm",
"aIaEa+b<cpcqczcXc9c$c&c(c&c#cAchb2bfa!a1bnbdb^b>b0b$bfbkbPbPbva;aKapaEbdb(bEbna[a/bKcLcbbRbtbibIb6bbcmb(cgcaa%b6cFcJcNcSc4bWa\c8cmaZa0cdcNcSc8b?cgb>aqa|b-bvbnbibzbKbzbfa|a7cubzb$aTaubvb<b{cqcQcBa[cga#a^cjb$a3a?aVaTaGaNbvb0b{cqcBcHcQcPcPcLcwcxcHcUc0cWcWcYc5c5c3c0c0cUcWc0c3c3c5c5c3c3c5c5c3cUcWcWcWcWcUcHcoa,a6bubya~a~bqa`a`a`aYaPbJcocKcPcUcWcWcYcYcYc0c0c0c0c0c0cWcWcUcOcCb_b]cfcrcxcxckb=bOa6aWbqb#b#cccockb]bSb`cecbcjbta9aJbSbLaOcgbFa9bsa\b$bgbRb1bgbKaTbxbHb,bZbMcxcpbQa5b2bRbgb2bxa=bdbdbza{aPbHbba2a;bMb%bQa~a#bkbBa#bFa/a2bXb=b;b4bsaVa3b8b(a<bLbra?a\bzb(b-bwbra9aQaHbvbja/a,bbbRb?b?b7bnbkbAbXbwa)aZaXa5a3a7a\bUb|cscrccbJbma>bZb_cickcrb~bxa(",
"cdctcFcJcXcPcVcScLcsb/bNbna3a/a1a9b9bIb{b(bKb.bgbibEbIbIbda5aEauaQbKb6bvbfbtbXa9aUcdcLc&c2cecdb|b1b(cjcyb<aRa0b+cNc!c&cDbKbKctbCaGa)b^cycScVcwcSc+cOaSb0a)bPb>bza&bIb2a!a.cmbfa;aQasbicgbia=cLc#b6a3b>aHbIb(baaXavasaZaXbib<cgcpctcBcNcNcVcScNctcvcQcWcYc3c3c2cZcWcWcWcWcWcYc2c2c3c3c6c5c5c5c3c0cPcUcUcUcRcEcibqa2bBbubebhbha:a]bca[aLa_cvcHcQcWcXcXcXcXc0c0c0cWcWcUcUcUcPcOcCclbSbmbya,a~bJa`a]a~a4a6a$aUa4a]bebVbeaUa4a~a$c1b/a.aLbhb3bHaJcdbibxcaa<b)a_bUbRa;bzaHbcb?csczb*b3cCcnbWa-a\b0bLaWbvb$a=a5bPaVb7b4bKaXa*bobhbJbcaUa(bBbba^a6bQb*b*b&bsbzcab!bRbAbLb(b(b-cmb/a{a;asa-bKa=a^btbKa|a0a6a}bFb7b&b1bXa[a[bxbUbga?bba|aXaMaQa*bfbjbRb_clcrcvcxcvcfcfcEco",
"bIbzbva\a^a=a5a9a=aZa?blbab0cabCctb+btbTbabzbEbIbzbia&aNazaIa/bTcpbva+a7a=bIbzb/awbfcbb:cOcHceb?b-bRa}a0aEbzcaa+cacpb^b2b0bzaXa1b0cmcFcSc8c1b\cec$c,c(cyaWbRa=b6bra\a|a{cLbUbkbvb2cmc$c%bWa}a\bda-a{aXaXa&a9a/a!aXaRa{b6cdcqcuctcpcucNcNcUcUcTcTcPcPcWcYc5c5c3cWcWcYcWc3c3c3c5c3c5c5c5c5c3c3c3cWcUcPcRcKcxb*a8bcbMbDbma~a~a<a`a~a.aYaWb}cEcOcUcWcXcXcXcZcYcYcWcWcUcPcOcHcsb,b3b%bSb*a*aOaWa0a.bebmbZcccfb=bSa8a.bUa~a$a~bqbGb]cba6a|b&bUbEaHcgbsa_bBbcbsa_bja4a*baaOb4cpcvcCcHb_b3cfcdcda-bna=a7bLa[a|a4b|cVcdb/baaoaWa0a*bebDbea0aPa2a;a[bsbUb:b:b.a%aPa5a^bTbWbIbTb8bWa!biaHaMcga8a?aXa*bobWa-bjbBa:a*a_bFb1b7b8bUa;a4bKbUbra5a0bva\a7a+a/aSaYa\a-a/bfa{a}bsbL",
"bibTa=bCb+bzb6cgbTb/cmbCb$cabfbkbTbvbvbEbIbna?a3aKaCaIa&bKb<cacjcaa/a?aTb>cSb+a?apbfb/b{bHcqceb}b(bAbEbTb|cwaXaTaTa7a=a=a=brb+ctcFcJc1c8c!c4cmb>cpcNc+c8aza9a7b(cIbYbtb)bHbkbRb+cab{b\b-b$ayapaCaTbdauava\aNa5bdbIb<cmcpcscBcGcBcqcycQcZc2cZcUcUcQcWcWcYcYcYcWcWcUcYc3c3c3c3cWcUcWc3c3c5c3c3cYcWcRcOcKcsbyaUa$bGbpbea~a]a]bea~a>a#aObDcxcOcUcWcYcWcWc0c0c0c0cWcPcLcvcqclb,b%b]b,bya,a$aWaLbma]bhb]cCcKcKcCccbZb_b~b5bGbJb*ckbSa]a)a0aBa%bjaLbzbFbHbBa_a}a8bka~a[bza9b]cqczcHcKcOcbb!b8b}b[bBb|cAbra#aWa2cBcob9btaEauaAaBa8a.a]bqbNa6aBaSaYa0aYbLa6a%b&b.b>b(bCbEbCbCbKa7a+b8aEaEbwcjcga%aSb/b?bLa6b<b.bMa?a2a!a?bjbNb4b!b1bga/bsa)a{bIb1b0bnbUbUbkbbbKbCa/a{bAa%",
"cabnbEb{bIblcab0a{b6bCbdbIbFbIbIbCbva|a9aTaEaCaIa9bIb<cacacmcjcdb{bsa;a^bPa=aVaKa;b(bbcab+bfb|bFb2bYa)aTaYa5asaxaXa9b+cacqcFcNcVc4c7c!c!c#c1cdcdb)cjcNcgaybLclb`b!a0avataxazaVbdbLbrbRboa&a=b0b1aKazaVaTbdbzb<cmcqctcwcwcAcDcGcJcGcNcYc3cYcOcOcYc5c3c0cWc0c0cYc3c0c3c5c5c2cXcUcWcWc3cYcYcYcYcUcOcHcxb*a>a*a~bubybpa}a~a]a]a.a>a]a*a:cccHcPcWcYcYcWcWcWcWcUcUcOcCb~b;ckcocfb=bma>a$aSa0bybZbGbZcrcEcEcEczcocicocibSbmbSb5cccscrb;a~a8bhbGbYaUbBbNbkbgbcboa6bEbQa[bRa%b`ctcCcOcOcOcOclbGbga^a)b7cScbb^a[aPcBb[bCaCaTaxataPa,a:a$a`a8a:bGbZbJbha:bxasaLa=a+a%bkb{bRa-bTaRbvaJa%a=avaNaVaNaQa_b|cybgaYb+b:b)bYbQbxa}a(a0aYa*bgbFbLbFbsbHbHbsa<bFbEa<a}bRbCa?b6b(bnbL",
"bTbrbTb2bIbWbTbKbKbIbzbvbda=a!a1aTaGaEaTa9bdbTcgcScmcmbTa&a9a&bdbCbWbLbib9b{b^cdb|b(bAcSb(aNbIb-aPa^bla9aRaRa3a9aXa9cgcycNcVc!c%c#cVcVc#c#c8ctclcecycmb9a#bFb|bcbiaRa7a/a&a^a7a1b$bKa_ctb|b9b<bIa{aNbTb8cab{b:cGcAcbcqcDcDcJcPcScScVc1c1c2cZcYcYc3c5c3cUcUcYc3c6c2c2c2c2cZcXcZcZcYc3cYcWcUcPcPcCckbuaPa#a~bGbJbubha~a~a~a]a~bea,a6b5cEcPcXcXcYcYcYcYcWcPcHczcrcfcfcrcxcxcca<a$bZb;b5b#b_b=cscKcKcCcrb=b_ckcrcscibua,bmbOcocCcCcCcob]b:bGbKaPcabxa0bia7bWa^bAbRa}b0a)b}cucEcKcPcOcGcvclb\b>b!b&ceb-cpa6a#cjb)a|aPaTanawa8a8a$bcboa`bubZbZbJa~a,a/aJaPa4a<b0ctbTaGb1a;akbwa{aQaNara*bsbxbUcmc4b>a7a5aZa2a/bKbIbFb(bXbNbAa_a(a2aWaZa0a#bbbtbHbLbBbHbQbQbkbGbAbsbnbW",
"a-a;a/a/a;a&a7aZaVaTaNaKaIaQaXa&bdbTb(b{cactc%cBb<b(aTaqaTa;a|bzbvbibwb1b-b|cmctctb^b$cuaIaIcgcVbaaoa9a/bCb+b9b(bia9cgcIcQc$c&b$bYctcgb<cNc4cBb!cqc1cgbCaJb<bkbsa^a1aGazaTa&a=bKb9a^aQa&b1b8b<aZaJbnbYbYb:b|cbcqb0aRbUcqcuctcncNc3cYcXcZcXcZc3c3c5c5c5cKcQc2c3c5c3cWcZcXcWc0c2cZcWcWcUcUcOcEcCb_a.a6a>bebJbObJbma>bha~a>bebmbea.bjcwcKcUcWcWcWcWcXcXcQcCclcrcocib;b_b_bua.aYb;ckcfcocCcxcEcOcOcEcib_b%ciczcCcxcfbZbGbOcocCcEcKcKcxb]b&bUb1aPcabfbfb/a7b0a{b2bWbib2a/cbcwcEcOcPcPcGb)aYa3a2a:b[cnb)b.bHa/cbcnb^a1ayaraHaUbMc#ctbQb:b1a~bGb5b3bsb7aDa{b7clbIbfavbTb$bvalaVbKaxasa8bHb!cacycjbfaTa5a4a#bga}a,bpb|bHbyb:b&b&b)b)bUbga6aPaPaPaWa0a#a8a#a*a;a=a=a\a/a%",
"aRanataEaKaTa1a9a=bibCbTb9b<cacmb>bCcgcScgc8cVa|aGaXaEa&b6b{cab9bnbzbzbnbvbCbKb6b(b$a{aJaOb<b^bWaVala&bdb(b|c4cNaQa/cpcgcnc*bvazc8c!cda?bFcVcIcmc%c!cga;aVbTbna-aBaya3bCb+b<b+cgcycmcgb$bFa_a|a-ata%bUbHbTbCaOa=a?b(b4b^cAcjcabXb3cwcNcAcTcXc0c0cYc3c5c3c3c5c3c3c3c0cZcXcXcZcWcWcUcQcKcHcCcobVaYa4bDbJbObObJbha<a`a]a<bebja~bxa$b%cKcQcUcWcWcWcWcUcQcEczcvczcibOa>bMa.awaJbZckcfcrcEcOcOcOcKcsbSbScocCcCcCcCclb*b*b,cccEcKcMcKcKcKcrb%b|cmaWcpbFa/a|bfbibrbEa=bzb6a-b}cucEcOcPcOcHb=bxbFbga,a,a,b*b]b(aXb!b`caa)arapaPazcqc)c7b2aAb)bRa4byb*bybQbTa+a{bibibvaEa=bzbia9akaraza9a=a,a-a6aUaBaHa/bbbjb)b`b[b4bBbRa8bgctcgbRb$bRbXbXbRb4bybJbXbQbHbsa_a.a%a6a0aPaJa;",
"bWa5a9bvb$b$b-cgcmcpcpcqcqctcucpb9brc$cVa^bKbaaGa&blbiaXbxcmcpcqctctcycycpb>b6bWbPbWb$b)b[b)a^aZaMaMa&bna{b0bCaOa^cacVbKbAc#b9aFa&a)aXaua|cmcAc%c)cpbCaQbna\aRasaTbKb{cgctcycJcNcSc1c1cNcDclb+bPbtbxbsbHb!b4a:aBa#bdb(b{b/b>b0aTa[cgbIbAcncBcQcQcWc0c2c2c2c2c3c3c3c0cWcWcXcXcUcOcKcCcsb=bDbha6a`bybSbVbJbha>a<a>a`a<a~bjbhbmbya]clcKcQcUcTcTcTcQcMcCcCcCcsb%a`bebObDbybJb%b~b%b_cCcRcUcQcKcEb~b*cscEcLcHcEcsb=b]cfcocscEcMcMcKcCcCcrb?cecma0bAbIbzbtbEbrbkb(b!bHb2a+b}ctcEcKcKcEcrcfb=b,b%b%b&bua>bDb6bna[b`cyb)a3aKaPaAa6bsbza2awcybWaFbFb`bza9aLa9a+ata-a8aLa0aZaNaVaoaSbjbca<a#a4a*bsbSb*b=b]b=b*b\bVbsb1bXbHa#a_boa<cdb4a/bPa=a#bocdcncqcqcrckcfchb:b8bNbXb$",
"bUb)b.b.bEa5a5b+cAcBcDcGcJcGcmcdb)c*c(b\b/b|b6aZaJaZa^b0cacyc1a}bWcBcBcgb?cIcGcGcIcIcOc%c(b4bCaHbibabna{a;baa\bKc2c)c&cgbdbEcqb/a}a5a5btcoc&c(c1b9bPa&a\a1avazbab+cgcpcBcJcNc1c4c7c7c7c4c1cZcVcNcLcvcdb$bLbca+a0a}bgb1b?bfaAa}b9cFcjb&bLbga[b~cOcUcWc0c0c3c3cZcZcZcXcXcTcUcPcCcsciccbya4a,bpbGbVbObGbqa}a>a]a<a>a]a]a~bybybDa[bscCcOcQcQcQcOcLcLcKcEcCb_bma>bDb%bma~ckcob_bOa~crcOcQcQcUcOcHcEcMcMcMcOcOcHcob_cocrcfcicCcCcrcscvcscsckcfcjaWb9b4bwbzbEb+a|b0b!bxbWa!b`ctcvcxcscocfb~b*b%b=b,b;b_b,bya.bsbFb7cbceb+bKbfa%a`a4aSa#cdb9aPa0cuctb-a&avaXaWaWaYaPa2aUaPb)a|a+a~b&b*b5b3bMbNbFbxa_a]a~b>b$bAb$b8bNbcbcbLb7bBbFb&cdbPa+baa{bQcmcscvczcCczb3bFb>b>bXbvbE",
"bNb4b/bfaAa3bCb|cBcJcLcOcQcQcecwc7c&a^a3a+aXaxaCa)b(cmcucuc1cVa}a;b|cyb6brb>cqcBcBcTc!cybCb{a0bkcqctcycBcBcFcqb&bEbIb)cAcjbra-bzb$b/cgcycFcgb6bva\a3aMaCaAa+b6cacjctcJcSc1c4c8c#c$c$c#c!c!c7c7cZcVcScLcDcucpcab.bUbxa}a}a_aFa*b4cqcNc!b2a7bIbcbcbScEcQcUcUcUcWcWcWcPcOcKcKcCcob]bSa8aUbhbSbZbZbJbubma>a<bea.a_a`a$a]bmbJbGbha8b:cHcMcMcOcOcEcCcHcEcrb%a~a]bhbSbma`b_crcob#bmbMcEcOcRcKczcEcOcRcRcQcOcQcOcHcsclb]cib~b=ccb=b*b*b~cfclcececmaScgbra+b2a?b>bwb1b&bBb2a#b|cpcocrcsczczcsb=b,b*b%b%cfcocibJaYa6a8a8bgbRb4b6bfa*bUb-b2a2aya8cmb<a\aVaTaPa\b7b)b)b!b1bUbcbjbIa^bLb4b2b2bUbQbxb.cBbvaPa/cuc4a[bQceceb\bUa/aSa8a_a(bgb!bcbzaWbXcmcrcxcCcEcEb=bHbsb+b$bIbK",
"bTbTb+aTa5b+cmcycGcNcPcTcUcWcAb.c#bJa5bIa+aEa&b0cacmcmcjctb}c4cmbPbtb/b(cdb$b|cJctb>bvbkcja/a7cgcBcNcVcVc7c$cIcqcpb-a^a?b$b{b/bAa;a8a1aTaMaKaGaEaBaEaXa)bvb{cactcBcJcVc1c4c!c$c&c&c&c%c$c$c!c7c7c1cVcNcNcJcDcwcqctcqb|bQbgbHb.b\b/bfa;biaOaZaRa3bscdcscHcMcOcQcQcRcMcEcrb*b#bGa.aLa8bqbDbDbGbubja]a]a~bma.a]bma<a:a]bqbMbJaWa$bJcfcHcHcEcEczcrb%bLa.a$a:a,bGb*bZcccscrcib5a8a,cCcMcEcscrcHcQcUcUcUcQcQcMcrckcib%ccckb=b,b;cccccCc7cFcpb}ctaVb|bkbzcdbfb?bUcdb!bFbWa7b:cjcbb`coczcEcsb=ccb,b5bOb]cob]b3bebgbca0awaoavataqarawazaSa*b$b(a+aIa?b.b|b-bXb&bLbZb*bMbua*aYa{bTbCb6b&b8b^b7b+cmbfa\aSb>c(b?aHbFb&b!b`b`b[bYbjbYb)bybNboaJa0b^cecoczcCcHcLcLcEccb4b$bAbL",
"cdb(b<a=a)cacqcFcOcQcOcXcYcWcSc7c4a0bna9aIbib>cyctcab+b<cqb+b-cucJcjb(b6bTbKbEbzbvb0cgb>a1a7b^cycNc1c4c&cNa=a;aZa5b6cybWa!bKb$ctcdbYbFbxbibkbnbrbWb<cqcyctbCbacycNc4cVc4c4c!c&c(c)c)c&c%c$c!c!c7c1cXcTcOcOcLcHcHcEcCcBcucjb)bLb4bCaCaAbIcgb^b8b8bRa7a,cucEcHcKcKcKcrb;a]a#a<a6aFa6bmbqbqbma~a`a>a]bma~a<bhbqa~a~a~bqbubDbDa>a.a*a#b?cCcrb~bZa]a8a2bub,b,cocEcEcKcEczcrb=bua$bucxcCcrcrcKcUcUcUcUcUcPcQcvccclcfb=cfccb=b]b]b;cwc*caaVa%b4cjaYcgb1bgbFbLbFbNbRbgbHbWa3b$b^b:b`cockb=b*cccxcsb%bZb_ccbZbHbXb/b^b!bsa%a(a#a,a<bkb\cActbdaEazcmcNbfaEaJa0bxb:a[bHbMbGa>bea6a*bRb$b4b4bPbIbva\a/bvcIc4bCaPa;bwa+brb!b[b;cfb|bJb!b&bsb4a^a=b:b}cecqcvcHcOcPcTcsb`b-b2b$",
"bvaZbia-aUb-cqcHcNc4c#b(cccZc4cqbra|bda&bIb{cgcmbvaNa5a/a5a7a^b1cgcyc1cIcVc4c4cFcmb(a!aVbrcdcwcJcVc4c4cNb-b2c!cgaMaCbIcybnaZbrbKcpcabNbUb(b<cgbWbFb-b>bAa9aZbdcmcycVc4c8c8c#c(c)c)c)c(c%c$c!c7c4cXcXcXcOcMcHcKcKcMcHcCcxcAcsceb1a[bhb.cBc7b(bTaJaMaIa-bKcccCcKcxccb*bJbJb5byaSaBa~bhbpbja]a>a<a}bma~bhbubya`bqbGbybubhbGbea(a6aWaSa%a~a,a.a>a[a:b#cxcCcKcKcHcCcCcEcxcibZbOa>b*cCcCcHcOcPcOcOcQcQcQcOcJb}cfcfb=b#b#bVbZb,bSbVclcKbEaza0btcjaYa}bwbEbEbIbzbkb/b)bFb0aVbtbrbGb7b#bVb3cicCcEckbSb,b*b_b%bFbKbobHbYbNbLb&b$bKbbbXb^b^a3aTazcqc4aVahaDcNcubbb8a%aPbybMa.byb*bOa_a:bxbUb7b)b(b$b+b/bPa^aPaAaDaUaYaQa;bWbRbHchchb-bKbka|a?a+b4b)b\cdcecvcHcOcZcqb\bsa9a[",
"bta-bbb|bYb/cncAc4c7b+a7b}c(cNcjb^b0blbla=blcjbIaZa)cab2bRb$bPbAbKbEa[a<b^b7bfa7a;a\bKcacucFcNcVc1c4c8cpbPbWbIbiazaub(cqcgaIa5bdbLbRb/cab-bWbPbvbba{a;a{b0b>b+b<a;cgcVc8c8c#c%c(c)c(c(c&c$c8c5c2cTcQcOcLcOcOcOcMcEcCcEcEcEcCcvcob*b_b|bUbia&bPaCaWbibra9bjccb,bSbOb*b=b*bFa4aPbmbqbea`a`a]a`a`a>a>bmbGbubhbmbMbGa}a(bqbsa6aWaSa4a4aYaWa,bZbya,bucscCcHcEczclcocxcCcsccbZb,b~crcEcMcMcQcMcCcQcTcOcKcCb:b)b_b;b=b*b5b3b,b_b,bZb.cyb-a<a6b4cmaYb^b$brbzbsb+bbbLbXbrbTazaSa3aPbyb;cfcxcCcEcrbOa]bhbJcsb\cgb/a}a#a#a7a,bobrbPb1bdaQaIaFaPa.c*bWa3ahaAbEbFa\a0alaybhbQa~bZb_cfccb3bja4aUa2a*a?azaPaYaWaOaYbsbUbJbYbNboa*bob(bwbIbnb&b8bja}b:b8b&b?b&bNcocEcJcJcuaWbpbx",
"bia;a=a}b9b2b2bWbKbdbFcIc)c)cIbXbdbda9aNa5a1cacmb|cpcBcNcNcNcGcqb|b/b-b{b4bXb$b|cmcycIcIcJcSc1c1c1c4c7c7cqbNa;a7a5bEcNc$b>azaRblb$b?bWb-cab-bKbrbvbiblbvbvbla&aEa&cacNc4c!c!c%c&c&c&c%c!c!c4cVcNcGcJcHcOcKcKcKcHcHcHcEcEcKcEcCcCcob=cbbQa8aXbEa-b+bLa0a=a5a;a<b5b=b=b5bya0a6bDbma]a~a~a]bea]a]bmbhbybSbJbqbqbya`a.bha%aPa2a8bqb*b*bya,bbbhbGb#czcHcHcCczcvckcCcHczcob=b#b=crcKcOcRcQcQcQcUcWcTcPcGcnbUb)b]cfb=b,b,cCcJcpcyb|bUb\cbb.bjbQctaWcjbna?b6a!bWa+bCbRbcbWaJa^bibMckcxcCcEcCccbma>bha>bObha:bgbcbfbia{bfbrb1b{b>a;aNbtaXaAaWbsc8b(a=aFaBaBazasaqaJa]bGbpa~b=cicockcfb=b#bQbsa~a>a_bga_a[bJb;b~b]b\chclb_b]clbRa7a7a\bobUb[b}b[b\b:bUbsbgbHbRbXbXaPa9bBbt",
"a{bda7bfa+bfbPb(b}cIc7cPcjbUa^a&a3aKaMa\bKb+cqcJcNcNcOcTcXcXcWcWcTcTcQcOcNcJcNc4c!cScNc1cub<b<cqcwcJcucAcFcFcqceclc#c(cjbnasa3bKb{btb6bvbPb>b+bWbzbzbIbrbvbzbKbvb<cucJc4c8c8c$c$c$c8c!c1cNcJcJcNcKcKcOcHcHcHcMcMcQcOcHcHcOcHcCczcxccb~b;aYbBb`a8bEbaaWbiaFaPbyb3bZbDbeaYa>bGbpa`bca}a*a]bSbZb*b,b3bSbJbybha`a$a,bVb%bJbmb3cocxcsccbSbObMb=czcPcOcOcCcucqctcAcCcCcsccb1b7cccCcOcPcTcXcUcWcXcTcUcOcHckbVb1b,ccb_b,cNcdaQaVbabIbAb$b.b[b8bNcuaYcga}a{b(a?bLa|b9bsa}bFaVb!cdcococrcrcob*a$aWbhbhb#ccb_b;bFbca}bNb2bWb+b|b8a=aKb1a!aBaYbea6cmcBb9bIa)a8a8a8a*a<bGboa:bMbGb;b=b`b:b)b7b1b%b:b;b.b!b8b/cicocbb7bYb?crczcCcob[bua5a-bcbobBbNbUbQbLbUbXbLbsbba7aBa7a+bRbr",
"a!bka;a&bAbka%aXaXa0aZaWaQaNaIaMaXbnb<cjctcFcJcScTcXcXcZc3c3c3c3c5c3c2cZc7c#c#c7cSb<b/c$c(c%ctcwcdb<b|cyb(cdcGc$c&c4b<a{a9anbfb-cIbfa-bKa{bTb$b9b1bTbzbEbPbPbva9bnctcJcVc4c8c8c!c8cVcJcIcIcJcXc1cTcPcOcOcOcMcMcOcQcOcJcJcOcHcEcCczcrcbb}a{a7a-aYbfaIaoa*awaFbmbSbJa$a4a~bha~a}a>a*bebOb;b_b]b%bObqbha~a<a]a*a.bmbZb]cocscCcfb:cecscscCcRcPcPcPcOcOcPcHcxczcCcxcrcfbybGcfcxcHcPcTcUcWcUcWcTcQcQcMcDb}b5bZb3b~b=b=cmaRa?bTa^bPbwbXb`bob1bGcwaYcdbPa^a\a{a?bgbna8bnbKa1b)b&bja~b3b,bqaWa.a]a$bZciccbZbNa\a?a}bsbUb?b!bHbiaJbEbbaFaXa2a_aqbVcjb`b.b|b|b)bHbNb|bBbtcdcjb^c1cJcmbHb\b\b)b!b!b)b.b)b]cocscrcfb_b~cccfb_bYbUb&b:b=cocfb3bxa_a)a7a2aYa0aZaZaOa3a{a5b2bobE",
"a;a8b6bzbdbEb$bEasaZa/a/a{bvbTb+b9b$cgcwcGcJcVcXcZcZc2c2c5c5c5c6c9c$c$c7c!c$c%cSb+a/aPa|cucVcScVcScqcqcScqcgcmcab2bia+a9ayaKcacmc$bdaZb(a|a;b$blb6b^cdcgb{bWbfa!bKcmcBcNc1cVcVc4cScScVcVcVcVc2c2cTcPcQcQcOcEcLcQcTcOcQcQcOcOcOcHcEczcfccbkaOcab4b/a-aRasala0bua]aYa$a~a`a:a]a]bjbZb,b]b_b=b5bGa~a:a[a~a]bebqbybMb;cscHcLcsb.cccxcCcPcUcQcOcOcQcUcUcUcQcQcMcvb`b*b5bJcfcxcLcOcScScTcTcXcTcTcTcOcCcdb/b)b}b:b5b*bJb8btcgcmaZa/b8b`ctbta:a4ctaWbbbtbjbba^a?a2bHb1bAb0a1bnbja~bMbMa2a>bpa*bhbOcccxcxb=bxa8bbb1b$b6bEa%b1aGa?b\aHa6a;a7bPaOaWb2bLa/btb&b/b?cAb|bHcec8c4cBb>bKaSaSbUb}cscrb`b)b5b3b;ckcscvccb,b#bObja;a}b4ckcCcHcEczcvcob_b3bybha`a.a4bKbra|a-b+b+a/bW",
"a^a-bib+b9b>b2b9a/a0b+cjcmcqctcucgb{cqcFcJcScWcYc5c5c7c7c!c#c$c7c1c1c$c%cNb+a+aGaGaVa1a?bPa;aZa)a^bibvbdaZaJaTa1a3a7aZaxaKa=b0c8cgaub2b+bTa1b8b0a^b|cgctcucFc$bIa&cacycJcScScScVcVcVcVcVcVc1cXcTcPcOcLcEczcscKcPcQcQcPcOcOcOcHcHcKcEcrcfbPaya(a-a^ayaRa;ata0a,aHa,bqa_a$a(bjbZb,b=b]b]b*bOa~a>a4a<bGbybpbubVbAa)a}b|cOcWc3cYcPcKcOcPcOcHczcKcQcUcUcUcQcOcKcxcib=b1b8b%cscKcPcTcTcTcXcXcTcUcQcLcbbBb\ccb~b;b#b3b*b7bqa{a%a$bGbycBcIa#atbccpaUcabUa-a^a;b1a\bFbXbAb0aza4a_bDb3b#bMbGbbbObZb=cxcKcrb[bgb8b>bTa{bwaPbda^asb(b\a%atbba&a+aFaSaPaYa7aOaVaJaRa9a{bibIbKa\a%a}aUaiaAaQaUa$bsb%cfchb`b)b)b]b_b\bSbwb4b!b4ckcEcKcOcKcHcEczcxcvcnb}b.b!bHbYbbbib&cjb>a5b2bR",
"a_b$b!cga5a7btbia0a2b<ctcAcDcGcGcJcDcAcFcDcNcZc7c7c9c7c7c4c7c9c$c!ctbWa&aZa5a\bIb0b9b$b>b6bfblaZbKb2bnbtbzbtbvbfa7aCava&b(b<bWbkava9cybEb2azb(c#aQbKb-cmc!c(c*bIaRb<ctcIcScScNcScNcNcPcNcQcUcTcPcMcMcEczcEcHcMcOcOcLcOcOcKcKcHcEcKcCcxcobHapava6bna8aBaQaJaPaFa.a~a$a8a~b5b_b]b,b,b*b5bSbja4a2bVccb_b_b_b.b3b-bNbbbtcbb}b&cpcHcHcHcEcCcsczcOcUcUcUcWcWcWcUcOcCb*a0a*bMcocMcQcUcUcWcUcUcQcOcKceb3b`chcbb`b5bZb,cfcocfb#bMbpa.bMc(a{apaYb$cmaScga_a+b1a0bEa/b1b-bFbRaJbVb[cscxcscibZa`bGbOcicEcRcscbbHbWbFbfbIa?anb$a0ambJb1brapaya3aXaBa~a`aWaYa_a_a_a;bba{a5a;a!aiaJaSa6a}a.brbLbwbnbga<a[bBbFb/cecbb|b!bVb)b;cccvcEcKcKcEcCcxcrcib,bYb&b;b~b&bea2bfa0a)bfbCcmbU",
"b&cSbocaa?aHblblbCb<cmcAcEcHcNcNcScVc1c4c7c1c4c7c4c8c$c$c8cwb-bcaXaVaVbab2bzbdbKblbKb+b2b6bTb+b9cmcJb+bAbzbta9aGaxaXbTcacpcycdbTb+b<b6a1azaZb>b/axa&bza|bWbfa-aGa!cactcFcNcNcIcLcOcOcLcOcOcQcQcQcQcMcHcQcOcEcHcOcPcPcUcPcPcKcHcEcCb=czb_a(aoa>beaHaDa8a(aJaDa6a.a$a*bqb*ccb_b=b*bZbDa`a8bmbSb=cvcCcEcHcEcCcCcCcxcib*b!boa5bTcvcEczcrckcxcOcQcUcUcUcWcWcWcUcOcvccbbazbqcicCcQcUcPcUcUcRcRcEb_b#cicvcfcbb[bVb*ccb_b;b;b=bZb!bQcBbLara[b*b\cjaScga,a6bEbbbUbHb-bHbHb4a#b`cqcxcCcrb]b3bhbqbOcocCcRcKb=bJa|a;a3a7agaqbaaBagaDbnbraqaWa$a2a`bGbGbhataAa4bHbQbLb7cdcqbKaBa/a[bca/bKbibfbcbrbxb&bEa#aWaQa;bwbWb2cdcgb/b8b%b;b=b;b]b#b7b:b_b=b]clcococfb*bLboa*bWbIbacJb/",
"cjbfanaQaZbzb>cmcucycBcNcPcPc4c7cVcScVc4c!c$c$c7cJcgbWa^a3aRaZa&blb<bIb6bIa{b(b0b(bnb6bLbCa)b9cjb2a&aTa=a&aAaxa3bTb{cmcBcJcVc8c$c#cFbva+bIctcmb6bCb{b<bKbva=a;bvb(cmcycBcGcGcDcLcLcOcOcLcLcLcQcUcUcQcQcUcQcOcOcQcRcRcPcOcMcEcvb_bmbGcsbuataBbea8a<bObxaUaBa2a$a>a~bDb5b]b]b*bSa,aOaYa.bOcccCcOcRcQcQcUcUcOcUcUcQcPcPcCcobUa_b_crb~cccscMcOcRcRcUcWcWc0c0cWcQcKcxcnaUa`cccrcEcOcOcQcQcOcsb`b:ckcscsclb,b3b*b_bMbDbDbDbca_c(cNbraPbHcjcccccjaUb(bia_bxbFbEbFb2bAbTb1a%b~coczczb]bDa~a<bmb]ccczcCb~b_bVa\aYaQaxapaBavasaUa$a4aPawa`bGbSbSbDa~aYa6bya]a2a4bGbHa,bEb-caaYaFa;bRbEa[b9bYb7aXbfb9bfbra9a)a3aYa5a=bEb!b\cechceb)bHb$b\b`b]b*b;cccfcccccicicccbb&a}a[cacF",
"aLaya+b$cdcgchcucLcPc2c2c9c#c7c7c1cNcucdb$bia%a0aOa3a9bvbIb0bTb9b6b9bPbfb(bvbvbIbia=b2a-a^bzbxb^aXaza-a?axaEbCb<cgctcIcSc8c8c!c(c)c)c&c%c%c(c)c(c$c8cScNcBcyctctctcwcAcBczcvczcEcCcrcrcEcAcLcHczcHcOcOcQcKcOcUcOcKcEcCcsccb5bDa>a8crbYbSa^bBa[aYbja_aUaBaUa8a_bsbybSb,b,bSa>a8bubyb#cscKcOcRcWcWcWc0c0c0cXcXcXcXcUcOcHczb.aSbnbwbYcscMcMcOcQcUcUcWc0cWcWcWcUcUcHb)aAa*bAb*cvcMcMcMczb&bYb_crcrcfb`b7bSb~b;bha$a~a#bha*b?c(btaUbWckcrcocicgaTa+a{bnbzbzbEa\b+b.bFb$a)b`cqczcvcibGa>a~bhbJcicCcCb_b_ccb.bya.aLa2a>a~bhbybybJbubybZbZb5b%b#bmbJb=b=b5a]a4bmcdbkava2a|aTa7a|a_b$bfbKbWa^a#bIbvbKa{bwbxbxbrbPbzaYa-aVa4a.bBb7bLcdcscwcCcrcnceb`b}b~cicockcccickb~bHbs",
"cJcScVcNc1cVcScNcJcBcucjb>b9bKbka-a9a-a;a{a/bibLb6a|b9bzbdb0bTbTbfcabKa|b9a^bdbdbibzblb0b{b9cyb|aTa)bzbdaEbCb{cgcpcIcVc8c4c8c$c(c+c,c,c,c,c,c,c,c+c&c!c4cScJcJcFcFcFcEcCctcVcJbKbsbHb8bwcab|b8bvb\chcBcpcNctbQbYb1b&bga8aWa,byb#cscEb}cjbwa4bHbHbbaZa6a:a<bcbebjbMb%b,b5bma>b,cvcMcUcTcTcXcZc2c2c2c2c2c2c3c3cZcXcTcPcMcCcnb3b4bXb}cwcHcOcUcWcXcXcWc0cWcYcXcXcOcEb\a~bgbgb=cEcKcHcwbQbscdcscobVbybyb#b.a,aWa*bhbSb.cba(cIbPatbUcncscvcrclcaaScabTa)bfa|b|bwb4b)bHb$a)cbctcCcCb]a`bhbqa]b3cxcKcEcscib,bca#a6a[a`bybObZb5bSbZb,b,b,b*b*b*b,b,b_b_bZa.bQb_b;cScJaQaQb&b)bFb&bobBb&bYbnbibIb2a|bKbwa-bfbIbFbibXbEa^b$b6bEbrbabba{a!a)bsbAbNb4b.ccckcrczcEcOcOcHcEcEcz",
"bba^a|bda!a9a&a1a5a&a=a?a\a9aRa\bEb9bzbrbTb0b2bPbCbWb>bkbfbIbTbCbdb2a=bna^a1a=bCb6b9b(b6a\aVcSb6a{bEbvbIa-blcacmcycJcVc8c4c!c%c&c+c,c,c-c-c-c-c-c+c%c!c8c4cVcScJcNcPcOcrcIb|a)a;bFb+cga5b1a?bPcFa7a+cub$bIa7a+aKaLaUaYa[bOb=b=ckbQbpbaaOaHavaYaUa)aFaLbxb=bDa`bObZbZbJbjb5cscKcMcUcWc0c0c0c3c2c5c5c2c5c2c3c3c3cWcWcQcMczckcicrcschctcOcQcTcXcWcWcXcXcWcWcXcTcOcHcvb_b3bDcicEcHcxb\b?ckcocbbybyb*b_b%a>a4a]b3b,cccGcJa_b^aJaUcccocrcscrcrcgaScjbnbnb|a%b/bwb+b-bAb9a)b}cqcfb;b3a~b5bybGcoczczcrccbSaYa(bqbGbJbOb3b%b,b3bOb;b]b_b;b)b)b,b=b~b5bsbLb_cvcqcucaa&aGa;a_a4bpb.b`b\b:bUbkbta?bda|bdb9a-bLbNbIbbbobUbcbLbUbLbfbAbfbFb4boa^a9a7a#a+a%a:a/a(a/a[a^bpa}a|bg",
"a;a|blbCa\bTbvbzbCbvbvb9b/b9b9b|b&bkbCb6b2bWa|b0bKbIbzbIbIbnbvbrbCa-a)bPbTb+b+b0bzbda-aVatbvc4b|bib6b>bIa3a&b<ctcBcJcVc8c8c8c$c%c)c+c,c-c-c-c,c,c(c&c!c!c8c4cVcVcVcVcOcsbPa+bzb/cdcqcdb!bQbob$c)a2a^cya&aPbKbYapaPbqb%b]b_b=b~bZbBa.aOaVa&a0aHa=a2adaHaSbFcNa}a2a]bJb3cfcEcOcUcWc0c3c3c5c5c5c2c5c5c5c5c5c3c5cYcUcOcHczcfcfcrcvcsclcEcOcPcUcWcWcWcYcYcYcWcUcUcRcMcCccbsbQcrcCcscccccxcvcibFa_b3cicfbOaWbmbZb5b`clcqc1bIa+aJa<bXb1b~cvcscocda0cIbza;bEbnbPbKbRa{btb0a&b|cja]bqbVb*b_byb5crcocib%a]a4a.bObSbZb#b*b*b,b,bZb]cccfcfb~b_b]b_b%a_a(b7cucHcHcAb7a}brb8b?b!bBa<a(a_bBb4b/b\b?bUbHa{a5bibXbHbrbibrb2bfbsbLbHa2bPbFbFbkbkb2bIbzb4bNbibKbibwbxa_bia}a?a^a}a\",
"bTbCb+b|b6bfbTbKa\b6bPb0bib(b0bzb9bxbcbxa{a/bibPa9bvbCa?a+a+a{bEbRb$b?b9bTbva?a3aMaCaGaZbIctcBcJbKb6b$b6b?b.b4b{cucJcVc8c8c8c!c$c&c)c+c,c,c,c+c)c)c%c!c!c8c8c8c4c4c1cOclbfbnb$ctctc8c4cFctb:b:c(a,a`cmaSa[b|ata#b~csctb!bpb\b{bfa(bga_bFa%a+bQb`araqaGazaPb-cjaPa>cecscEcOcUcYcYc3c5c5c5c5c5c5c5c5c5c5c5c3c3c0cUcBb?b)cmcsczcrclcCcMcOcUcWcWcUcWcXcZcWcWcUcUcQcMcCb_a>b:czcxclclczczclbya;bsb=cfb;bya>bVb#b[cmcgb}cjb$bUa,a/a\bIcoczcxczcpa7b<bXbAbAbEbsbtbPbsbBbWa7b|cgbqbyb;bVa<a>a>b3b]bua6a>bObObSbSbVbZbubJbVb%ccclciccb~b_b]b=bYa:bub|cxcHcLcLcLcOcEczcscrcrckb`b3bia8a5a%bbbEbYb&b)b!bXbRbBa}btbzbfbIbra/bUa}a{bdbna-bAbwbpbpbWa)b2bUbKa^bFbHbrbRbxb9bdbC",
"bTbEa/b^a?a\cdbTbdbibvbza\b(a;bWb6bzb2bka;bibna7bibzbibEb(b{b/b+b0bva\a!aXaNaNa1a\bKb9b6bWa-cjb8aJaZb8b|b>bbbKbzbCcycNcVc8c8c8c8c%c&c)c*c+c)c(c(c%c8c8c!c8c8c7c7cZcTcOcCb)bga\a\a}bAb/cJc(c8b3b:b-a6b&a4a}bga6cbcVb}bxb!bVbUa}awa*a`a4aBa[c!cgamalb[b+a}aSbgb`bsa6b\cvcEcRcUc0c3c5c6c7c5c5c5c5c5c5c3c3c3c3c3c0cUcLcechcBcCczceclcEcKcQcUcPcEcxcKcUcWcWcWcUcUcOcKcvb3b5cvcrcocxcCcCcrbBa2bOciccb,b#b,b=b,ccb~b=cPb}cBcaa{b.cIbpbJcrcEczcxcma7bEbRbPbRbRbYa?bWb1bkbTa7b{bWa,b3b5a~bGb%bJa]bha~bJbZbZbZb5bZbObJbOb_cicrcscocfb~b~b]b=bJa,a#b*cvcEcOcOcOcOcOcLcHcEcEcCcsckccb.b.b4bbaZaJaXa4a/a|bAbXb1b1bXbNa|a|a{a!bkbFbibfbCbzbEbEbXbwbYa:bLbLa}a[bRbUbnbKb2a+bCbK",
"bva&bla|a/b(a{bvbCa|a;a+a{a9aZbfa9a\a?a|bvbPbWb-b{b+b9b0bEbda-a1aTaQaTa5a{bKb(b{cacgb+blbTb0a&azaIaVbAb(aXa7a-a/aVcgcIcSc4c4c8c8c8c$c%c&c(c(c&c%c8c$c8c8c8c7c7c2cXcOcCczcNb/brbFb6b6b+b/cqc4cwbYb1a>a_bcaYbwa,b:a7ajacaYb(a}aTaraPa4a4a8a6atadaeawb>cBcAb4a4cdb\aUbCcoczcMcUc0c3c5c5c6c5c5c5c5c3c3c3c3c3cYcYcWcUcUcQcOcHcFcjb9cacKcKcPcUcHclcqcIcPcUcWcUcRcRcKcxb.a(b~czchcqcvcEczcca-a8bDb_b=bOb]cocrcrcicccMczcaa=atbIcwcNbNbUcecbczcscga3cBbKa&bFa{b{bzbEbRbbb0a3bja%a,bJa~bJb3b5b*bSbJb,b*b5b5b5bObZb,cccscxcCcxcocfcbb~b\b:b5b3b5a~b=cCcKcPcQcQcQcQcPcPcNcGcrcfckcib\cbbQa_bgbobba[a*a#a0a4a%a[a}bobKbXb!b4bPbra^a)a&a5a/a7a+a/bkbobfa7bkbkbEbob+bkbFbKbda^",
"a&a&a9a?a{a=a9a-a{bvbnbkbvbvb9b9b+b+b/b{b/b+b9bKbaa-a3aTaQaVa7a\bCb0b+b{cacgcgcpcab<cmcJcFbvaKaVaEazbka0bkb2bkbKbKbHctcNcSc1cVc8c8c8c8c$c$c%c%c$c8c8c8c8c4c1cXcPcKcxcibGaTaZb-ctctcBcwcjb1bjbBb:b3bJa?a:a.a_a~bhaRalaDaMaAarazaMaWaYaXaVaPaNaJbtb1b!cJc%c4a4cdb/aKa^cecucHcPcXcZc3c3c5c5c3c3c2c2c3c3c0c0cYcWcUcUcUcPcOcHcpb\cscDcKcPcOcPcWcPcUcUcTcTcQcOcKcHcrb=a8a$cvcEcwcfcncDcsb:bhbObmbJbMb,cocib_b~cccoc%cubdaqaKa+bPcJb8cebobNcCcrcdaXcpbvbHcga!b6bab9b4blb0aGa$boa]bhbVb#bSbZb#b=b\b]b*b#b5b*bSb]cocxcxcEcCcsclcbb\b\b:b)b]cfb3bUcscHcNcScXcXcTcTcXcTcPcCchb`b`b8bjbobDb3b*b*b*b:b.b3bQbQbxa}a-a9a#a-bbbAbLb2b$b-b/b<b(b1bTbXbobcbfbka{a)a#boa9a[a-a{a-a)",
"bIb0b$b9bWb(b$b8b6bWbKbFbvbvbrbzbkbaa=a&a3aVaTaVa5a;blbKb(b{cgcmcmcmcmcpctctcmcmcmcjbCbib0aXbKaXaEaEa^a!cmcVbtbib$bbbFcucIcNcVcVc4c8c8c8c8c8c8c8c8c8c4c1cNcOcKcEcnb3a}a<a#a*a;aBaYa%a;a:a[a}a:a.bjbUbVbqbqa>a>bVb(awava7babCbRb4b8b8b$b$b6bba;b-b&chcOc&c8a2cmb1aBbgb}cqcCcOcWcWc3c3c3c5c2c2c3c3c3cYc3cYcYcYcXcTcPcOcEcsclcBcOcKcOcPcOcPcUcUcUcUcPcPcKcEcsbJa4a_bOcvcKcKczcrcxczchbSb3b;bZbybucicfb#b#b~cocWc(b(aCa/b}cbbRb/b:cnbgbxcHcrcdaUcgbFa|bPbKbKbEbUbbbtbIaybmbOb3b,b;b*b5b]ccccb_bVbJb*b#bZb*crcxcCczcCcxcrceb\b;b5b*cfcebVbScrcKcUcXcZcYcYcYcYcYc3cPcvb\b!bta\a]b#cicocfcccfccb,b]b~cicfb}b:b8bXbNbAbga/a8a5a6a+a{bjbAbNbXb2bWbWbRb1b8b$b4b4bKbTbTbAbt",
"bra!a7a)a)a9a9a/babzbva/aMaEaEaNa3a&a;bdbCbTb+b{cgcmcmcucycycFcycBcycVcab<c1c!c1cubza+b8a9aNaTaEama&bWb9chchcAa6a6bBaWb0cycBcJcScVcVc4c8c8c8c8c8c4cScFcqb}b)bVbVbFa$bSccccb,b3b:b-bgboa_a,a(a#a_a~bybJbma`a}bBb2cqbWaSa\bXbXb-cjb}b\b\b&bHbebKcIcqbUclcXcda,cga7aBbKb|ctczcKcUcWcYc3c3c3c2c2c3c3c3c0c0c0cWcWcUcPcKcEcqcqcHcPcKcXcfcrcEcOcUcPcQcOcKcKczbZaBazbhb_cCcOcPcOcHcEczcobVbVb~b,b*bhbVccb]b3b*ccb~cxc1a9aJbTbTb6b`cjchchb/a*b~crcaaWbEbxbobxbLbHbNbRbfbrb8a6b3b:b[b}b1a`bebhbJbJa]a$a]a>bmbDbub,cCcCcxcscochckcfb`b`cvcAcmb\czcQcPcScScScNcNcLcLcLcvchceclceb?bQb*chcccccicicncncickclclcockceb}ceclclcncbb:b4bNbja?a%a+a;a-a,a[a}bla{a^babibda=a)a!a+bz",
"cqa;aEazaXbzb{cqcpcmcgb{b{cab+b{b6bCcmctctcycycycFcFcFcIcJcNcIcFctcmcIcaa9a3b0a{aCa\cJcda{bAaQaXaVb$cab?b)b!b{ata7baaZa\cdcucBcJcScNcSc4c4c4cScFb<b+b4bFa_a}bDb&b]cfcrcocrb*bwa;a{a|a3aSaPa0a2a2a(a,a]a]b!cScSctcJb<a-aCbNcBc!bUb2cacab)bOcncebFb!b:cbcwbgbUa{a0a^b{b)b-cvcHcQcTcYcYc0c0cZcZc0c0c0cWcQcMcQcUcQcMcBcncscHcKcxc$c(b2bRb;czcHcHcMcHcCckb7a:aSb,cvcCcKcMcKcKcCcscrb#bDb]b5bOb=b*b;b#b,bZb,cccfcocgaMa:b-b:bQbnbvb\cjcdbgbxcpcma9a}bkbYb9b-bYbFbbblbwbEbLbzbzbzbna7ayasawawaAaBaPaUaSaWa(a=a7brbEbEbFbAbfa^bzbKbPbTbTbWbUbxbkbLbWbPbLbFbEbCbda%a)a5bibwbwbwbwa|a=bbbrbsbAbIbKbIbkbabvbEbEbEbFbFbEbdbdbEbKbLbNbLbLbFbca}bEbIbwbnbba|a[a7a+a}a2aXa\b1c#",
"cub>bza-cVcSbKaVaIa9bCb+b$b$b6b<bla3bTcgcFcgctcScIcycFcFcycacmcpcpb0bzbIaTaMa^b9bva5bvaLaRa/avaXbCcdcqcqb)bgaHb-bWa?bIbLbYcdctcycIcIcBcycpcmb<bKbFb:b&b!b=clcxczcCcxcscobSa]bIbta_aUaWa#bBb8bLbobfa^a8bJctc#cBcgb0a?a5aEclc+a!a=c)cNb/b?a%b+cmbBbQcucNb4bsbsa9a^bna|a&a5bocjcOcUcUcWcWcYcYc3c0c0cWcWcUcOcQcUcOcHcvcCcHcscjcIc,c)cub1bGbJcccscHcEcrbDbea`a8b,cscCcMcKcEcCcrclb\bDb=b_bJb;cxczb_bZbMbGcicxczcxcgb$cdcScAchb}bBbAcjb{bKa4b:cqa(cacNcabKbEbTb{b$bbbAcAbva\bdbda%a#a[aybDaPaUa8a#a8bzb!a2caa^a?bvbEbibRb-a7cpbfa{bvbCbnbUb^a}cBbxbvbIbvbab0b9a&cda9a?bbbfa=bEb2bfcga}brbEbwbrb(b9a/cma{a^btbnbbb$bXbjcpa_bnbFbwa}b(bLbkcga?babnbaa^b8btbHc1cjbHcBc+c&",
"cmbAa/c1b<aTaraKa\bCbIa;cpcmb{a5b6cab+cBb(a1cacta1bCc8cpbia-bKb{b+blbTa^a9b+a7a1a9a1azamaZaMaXb(cdcmctcycpa<bob{bKbTbXcgbYa}b.ceb}b?b{b|b+b+b!b.ckcicoczcCcvcvcxcxcob=b*b1a,aAaraqaJa,b`cBa^aFavaFa)bLb`b<cab0a;bTb<cdbXb)c(a7a0b4bRbra5aDbPb.cqc$c9b$aTa[a)aKaxaCaXa=a|a|b(cHcOcQcUcWc0c0c0cXcXcWcWcUcUcOcHcCcxcCcKctb.b|cac!c*cBbLbWa)a_b2cfb_bDa*bea.aAaDb5cxcCcCcvcocob;bhb*cib;cccxcCcociccb5b=cCcEczcocGc*b^b2cacab$bWb$b-cjbIaLbHcqa:cgcdbia)bWa?b$bXa7a^cta8b7bFbBa:aHa.arbpawbfa(a[a%a=b-a0cda0b9bPb!bka}b{a7cga5b+bAb9bwbbcaa}cua)cdbTb(a|bvb$a+b|aRb6bgbRa&a^b4a}b^a#cjbEb(a\bTb$a+caa9b<bAb-a;b0b4bkb^a5cabob/a^b2bRbtb>a5b/brb6a9b0bsbnb:cecJa}cxc(",
"cga+cpb{aQava{b6b{cgcpbIb|cSc+b/cScFbIaEbdcmb<aKaMcdb$a-baa9b+a=aEb(bia1b+bTapafa9biaoaEa9a7b-cjcpctctcBcDckb8b\b+bfaVaTaVaNa}b/cdceclcncqcvcqclcqcBcHcEczcscrcrb]bSbSb%b=bSa`a]bqa~bhc5aTanaoaiawaPaWa%a{a7aEa\cjcFcBcjbEbXb/a_aSaFayaAa#bNcEc+c#b4a5a9aTaxaEa=b6cacpcucvczcCcHcQcUcWcWcUcUcWcWcWcUcQcHcActcqcwc#c0cabFcJcBcec1cjb?bTa-aYa:cjb/a%a#a<bybsaJaSb`crcrcob_b1bJb;crcococsb_bDb~crcob_cxcHcHcvcfc&a\aJc$c!cjbTaZbQcecma;aYb)cqa.b^b.bxbEbNbNb+a\aHa?cqa*caa0a0a/aWaUasbDaDbYaRa+bIbPbIaYcma7caa)blb6b0bTaZcaa&cja1bnb9b6bWa-cma[cya3bvbzb6bva9b{a2b^aMbdbCb0bEa^b?a.cpa0bTbKb$bCa-caa+cmaXbTbPb-bnbbb{a,cmaPb2bWb/bbbnb/a%cdaXb0brb(a[bsb\bMc!bQbBc%",
"b9a+cybiaqaZbTb<cacmcyctbrbxc$bXaUb?a+aZcybIaMbIbTaEbKcta7bva&a1a3ayb$b(bCaQafaEaEaxa1babEcacmctctcycBcFcDcBb!bYb0aVaMa-a{b/b-bEb?cecncqcnceclcvcMcHcHcCcrb_b*bObebZb,b#bZbSbSbZbZbma]b&b-bYa!aya^bFbKbga%a=b7ceb)bHbFb(b(bfa;bzb3b&b:b.cacqcabza)aXaRaCaKbab$b|cjctcvcCcHcHcQcOcQcXcWcWcWcWcWcWcWcUcPcKcEcEcGb[b{cSc!bFbhcLcqcqcabEa5a6a|ceb6a-aya=bVbGbFbca8b8cockb*bDbZcfcsczczcvcnbpbGclckcicocHcOcKcCb_ctbraJbdbWbzaOaRcecLbaaybBb.cma#bWbKbFbEbCa{a1aGaCbgb}a6bXa%a5aYa6aWa#bEaDbRbkbfbrbvbibEcda3b{bWbzbPbTbvbPcja&cabCbzbzbvbfbPcaa/cgbEbtbEbEbfbPb^a7b>bibrbAbAbrb2b9a&cabIbCbCbvbkb6b|a%cjbEbzbIbIbnb$b/a,cmbrbCbzbva|b6b+a-cdbvbwbIbCbbb$cgbNc#cbbcc!",
"bWa3cgblaob+c8cab>bWb+ctcdbXb^a)atbCaBb{b/aZaLbLbIa&b9bfapaKa7asapa-a!aQaVa5apaCa!a/b+cgcmcmcucAcDcJcIcJcJcBcqb8a0aTb)cSctb3cab+aYa^bRb)b?cmczcEcHcHczcfbXboa~a,bSb#bSbubybJbSbubQcdb`a_aRaHakapbbbNbQb&c%cIbFbfbLcab{a\a;bRbWa^a7aYaZaVaIaxarapasavaTblb+cacmctcvcCcEcHcOcOcmcjcacmcLcQcTcTcWcYcWcWcPcOcOcPcPcqb>cpcwcIbAbscmcqb+a9aObrb/bbbba0aAa}b1bJbsbYbUbja`bha]bDb*cocBctb{bIb8b8cfcfb]b=cvcRcWcUcKccbXb>b6a\a7a0bpcScqa!aUbIbjbUcqa?bAbRbra^a_a.a*a_bFbsa[a(a*a#a[bjbsbpboa}a-brbCbIbTb2b2b0bIbabIbKbTb0b$b(b$bWbIbTbTbTbWbWb2b0bKbzbEbKbWb2b1b6b2bIbrbvbrbzbobxbIbIbnbnbEbLbPbWbWbTbWbIbrbTbUbUbUbUbYbLbwbwbKbLbNbLbPbWbPbAbwbEbPbPbTbPbTbKb)b1c#b&a(cS",
"b8a&brcga=bibIa?b-bva1cacycAcdb2bKbzaFbIa#aiaVb9a=aha{bvaka7a=aCaIaEa9aGaVa^aVbnb-cacgctcAcDcIcIcGcJcGcGcBclcdcdb7b8b&cqcBb|a-avaCb0b$b-cdcpcococfb_b&bXbDbJbSbSbMbma~bqbSb]b/b7bCbnaMayaza5aoaObEb0bRcqcyaUb&b4a7aJbxcpa)aYbKbRbPbia+aZaIaCaQa9a^aGbEb{cgctcDcDcHcLcMcHcucDcmcgctbvb&cDcMcQcWcWcWcUcHcHcPcPcQcrb|cNc7cActa:bxcyb(a0a_bXa+bXbKaUaBa\bMb.bhbFb,b%bQbsa`bpb~cscjb!bWbCb-bAb;ccb=b~cxcWcYcUcMcsb&bBbEbPb2b/bTa/a8bYcSb1bvbva9a9a*a[a;a-a*a,a+a%a0a0aOaSa2aYaYa<a_a_a_a_a}a}a{a{a|a^a-a/a}bkbsbxbxbfa^a^babnbwbibbbna^a\a#a8a/a*a(a#a%a/a$a*a(a.a*a,a^a^a)a/babfbnbvbobgbfbbbbbibkbnbrbzbtbrbnbrbkbrbrbtbnbnbnbrbnbkbrbkbba}a_a.a8a{a}a+bxcNc4a4bxcJ",
"bzb0a/bbb>b0blbTbzaIaVb<cqcFcNcNcAcgcgb|bIbkbTbva3aZbka\aGaTbla?a{a=bkbnb(b^b{cjcqcucBcDcGcJcJcJcDcAcvcschcecpctckbDbEa-a-a{a!aQcdcFcabibPbUb&b:b!b!b)b)b&b7bZbSb3b*chcvcBcubKaXa?bza|a=bAbFava#bTb(b-b$b(b.c&cGb<asaBcgcdaWa&a;bzbPbna{brbFb0b{baaVb-cpcBcmb`cmchcucFcubzbKctc1c&bfbocycJcwclcrcHcEczcPcUcUcPczb.b3b.cFcgb)a2cub(aPb+a{bla1aCaza1bIb#b]b3b3crcOcAb:bYb&cob~cdb2bXbIa+aHbNbGb_c3cVcbchcqcocvcebybRbAa}a{bFb?cBcVcwb8bibCbKbPbAbAbwbnbgbba+a7a3aTaAaGaWa8a+a-a;a:a=a?a.a.a/a;a+a\bzbTbFbIbRbUbEbna{a;a&a5a9a5a2b(brasamauaKaMaGazazaCazaGaRaGaHbabzbCbCbCbCbEbEbEbzbra=a=brbEbEbFbIbIbIbFbFbFbEbFbFbAbBbEbBbBbzbwbobga_a$aSaHaSbUcgb(cmcpa5a&cwbF",
"a9a/bKbdaEaIa5aTaIa9b0cgcycIcIcFcDcBcAcIcIcJcJcwctcFcScmcacacmcpcmcqcpctctcycBcBcBcBcDcDcDcBcAcucqcpb\bYb?cucDcDcDcsbRa6bva/a9a)bHb[cta&aDbza7a7a-a;a/brbKb0b.b{b{b2a}cBcJbQaJahaBbza/a=a2ctaEbzb(b>b~b%bba:a{a{aQaya%cpcya4aVa;a!bvb2b0b0b9cdb/aXa|cyb>a&aVaVa&bnbbcdcjbccdc&c+c#b(b|cpcBcqb{b$b-b|b[cfcMcQcKcKcCccbRbEcgcja/cpb8a+b8baasanaMbdb3b.b=b;b]c5c7b\b4b)cNcBcgb+b7b|b)bRa^aVb4bgbKb8aTaNa2bfb4b4b~b]bnbbb1b$cbcAcdbAbXbAb>b(a;aJaQa5a!a\bHb8b-b?cacmb2bobIbWbAbKb3b&b&b1b\cnctb\cpcgbNa[a0aZbfbXbzbtbIbnb$b.b8b<cdcub6amaNa\bla=a7a!a!a;a[a+a|bAcbcqcscscuctctctctcqcmb|b>cmcucucvcAcwcAcwcwcwcwcwcwcuctcrcscrcocib~b=b*bqa<byb]ccb#bEbca0aJbrb.a\a)",
"aXaCasa-aVa)bIbvb6cacjcwcIcScScBcFcBcBcBcFcScNcJcIc4c!cVcJcBcBcBcwcwcBcBcFcIcIcIcFcFcDcBcwcucscncibZa:bXcwcJcJcGcIcIcBb!b7aPaPb-bzaMava7aSb:b<bXbia1aJazaEaxaGaEaEaCaAb/ctaFaJa\a#a/a\aRbWa=aDb8b\b`b}cbb-bLbba\a_bHb!c&b>a7aBa#a7bzbKb0b{cdcIc+aZbzb{aCa5bTb$b$bKbEbWcgchc*c1bvaTaKaRaZa-b4cja*a[b9cbb7bVclcHcMcEcHcubYb(ctbbcdb(a\b4a7aqaNa}bNbJb%b%b,c4cGa}a/aWcyb0aXaxazaEaTa|b$b6a=a)a)bbbga^bIbRbLbFb>a|b2bLb/chcqb|bQa&a+aPb|cgaXa*b2b$bXa(aWaYa;bwbKa1aRa9bda|a;a1azaLbHbFb!cBcpbRbEb1a-aWa/bib2b+a-bnbwcmbwaBa0bibFbKa\azaza\a}a/a-bebBbobfa{bLcfcCczcCcCcEcGcGcGcGcDcwcbcpcCcEcHcEcEcHcHcHcNcJcJcGcEcEcCczczcCcxcrb~bObGbjbJb~crcscscsceb!bUbQbfaWaRa9",
"a1aVbdb9b<b<b+b<cgcqcwcGcNcScIcIcScNcFcFcycAcNcVc1c4cJcycpctcAcGcJcJcJcFcIcNcKcOcNcNcHcHcEcxcrb]b4bgb-cFcNcNcPcLcJcDcAcub`bNbIb2aCazaybRcdb)cab<aqa+cabgaSbYa/aDbca<aPa#b4aDaWbkbnbTb|b6aFama}b1bWcgbWcab}b!b3b&b}cqc*c#bzaZaobda{cgb<b4b>c&c%bKaMb$biaXb<cgcmcqcycjb4c!c*b6aIaMa;bzb6b+b0bvbaaZa3bkb:cubxa_b~cvctcJcVc!c!c4cyctcdb/b:b:b/a?a8aSa~bMbJcccSa`aGasaEa1aIaZa|bvbCbCa^a!bRb$a7aSbFb.b[b`b\b!bUcgbrbibJcecgb2a\aNa1aXaPc1bwa*c*cVcdbHb(a8a,a]a?aJazaVbna}a{bzbIana_ctcmb|bXbHbia9a5a8bJb#cjc#b2a+bFbUcSbKaCaTaXaJaEaKaZa;a*a:bgbobobgbFb(cfcEcMcOcOcOcOcQcPcPcVcScJcmcncNcQcQcUcUcUcUcUcUcQcOcOcMcHcCcvcxczcCcsccbGbyb*b]csczczcsb`b`clchcqchb`b)bEa_",
"b{cacacjcmcjcjcwcFcJcGcJcScVcVc1c4c!c!c1cScVcVc1cVcVcJcycmcmcAcJcNcScNcAczcQcPcUcOcOcOcHcxcob$bAbib+cGcJcNcNcOcHcDcActclb\b1a_aSaAbsaPa0bna#a5a\asa9bKa.a7bEaoavaPa0bcbcbkbza=aXa7a3aMaxara!b4b1bKb6b$b)b}b)b?cSc(c&ctbnbdasaTbraUbaaKa5a!a3a3cmc4cabda5b-cpcuctclcrcjc#bnapa5b9b$cyb>b<cjcjcab{b:bUcBcebWa;bHcgccb#bHbNb!b/b(b$bXbHbia=aVauamaHbQb3b5b=b:bHataTbtbIb6b/b+cgcmb8b&b4a}b4bnaBbpbVb1bYb1bfbRb|cjc&b|aPaTaQaTaXaDa7azb4b8aYblbKa&aGb^aOara`bBa_bcbHb}cPcVb+a{bib-bKbiaJaIaZaUa7bUcbckccb&b4btbXb^cqbFazaAa;a#a$a}a:a\blbububybqbBb4clcEcOcQcTcTcTcTcXcXcUcPcQcOcHcxcNcVcTcXcWcWcTcTcUcQcQcMcEcCcrb,bZb_ccb=b%b%bZckcCcEcHcHcEcvb.b}cucwcAcwctclceb`",
"cjcpcqcFcIcIcGcLcNcVcVc1c1c1c4c4c7c!c!c7c8c!c8c8c4c4c7c4cJcjcacqcLcQcVcAcqcNcUcWcUcPcKcscebUb1cgb(cqcJcNcNcNcHcCcuceb7bea6aWa,bsbGa~aWa_a#a3aBbTaAaqaEasaVa:aqana$b1b7bJbBbBbdazapaEa=b{cmcgb/b`b^b?b|cacjcAc$cFbTa?a!a^aQaCbia-a;blb(cab+bIbEbFbLb)b0bfb2bUctcpcjb4cmb{apaMcFb<cub{aTa=cdcpcqcnb^b!b2bia5a{b(bzcwctb)b?cgbRaNamalaTa|a7azama7bNb3cBbfa#bra|aLa6bQb?cdcjcbb.b-b|b?b-aWbob(aWaPb7b}bua6bFa/b>cgbNa{a/bda{a/aMaSa+ayaPbgbLa[a4a%b1bfataZbfbxbxb1cgcab9blbabda!aZa&a|a7aPbtb3b:b?b.b,b]bZa.a%a9aZaEaravaDaAaUa`a]a,bqbJbJbya`bQckcMcOcUcUcWcTcXcWcWcXcXcNcBcCcLcPcUcUcWcUcWcUcUcQcQcPcOcKcCcvccbja$bhbZbUb!cfcvcMcMcRcRcQcOcOcMcLcAcDcBcGcGcFcwcpcq",
"bXbKcqclcCcHcNcNcNcScVc1c1c1c7c7c8c8c!c!c7c7c7c7c7c1c1c1cNcmb8b9cqcNcScBcpcBcKcTcOcEcqb&b?cqcJcDcscDcJcGcDcActchb\b4bja#a.bjbUbja[bFb3bMa;a2a6aFajaBaUayaoaMa4bub5bDa[bHb7b1b4b(bKbra=a0a3bibUb|cyc!c%cVctb6a?a;bva\aZaxaIbWb>cgcucJcma^aQaTa1a1a5a5a{cdc!cjcucwc8a$b2bIapcpcqb:bCaza;bIb^ceb|c$b2a2a|a;aZa\cSa^b)cwc2c%c4a?aEaCa1bnb)cabza%a_b8b[cNaHaya&a1ava*b+bAchcqb$bXbnbKcjb/b9a4b.a2aWcVcjcmbYb/aVaHaEaCaEaMaVa3bdbPa^a-a(a6a%aWaYa3aZaMayaXa;a-a-aEaTa1aXaQaRaRaQaVa-a^a?a?bGb%b[b;b3bSb3bObha*aJa0aWaPaWa2aUa$bma~bmbDbma<a[bbb#cvcOcOcTcTcXcXc0cWcXcXcXcLcbb?cicxcOcUcUcUcUcUcRcMcMcMcKcEcxccbDbmbGb1b7cecvcHcOcOcQcTcUcUcUcUcUcOcAcAcBcBcLcLcJcBcAcB",
"b2b1a7aZb)cncDcJcNcVcVc1c4c4c4c4c4c7c!c!c!c!c7c7c7c7c4c4c1cVcNb?b`cBcKcHcBcpcucJczcia_bNcIcNcNcJcGcDczcoceb|b[b?b?b4a[a_a_a[bjbQb,b]b[b#b3bya(aUaHa2a6aYa~b2b#b[b7a`b5crczcob4bNb$b>b.bRa;a3a7bfbobHbPbzbda?bEbLa+azaua5b6cacjctcBb/aIaIbzb$b<b<b+bEa!b|c#c&c%cNctbPa)b0aDcIb?cta+aRa%b(b.b|bxb$b|a_b+cgb>b>c%a_bBcVc%c#bvaKaCbKb/bfbsb/b{bLbobob4cpa0bvb/b!bBb/b6bLb)b4bza&bgb8cebXb&aBb&aHbNcqc4cIb+bfaXalasaSa#a<bgbAa^a=bKa9bxbLb2bNa|a9a4a/bxbEbGb)b&bHbbbbbnbrbwbkbkb#b?b:b)b)b;b*b3bDbSb=b_bJa~bha]bha*a8a,a_bubDbJbDbqa,a2a>b#crcHcOcScNcNcVcWc0c0c0cXcTcHcob;b*b=cccHcQcUcQcOcOcMcEcCcvb_bZbha8a,b,cCcHcOcRcQcQcUcUcTcTcUcUcUcWcUcQchctcJcGcNcJb|b(b>ca",
"b-aHa?bWbKbdbocpcLcTcXc2c4c4c2c7c4c7c!c!c!c#c#c!c!c7c8c8c4c1cFb}cdctcHcHcAcjcqcwcqbMbAcFcNcNcHczcpcdb|b|b`chckcqcob,a.aUa4b%b.bQb3b\b=b;b4boa;a2aYa6a2bHb,b*b*bObDb]cCcKcOcKcBb`bKbjbba|bRb$b!b4bKbka-aVbbbLbvaTaqaXbKb<cacmcpcucgb4aWbIcdcjcqctcdb`cyctchclc1c&ctcaa=a;bscIcpcja#aDa+cabEbibza)b/cgb1cpclc1c!bfcuc(cSbkaIazbEcgcjb\a<bub^cgbRbgbgcpa[bgb|b}cJb4a=b-a}bobEaQaUb6cdbxb^a*bobfcpcLcdbka!a7a!a5aRa0bcbUb,b]b|b:b+aKa#b2b=b_b]b=b,b]b[b~cscvcoccb\b:b:b!bUbxb2b,b%b%b*b5bObDbJbJb]b,bSbqbDbDa<a0aLa2bjbQbJbqa(aYaLaYbJcfcHcOcQcTcTcQcNcVcTcXcZcZcXcOcAcba*a~bSb]czcHcMcMcEcCcsccb,a~bha$a#a>b]cCcMcQcUcWcWcWcXcXcZcZc3cWc0c0c3cYcAcBcJcDcdcdb/bzbkb>",
"bIa{a+aKaEaVbxcycNcVcBcgcdcucwcNc7c!c!c$c#c#c#c#c#c#c#c!c7cZcBbKb&cucCcxcucecqchcbcncPcPcEcsb^b&b\chcrczcEcCcsckb%a.aWaJa,b3b#b#b&b:b!bQbca#a(a[a<a#b#b_bQbea2bxcicEcRcWc0cXcPcLcucjb.bUbAbba;a9a1aXaTa9bTbWa9aua=b+b{cgcpcucucucab4bfa-b^cpcmctcnb7b2b6b6b8b&b[cjb}b(a}a<cacDbUaJb6cmbXbza|a&aIbrb|bUcnc7c+czc7c)cja/axavblb>cjcpcbbZbqbpb7cdb9b1cyb(a,b8cmcVa\a5a}bjbAb$boaSa0b&b!b9aBbQcjcqb$a|a&a7a7a3aVawa[b#b*b]b,bLbHaXaEbOb~b~b=ckcscxcvcrcrcob~cfcocfb;b:bUbLb!b5bZbSbJbhbOb]cib,bDbma~bmbGbya.a8a_bqbSb;b3a>a$bMbqa>b#b*cvcUcUcTcXc1cScScScQcXcWc0cWcUcHciaPaLa<b*crcxccb]ccbZbha8b5b#b_b*b,cxcHcKcQcUcUcWcZcZcZc2c0c0c5c#c&c6cBcAcsceb^b2bgbxbRb2b2b>",
"b{aOaya=b{cFcgb2baa{b(b<bPbWb|b9b?cyc7c#c!c!c#c#c#c$c$c!c4cVcIbWb8cIcKcHcDclcdbFb`cBczcscjb?b)cmcCcLcMcCcrccb[bMa$a_bVbJbUbVbGbMbUbLbxbfa.a_boa}a}b}ckbqa4a8bScrcEcRcWcWc1c1cXcXcQcHcGcBcucqclcgcececeb?bKb0a9aQb+cacmcqctcwcwcqcjb^bEbEbIbTb-cacjb{bWbPbva\a/a^bEb(b/b+bAa?cjbFa8cybla?aRaKbdb0bvb/bUcNc+c(c!c8b0aVauaMbIb<cactb`b#b)b}b.bybFb|cjcpcJb&a:bXcVbzbWa\a3a|bNbNa}aybRcaaSbscgb9bna9aMaAaIa1a-babHbFbGbebMbpbKbfaDa}b,ccb]b;cicscxcCcHckb;cicfb,b#b%b=b;b3bMbybubybhbyb#bGbma<a`bybGbma`a>a~bZb5bJbJa`a,bqcfcKcEcob=cxcPcWcWcTcXcXcTcScScScVcWcWcUcOcCa.ataUbmb=b;b%b5b%b#a~a`bQb_b,bMb)crcHcOcPcUcWcXcXcWc3c0cWc4c$c%c(b}b?cdbNa;bnb$b<b?b9bNbEbUcq",
"bIaEbEcpb2a{a)bvbTaCa3bKb0aKb2cmb0b(b?cpcVcNcDc7c!c7c8c4c2cQcDb.chcNcOcQcHcfbKbocjb}b?b\cjcjcqcDcEcCclb[bTbAa:a?bGbpbMbObxbHbjbpbgbja,a0a2a8a]bVcfccbXaPa,b:cxcKcRcWc1c1cZcXcZcZcTcTcOcLcLcGcGcDcCcCcCczcmbPa&aTb4cpcucwcAcwcDcjbIbibEbWctc(c#b$a?aQaRa3a)a&bobFa?a+a}bPb+bTbLbRa0b<b8biaIb(b>a)a#cdc7c+c%cFb<a7aCaIbib+cacacgc4b:a_b2b|cpclb$bBbUcgcJcSb/bcbXa#a:b?b4a#b)b.bLaBb4bBb6b|a{aRaTa3a=a-aPaUaNaAaEaYa<b4b4bsa}aWaUaUb#cnb[ckcocrcvcCcCcrclb~b7bHb#b;b3bDbya~a~bhbhbha]a<a>a~bGbSbObma~a.a#a[bGbSbebybqb]cEcEcHcHcEcEcLcQcWcWcXcXcTcXcTcQcQcQcQcQcOcCcfa<a,a~bZbSbZcccscvcscrciccbUa[bUcucKcPcQcUcUcUcQcXc2czcEc9c(c&c(b1aEbIaSaAa7b+bba9a_bLbWbfa`cq",
"bra9cdbUbna3aCa7a)a&bTb<bCa&bKctbCb+cjbTcVcdbrb1cVc1c7c4cZcHcscocqchcEcOcBb.bTcgcbb`b}cmctctcrclchb}cbcbchb\bybuaYa0bGbha}a~a*a`a.a0aWaUa6bsb~cib[bSa$a,cccCcOcWcWcXcZcZcZcZcZcXcWcUcTcTcTcTcUcQcQcQcOcOcHczcgb/cdcucBcDcBcncycZcmcyc8c*c&bFaGaEaQbibFb-cdb4b!cdcpcab9bzbFb+b/b8a)a=cBa5a1cja^aTb{c)c)cqbIaTasaCa?b(b{cjcab8cecLb?b?a(bcb\cmcuchbXbsbNb|ctb}bna5a0bEcIaSbJc1a0a*b|cmb9a/a7a|bFbUbQbHbsbXbBa6a5aGaHaSa<bHa*a$bcbHcgbHa_b:b~cocvcrccb=b*b*b*b*b5bybqa~a~a`a`a`a~a~bubJbSbSbya`a.a:bJb!b*b=cfckcfcfcHcOcLcLcHcEczcscJcScUcWcTcTcVcVcTcQcQcOcMcEcvb_bmbJccccb=b_czcHcMcMcHczcxcob8bBcicHcOcTcWc0c0cWcCcOcJb4b3c9b}b8cjaYaEa5a-bIbBa:a7a7bkbLbWb9a_b?",
"bfbocga-axa3bCb0b0cgb6bTcacjb<bWaNa7b<b6bTa^aEbncEcOcVc1cTcCb?b\cjb{crcEczccclcncrcochchchchcdb|cbcbchb`bGa.a*bea(bSbpa$a>a]a,a#a4a#aUa[b]crcib]bNa$bhcecEcUcWcWc1c1cZc2c3c0c2c2c2cZcZcZc0c0c1c1cXcZcXcXcScVcVcVcNcJcHcEchchcycIc&c(c*cJaTasa=b0b8cacmb8brb6b(bKa+a+a^bfa=a/bkb(b<a}bvbTa5b0bfa}c+c$bWa!aIaEa0a\bxbQbUbpb4b-cJcebXbXbLa}a0bRcab+b(b$bIbwb2cmcqbUaSbUb2aRcdbobfcSb/a#aVaVaYa0a4a8a?bebHa|aYa8a*a<a4a_aWa0bRa#a$bLbQbYb$a7b5clcrcfb*b*b;b]b*bObybmbmbhbha~bubmbqbObZbOa~a8a6beb5cicrczczcCcHcHczcCcLcQcQcUcUcOcDcAcScVcTcXcTcTcOcLcscxcHcHcCckb;b#bScccxcCcMcMcKcKcLcLcHcEcucjclcxcHcPcTcXcWcUcQcWcEb,a{bab4bLaEaQa7aGbrb8b?cwcdbAbYb7bsa<b$cja[bR",
"bLbob+aCa)b6b+b(cFb-aXa7cucjcdb:bTb0bPbza^a3a^cgcgcycgb<cDcsbob|crcocucBcCcscocib:b)b<b>b\cbclchcib~bLa:aLaFbubja>bDa$a$bhbMa~a.a,aYa~chclcccbb1a6a6b_cCcRcWcZc2c1c1c2c2c3c3c3c6c5c5c5c5c5c5c4c4c2c2c1c2cZcXcXcTcXcQcOcLcAb.bKa^bFa=cmbiaua{b<bTb>bTaIaGaCaXaGaBbEb>b|b6cmb}bKbvbkbPbda9bibIbRcwc(bKaTaTaTaZa1a7a-a{bEb2bBbHcFcjb1b>a;a)bva\a1aXa5a&a?a^bbbWcBcNa7bib(b2a[b(cdbda!bibYb4bobAbKa%anavaJapaJaHa[bHaPbfbJa$bxbwalaMaKa9aLa;b,ccb_b,b,b=b*a~a<a~bha~bhbqbDbObZb5b#bqa8a2a8bJb]crcKcOcPcOcOcOcLcHcHcEcQcUcUcUcTcTcUcUcTcTcXcXcPcCchb;bVceczcvcrb,bZb=cxcHcHcKcOcOcLcPcNcNcScJcncucKcPcPcUcWcWc1c(c$b?b?b`bXbja;a0a-bva\bib+cabAbNb0bWa.bUb.b3bXcFa%bE",
"bKa+b$a9bdb<b{b{cSaVaDbKcbcAbEb7b>a^b|cdb|cab{b(bnb0a3aZchchb8cjcqcqcwcEczcoclceb\b|b`b\b]ckcib~b{bXa}bTb~bJa>byaPaWbmbYb&bea~a.a2bxcfcfb~b;bNa$a6bNcscKcTcXc1c1cZc2c2c2c2c2c5c7c7c7c6c5c2c5c5c2c2c2c1c1cYcYcZcXcXcXcUcPcOcCcqcdb4cacmbtaTbCb{b>bKa+a-bKbPbKbib{cyb$a7a9bza{bibWb0a|a+b8cmcma}cgcjaQavaRa!bAb2b6b6bWbtbtb|b)bAcjb<a^bWbKaTaTa=bIb6b(b$bHa}bbb|c%bAa2c(cnb+a=aTa)a5aUaUaXayaObobFa6aLa.a,aUaDaYa5a.bFbJbhbQb`aGava!a=bDb,b]b=b,b,b5bya~a$a>bhbmbMbZb#b%bJbObSa]a$bScccrcEcOcUcUcTcQcQcOcOcOcLcGcBcQcXcWcWcTcXcXcTcPcOcxcfb?b.b=b~cocvcrb_bhbJcccCcKcKcLcLcNcNcPcScPcPcPcPcPcPcTcXcWc0cYcWctcmb$a+b^bkb\b`b[b.b/cNa;a[ctbxaUaWbFcjaWbxb%b%cjb/aSbE",
"bra|a{b0blb9cab\cmb(bxb2bXcta2bHbKaHb:cjcmcpb^bLb0bKbvbib:b|b&ceclclcvcCczcsclchchb}b}cdcjcjb/bIbFcacscxcob,a4a6aLaUbZb;bjaHa>a_bOclcib_b!bca-a!bqcocEcOcVc1cZcZc2c2c3c6c5c5c5c7c6c6c5c2cZc2c5c5c5c3c3c0c3c3c1c1cXcXc0cWcTcQcLcDctb}cjb)bPa{b9cdcjcmcjb&cpcybcctb<a1aQa|bPb0b6bKbibkb(b{b)b8bIa^b-a7bQc7bPa_b:cdclcmcgb)bWcJbIb6b$bIcaaKa9b8cacgclcmb\cAc9b]b:cAaUb4cmbNa}a#aJavaSa*a:a*aZaJa.cnb.aHcgbfapa(bybJbSbZb;cEcdbQaGaxa}bJb5b]b]b,bSa,a<a`bmbubua~bJb=b]b=bya6a]a$bVcvcHcOcPcUcWcWcWcWcWcUcPcOcQcQcQcUcWcYcWcWcWcUcPcKczb;bDbub7cecCcCcCcob_b5bScccrcEcHcHcHcEcOcPcTcTcXcXc0c0cXcTcXcZc2c2c0cWc1cAb^b{bnaRb7b}ccb~b.cqbga-b9aWa(bQcybgaFbcbJb\caa0a_bH",
"b?b[b)b.b>b9b:b`b9b6b+b+bUbkbvbEaxblcuctcdb0cab<b(b-cjcjb$bRbXcachctcwcucwcwcwcvcncqcqcncbcmcwcqcvcGcCb_bga/a]a,aOa,b=bMa(a]bNbscfcrcfb~bba0a`byckcHcOcTcXcZc3c3c0c3c3c5c5c5c6c6c6c6c6c5cYc3c3c3c2c2c3c3c2cZc0c3c0c0cZcZcXcQcLcEcwcebKb1bra3a<cdclcqcucAb|b4a^b0a\aQa{ctbvaVa/a\bRcmcub<bWbaa+aXaPa=a^a;aVa9b-cjcqcwcAcDb?cBb+bCbKb9a}aHb2cdclcqcrccb*bJbya_a/aBaXa^a[bjbsa}a5aLaWa6aUa_b4aHa.b#bfaUa7aWaYa.bhbybSbDbMb#bRa8aQaEbDb%b;b,bZbma.a,a>a]bhbubDbGbZb5a$a8byb%cscCcHcKcOcUcWcWcWcWcXcXcUcUcTcTcTcTcTcXcXcXcWcPcKcscrcrckcncvcKcOcKcEcCcfb5bJbJb5cicxcxcpcAcGcNcPcTcXcXcWcWc0cWcWcWcWcWcZcZc4c#c$cScda<aya?b\cIcwcqb<bAb4a}a*bcbRbLaRata*b3cecub&b?ceb|",
"a3a1a#a|bLb)b}b}b[bNbba\a}bib2b$bCbka\a/a1aEb4b>b|b<b7b?cdb9bxb-b|ceclchcjcmcqcDcHcxb}cjb?b/b}ctczcEctbHaYa[bubmaWa>b#a>a<bMbQb-cxcrb}b*a*a6bucccCcOcZcZcZcZc3c3cYc3c5c5c6c6c5c5c5c7c7c7c5c2cZc2c2c2c3c3cZcZc3c3c3c3cZcTcScNcNcJcAb}b/bUa_a6bcbBb?cebFbobibEb9bRbIb6b0bla!bzctc4c#cBb-bNb2b{bIaMa3a?a&a9bab6b|cjctcDctc7cFcta&bdboa,bFb/b)bgb}cqcob;b#bGa$aHayaAaPb.b)bBbBbQb1b1bQbja#a2a0a4bqa2a6a:aUa4a7aza]bha`bGbea(a-a+asa&b#b=b#bua2a,bmbububmbmbGbZbObqa<a>b,crcEcRcRcQcQcTcTcTcTcWcWcXcXcTcTcTcTcTcTcUcUcTcXcUcPcHcvcCcEcHcHcMcOcMcEcsb_bGbpbGb`csczcCcCcGcNcNcNcQcTc1c1cXcXcZcZcWcWcWcYcXc9c%cVb`b4bza;aUbAbFbobkbibkbPb$bna?aTaDaGa#b)cucnb)bsa?aYa2a&",
"bfa;aPa2a#a*a2bfb(cdb.bLbwbzb0caa)bfa^bLb<bzbRcdb)bFa)btb2b(bna)b7b|clcecgcqczcLcRcOcEcCcjb`cdcpcpcpb)bEa^a_bJbMaWbGa.a#bNbLbVcncEcfb)b1a0a|b*ckcCcUcXcZcZcZc3c3c5c5c6c6c6c6c6c6c5c3c5c6c6c5c5c5c6c5c5c5c3c3c3c3c3c3c0cWcVcScOcHcEcrb)b2b8b!b3b3cqcda#a)b9b(b6b6b8b8b$b<cyc7c8b>a;aXaEapbIcIcaa+a-b+b-b?cdcgcecpcucFcnb3bnaYa0a+a2a7a;bbaVaZb&ceccb%bGa`a$a2a$aWbOcib!aBafaJa8a.bUb?b&boa$aPaBaHa8a>bhbua<becVcTbJbJbga2aNapaBbtbqa~a]a~bmbGbGbDbGbGbJbmbDbSb#b]crcCcRcRcUcWcUcUcUcUcUcUcUc0cXcWcQcQcTcTcTcXcUcUcWcWcQcQcKcEcsb_cccrczcCcvb_b5bSb#ckcCcKcHcHcNcJcOcQcScNcVcVcZcZcTcXcWc0cWcUcWcUc2c$b|bLa!azaTa7bzb-cBctb!boa}a[b9a5a7a+bUcGcJbYaYaLaYaWaLa2bxbL",
"b6bCbEbPbFbtbsaWa%a|b$cdb1bKbnbCbCb8asaVbda5bkchceceb&b)cdbYbEa1bNb?cecbb|cdcpcFcOcWcWcYc3cYcWcWcWcUcMcoa<a.bea#a4a~a2bubGbQb]cGcCccb?b!a.bUb5b;cEcUcXcZcZc2c2c5c5c7c7c9c9c7c6c5c5cZcTcZc2c5c5c6c7c7c7c7c5c3c3c3c2cZcZcZcXcTcPcPcHcEcvb[bIbtbBbLb2bEaJaXbUb.cdcpcIc!c%c$c!cabdayaTa3aCa5bPbRa^aQa{b+b^cccfb]b=b=cqcectcjb.b/b|b^b^b}b?b2bRb(b~b*b)b&bZb,aLaYbmaPa2a<a(atagaybxa(awbfbYb4bLa:a8a]bmbubha~a*bqb!a`a4aDaqahalaraFa*a8a<bmbDbJbybmb%b_b,b3b*cccrczcMcPcUcUcWcTcTcTcOcOcQcXcXcXcZcXcTcTcXcXcXcPcXcUcPcUcOcCb~b4bNbXa_aObZb_b*bXa:bpb`cxcCcCcxcDcNcJcFcLcOcQcQcVcVcVc1cWcWcWc0cWcUcOcHc7cocmb$aIaGbgbRb?b7bta+a7a0b?bLa)aybsctcSbBaPaDa4b:bNbHbHb$bfbI",
"cVbHbDcScga2bkbUbkbGa0btcgb9bEa=bkb(b$bEb$cqcFb>aYb4ceb)bkb-bEa0bxb^b:b)b`cAcOcWcWc0c2c5c5c0c0cWcYcYcWcva>a.a8aWaDaJbhbJbJb]cCcHcvcfb[bGb%b#bOb5cCcQcZcZcZc2c5c5c5c5c6c9c9c9c5c5c6c5c1cNcTc2c5c5c5c5c5c5c5c3c3c0cXc2cPcKcUcPcQcOcXcOcMcEcub}b9bIbFbWb9cdcpcAcBctc4c$c8cqb6a3apaRbKaZa*b{b6bva\bzb-b|cpceb&b.b-b-cpb&b7chcAcucBc4cBb|cecqceb}b2bgb(a}bBa`ata,a~a>a6a,aJataWa4a>b.aqawa}bkbcbFbFbBbxbxbxbBbga_aWaoamavayaLazaBaUa,a>a~bmbubGbYb;csczcscscCcEcRcPcXcTcXcZcScOcQcQcQcQcTcTcTcXcQcOcXcWcWcWcWcUcUcTcQcOcKb|bLb&b[cockb*b,b.bZb#b]cocxcrcfb_b=cvcEcBcBcJcNcScNcQcTcWcWcXcTcUcQcOcMcHcxcub}b-aEa7bibybub|bxa6a[b!cjbWaWaBbPcGceaJaPb2bRb.bUbSc&c9b3bJcS",
"cnbmcwcEa<a5b3csb4b4bsaya[b|b2bla\bzbAbIbPbta7aNa#b$b*cVcdb/b0aGbxcdcbckcCcUcYc3c3c3c5c5c5c5cZcTcWcWcRcibha<a<a$aBa4bVbJb#cocCcCcqb.a2a*b3b7bub&cHcOcVc1c0c3c5c7c7c5c6c9c9c9c9c6c5c5c5cWcPcVc3c5c3c3c0c0c3c3c0c0cHcHc1b1cdctctcSb}cLcOcLcEcCctcecdb/b1bPbvbia|bEctcyb^biaGaCa?bWbRa,bpcpcjcjcjcjcmcqcucAb|cbb:cAcNcqcAb}b!cNcPc#c1ctcdbob.b&bLb}bxbgbsana$a<aSa.a>bya~a]bybyb5coaqasaLa0aYbibHbsa9aAauazaBaBaFaPaWaLa$a<a#a>bmbGb*a,b#b)bQc&b2b8cCcEcHcOcOcQcTcTcQcQcOcMcOcQcQcQcUcUcWcWcUcUcUcWcXcTcUcUcTcQcQcQcLczckckcrcxcCcCcCcvcocib]b]b_b]b&bVb3b7cccocrczcLcOcOcOcQcUcTcTcUcOcHcCcrcCcEcCcdb?bxcgcaaSa]bya<a0a5a)a)aXaOa7b`cVb9aoaPchbecwc*cYb:chc)cCbFcB",
"bsbgcqbga(cacpbsa*a-a#bHa}a+cmb(bfbkb+b9bRbEbKb9b?cpbrbFcjb-a5aVb?b\ckcCcKcPcXc2c2c5c5c5c7c5c4cVcWcQcHbma~a8aSa6a.bJbVbJb_czczcscea~aWb8b)b7a]b:cKcPcXc1c3c3c5c5c7c7c7c7c7c5c5c7c2c7c5c5c2cZcTcZc5c5c5c5c3c3c0cQczb;b{cqb!b^cdclbkbLcocrcBc&cVb.bHcdctcycAcNc4c1cdblaQaxa7b6b^b2b2bQbqb\ctcycwcAcwcqcvcGcDcbbxbUc4c&cVc1b7c1cCb3ckcVcebpb?b1ceb?aMavataUa6aYa.bybma`bmbJbZbZcZbLahaBa,a.a8a[b9b6bAbba(a*a>a`a3aPbNbxa[aUa~a~a`cCc2b^b[b%cVb1aEbzcqcHcKcPcOcQcQcUcQcOcQcTcUcUcTcTcQcTcXcXcTcXcXcXcUcQcOcPcPcLcCcLcMczckb=b]cscEcEcCcCcvb`bwa}bsa?a0a^bwa[a2beb,cxcEcKcQcQcQcOcQcQcOcEcvcrcxczcNclbHbNb)ceaUaHbca[bGbGbsbgbgbpbHcqcSb?aqa^bLbxb7b[cPc*c1b1b)cjbbb1",
"a(a8a>bhb(b2a_bgbRb|bWbvcjaybPctbLa;b)b|cdb}b<b(cBc$bib1braWaSbHcya;a}cqczcKcUcYc3c5c5c6c5c3c2cXcUcKb]a.a~a#a(a4bjb3bFb4cscxcob]a}bob7b!bUbNbycwcHcTcZcZc2c5c2c5c2c5c6c6c7c5c2c5c5c5c5c7c5c2c1cXcXc2c6c5c5cZcDcActb}bIbkb$b|cmb|b|b8b1b!b7cFc!ctbbb8c%c&c8cIb-a;aGauaQbzb<cacgcjbEbPb!b7b|cqcAcDcVcAbWb>cAcBceb1bYb\cJc1chc#cVchceb:bYbDa-a8a=aJatapaYa6a.bZcva.awbhbZbZbZcibEara8aJa8a$a~a,a,a%a/bbbtbEbYbHa$bDc&b?a+ata$b5cCccbybObYbLaTaCa\cdb/bUcCcOcPcOcPcPcPcUcUcWcWcWcOcOcUcWcYcWcTcTcQcTcQcMcEcxcrcrclb!bnbKbYb&clczcCcCczcCczcvcscsclb\b*b[b=b*bFa.bqb%cccEcKcOcOcOcKcEczcscscCcQcrcqb/aYbEbCbWa^a7b<a[a,bSb,b;b:b&b4cqcFaHaBcga8cAc)c6chb7b&b&bFa%aWa4",
"c9b`a,aWbMb1b6bEa=a0aYa?bnaBa7ctbPaZa2b$cacmcecmcsb7bgaWaBa8bNb[a\aPbPbkbGcDcPcWcZc2c5c5c5cYc0cUcPcia<a>a6aOaLbebQb7b3b\cocib=bqbub~b~b#bSbGa0b:cKcPcWcYcZc2c5c5c5c5c5c6c5c6c5c5c5c5c5c6c5c2c2cZc0cWc2c6cLcDcBcdctcwcqb&bpa[bcbHb$b|cpctcdb?c8cVbIbKcgbRa?aVaEaEa3bCb-cacdcqchcecpbUbzbWb:cdcqcpcdb4aIbdcqcwcqb\cscScob*cLc%c&cQb:bja5a)aHaJaUazaoaUbub3bJa]bBaUaObyb&b4bNa_a(b?bka8bJa$a>a,a$a6a8a2aUaYa?b4b3clcSbpaRbfccb.bpa#a%aWaOaUbicdcBb^a8b2cub?cfczcOcQcQcQcTcZcWcWcUcUcWcWcUcUcUcPcOcKczcob7bLb;cochb.b;b~cicrcvcscwcBcEcKcLcLcHcEczcvcscrckcfb_b]b;a.b=cKcHcHcEcEcCcockcsczcCcVb<a(bsbgbobEa^a{a?bBb!bQbUb7b.bNaWbectbWamaUb<bFbLbLb:cfb,bUbQaSbFcWc$",
"cVcjb-aOa.b;bxa_a|a|bta+bfcgaBb+bWa)aJbTb2b$b2bPbkbga[bxb/b?bUa.bBb^b6bbbkb8cHcTc2c5c3c3cZcZcUcKb`a`a>a,a4a,a]bVb5b`b.b:cicfb)bGb]b[b?b7bUbDaUb`cKcUcXcXcZc1c5c5c5c6c6c5c5c5c6c5c5c5c5c6c5c2cWcWcWcWcFcgcmcBcNc4cLcDctcycIcpb\b&b7b&b-b`b}b!cnc4b6apapauaCa1blb+cdcmcncwchcdcvcgcacab^b)b9b4b!b$b2bbaRb6cqcncLc$cDcqb)cpc%c)cXb.bFaWaxaEaraKaGaPa<a_bjbjaBa0bua]bqbDbxbgbDb3b[b#bVb;ckbGa.aOa,bDbZbua#aYaPaDaWclb/aPaJbzbYbDbybGbYb?clcscrcrb8bYb:b}b|b:b!b4chcNcOcQcQcTcWcWcWcWcWcWcQcQcUcOcEcscib]b&cbczcEcEcCcCcCcCcCcvczcEcLcKcOcOcHcEcCcCcCczcrb]b,b~cob?a<cccCcCczcvcvcscfcocvcscVcSchb/bAbjb8b.b)bXbxbAbwbca[a_bca.aUb7cea3aob?a$b&cuclb?b1bOb&aSbmc-c)c5",
"b^b(bPaAbecfbUa}a#a7a7a2brb2akb6b9a;aQb>ctcAcsb|b)bYbza\bbbAbNa<a0bpb2bIaXa-ctcNcUc0c3c0cYcUcOcla*bhbqaPa$a>bOb%b_b~b?b`cccfb)bob7b.b[b7b1bHa>cfcCcKcScSc1c1cYc3c3c3c3c3c5c3c3c3c5c5c5cYcScGcKcOcUcQb/bHb-cgcjb}b:cecgb:b2bvbfa}bfbbbnbrbAbAcncNbPasaIa!bgb2cacqcycBctb&bFcacdb)b>b|b1bCbEbIbRb2bva?aUb>cvcob&b.b[b!b)b!clb`bNbxaXaKaKaCa5a;a1aXa%avaObDbZb3bqbebEbpa.aUa4a[bDbGbybMb4a0awaFa,bmbDbJbObSbObDbMb*b0aRaJa^bsbybsbobnbtbgbjbsbybAbnbxbUb$b?b6a3bFctcHcOcPcTcUcWcWcWcWcWcUcQcOcCcsb]bQb8clcKcHcEcCcCcCcHcEcxcocrcHcOcKcKcKcKcEczcCcCcwb`b#b]ckcrcfb5bSbMb;cocrccb~cocrcob=bDbVb=bxa8bub:b4bka(a_bBbYbYbUbMbMbha$b7b?aXaqb)a,bQb4b2b2bYb7b#aYa~c9cBb`",
"a|a7aDa,ctb?bUbBa^a7aHaJa/ajaActbCa#bBceb.bUbKb8cdb|b6bIa!a+a/bwbAa2bza9aQb$cAcNcOcTcWcWcWcQcsbea>bDaWa6bububZb;b=bZb\cnclcnb}bpbHb&b8b4b8aSa$cccocvcBcHcQcTcXcZc0c0c3c3c3c3c3c3c3c3cUcMcKcKcQcHcEcHcvb%bFbsa9a(b4bHa-aWaTa7a|a{a?bibia^a!btcBcea/a0b{b<b4bNb5b[ckcAcBcqb(bUa5bKb^a:bgb1bPa?a5a7bUb^a6bFclctcebubpbUbQbjb4bxbvaGalaMaNaGa=a9avauahaqa~bZb*b,chbyaWa4a8a#a(aUaWbVbgaDaXata#bha]bmbSb=cocEcxb]bsbybibfaUaZa_a[a/a6a0aTaGaDaWa}bKbwaTa3bfa3aXa{b<cqcDcNcOcQcQcQcUcUcUcPcOcHcvcfb)bYbNcqcCczcvcrcscxcxcxcvcrcfcfcAcGcHcHcEcCcCcscxcCcqchcocscvcCcCcxcrb_b~ccb|bQbJb.ccckckb,bLaUaSb(bta0aRaTbFb4b|b?bja6a5a!a[a6bZb=bBamaYbHbgbQb\cqclb.bkbHa%a:bwbn",
"bgbBb`cbb|bXa7aWa7a\a\a=b$albTcda)aTaXa3a;a|a{a;bdb<a+bAcabIa7aZb{a\a5bIb>cycHcOcScVcTcTcPcCbua]bJa$a~bGbhbGbDbZbQb8cpcwcqcqb?bLb.b:bKbwa}aJbmbZb]b=b/ctcOcTcZcZcZcZc2c2cZcZcWcWcXcPcDcAcOcTcOcHcKcKcDcvceb1bkbia-a5a5bCb+bKbfbnbPa+aCauazb6b+a^azasa/bvbIb6b<b^b*b*b~crctcdb6bdaJb1b0a9aRa1a;a^b6bTaLa!b\chb`bMbjbYb1bxa3a9aNakaza1aKaCapapaMaraoa<bSb#bQbHbiaEapaPaSa4a>bQa}apaLaLbmb3b%bJbOcicxcibSa>a3aJaoaBaPa8aVaiasaMa;bCbba\bbbfa9aNa5a^a9aQbIb9b|cpctcBcHcOcOcPcPcPcPcPcKcKcHczcscicbcncAcBcAcAcCcCcGcJcGcGcBcscvcDcKcKcKcKcEcEcEcxcxcxcvcxcCcEcHcHcHcHcHcHcCcrcocfb*b;ckcscvcsb*a]b8bBaqa0bIcIbLa%bzavamanaqaFaHaCa,b[b}aYaYb>a}cqb>boa*a}b=b=bGb!boa?",
"b|b3cqbha2brbta8aTaVa+bIaGaXcNa{aVara?b9b{cacjcmcab$aVbfcpb/bia3bdaTbCcpcDcLcPcTcScScPcPcHbOa]bOa.bmb5bObubqbubOb-cpcBcwcjb/a_b!cbb3bxbca`bjb;bGa}bNb:cAcPcScVc1cWcWcWcWcUcUcOcHcBcmcjcFcUcWcScNcNcGcmcjcqcdceb.bKbRcBb6a5a=a|b<a3ava&bIbPbnaNaGaraKa=a=a=a^bzb9b>b>b3bZcecwcub8b+bfaVa+b6b>b}b\bAaLaPbsbObMbDa>b_cvbxbBa0aTazaiaIaTaTaza9aXbibda#bjbNbcaYaSaWaFaUa_bDbZa~a~b\bcasbJb_b_b_cKc9cfbkaUavapanasazaQaTayaxaua;bia;bwb$bgbAbAb+bPaZa\blb6cgctcwcBcGcLcNcJcPcScOcPcKcHcCcCcDcucrcrcocfchcucCcHcKcOcNcNcNcNcOcKcGcAcGcPcOcQcOcOcKcCcqcnczcCcEcHcHcKcHcHcEcEcCcvcrckccb~ccccchceb~b;bFa(aUb/cjcya7aoayaCa7aZaPbgbja8aWbQb,b,aUa[bFa[a5a+b|cNb)a.b1cha}b(",
"bFaLbbbzaRaAaVa_a\bIbEaka!cNbCaVaoa\cgcycBcub`b:cgcgb(cFbxbpb+a&bTb{cpcycJcNcPcPcNcNcKcvbVbqbDa<bJb*bqbqbmbmbyb5cncBcBchb-a<bSb=bJbDa~a>bmbZcfbqa,b?cCcOcVcVcXcXcUcUcTcOcCcrcnchcpcmcBcVcYc3c3cUcScNcDcJcHcEckb5b8b?bzaCa1a1a7a;aVbTcgcgcgb&bda\blb0b>cab}bYbvbvbKb6b|b?bYb?cqcjbna3a7b/cechceb3a.a_bsbya#a,a_bgb!bgaxaCafaAaLa[bxaFavaia1a;bza_a>bQcdaAaPa]aOatbhb5b3bObZa(b3cwaPbsb]ckc0csbta0aVazayaUa,a}bubUbPa{a/bAb-b|b?bQbraXbga}a-b$a-bicecqcsczcEcHcHcHcHczcucAcAcBcvcsckclcqcqcncucmb/cncBcHcHcJcNcOcOcOcKcEcCcBcEcOcPcPcKcHcHcMcEczcscscCcEcCcEcEcEcCcCcCcscoccb_cfclcicfceb|b}chckcfctcJbgbbbRaAaPa-bQb\b.b)bYbGbga.bQb.b5a2aSbGa_b?b)a}a4bocja)a0br",
"a;azaBa&a=aQaYa.bvbaaybtcybfaGapbacBbIaXaTa9b6b0a=b-b{bca2cmb0a7bHctcBcJcNcScTcQcOcHclbGbmbya~bZb=bZbGbmbGbGbLb`cscBcqb8bxa#b#bDbSb5a8aHbub,a<aUb]czcQc2c4cVcScScPcKcEcxb-b6chcBcPcYc3c3c5c5c3c0c0cWcWcUcHcrb}cecEcibIbPb9b+b^b-cdcpcucucrckcbb.clcgb0bCbzbIbUb9cacab>cmcpb)bYb3bra7a_b`cbb}b\chbSbJb#bUb?b/bHa/a6ayafamaBaRa/a:aFata4bsbwa8a*bcbsb^c2bVaHaFaBa~bObybqbDb%bZb\cVaLa_cLcCbLa[bxbFbkbcbkbnbjbHb!bpbqb.b}cjcpcqcqcrb|b|cbb:b.b&bFb(cpcucDcGcLcLcKcKcKcHcDcBcwcBczcxcvcwcCcEcEcCcCcHcGcGcEcEcCczcscicfb]cfczcKcPcQcQcQcOcOcLcHcEcCczcvcCcCcCcCcCcCcxclcfcfcfcfcrcEcEcHcHcHcHcHcEcEcCcIcab6ayaraBa.bcb$bIaHaMa*bBb!bga.bHb7b&bqa]bgbgbba\a-b-a|aMaTa?",
"a1a5aVa!a-btbnaraOa=cdb>a9avasbIb-b2aua!b$bva9a9a\b-cdctc1b/bkaTb2ctcDcJcNcScOcHczcibVbma<a<b5b*bZbGbDbDbGbZcecqcCcAcgb)bYaSaFa8bya*a(aUa~bMaAbOcscscEcXc2cTcOcEctcdcdctcwcBcQcWc0c3c3c6c6c5c5c3c3cWcQcMcCcCcQcWcUcUcQcEcFcIcBcBcDcAczcCc2c$c9cFcLb^aIaGa9a;a/a)a/brbFb$cgctcdbNbwbgbcb8cCc5b?bxb*b;bya2bCaYaAanaoamaJaUa2bgbDbqbubVbZbua>a~a[aYa(bOb7b2ara$b*b5b5cscrbZbmb3csb|bGcMcmbfaVaIazazaKaZa%a.a8bccob~b]b*b7b7b\cqczczcBcCcBcDcDcDcBcAcAcDcIcFczcCczcHcHcHcGcBcDcNcLcLcOcMcMcHcEczcEcEcCcCcsccb?b[b)b&b|b|cscMcQcUcUcQcOcOcOcOcHcCcscscfb~ckcicfcnckcicicocscob]cvcEcHcLcCcMcMcMcHcEczcjbXbRbLa:a_bBbsa#aJa[bxa}bscdbEbxa#bgbLb%bVa_a6a6bUbIbaa*a;aVaZ",
"bEa=alazaXaVaSbtcjb?a|aGauaRbKcja}bib$cgb{aZa&b+b{cab<b2bvbna7aZb|cycGcJcMcEcCcob=bVbqa2a~b%bSbJbJbybybDbQcecCcCcscrclb]bNa_a]bGbDa]bhbha8aOa$cfcocrczcKcQcEcActcpcAcMcUcZcZcZc2c3c3c5c5c6c5c5c3cWcQcOcQcTcXcWc0cYcYcTcTcPcPcLcLcLcCcSc#cpbUbgbfb4b4aPaYbIbFbXb<b-b$b9bLbEbRb?cmcdb7bYbMb:b`b(a7a6b.bua2aFataAaPa0a]a:bub)bQbGbSbGbDbSb5a8aPa>bmbma6a0a#a.b%b#bmb*cvb(a4aFbGcjc1cOb\a?anajava7bzbUbQbQb8b%bJb.b7bna^bxbNbRbUb}cscCcGcHcHcLcLcLcGcIcIcEcEcwchchcqcncececdcqcLcMcMcOcMcOcHcCcCcEcxclb\b/b>cdcpcxcHcOcQcQcQcUcUcTcQcQcQcOcMcHcCcrcob}b.b=cccicrcocrcscscochckcHcEcHcHcCcEcHcHcHcEcxb;bOb$bHa[aYbobQb7bXb1b&cdctbBa_bRa8a6a*a:bAb3b1bBa_a6aYazaBbgbx",
"a&a/bCb2b2b9b2bdaTavaCa&bUb^cmb^a\a^a/a&a5a3b$b{ctcFctb.bvaMaCbTcpcBcGcDcvcib=bSbGbqaPa(ccbJbybybubDbxbsb.cAcCcfccccb)bVbJb:cCcEckbDa>a,a(awa`b~cvclchclcucDcLcQcZcZc3c0c2c2c5c5c3c3c3c3c3c3c3c3cTcOcQcXc3c3c3c3c3cYcTcTcTcQcQcQcLcEcga<aRasauaEa3a&aKa\bhbYcdb4b7b|b|b!bna(a+bvb)cmcqctceb)a{avaLa4a*a*aSaWa6bhbMbya%bLa4bjaWa_bsa,b$a,a&ara*a(a,a>bSb#b*b%bSa~bGbYbLbFb_clclbUa/aGaoaCa#a?bsbxbLbRbsbUbKaDaXaNaxaEaHa9a{bzbpb^ctcDcJcNcNcNcOcHcHcEcDcvcbb&b|b.b4b`cscEcLcLcMcMcLcLcHcLcGcAcpb}b|cjczcMcPcPcQcQcQcUcUcUcXcTcQcQcOcMcLcHczcvcscrcrcfcfcocrcscscscrcicfczcHcHcMcMcKcHcEcEcEcEczcvb]bubqb.bXbXb)b2bsbUbybmbsbBbxbgbMb.bDbDa;a5a5a?bnbPb1bYbUbLbsbg",
"a=a=a&a?a)aCazazaQbTcub<bWbxbnb$aHaZbdbia{a9b(cdb-bLbEa5axaGbIcgctcwcrb]bSbGbDbDbhaYa~b=bObDbObDbybebha_bjcncAb`b]cfb~b;clcKcKcCccbha.aWa6aPa2b]b-bobUcmcHcUcWcYcZc2c3c5c5c3c5c5c5c3c5c3c0c0c0c0cVcScTcZc3c3c5c5c5cZc0c0cUcQcQcOcGcha}b+bKaEaMbKb0b(b9bzb$cabbb4b&bgbgb|a}a6bfa9a<a=a?a;a)a2a5aUa8bNbJbYa6aPa>b7bYa<a0a#aybMa^a[bpbMa|aiaoaUbca}bqbVbSb_cUckceb3b!bQa?a.a!a3aGavara0bmb[caaJa>b}b:a0b1buaIaGbHb6b7bBbMb3b$boa?bfchcucDcGcNcNcNcGcBcwcnb.b&cdcjb}cecDcJcNcOcQcQcMcCcscjcjcpcjcncwcHcOcPcUcTcTcTcXcWcWcUcUcUcQcQcMcHcEcEczcrb]b.b#b,b_bZb5cicrcrckcicocCcEcLcOcOcOcMcHcHcEcEcCczcib*b]bMa.a|baa|a7aSbNbHbHbsa[aUa8cpbsbxbBbNb1a|aXa9a5a0a?a,a8a\bf",
"aTaXbabPazaZbvbTcFcta1aEa/cNa9bKb{a7bEbIbIb9b{ctbIbEa3aEa{b+cdcmcib%bDa~bqbubDbua4bDcobObGbSbqbhbqbBbsb1bOb=b.bObXb&cccxcOcUcOcEb#bDbDaUa<a2bDa~a,bycrcOcYcYc2c2c2c5c5c5c2c2c3c3c5c5c5c5c5c3c3c0c3c3c3c3c5c5c5c3c5c3c2cXcWcUcQcLctb/ctcga1apa9b6b+cacjb.chcwa(clcaa*a;a\bxbxbBbxbpbBb)cActb?a9bfc4aWa.bUaVaAbhbGbja,a`bDbJb~aYbEbFa#boaJaSbubqbqbObZbqb;cqa*a[cwa[bUcPcqb7a:aVa5a_bjbka}aQaGbGb*a^aAbUa_aBbzb:b|cdb\b3bYb!b:a\aXb:cmctcBcGcNcDcBczcob.bQb?cucEcQcUcPcLczcvcvcob_b?b|b|b|ctcDcOcPcOcTcUcWcWcWcUcUc0c0cWcUcUcQcOcEczcsclccb:b3cccfb~b=bVbhbSb]b=b;b_cvcCcEcMcMcKcOcMcHcHcHcCcCcrb,b]crcob*bca<bBb\b7a}bYbsbaa|bEcFa-a)caaHaSa}b.bfa;bKbsbxb$aOaEaX",
"b)bHcmaHa3b$b<b<c%a&aBbEcab$aTblbKaQb2b{cacdb{bKaZb{bva)b{cmclb_bGa>a>a~a~a~a]a>b5czbSbebqbhbyb.b~ccb=cfb`bVb3b`crcfcvcTcWcUcOcCb;bZbDa,aYa2bJa>a.cocOcWc3c5c5c5c2c6c5c5c3c3c5c5c5c7c5c5c5c5c5c2c5c5c5c5c5c5c3c3c0cWcTcTcQcQcLcCcececya7aua9bTb+b>b`b}b:a_a}a8btb4bEa<bgbFbjbsb7b4bgbsb1bsbHaLb8bwamahaoaraLa$aUaYbhb5b]cBa.aOb4bKaPaUbBa*a*a`bjbZb#bJa>a6aHa~cCa}aWcAb/bra8a_boa_a4a6a,a(bxcnbYaNaxa!aHaVbPb?cbcbceb|bJb1b}aXaIb!cecqcvcwcCcBcsb&b&b/cdcDcGcOcPcTcQcLcqb\b!b8b?cqcGcOcOcNcNcOcQcUcWcXcTcQcUcWcWc0cWcUcUcTcOcOcMcEczcsclclcvczczcsciccb=bOb#b&b/cfcscCcEcHcKcOcOcHcHcHcEcCcrb]b_cscxcxcxcecqcgbgb1aUbRb(b$b6bTbPaJaVbPbRa?a}b6b>aZb6b{b(b-cma#bE",
"bXbNb>aBbdb>cab)cpb-bFa/bla3a\bIa/bicacmcmcacab1a/a&aZa5b{cmb*a]a>a]a]a>a`bGbSclcEcca}bea$bHb~cfb;b]b4bFbebYcrcCcsczcPcWcWcUcOcCb;bMbOa*arata:a(b=cOcWc0c2c5c6c5c5c6c7c7c6c5c5c5c5c6c5c5c5c6c5c3c5c6c5c5c3c3c3cYcZcTcScNcNcNcAcqcqbXb(a3aCbCb+b+cIc!b$bAaSa_bba/bjbUb&bNb)b`bXa?a}b1a#aHaCazaBaBaYa2aFaWa<a[a~a<b3crcDb)aUaRb&b4bga[aBaBa?bAbZb#b=b_b_b]b=b~c#b*azazaVa0a7bobXbga[bbbHbNbAb8bWa5ataVa\aSbcb)c7cAa^b>cbb)cdb9asa5bdbXb4b!b)b?cjcpb`chcBcGcKcKcKcKcKcEcvclcbcqcDcNcVcXcXcXcPcTcTcXcWcWcZcXcWcWcWcYcYcYcXcTcPcHcGcDcDcDcEcHcKcKcEcEcCcvcscscfckcvclckczcHcKcOcOcOcHcCcCczcxcob#b,crcCcCcCcCcbbVbiaWaLa8b:cdb/bUbKa_a5a^bda?a.b?cAbBaUb$cgb^b7cSa}b4",
"bBa}b|bBa%b1cgcabPbva5a+b<b{b|cmbFb8cmb$bKbTbvb8b{b0bTb<cbb%a>a6a.a~bMb1b=b=b5clb\a(bjb7b7clckb_bsbUbsbsb=crcicfclcKcWc0cWcPcDckb!bUbVa.aYawa4cicRcWcZc2c5c6c7c7c5c5c5c5c5c3c5c5c5c6c7c7c6c6c5c5c6c5c5c5c3cYcYcWcUcPcLcLctb/bUb4b/b/b{a{aGa\b)b8bXb|cmb/b4b`b^b&bLa_bkbpbba}bHb8bPaya4a,agaUapaha4bya;a8a#a!aUaUa+a0atapaYa?b:b3bsa_aYaRamaAa,bobHbKbubZcMc6b2aEacaMbdaxb6bEa/b2b4bFa}a[a^a)a[bcb5b]b|bQb.clcybsa1b(b<cmcBa=aZa?a;a;a|a9bTb>cdcpcBcHcGcDcvcBcDcGcGcAcdcwcHcQcScVcVcVcXcPcQcTcPcTcTcXcYcYc0cWc0cWcZcZcUcUcUcOcOczcxcCcEcKcKcHcKcHcEcCcCcCcocvcCcicxcHcKcKcKcKcKcHcCcxcrb]byb,crcCcCcEcCczcsb;bIbfbocdb+bKb0b$bgbLb(bHb&b?b&bYa\aSbib^b?b:c1cBa=b-",
"bLaYb/b?b(bPa9bEb>bKbPb-b|b/cpc!btbra{aEb(b+a3a^cmctcucnbZa<a2a2bhbZb,b;b,b*b,bmaWb#cxcscEcEcxckb!bxbMclcEcCcccccHcUcWc0cUcMctb.bMbQbZa~a8aBa~cHcUcYc3c5c5c6c5c5c5c5c5c6c5c5c6c5c7c7c7c7c6c5c5c5c5c5c5c3cWcWcUcPcOcHcBcNcpbHbUb}b9bsbsbAa%a)bFbXbxa<a[b9b$bXb9b/b-b(bUbtbLb)bXbbazaSb6akafaWanaoaDaPa4bga!aEaqaAaOaWa6a.aHa$b`b`bFboaAapaPa.a]a[a$a*b*c7cpbiauaoaja&cdata5cIa#a0b1b{bYa_brbLb!b?b?bUbUb$b0a;aMaCa/b<ctb>a3aNaZa_bRa_aTblb`cwcBcBcGcGcIctcqcFcNcPcPcPcScScScVcTcXcTcTcPcOcOcOcOcQcPcUcWcWcYcYcUcUcWcWcPcTcUcPcKcvczcEcKcOcOcOcKcHcHcHcCckclcxcvcscHcKcKcKcHcHcHcEcxckb,bmbZcrczcCcEcCcCcxcrccb-b{ceb}b{bwaPbvbxb4cubsbpb`b}b?bVb7b!bXcecqcdb?aPb{",
"bUaJa(b(b-bUbscdcdaUbKcJcSbncmb-aNaEaCa+bIa?a&b9clcucnb#a]a0a6bqbSbZbZbSbSbDbha:bVcocxcxcrckcfb%b1b}cCcPcEcxcocEcOcUcTcTcOcxb`b!bSbMbSbJbua.b_cRcWc2c5c5c5c5c5c5c5c5c5c6c5c5c5c6c5c6c5c5c7c1c5cYc3cYcWcWcUcPcOcMcNcGcGcGcBctcdbFa7a&a;bdbia?bcbjbxbxa}a\a5aVa/a}a7a5bibXbWa/a^bbambWaUapamaWbmaFaDa0aJaXa\bPbLbBa_bgbybjbha`a.b!biatasaYbhbhbub,cxc9cmbxaZaoaKaQbbcBbKata[bUb9aCb4bNbrbkbrbba0a5a\a9aTaTaVaRa%bIbRbPa;aIaCaMaQa0baa\brcdcqcBcGcGcOcOcNcNcPcUcTcQcVcVcTcTcUcUcUcPcKcxcpcqcHcOcTcXcTcTcXcXcXcTcTcPcTcXcTcTcPcOcCcCcEcKcQcQcPcPcOcMcHcHckb=clcoclczcHcKcKcKcKcEcxcob]bJbqb3cocvczcEcEcCcCcrchb?cbcDczb=bva!a)a|bbbFb{bKa#cnbYb7b1cpb|bXbUb4bWaRaWct",
"b8a5aSa[bFb4b)bNa|bncab/bia=a+axaCa&b6cjcpcmcmcqcnb%a`a$aWaUbObZbua>a$a,a$a6a:a,a8a~b%b#bXbFbFb!cscOcKcEcCcEcPcTcVcVcScScGb`b1b3bSbJbmbOa>bZcEcWc2c5c5c5c5c5c5c5c5c6c5c5c5c5c7c7c6c6c5c5c6c5c5c3cYcUcUcOcOcHcGcGcBcAcwcBcCczcwcbb-bPb6bAa|a+a)a+a&a-a)a+a)a+a)bbb!cgb^btaUa4b/aUalb4aLayaAaFaJazara8aOa6b2bUbsbUb8bBa`bjbMbMbqbma4aYa<bca~bJckcvb4a2a\aRaiaRbFa8bva5aDa,bebSb>avbNb\a7a%b&b-b{bFa(a8a-a)a)a7a3aRaxaCaKa5bia7aTa/b1b>cecucBcGcJcJcPcTcWcWcXcXcZcZc1cVcWcTcPcOcKcEcFcwcAcIcScVcXcXcVcZc1cVcVcScScScScVcNcScPcKcKcPcPcPcQcQcPcPcOcKcKcCb`b`cbcbcvcKcKcKcOcHcHczckb,bJbqb=cocrcxcCcCcCczcscrcncvcHcHcEcCcqcjcjcdb(bAbcbEbnbIb9b(b9b2bXbRbza5aPaSbNcd",
"boa*a;a7a5a9aXa)a)a+aZaZaZaTaTa^b$cgcqcwcvcocqcebOa,a2a.bmbZbya$aYa4a2a,a$a>bGbqa4aUaWbJb:bVbQctcKcOcMcEcCcQcWcWcUcQcHclb[b3b7b2bObSbSa]a>crcOc0c4c4c3c3c3c3c3c3c3c3c3c5c5c5c7c2c5c5c3c3c5c2c2cZcUcPcMcEcAcfcdcqcwcGcBcCcCczczczcuc8caaUbCb>b|b^b2bkbPbEbWb/b|ctcybHa{aDa8b4a:aDanaFaOa:bJbya%aDa#bpa7a7a_b)bLbob1b$bQbpbebSb3b#b#b#bDa~b5czb}a_aObia\anaFa{b)bBbyb:crcOcAcbaJaOb[b.bEaGa*b9b.b\b)b2bFbjbfa*aza5blbTb!b)b4bHbnb$cqcucAcBcEcHcLcNcQcTc0c0cXcXc1c1cZcXcUcUcUcUcQcOcOcQcUcWcXcXcWcWcXcXcWcWcWcUcQcQcQcQcOcOcPcPcOcQcPcPcQcQcOcOcOcKcHclb*b:b~cvcCcCcCcrcicrczcscibObyb=cccrczcCcCcxcrcicfcicrcCcKcKcLcHcHcEcBcxcwcob:bLbaa-a)a&a#a7aVaPaJaZbrb1bRbU",
"bPaEaCa?bla^aQbIb0bTbTbPbWb+cacmcqctcCczcrcib3bja8a6bmbObDa,a<byb5cccocscxcCcEcCcxcca$aLa6a~bucncKcOcEcEcQcUcUcQcKcxb|b4b3b!b4bYb3b5bya~b_cHcQcWcWc0c5c3cWcOcUcYcZcZcZcZc2c2c2c5c7c2c4c4c3cYcTcOcEcscrcvctctcuctcDcNcOcHcxcvcxczcNcpaCa1b9cjctctcab!b8b(cdcjcgb6a-bbawaPa_bgaYaYaAaqasa-bta)a<aHbRa}aZbabcbUb6aIa?bXb&b1bhbeb*b=b]b#bqciczb;a/azaLcgaMaEbcbLb\b?bGcbb/b&bCazaObVchbYb$aSaYaRbUbRb7bUbHbsa\a1aNbdb>cdclcnb>bAb(a^cjcFcBcGcLcLcPcScQcWcYc3c1c1c1c1cYcWcWcWcWcWcYcYcYcWcYcYc0c0cWcWcYcUcPcOcOcHcKcPcOcPcQcOcOcPcPcPcQcQcQcQcPcOcKcKcBb:a8bbcicxcCcEcvciclczcCcrb_bDb,b,cccrczcxcrccb%bZb=cfcrcHcKcOcOcOcOcKcMcMcHcEcBctcgb?b9bRbvbibzbFbPb$bzaRaWb|",
"bna)aZaCa&a&bzb/cgcpctctcqctcucucvcvcscrccbMa.a2a.bObYbsa>b3crcEcRcRcRcRcRcRcRcRcKcEcxb_a,a$bjbMcscCcvcHcQcQcOczcjb)b4b1b3bUbJb3b%bSa.cscOcQcUcOc$c+c*cNcycjb}clcHcUcXcXc1c1c2cZcYcYcWcUcUcWcOcEcqb&cdcFcLcGcHcOcKcEcKcKcKcEcxcvb^b)aMa/b[cfchchchb7a[b4cIcqbta#bkaHala2ambFa0a?axalaqa0a{a%aPa{a/aubcbUb3bQb-axatbtb#b;b1bqbqb[b=b5cvcEb.a#axaga&caaNa)b%b:bpb1bLa.bNbQa7aMbhbZcMbVbWaobEaFaWbLbgbHbYbYa9asa5bWb|cjcqcucwcBb>aUb)cycDcLcTcXcTcQcOcLcOcPcVcVcAcBcEcCcCcKcQc0c0c0c0cWc0cWcWcWcUcWcOcUc%cGcacgb}b?crcEcMcOcOcUcUcUcUcPcQcQcQcOcOcLcGchb)cbcvcAcHcOcKcHcKcxcfb*b,b_b=b,b=b_cicib_b#b,ckcrcrcvcKcOcPcQcQcQcMcOcOcMcMcHcCczcscncbb-b:cdcdb4bga%a-bXb/",
"aZavaXa/b6b-cdcgctcAcBcBcAcAczcxcvcsclb]bDa*a4a>bJbJbybJcicOcRcRcWcWcYcYcYcRcRcRcRcKcEcxb,b#b~bjbJb5czcOcQcEcmb?b7bUbQb7bJbJb3b5b,a`bZcPcWcWcJc%c&bEaNa5a}bLb^bAb3cCcOcQcUcOcUcWcWc3c9c9cOcbb(b6bTb6b-b>b<cgcwcfcocHcscccfcAcCczb_bVb2bIbYb7b?cjb{b6bUbEbWaUa5a[b$ahaWaSaia.aWaPasaoaWaFaLayaAbjaSazbZb*bUb4b/azaYbgbJb&b:bYa~bpb5cvcWb_a/azaka1brb$a2bgcicca^bea-aHaYaYa6bBbEcgcLbUa=amb6a7aqbUa_a6aFbbaJaTa:bBbHcqcJcVcNb[aVa9b^cpcycIcAcqcHcOc5c6ctcdb$bLbFbWb$b$b:cqchcbcscCcOcTcOcQcUcUcXcEcDc&bWaYaEaMa?bIbGb\cxcEcOcUcUcUcTcTcQcQcQcQcPcPcHczclckczcEcHcHcHcEcCcobqa>b;cfbObZbSb5b#b5b,b_czcEcCcscCcOcUcQcUcQcQcQcScVcQcQcOcLcEczctbYbYcjcqcscvcsb|bja/ba",
"a{bIb(cdcgcgcmcpcBcJcLcLcEcCcCcxcscfb3a~a#aYa`a>a<bGb_cHcRcWcWc0c0c0cYcYcYcUcRcRcRcKcKcsb_b]b1a[bScccCcCclb)b7b1bJbUb7b1bGb7b5b#bha~cEc3cZcOc1c&aZajaWcIcNb!b^a)a.cgczcKcQcrb:cDc(c*cFbPa\a!a+a=a&aZaVaTaTa3bnb$b)b.b|bPb{b-b]csb]bybea>a^a/a[b.cscOb6aDayaoaPaZaLaqa[a%agarbeaDa]bXaYaAaUa~bJbDa.a~c1cAbXb7a|atbhbUbybUb4b2bGa>b%cXcBbsaIaia1bXbBbsbub_cLcTa5aSbcb1b*b,b_cic$cDbzbraoa7cdaPaya!a9azaza+aSb4c4cNcmbYbKbva&aXa?bWb[cdcycybEb?b[b.cBbdaVaMaVa3a7a+a}bibgbsb4b}b:b&b1a^bucrcRcWcWczcucwa[cqb0aJa-b2b^a[b,cCcKcMcEcCcMcQcQcUcQcQcPcOcJcwb?b?czcHcCczcCczczcxb_b]cob]bmbGbDbZbubZcrcKcKcCcscrcKcPcXcTcScPcQcTcQcUcUcUcQcLcHcEctb-cjcAcAcBcDcDcBctcdb&",
"b>b8b\cqctcucqctczcLcMcMcEczcrcib5a~a>a4aYa(a$bmb,cxcRcRcWc0c0c0c0c0cXcTcUcQcPcPcOcRcKcvcib=b3b}czczcjb-b4b7b7bQbYbYbGbJbSbZb3b#cAc%c!c8cSb{b+cJavaJa|bEbta/aTaTbicdcqcBcJcGcmcqcaa5aHa?bia)a3aZa2a\bzbPbRbEbrb+c4bsbKcgbXb/bLbobXbUbobjbka,a,cActa}a&anaOa=bebca[bea#bNa6aDaLa0aPaWayaUbjbyb#b=b%bhcjcqb0aEaxa;bSckcEcxcGc1cVcVcAcmb|bYbda?bcbBb*bha.b~cqb^aya-b=ckcrcoccb5bAa0aXa9bscqb0araVbibvbIb$b9a[b4b:cQcpaLa3bCbXb/cpbFbHcdcya_cjb/bHb!bkaRa?b1b)b&b4bFbpbFbQbLbfa4a[b4bLbEb#ckb]cccPcEb|bHbvbda3aZbscdcaaPb*c%c&c3cScnb_czcHcOcMcQcQcOcKcCctcAcHcHcCcob,cocscxcxcsb]bha~a~bub#b=crcEcKczcxcccCcOcUcXcTcNcScVcZcTcPcQcQcNcNcNcJcwcqcucDcJcNcOcOcOcHc1cD",
"bnb<bkbFcecjcucqczcEcEcEcsb_bSbma~a$aBa$bhbmb5cxcRcRcRcRcWcYcYcYcXcXcWcPcUcUcQcUcRcKcEcrb:a`b%crceb.b3b1bZbZbMb!b1bhbqbMb#b#bJcSc*b>a5bEcjb(aTbFa|a3bnbaa!a3a&bvb-cgcub&b1bzbfa2aqaqbzbaaGaEa/b+b?b!b)b[b}b}c1b^brbza0cmb.a}b+bIbAc8bgbQb&cGbxawamaUbbaka(bHb*b_b.bGa8bcbYboaPa4aWaAa$bhbub,clbDbcbFbFb(aXasbab(b;crcqccb2bBa|a+a;a?a=a|bKbza^aRb3b_bJbJcrbkaSa:bGb;b*ccckb_b7bYb1cgcSb+aIaoa&b>cgcmcpb^bEcqa&aEa0a%b$b?cgcpcNbPb|cNbxcmb>a;b?b/bBb^a?b+chclcnclcebUbLbLb$bRaBaYa}bEbAbkaWbmb_ckcib;bNbgbfb4cmcSa5aBcscNbka:b)ctb8b8crcCcEcLcOcQcOcHcHcMcMcHcEcscccrcscscrb]a`a4bhbGb_cxcEcEcKcCcxcocxcKcQcXcXcTcNcVcXcZcTcTcUcQcQcLcOcHcAcqcAcNcPcTcXcCcFcVb<a|",
"b>b/bWb6b+a-bNb$clcrcib*bGa`a>bea<aYa~bSb5ckcRcUcWcYcWcWcTcXcXcXcVcVcWcWcWcPcLcOcMcHczcfbQbMb}b\b7bYbZbObObDb)b!bqbQbObZb3bSbQc%bTasaraYbfa2aBa4a?bibAb1b1b9b6b<cdb\b9bna7a7a)a=bkbwbtaYa7bLb)cIc$b:b1b?b3b.c1b/bnb{aWcBbXaFbRb)a/caa_b|cFb?b|a<aoa2bFaFa$bQb%b;b_bOa<bpa_bHbJa$aOaUbeb#cocKc8bga?bwbWaZaua^b(b[b#bha#aAaUbNaHbWbIaLa#aHanaQaCa1b*ckcfbObOb)a*a_a}cmbYb3b;cfckcocNcpblaTa7a7b1cdctcBcBcqcyctaJa5b(b^b[b|cjcdb>bWc4cua<c4bza9cpbkbLb^aUb$cicEcNc7a^a3b!b&b2bWa.bLb4bLbka}bnbIbYb-b}clcqcpceb2a/aVaPa*b2a5aDa1bFcBb+a;b,cocxcCcHcKcLcHcMcMcKcHcCcCcCcvcrckb=bma6a>b#cxcCcKcRcKcKczcrcCcNcPcTcXcVcScPcTcXcZcWcUcScScScScNcDcpcucGcNcPcCchcBcjb-b:cI",
"b?cIcpbAa6bfbLa}b3cNcua=aSbbbDbha]bYb;cfcCcOcUcWcZc2cZcZc1c1cZcZc1c1cZcZcZcZcWcUcOcLcCclb7b}b}b)b7b.b*b,b[b[b!bUbZbVb3b5b#bSbBcqbRaJa,bYbQa:a(a~b7b7bEbEbEbzbfa|a|a^bdbEb$b>cdcjcpcmb{b>cacgb/b8b:cVbJb}bQb&b}b7a9aTbgcBa-aBcqbFbgcacqchb1bHbAaDaDa$a*bba\bKb*b}b.aDaYbWaDa6a_boa2aPbKcab|b4bfa2a+a=aEaxa^b6b+b`ccb#a]a>cnbUaWb&bUaObsbwasaIbrb/cfclcob~bya>a`a*a,bEb7b&cbcbb9b9blaXazaEb<a(bGb\b.cwcNc1cgaWaZb0bEbWb:b[cpcScDb4cpcqbgb/cma1a|bLa?a3a(cjcqcuc!b)azaXbXb|b}b|b`chclclcfb_b)bUbwbfbnbrbrbfa?a7a}bob3b;b$bUbBbLc4c!a=aKbZcfcscCcEcEcHcMcHcHcKcEcCcCcxcocfb_bSa]bMcicxcCcKcMcMcMcKcEcKcOcOcQcTcXcXcXcVcVcVc1cXcQcScScTcOcJcqcAc8c!b`bPb{b)bUcecXcNcA",
"c!b)a2a#cqcSbtb-bCaTaxaMbwb$b(b8b?cacdb`b>b^b|cab>cacdcgcdb|b:b\b|b>b:b`b`b|b?b:b)b/b/b&b!b.b&bVbNbLbFbUbNbHbHb4b4bQbHbFbQbNbBbjbxbLbobobebBa8a<b!b:bHb?cjcgcgcgcgcmcqcqcpcpcpctcAcFcDcDcycucnb&bNb`cmb:bSb*b[b`a}b4cybBaFbXbLaJbUb)a\aYa%bba\a1aFaXbebha.a#a7aSasaya2a-apbNbsbya+amaAaUaPaDaPaPaGaEa3bCb0b6b[cfcockcEcKbxbgaBb.b1aDbsa\bKbibSb`cfckccb,bSbha*a8a,a8aTaQaXaRaTbva+a^a+aya-a?b[b7bLbNbFa}a8bib-bUbHb(bXbLbUb?cubTbxb.bYbccdb|a{bwa/a+b1b>b|c$cJaTaBa{cfczcSc1cPcCcCczcrcrcrcscucqcqchb`b.b)cdc1bkbyb_cnchchc$cgaUaIbnb=b~cfckchcqcwctcrcsclcbcdceb)bjbHb!b)b&b.b\chcncnclcnctcncncncncqcqcqcqcwcwctctcqcqcpclcjcpctclcpcecacgb/b/cmbBc7cJbqbUcAcJ",
"cta_a0cqc#cmcdaSaeaza4a6bna:a:bNbka_bbbUbWbzbja}bYbUbkbhbLb(bEbAa[bkb4bxa_bfbobHbwbka:bLbUboa{btbIbFa[aSa5bza[a*a.a[a_a[a8aUbsbHa)a7babIbIbXb?b?bUcectcdcnctcrcrclcscwcAcAcwcAcBcEcEcHcxcvcvcuceb9bfbxb4b-b7bLb1b/bHa3aSbsbYa#bka#a[a}a.a^a{aVaOaPa0bJb,bUa>a2a4a*bgbqa.a<b~bobNbEaDa}b#b#bZbNbFbLbXbLbFb2b?cfb]cecDcjbgbFaYaOcqb0aDa7bia7bEbXbnbeb`b~b=bSbub*b_ccb]b/b-b/b!bLb7bbbAb>aYbIcacscAclb;b-b^cjcpcdb)b!cacjb)b0b2bKbdb)bHbYb7bGb7b-b(bYbNb1b\b^a{avaOb`cScScLcwceb`b\b:b-b/b?b`chcjcdceb|bUb\cQc(csa}b.cGcFcmb6a^aGaEa-a!aZbfbfa}a_a}bkboa|a7bfbca{a=a9a5a\a\aWa^bgbga|bbbbbkblaZa^btbobcbfbbbkbra9a)bzbtbkbrbkbrbta-a)bvbvbibia{a,a6bQcnc7c#cmbkb^cN",
"ctbgbHc%cmb+aGaha9a;brcgb9b9bEaYbibvbna)b1b{b/b)bAbtbEbrbvbfcdb-b/bTa/bzbvbva\b6b+b6bXbna+bPbTa^blb>b6bHbga0a6bwbra\bFb(bHb4bWaYa?bCa5a7a5a{bKb6cBcqcucJcVc8c9cXcqckcececfcrczczcxcKc4cmb?b&b5cbceb}b7bga\a)a5aZaTa0bgb&b$bNbPbta&aXaXaUa2aYaFaSa#bbbBbFbSbqbubma~a8a$a>a8aLaLbYa|aXbYb|ceb}b)b-b)bQbHbXb!cecrb~bPbAbEb`bnaybUcpbRa0aFa\bra=baa5a[b:b;bua]bScicocrcvcscrcrcrb*bGbvaVbtbIcjcAcHcKcOcKcGcDcAcAcNcIcjb`b/b9bLbzblbzbKb$b`cqcebXbia:a9aXaVaHauaBa_cVcNcVb>bia?a+a!a3a%a^bwbXb(b^bQb1b/bUb$b4bobxa\a|bda/aZaxaIa5a;a0bWbPa/caa!bkbAbAa_bKcaa-cqa!a{bnbda+a[cdaUb{bba\bsbAboa?cqa#b>bPa:bxbEbsa+cjbbbNb>a/bAbHbxa,b-bNa}cpa(bobxboa;bLbBa4ctb)cqbXb1c$",
"b|a,b(c4blaQaja+a;bIa!b6bEbWbta-bKbPbvbna;b-bxcja6b$bwbHb6a=bYbLcabLbfbIbWbibWa?b+bKcga1bLbPb4bFbtb0bEb(bpa4bsbga_bNa4bga_b|aPbkbFbrbEa{a;a=aVa5cqcqctchc9cQc1clb2bxbIb8b?b)b3b~crb_bWb8b(b0a1bgb_b~b`b|b)b)bQbLbLb.b[b&bIbPa^a3bWb|b$bna=a+a+a+a;a?a/aya~bqbDbua]aHa8aUaSbScfb%bNb/cccicfb=b.b1bubybVb.cccrcockcqcBcta#aHb#cVb1bFbga(aPa7bWbTbka<b.b=bha(b,cocrcxcEcHcLcHcCczcfb$b>cqcFcHcOcQcQcUcQcQcMcnb[b)cecNcjb/b<b<b(bYboa?bvb&b(b.b.b8b)bRbra?aYa}bLcNchc1bEa;b\cFcgb$bCaTa3aXaXa2bibLb&b0a/a7a7a)a;aza?aVa/bCaZcaa:b<a_bWbWa;b8aVcgbcb-bUbLb|a%b|aSb^bibnb(a}cjaZb{a4b1b!bpcea[cAa<b?a}bEcaa_cta;cpbgbNb4a[cpa[cjbxb8bUa}caa0cmbcb.bLbHb4aLbga/cub)b3c9",
"b<a0bAcjbIaxaha9a=bia}b4bpb2b2a}bzbfbka}bLbEbxb:bPbvbPbPbobxbNbxbYcabkbzbWa|a\bkbia{b8bIa}bWbxbgbjbNa.bobLa2a0a}a,a8bcbxa<bUbxa,bza}a;bkclcIcqceb0bibkb?a|a}b+a5aYbabxbQb(cdb9a<bMb[a{a|bTb6bgaWbJb,b;b=b[b7bJbJb%crcybsbra+a\c#b{a1aVa5a0aLaZbba7a/a5aPa~bmbybqa,a>bJb*cicscrcscscrckb_b%bSbDbubJb5b#b_crcsckccb+a^aHaVcfc$bQbNbQa:bJbDaOaFa|bEa_bLb_a$a<b_cocscCcMcOcPcQcOcLcLcEcEcLcQcUcUcWcUcUcUcQcOcvb`b{b/bFa5a\bXbKa}bgb4b?bpa-bXbGb?cechcbb)bLbXbUb7cqcdb8a3cGc(cwcbbFbkcgbzaTa&aPa#a-a9bKbKbobLa|aLaTbza1bKb1a)cdaZbwbFbIa?bfb/a3cga9bfbEbEbda/cdaWcaa-a=bRbLbEa5cda(b-bUa(bNbLbTa)cdbjbRb+aZbKbHbWa(b4b(bbcpaZbzbIbKa?bscda6cta9a}bHbFa.a2b_cPcmbHb~c6",
"caa%a7a9biaVaoa)bkbxa<a}bubYbjbYbUbYbPbwbEbfbxbpbsb2b7bYbFbxbNbUa}a[bxbBbUboa[a_a_bBa|a|bsb1bLbcbgbxbya,aSa4a4a<a.a2a%a?bha<bgbYb4bobfbfbScLcJbfaLbRbbb>axaEa_aSbBa_bcbNb.cbctb.aYbwb&b1cdbjbKaVaFa]bSb;ccb;b%b]cwcNb+a=bIaWcybPauaZaUbfb$bKbNcyawaWa*aOa8a>a]a(bGb~cfcrcvcscscob%b#b%bJbDbybJb3b%b5b;crcvczcrb_bObqbub#b&a>bccmcda_a0a=a6aUbMbDbLb:b_aWbqcccocxcHcOcQcTcPcPcQcOcMcQcTcXcZcZc0c0cWcWcUcOcCczb6a%cjb:b&cqbPa\bFbeb)b.a8a_b4b)clcncwcwcscobQa[cmb?b$a#cncDceceb+aVb|b2aBa-bfbibobxbzaVa<b^cFbTaQa=bfb0bka;b-bRbNbFbFbHb6bWa8b(bXbKbzbwbwbWbXaXb&b!bUbNbIbEbRb+a#bNb(bRbLbHbFbNb[a_bBb-bRbKbKbHbUb?bHbkcabUbLbHbFbHb$bYa:b{b4bLbAbzbgbpcvc2bHbXczc5",
"bPa!aQaza7bla!a;bnbtbsbBbHbNbQbQbYbYbYbNbNbUbRbRbWb1b1b4b4b4b7b!bXbPbNbXbNbHbxbxbGbqbgbjbxbFbLbEbsbobha.a6a6a(a[a[a<a.a}bea~bgbxbGbqa`a>bOcAb>axagbfaSbkaoaka-bnbza)avaYa:bHcjc#bLaSb&bgbkb2bCaKaHa|cacmb?b9bgbjb(cda9a{bBaUb/a5aRaOava\a+aXa-aQagaybGbBaAaLayaSb_crcvcxcxcvcib3bGbObubybObZb3bZb!b}cscxczcxcrclccb,bGbha2bLb:cDcmbRa\aBa5bvb=cfcocfb3aUa.b_cocxcKcRcPcPcPcPcOcMcOcUcWc3c0c3cZc2c3c0cWcKc&b}aCaya;a^bxbFa9aHbbcdb|b:a0a%bLa*b`clceb`b`ceb9aPb4b&b:bFa%bnbIa}aSa#cqa\aJbnbFbLbNbUbNbLbHbbbva9a)bnbwbtbsbYbLbLbNbRbNbNbRbWb$bXbRbRbKbKbPbKbwbXb6bXbUbUbQbUbUbNb1b8bRbRbRbRbRbUbQbYb$bWb1bXbUbUb1bXbUb.b2b2b1bXbUbUbUbNb8bXbRbNbPbLbgb!c#bBa:b7b[b[",
"aOaAaHa=aoaXa^azaVa,a[a_bfbnbxbBbFbKbKbPbKbKbLbLbLbLbLbLbLbLbKbKbLbLbHbHbxbsbrbia}a_a_a_a_a[a[a[a[a6aUaLaBaOaWaYaWaUaUa0a4a6a#a8a0aya0a_bIbia7aIa%bEbda1aXbdbKbKbwa?a9a#a:a[bhc#caaUbBb4bgb!a/aKcqc1cBb6b0bIa3aFa;bga?a%a_aAa}beaHaYaYa<a*a#aDaya8a8a>b[a7amaJbVcicrczczcrb*bZb#b#bqbDb3bSbua~b5clczcCcCczcsckb=bZbmbDbObha~b6cmcabLa1a)b)b|cfckckcca$atbZcccocCcMcOcOcMcHcHczcEcQcUc0c3c0c0cZcZc0c0cOcUcIaRaFbIbAa{a#a.bBbYb\b&cybLataXaYa[b4bYbUb7b.b.bwaSbsbHbwbWbLbca<a:bEb)a-auaCa)a{bfbibibobkbka_a;a;bababbbbbfbbbfbfbbbibba}a}bcbba}a}bba|a^a7aJa9a\a\a|a}bcbcbca}a|a^a?a|a}bdbibnbtbnbtbrbtbrbnbnbnbkbobnbibkbgbjbgbkbnbobobobobsbsbxbobjcqa\asb4a[a6a<",
"aZajalaOapaTa\a}b1b.b:b`cfckcncqcocrcscxcvcxczczcCcCcCcCcCcCczczcvcscrcrcococlckb_b=b=b;b,b;b,b*b#bZbybhbmbJbSbObMbObSbZbZbVbSbuaWaYb]cfb}b.b7b)b?b|cab?b?b|b\b:b.b3cNcda[cLcecwb^aPbjb?bFb.a#cjc7cXctcgb{b0aoava$bJbObDbgaYaUbga(a}b1b7bUaWaPa]bha<bgb.bdalbyb;cfcrcrcib;b%b=b*bZbZb#b5bZa>bDcbcvcxcxcCcvb;a]a8a>a~a>a$bqb5bSb3bkaVa5b6b}clcrcrcfb,aLaObyckcscxcCcEcEcCcjbob&cNcQc0c0c3c3c0cWc0cZcZczcZb$a[a^bXb\b\b#cic$cWb#b4b9ataHbfb7b\b[bYa^aWaOaWa?a:bjbpa?a0aYa!a)a%aRaxaCa&bHb7b|cjchcecbcecdb}b}b}b|b_b}cbcecececbb}b}b`b|b`b}b`b`b`b`b|b:bga,b3b?b`b}b_b~b|cbb?b&b/b\cgcgceclcqcncnchclclcecbcdcececececbcbcbceb}b}cecfcfcccfcfcfceceb)bNa[a%a|aDawbw",
"b!b4b}cbcjcdb-cucwcxcvczcCcEcMcOcOcQcWcYcWcWc0c3c2cXcTcQcJcqcdb|bUbgb]czcnb.b]b~b[cfcccicocockb~bOa,bMa2bmb#b;b_b_ckcockcfb=bha]bZb=crcvczcCcsclczcHcMcMcHcrb!bcbGcqcyc!a+b9cVa[boaDb!bHb.bgcpc(c%c1c4c$cgbiavaYaWa4a$bjbObZbMa<a*a6aFa$b2aYaUa,a6b3bYb\blaubDb;ccckccb=cfcib=b*b,b,b5bZbVa$b#cscvcscrcib%bDbJbGbqa>a<bScccocrb=bWbXb[cjcscsckb_ccb#aWa4bmckcrckb~b#b%bDa_a`crcOcUcUc0c3c3c3cZcZcWcWcDcPb:b1b(bfb;b_coc%c9b=bra1arbfcVcGcycmcdb^b|b:bRa^a^a?cdb.b?b&bUbFbMb1b1b&b;b`b;b;b/b:b|cBcEcEcAclcocscscscscvcvcscscvcvcxcxcvcvcvcrcvcxcvcrcvcvcvcscvcocfcrcxczcxcob]coczcicrcOcTcWcOcHcCcEcEcxczcCcCcCczczcCcCcEcEcCcxczcCcvcvcvczcvcvcscsclccb~b=b;b,b,",
"b2bFbLbXb2bLbnb0b2b4b9b$b$b$b$b!b!b!b$b$b&b-b.b/b)b7b9b1bKbkbfa^a1aVbobNbBbcbca}bcbFbHbHbEbDbsa.a2aWaFaWbsbBbHbxbHbUbUbQbDa*aObgbJbVbYbYbQbQbFbLb7b7b&b&b8bUbHa?buc$b\cIbPaXcja?a=aJbWa|a?b^c)c8cmb$bia+aLaSb2cqapaqa0a<a4bqbJbZboa6aDarawaJayaUb,cfbBcda9aCbVb\cfciciciccb]b=b;b*b3bhbmbVa~b;crcsckb=bZbZb,b#bDa.a~b#b=bOb,crcvcscrcscvcvcfb,b,ckb;a~bqa8bJa>a<a$aSaWa>beb#cHcQcWcWc0c3c3c3c0c0cWcUcHcCcAbJcqbRbgb7cebMa0aVaWaOb;cOcqcpb-bLbAbkbibIb`caa?aUb!b.c&cdb2b!b-b:b:b:b/b&b8bYbKbkbkb9b>b>b-b$b)b:b[b^b[b^b[b?b?b:b?b?b?b?b?b?b-b:b^b?b:b)b&b7bYbYbLbxb1b/b?b\b[b|b|b`b&b?cecechcbb}b`b|b`b}b`b~b_b`b`b`b`b`b`b}b`b}b`b}b\b\b\b|b\b[b[b[b[b[b[b?b\b?b.",
"a5a5a5a1a0a7a5a&a!a)a;a=a?a=a/a/a;a;a;a\a[a_bfbfa|a?a=a+a9a5a5a0aOaGaUa5a6aYaLaOaYa2a4a6aYaRaFavatasaBaPaWa3a0a0a7a7a5aZaJayaUa0a5a5a0aYa2a0a#a*a<bca}a;a[a[a}bPcJcJb(cwa=aDcmbxaWa*bBb!b$b/b1brbabfbobKb4bUa;b$ajaqb8ceaFawa<bGb%bYbQbGa0aSa]cic#bJbRb(aCaZb)b\cfcicfcfb~b=bSbqa>bhb5cfcfbqa~a~a$a,bmb,b=b*bDa2a]b_ccb,bDbZb]cob~b,b5b=b]b=bMb.b,a>a,a0aAaLaLaOa4a<bMb,b#b_cMcUcXcXc2c2c2cZc2cZcWcWcQcrcJbQb.cpb0brbGbJbDbybmcccwchcdbgbhcwcZcsb!a>a[cgb^aya~bUc1bEazazaEaEaCaEaEaEaEaCaCaCaCaIaIaIaLaOaQaPaSaUaUaUaVaUaTaTaTaQaQaNaMaPaQaVaVaRaRaRaLaHaFaHaHaHaHaOaKaHaIaHaJaQaRaTaUaUaZaUaRaSaUaTaUaTaUaWaVaXaWaWaXaXaZaZaYaXaXaTaUaXaVaWaWaVaTaRaSaSaRaRaRaQ",
"bTbnaSbAbHbAb/bga)bTa0a/bjbHb!b)bRbRbUbBb1b)bsbjb1b?bsa[bVb&b.b`a4aDa`a<aXa!a$bca.bpbFaDaWa.a:aBaDa8aUa8bwbUbHbHa6a4a.a.aWa%a}a:a4a4a*a?aWa)bHb4cXcHcebQa2a%a.a.a~cebNcya<b|bCaZa4cdceb&bda+aXa0a!a+a!aVataAaqasaqaSb$b<aCapa8byb,b.b.bQa6b`cVcAa_a#b6aXaubzb:cccfccb=b*b5bJa:bFb_cscxckccb#a`a$a~bZb,b,b*bSa]a2bZcocfb#bua`beb,b*b%b%b]b,b=bMb5byaSaJaPaLaUa4a8aLaHa>b,b_cxcPcWcZc2c2c2c2c2c2c2cXcXcUcCb}b}bOb:b$b)b4bUb;b=b;cOb-cubiaWcLczc9c1cBb\a8bIcNaFa8bNcIbxaKaCbibFbIbIbsa[brbrbnbIbwaXbFb2bHbLbUbQbQbUb1b?a%btb<bNbKbIbEbEbIbKb+a|a7b+b7bRbNbLbEbEbHb1bEaYbRbYbFbFbKbLbNbNb1b-a!bwb:bRbNbNbLbPbQbXb>a?a[b>b4b1bXbXb2b2b1b>bEa#b$b$bRbLbIbFbKbKb1bRaUbT",
"cNb7b?c$cJcGc4b}c4bwaHb1cSc&c#c$c&c(c%cUcwbAaObVcXcCclc$c(c$cNbxaOb1b.bhb3b_b=b=cucna_a*ceclb:aYbOcickcscscucgbta2b?cbb&b`cAcVc(cKcGcpa/awb:cbc#b>a:cdb>aYaQa>a,bDbUceb.cdb&a5a^cwb}bKa3bwb4b4b>b}b`b(baaiaYaSaRa6a8aRaBaDa6a,bGb!bYb7byaDblbFa&a`b&a{axaLbRb;b,bYbGbfaSa(b)crcEcCcrcrb~b]b=b#b3b,b;b*b*bZa]a.bGckcscrckccb]bYb8cfcrchbMb#b_ccb]b]b5b,b]b=bmaYaPaya2aLbZcrcKcXcZcZc2cZc2c3c3cZcZcXcTcQcOcfb_cjbRa9a3a?a;b&cdchcqb8b)a)aTcBbNb!b|b-bBaUb\b<apa[b)cSbtaQaKbKb|b6bPbLbUbXa?aBbib:aUb-bNaSa{bsbsbka7a`cIa,bXcjaUa;babba{a&aVb^bEa!cua{a#bjbobia\aSbKb+aScabTaYa^bjbobga0a[cAa8bXcgaWa[bgblbia%a!cta`bicBa%a/blbtbtbba4b-b$a*cpbIa4bbbfbba{aXbscaaYb{",
"cgbfbKbLbIa^a0bibcboczc9c7ctcpcjcqc4b>aOaHa&b&cncectctb(bwa=aXa6b&cjcncwcnb)b8b1a&aZb1cNcNcpb?b?cecncucJb-a0aZbdb\cAcIc7c4cGcFcJb{bKanaka4b`b:b.a=aPbra/a3a+bZcccecqcdb)bta?b|cFb6bib4cNc!cyb{b4bHbja=aYava%bEb2b8bjaXaPa8a8a6byb1b1bKa7aOa}bGcBb3bga)asa:bGa`a8bMb)b?bxb,cvcvcrcocxcxcob`bybGb;b_b,bZa>a(bsb*b]czcCcEcHcCcxczczcrcsccbZccclcscCcHcKcKcEcxb=bOa$a]bha$b_cxcRcZc2c3c3c3c3c5c2c0c0cXcXcTcQcrb=b)bHb$aTa!b0b)b:ceceb$b-bvarbjb^bUboa[a[b!bQaEalbAb$cVbFaRaRbKb0bHb$bsb8bibra2bNb.aYb/bNaYcjb0bbcAbQbUcpa,b!cmaZb?cjbbb{b\bjcjbBa8cga-a^cFbsbXctbob<b$aWb|bUa#cqb1bgctbNbYcta8bWb^aYb[b}a}cpb.bFcqbdbAcya*bXcBbob)cqbxcdb!a,clbxa.cFbNbHcubwb7b}a6b?",
"bKaDa.bHbba#a*bHbKbRb9bLb+bza)a;aXaGaEaQbib+bIa5a-bdbnbCbia^bgbsbLbLa)a/a8aSazayaHa:bNbHbKbWbva-aZaTaGaLaLaXbybUa?a?bobQb1bsa2aPazapataSa]b)b\bta_bAb4bUbUb)b`b[b!bBa{btb.cNb{a{bNc$c8b$bfa&anamaDa0aYalafamaAaHa6bLb8a9a7a5a!bGbYbQbwa}bebeb.b[a/apaVaua6a>bpbVb[b;bDbGcrcscvcCcPcXcTcTcHbqbcbqbObOa(a:b*cvcHcOcQcWcZcXcWcUcQcLcOcTcUcOcOcOcOcTcXcWcUcMcEcrb5a`bGaDa`cicEcPcZcZc2c2cZc2c2cZc0c0cWcWcXcTcCb=aYa_cIbza0b6b&b3b?b?b4b>b6aTaZaXa/a%a=a\aQaCaQa?bXb7c1bIaTaZbra/bEbibEa}a3a=a+bba_a[b>bNaUcjbfa0btbkbaa^a#b(cmaYb`b?a6bjbsbsbia-a}cma)a\cFa(a{btbvbra\a=cgbRa5cpbra#bfbkbia|a,b&caaZb?b.a%bzbzbzbta\bYcFa*b1cqa*bfbxbwbra_bgcqbFa[cIa}a?btbrbna|a[cd",
"a0asa(bbbNbLa^aSa4bAbIa}bAbFbbbtbdaQaxa1a[bbblaRaHbIbNbUcabia%bibaa!aAa;aWa#a5ata3a{a=a+aTbdbia\bbbba7aCaYa+bfbia?aza8a}a1a!aYa0bAa}aSa(bqbya7awa)blbAbibgbba\a#a0a?b+b|cgbLa)b+c$b1aGaDaUa7a0aSaDaXaeabakaSa]aAaDa#bna\a1bla)bfbVb3bja,a4bJa6bja3auaSaYbHb|b&bubMbGb,cocKcPcXcZcZc2cZcZcWcHb!a*aWa2bJcscHcKcOcXcWcYc2c2c5c3c2cZcZcZcYcYcYcWcWcYcYcWcUcKcCcrbZbGa`ama4crcKcWc2c2c3c3c2c2c2c2cZcZcYcWcXcPcOccbSb;cta6a8bib1b!b?b)b1b|b(a?aQaVbEaFa%a-aMbKb-b(b!b7c1bKaVa1b4a[a{bbaZa^bjb1bNbLbXb7b-bia4b$b1bXbRbRbKbTbXb$b1a1b$b>b7b!b9b1bRb1b(b.a9a_b<b1b4b4b4bYb1b4b+baa7b$b$b4b4bYbRbUb8b/bTa0bYb/b&b&b4b8b(b(b/b<a(bNb\b7b&b4b4b2b8b-b|bja}b|b&b!b8b4bYbYb7b-",
"bsbxbxbpbHbQbFaSaPa_a,a:bkbBa^bkbWbzaObwb#bVbFbsbqb!bNbwbTbzbkb?b!bRa[bsa<a,a*a6a/a?a}bobAbIbKa\bxbNbgaBa6bca}bfbca_bxbYbRbFa}a/blbwa<a.b7b!bFa<aYa<bfa}bsbxa}bBa`bxbFaHbWa\b/cya(a6bkb6bPa}bgbobbbza*aoawaSa6aoaAbUa7bIaXaVa&aXbca[a:aPa<aWaoaVaGaEbub.b|b.b1bQb3cncEcQcTc2c5c5c3cYcWcWcWcUcCb,a~b&cCcMcQcUcWcYc0c0c3c5c5c5c5c5c0c3c0c0c2cZc0cWc0cWcQcKcCcibZbmaDaka~cKcRc0cYcYc2cZc0c3c0c3c0c0cYcYcWcUcUcQcEckboaAbebHbqb:b\b!bzb6b6aFaWa7caa(bHbFa,b|cfb`b)b:c4bNaTaUa/a:a9a&a3a?bFb|a6bkbNbLbXb4b[b7bKbKbEbIbKbRbRbWbUb)b:b7b4b4bYbUbUbUbUbRbUb!bPbRbNbNbLbLbKbAbrbzb1bKbIbKbLbLbFbEbAbIbRb(b)bYb4b2b2b2b4b1b2bWb4b)bRbHbFbFbIbKbLbNbLbUb)b4bUbHbFbFbEbEbEbE",
"bpbkbebca_a[a;a?bfbfbfbca_a}a|a{a[a;a)a\a{a{a|a|a^a|a|a|a\a=a=a=a=a;a0a1a,a.a6a2a!a)a/a;a=a=a;a%a7aWaUaSa6a%a%a8a6a6a7a7a2aYaXaWaSaZaWaWaYa6a#a(a8a,a4aYa_bFbIbIbFcjbja4bAbbcma#bgbxa)a2a;apaja1aGauaTa9aHaHa0a*a5aYa4b{aJaTa|aCa3bbbSbJb9aBa#bBbca[bebubGbQb!b}cvcOcQcWcZc5c5c5c2cZc3c3c0cWcOcCcCcHcQcUcWc3c3cYcZc5c5c5c3c3c3c3c3c3c0c0c0cWcWcWcWcUcOcEcrb5byb5a8aYcxcRcWcYcZcZcXcZc3c3c0c3c0cWcZcZcXcQcOcOcQcHccb3b#b_bgb-b}b8bvb9bkaya?bxb/a8bHbHa;cdclceb`b}c!bRaTaWbLbUbUbUb4a#a_cpa4b}cga6a=a?a<a[a?a)a&a&a&a/a/a;a=a;a/a/a/a-a)a+a)a)a&a!a9a#a)a-a-a-a%a%a(a%a%a%a&a)a&a+a/a;a:a(a/a-a)a+a-a-a/a/a=a?a^a?a?a;a/a-a%a#a7a7a#a+a+a/a.a?a/a=a?a:a[a|a_a_a_a}",
"b(b(b$b$b(b(b(b(b(b+b+b(b(b(b-b.b-b4b$b)b(b(b.b?b:b.b)b)b7bLbxa`a+bcaDaPbLa`bcbEbObYb4b4b1bUbQbQbFbca^bsbGbGbGbybpbea`a`a(aSa.bgbha~a]a.a*a#a_a[a}bGbVbMbDa~a*aWa>cba6bEbkb7bga[aAaeagakalalaMa3aWbraraIaUaPa.b!bga[cda7aybfbPaCa,b4bJa6bPaBa~bGbLb3cacab4bLb`cLcLcQcUc0c0c0c0c3c0c0c3c3c0cWcUcUcWcWc0c3c3c3c3c3c5c5c5c5c5c5c3c3c3c3c0c0cWcWcWcUcWcQcKczcibybmbSa2cicRcWcYcWc0c3c3c0c0cXc0c0cXcXc0cUcHcWc#c7cqb|ccb~b=cxbjbRcnb7b!b!bTaZa)a0bBa#bUbQa:cecncnclb:cVbPaWaYcla%a7a%cgbca[cda8b}bLasanaxaGaCaEaIaIaEaVaEaGaQaWaZa0a3a0a0aZa0aYaWaQaMaSaVaWaXaWaRaOaJaDaFaPaUaVaWaXaWaVaRaYa.atataTaDaxaJaRaQaNaTa3a7a5aWaTaOaTaMaLa3aVaTaZa5a7a9a7a7a!a&a-a/a-a/a/a;",
"cycycycucycuctctctcuctcqcIcVcpcgcqb|bXb8b{bUb4bNb]cocjb6bPbta\a-a}bNboa6b{b.a_b2bXb?cfb~ccckb0bdbibza;aZbLb^b%cfcBb)a^bna|bfbBbobjbDbubJb!bQbIaEbDbYbBb.b$b$a.b3bUbNa$b?bFbYa-aFacanaFaYa%a_a*b9b_ccaCaRa%a,a_bca-a0azaJbDbqb+aEaUbLbca<bPaFa8bYb|c8bIaWb$cabib^cEcOcUcWcUcUc0c0c0c3c3c5cWcUcWc0c0c3c3c5c5c5c5c5c5c5c3c3c5c3c3c0c0cWc0c0cWcWcUcQcQcMcCcvcibSa~bDb=cRcRc0c0cZcZcZc3c0cXcXcXcXcWcWcWcHc!c1bfbIctb?bEbxb~cHa[bxb~b~b\bBb9btaYaRb:a,bLbQa.cdclclcsb*c8bUaWa2cjaWa|b|bPa9a_cga0b\bWaAara;bIbfbgbpctb4a#bAbHbjbcb2b&b&b:b6bEbtbBbRb+b9bgbfbRbLbca(bibPbPbbbLbxbLb!b7b2bpbBctb4aWb$b-b2bUb!b&b)b1bva}bAbHb|bKa|a.bUcpcFbKbwbNbFb1b(b!b)b?b^b|b^b^b^b|b|",
"cNcNcOcLcNcIcBcucucucqcDb>aZaXa3a7bWb|bxbgbLaSa/b\cqa\aRaRaXa5a5a5a5a*btbYb|b(b<bXbsbjb7cmbTa5bIcaa5aGbkb#b#cBc*b+azaxaGaZa:a}bFa:a.b7b\b(bUbXa+b&bQcDcqbYa#aOb&b%b*byb\b7bXa\aHarbgbobxa)a/a-b>cAcqaEaQa_bwbxb:bNa?bXb>bga<b>aNaFbAb!bGbBa2a[b!b$cabIaoa=cmbibicpcGcOcQcUc0cZcZc2c5c5c5c2c2c2c5c5c3c5c2c5c2c2c2c5c5c3c3c2cZcZcZcWcUcUcUcKcCcHcKcKcCcxcob]a~a~cocRcWcYc0c0c0cXcXcWc0cZcXcXcZcVcZcTcPc*bfahbTcpbRa&a3cmc4aYbRb|b|cgbLbfb+aPa2b-a%bKbNa.cbclchcqb/c8bWaUa5cma0bocma^bzb)cmaWb/b9aEavaZa*bHb|b:b?b|beb)bQb&a\a{b!b?bIa)a\a-aJaUbocBcBbAa\bUbEa;a}b-b$bXb(b$a}bibIbibsb{cwb2bva&aYa5a9a<a{bibLb1b|a<a^bQb`b1b&ctbzaVa0a!a?b9bsbXb/cacjcmcmcjcjcmclcn",
"cBcEcDcGcBcBctcdcdcqcqcebFbnaVa7a_bgbsbUb8b`a4bscLbNaFa}b4bFbNb&b4bNbea_a:bQb`b:chcda6bLb2a&b{cFa=axbsb)b*bZctcqa{auaSa0aUa/a.bgb8a(a.b/b4b(bsbxb)clb(bRb2bFaWb*b|b&aNa4cqbBbKaOa_b{a6b(bdaTa(b>cNcBaMa3bpbLbKa/a%b/b^bWaBatbWaYa0bfb7bjbhb:bHbobba{a&a+cpcga+a;cgcycGcNcXcXcWc0c3c3c2c5c3c3c5c3c5c2c3c3c3c3c3c0c3c0c0cUcUcUcWcUcPcHczcvcocococvcxcrb~b5a.a>cocRcRcUcXcXcZcXcXcXcUc0cZcXcXcXcTcTcPcrcBbFaMa5a7a+a_b)c%bRaWcgb}b4c%cla+b8b!a,bIa3bIbTa.b`cicfctb.c8bUaUa4cpa%bcbsbAbHbvbfa6b^b0aAava0bXb&b&chb}bGbqb4b1b3bLaJb&bBa9a#a?aYa8bHb7cJcybKaRbIb$b4bgbgb[b&bXb|bKa}bFa#btb/a\aGaNa&bwb6b?b\cmceb0brcdbRaWbLchb?bfaHaHaZa{bbb8b>a4bBb?cdcncqcmcgcbcbcbcb",
"cOcOcOcvb;b=b[b[chcqcqb}b4bxbLb-ceceb|b7bNbYbxa_cda[a*c)cqb/a-bFb`b`b\b%bYa}bhb.b|b?cmcya,b?cSbPaEaYbNb!bSbDbLa*aOaJa4a*bJbZbDa:b1biaJcab4b2bQb^b$bkbkbCa/aJaWbgb&cAa8aBb&b\bxbFbxbkbfbEaIaEa+b<cucpaIa1bwbWb!b8b<b$aRa=aia0bbawalaNa,a~a}a~b7bGb&cmcgcgb9a9aXbTcmctcEcOcUcWcZc2c3c5c5c5c2c2c3c3c3c3c3c3c3cYcWcOczcKcOcOcPcOcEcvcfb=b~b_b_cfccb_b;b;bZaSbOcCcOcRcTcXcWcWcXcZcZcZcXcXc0c0cZcXcTcQcKcsb%b&bLbLb3b|cpcdbdata}bTa|aRcdcaa<b7ccczbLa.b6bia%b>ccb~cnb%c4bRaSa0b|b)b.b&b(b!b/b\a*b?b6aBaxa^aUbLb2bEb4b!bLbBbQbFbXaSb>a-aBa=bLbHb:clb(bFa\a5a(bUb.b&bFbob7cgb!b.cNbLa5a/bEaIaIa|bTb/b`cjcectc4c4c(a8bLbLaJb6bfaTaXbkbUb9b!bQbfa#a[b8b=crcCczcrcib.bQb;ck",
"b8b!b!b!b-b&b!b&cncBcBcHcEczcvcqcncbb}chcbb&bUbsbjb8bxbcbabtaFa\b\b[b?bHa}bPbybYb4b&cycja8c7caaJa`cqcqb&bHa?bebMa)aza.b&cBcncqbYa\a/aYb6bUb-b/bYbKbvbfbLbRbEayaUbScCa`a2a_bNbwa+a5aXaCauapaTa=b{cqcjaCaVbsbRctc%cqbAaVagatb#b.bBalaxa[bjbFb/b/bLa7a3a5aTaXa\b9cgcqcAcHcQcUcUcZcZc5c5c2c5c5c0c3c3cZcZcYcYcWcUcQcsbYb1cocrcrccb;bVbZb,b~b*b~b=b#b#b#cib]b;cKcUcUcUcXcXcWcWcXcXcWcWcWcYcYcYcWcWcXcOcCcrccb*bUbpbabfa\a+a8a:bYb:bLa?cDbXaYctb?aPb*cEcja8aUb$b~b~clb!cSbKaRaRa5a)a^a|a^a%bEcpaLb-b(aFaua1bbbFbYbQbLbHbHbHbBbsbxa.b)a#b|cIcjbPa:b\ceb}b?b.cpcqb-b\b.a<bxcqcdbxcNbpaPbzbkb2bTa!a/b{chcqcnb.b$bwa_a:bEa0bga[a[bXb%b`b=b~cCc2c6c$c#cYcOcHcFcqceb4bga}bFbB",
"aOaPaSaWaYa0a3a5a)a?a_bobLb8b?cdcib_chcBcucncbb=bQbua[a$aYaMa(bXb3bOb3bDbca[bLb$b/b)cmcga/cVa#a#c+b<axaraEaKa.bQbub3b?b)b2a*bFcqaGbnb/b/b(b9b6b(b>b|b>bNa{aMaHbGb1cwa_aYbFa_a7a!aWaZa:a6aYbgbncgcpcjavaDa\bsbiauaha1aXaza0bJb!bYaPaBbhbMbUcdc&c$b+aTbdb0b/cdcqcycBcGcOcQcSc1cXcXcZcZc2c5c2cZcZcZcZcXcUcUcOcrccb~b`b%b_b*bGbybMbVb=b_bSa]b~bObZb%b*cxcEcRcScVcXcXcXcXcZcZcZcZcXcXcXcZcZcZcXcXcTcHcwctcscscob_b[csc$c%b2aXbNb|bSb_c&aYaOb|a7a%b0aPa9aKaHbUb=b]chb#cIbKaRaTbXbnbHbKctbzbtb<aPb>b<aJaJa7bgbFb4b!b7b3bLbFbybQb}clb!byc8a8aPaZa:b<b:bUcgcgbPa5aYa=cgcgaSbWcja}cNa)a%b)b{a%aWbbb/cjctcucAcebRa}a%a8a<bNb~czc9c#cVcwcnchcab$brbfa|a)a5a0aYaWaRaQaMaHaEaH",
"blaFa}a|bFbRbIbwbrbia{a=a/a-a(a#a#a6bbbPb7b`crcvcschb:bMbybGbQb7b5bSbDbOb*bOa$bobUb.b?cybKb<bca<cJavava+a>a>bDbMbjbXbKbtb1cjc1a%aUcjcNcga{a|b4bIa4aWaVaVaHa#bVb%bZcfa#a}c#cAb2b>a}bBb{aPbsb4bAcgb>bHapaza;bba^a1aoa1bdbla+a/a;a/bUa}a*bsbAa#ctc$b9a3bncdcmcqcAcBcEcOcOcQcTcXcWcWcUc0c3c3cYcYcXcTcUcPcOczcrcfb*bMb3bZbVbDbGbSb3bSbDb3a>bDb%bZb~bZbJczcKcPcVcVcXcXcWcWcXcXcZcZcXcXcXcXcWcUcPcPcGcAcucqctcDcEcCcwcVc&bpahaQbsb1b\c!bvaCa?a+a5bia!aMbjbga0b!b~cccnb;c%bIaQaTb|aXa!bPcga|bob>a6b`b<aLaSbIbQa}bkbia+a7bbbEbsctc*c*cqbhb(cgbia+a;bia0a\b\cjb}cdcmbAbYcFaBbPb8b+b/aRbta}a5a#b$cjcocrcsczcCcEcCcrcrcTc$c%c7cwb>bKa}a7aZaXaTaQaIaCaPa2a&a=a{bibrbtbtbia+bI",
"bKa7b|a^a=b$cmcmclcnchceb}b[b)b7bQbxa}a\a[a[a^bibGb7b&b1cbb?b3bQbybhb3b\b`b7bJbDbAbAbWbXceb)b&a[bIa}aZa!bFb$bMbGbsbsb1cpc8cda2bwcwbla-a=a-bna;a;bsbsa_bgbOb%b,b*b7cqa,a(b:b[b1cmbFa}b$aSbXb:brbEbbbwauaEa{bKb}b`aSb(bKbnbda+aZbibyb3b8b8b4cjcIbKa9aVb6cmcucAcBcEcLcQcQcTcUcUcWcYcYcYcZcXcXcPcOcKcHcEclb#b,b%b5bVb5b*b*b#b*cicrb~bqa8bhb%b]cichbebJcHcOcUcTcTcUcUcWcWcXcZcXcTcUcUcWcUcPcKcNcGcDcGcHcKcOcKcOcPcwb\cfb:bjbyb)cucpa-aRa-a!a?a9a7bna;b?b3aYbYb[b[cqbYcIbIaNaTb<aXbrcja5a9bYcFa*clb>aJaUbUb[b\b?b!b+b6babvb2b)b!bMb`cebjbeb&b1bla;bcb8b`ctc1cqbFbbcjbba[b^b+b<aIa!aHaRbAb>chcqcscscvcCcUc%c&c&cYcbbPa^a5aRaEauaoaqaDa&bibEbAbKb9b<b^cacdcjcdb-bAb-a(bK",
"bBb`b4bga9bfbUcpcAcBczczcvcvczcvcvcscnceb?b8bHbca%aUaYa/bLb:cdb}b}b&b1b4b5b5b.b&b6bAa}blbJb)b|b:bqbpbba;a+b|cScwcjb`b>b9a=a^cdcma=bAb)bKbjbHbIaxaZbWbRbjb1a<a~b!b7cGa<a4bpb&bHb-a!a+bba;bcb8a^b<ctcjazaXbNb{cgb-a)bTa?b(bIbfbnbwbRa_bUa:bia\aXaMaXbIb|cmcwcwcAcGcOcTcTcXcZcXcYcYcWcWcWcUcOcHcCczcnb*bDbZb]bVb#b~cxcEcCczcEcEcCcvb;a]bmbMb%b~b]bubOcCcOcTcWcUcUcUcXcXcXcXcWcWcPcPcPcKcBcDcLcPcOcPcQcUcTcQcQcQcPckbVbJbYbYbzbbava.aJa5bia?a\a+bsa?bYb4aWbNb!b&b\bycpbXaNaTb+aVa^b(bUb!b-b+a.cpb^aLaUbYb)cjbob)bXaFa6cycab4b-b8bsbHcebGa*a}bHb7b-b`clcpbNa2a_bHbBb4cjb-bzaZa7a7aXa+bHcdclcvcCcOc9c%c9crb2a>aXaMaNaVa1a9a4aSaUa?bTb<b}b`b-caclcnclcpcqchcmb8a{bIbQbU",
"bBbUbWa^a+a8a0b{clcwcEcHcHcHcHcEcEcEcEczcwcscob~b5bDbha$a0a0a%btb)cgcqceb?b1bUb!b[bga[bLbHbBbYb:b$bsbGbYbLboa}bka/a7a.bHcgcjbia!ceb-atapaqbEb(aRaFa<b4a[a_bUa6bYbYcta%aSbybGa8bda2a_b1a5aDb+bxcpctb|aza3b2b^ceb4a)blbvbIbtbkb2a[b!bscaaDa*a[bdbIb(cacjctcAcwcGcNcPcScTcXcZcXcYcWcUcUcPcKczcrccbGbybybqb%crcCcKcKcOcQcPcPcOcHcCcscob]bSbDb5cscobJbmcHcRcWcXcXcXcTcWcUcWcWcPcCcqcDcKcHcLcVcUcUcTcTcQcQcQcQcQcQcOcKcsb=bYbjbqb&aBbLaNa{a[a[bga4bFa:bgbNaWbRbSbDcqchc%b$aRaRb<btbPbzbzbzbtbzbgcpb^aSaWbxb:a8bnbzawa7b|cwa\aya)bbb^bXa[bEb!bNbja_a[a.a#aWa4bfbQbUbsb!bbbna)aWa7a/a*bWb~crcHc9c%c3cdbBa&aTaNaTa7a^bzbWbQa[a:a_bNb{cecqcjb/cdctcBczchcncub8a}bfbLbUb4bL",
"a/aZa:a_bHb4b7bUb&cpcHcHcKcXcQcOcLcLcLcHcCcvcob]bObZbJbma$a>a`a,a(a[bxb(cjcuceb.b.b)bBbUb1bybQb1bPa!aPa:b!cecyctb&b:cIcFb0a^bsb}bnagaya0aXa0aOaHa,bcbsa:a6ccaWa_bucqa8bjcwbmaSbLa8bYb/aHa<b}bFcpb\bQaCa7bWb^cjb4aGb6a|babxbEbPcdbHbfcaaYb3b\b`cab|cdcpcycEcHcMcTcQcTcScXcWcUcUcUcPcKcEcsb~b;bGbGbSb_crcCcHcLcOcOcTcTcTcQcOcHcob~crcoclbqb%cCcobub5cOcUcTcUcUcXcPcPcOcGcDcNcGcNcNcNcPcTcTcWcUcTcTcQcQcMcOcOcMcDcvcrcrcockb5b;aDbIa|a)a_a<a^a8b<a8bcbxaWbRbZb%cAclc%b9aVaNbkbvbnbtbrbkbLcla/cbb>aPaWbKb?aFbxaYa}b`b4bga6a*bRa^aJcgb!bcbyb.chb:bNbpbHbUbNbja}a5a/bUbrbEa9aUa_bHb,cxc3c$c7cdbta9aTaNaVa+bwb6b?b{b|b4a,a*bcbLcgcmcscvcncecvcAcScJb}cbb!b}b-b!bUbFbhbM",
"b(a|a$b4cqcqb\bRbFb)bFceb/b`cOcXcPcPcQcHczcrb~a~bGbZbmbJb1b&b#b3bJbea*a8a[bQb|cAcBchbXbxbGbSbGa>aSa+a;aLa:bLboaWa.c1b.bNbjbjbjbQamahaSa|a#aUa]bmbea]a,a.b.b.aAa-bScDa:a.b}cha5a5aYbVcdaXbccjbNcBcFcpaKa!b2b{b|b4ava;bKb{bHb)b?bRaYbscaa2b&ceclchcechcqcAcIcNcNcScUcWcTcZcXcTcQcMcEcCcrb*bUb|b=cicCcMcNcScVcVcXcXcXcTcTcPcKcvb3b;crcrcla:b,crb_b;czcMcQcTcTcTcXcQcLcGcAcNcTcTcQcQcQcQcTcTcWcUcOcOcQcOcEclcrckcechcnceb[bDa2bxaFa^bbb^bfbxa,bBbEawbobAaZb8cccccvchcVb0aXaZb.b.b!b2b)a[bgcma(b`b+aMaPa{cja_a[b?b|b\chb|bQbFb+a7aBbRcvbmbpbJb7b.cga4aJa}bfa_bbbFa+araTaVa)bIb=csc6c$ctbHa9aNaMaVa/bIb+cacjcjchceb[a>a`bGbFb|cqcAcDcDcDcDcoczcjbUb9a\bFcqcvcqchb\cdcj",
"cybLbIa?bhb?ccb*bjbsb%b;c$b$bUcmcvcscsczcsb;bpbpb!bUb5b=b*b#b&b!bya>a]a$a0a.a^bHb[cycNchb7bMbGbDa4a*aUaSa#bxbXbfa_aybDcAbLa0bxbLakapaYa*a,a}bZbJb#c0czckb-aSaybjbQcBa[a4b]cxa}a}bcbsb-aHa_cdbEctcsclaMa)b9cacab.aJbIb0bPbfbnbnbfa<bLcea4b&cjcqclchclctcAcGcJcOcOcQcWcXcTcTcLcEcCcrcfb\b!cbcsczcLcOcOcScVcXcZcZcXcZcXcTcOcCbSbZcccicrb~bGcfccbZb]cMcRcUcUcUcUcTcOcLcOcUcQcOcQcQcUcUcUcQcQcQcOcMcCclb:bRbNchcwcCcCcob=b#bJbja>aObLbpb4a<bca_a.a%a4bLbLa4b/cib]clcfc1bPaVaYcpa,a)a=cja}bscqa(b`b+aHaRa&bycncnc7cjbkb4clb{b!bBbxbNb&cVa}aYbfb/a.aya%bjb?bLa[a)a5aZaZbQb-b~cvc7cXb<a\aXaKaRa&bzb$b|cgcmcqcqcqcocfbua<a[bgb[cwcCczcAckcFcBcvc#a7a?a}a.cbcscschcbcnclc#",
"cwb#b>aZaOa[bYb:cucNcJcAb-aYbBbXcwbsbYb!bxa[a>bGb5b#b;b,b#bSbMa]a$bOb=b]b`b`b1bebcbBb&ctcGcebYa`a#a[a(bsb\cub&bUa:aUcDbQbiaBbkb8aBapa2a#a<bQbybJbFbHbta7aFaFa,bmbMcwa.a,csccb2cdbEbLb9aVa<cabFcqcvckaKa&b6b{cgb/a2b$a&bkbaa^a-bFbGb5cea8b%ccb~b:b:cecqcAcGcJcMcOcQcQcQcMcEcsb.bybFb2b.cqcCcHcMcQcUcWcZcZcZcZcWcWcXcTcQcEcebqb#b_crcrcscib;b*b_cscMcQcOcMcMcOcKcHcKcPcQcOcOcQcQcUcQcQcOcMcHczchclcdcdcqcOcOcOcOcHcEcrb=b%b%b=aUb:a[a2bia/a(a:b&a_bYbYa#b?cncbcpb(cFbKaHaUcga6bxcmbza)bocja,b`b/aMaWbEboa_bobAa_aUbucscNb)b|clchcVcFa8aPa_bUb-aBbgb~b~cicicjbYa%a2b;coc2cQb2a5aIaIa1bdb6b^cdcjcqctcvcvcwcwcvccbpbybsb2cvczcwchb)b7b4b!bAcgbYb!chb.b`cnchbYbQcTcsc$",
"cjbBbva5a.cncVc&cgbIbvbla;b.cjb}b)bXbWaVaqaLa]bJb*b,b#bSa~a~bybmb_cEcCcxcAcwcrb~bVbjbba}b4cjcnb!a}a4bLcdcAb&a_bHaobGb7a,a(aSa9aya3aVaSaYaYb:bYaYbObqa$a$a<a,bcbBa(cea*a.b3b.b:cbbNbobkaZaOb<bLcycwcnaNa+b9cacjb-a5bfa|bTbibfbCa)bYbUcaa(b[cqcqclcbb`cucBcEcEcHcQcQcOcEcrb]bZb1b&b`chcvcHcMcOcQcUcXcXcZcZc3c0cYcWcUcQcEcvb1aWb#ckcsckccb=b;b,cfclcrcrcvcrcscCcHcMcMcMcEcscscrcrcrcrciclczcBcAcqcDcMcUcPcUcPcPcPcKcCcobGbJccciaPb4aObfbsbHbYbkbLbUbNbYa(cacrcfcpb&cyblaGaRcaa4bxcjbFb&b}cqa*b?b+aOaZbTb!b!bNbjbgbNb#c7b9aFb4cpcJb)a5a5a[a<bXa-a%aAb&b\cHc3c#cba2b*cYcWb2a0aGaEa5bzb(b{ceclcqcqcucwczczcBcxchbVb7b|b7cdcvb:bHbWb)b)b7b/b!bQb&b?b:cjcJcecnb*bLb[b~c5",
"b(a/a_cdcSb0a\bPbabvbKb>cab8bWbIbna+aZayaUbpbHbxb(a[b1a)a$bVb_ckcscCcCcCcGcBcxcnb]bZa~aLa6a_bUcjbkbXb.b1bRaUaZaTamcea6bba#bsa,bsaXaJaHaYbOcsa^atbyb3bsboa_bja!a_a(cqa.a,bybJb]clbRa?a1aCa7b-bUcFcIctaQa&b6cacjb<aQbWa)bfa|a{a=btbLbxcda+b\cucDcNcHcEcGcGcDcDcDcGcKczcub:a[bRclcBcDcJcOcQcOcOcXcXc1c2c2c2c3c3cYcYcUcOcHcvbua`b~cocrb=bBbHb~b#bMb&b#b;b!bUcfczcEcCczcvcob]b&b!b)b\cdb`cqcBcEcKcOcOcUcWcVcWcUcPcPcKcnbMa.bJb=bZaobCa5a=bjbRbsa:b>bFbUb4a;cdctchcjb/cIbtaKaTcga,a:bgbAbwbFbka:b|b-aPaZbKblbnb1b.b`b|bSb~bFaPbrb>bxa}bXa?bKa7a+axb(arbFb9b)cBc%c(b#cVb?a(aKaEaXbzb+b{ceclcqcucAcAcBcBcBcIcDceb)bDb(b^a;b2cBcAb|bHbjbUb?b\cqc4cSclb:bLa^a3b^cNcebpb7cB",
"b1a#cmbUaoaRa%a5a*bQbEbcb&b!boa#bEb-a5aUa$a`a]bDcabsb$bra>bYckcib:b&b]csczcvcscfbYbDbga:a4a,a,a_a*a6a-aVaIajaAavaLaYaPbLa}bsbOa~bxbcbjb&cja[aqa0a}bjb3bQbRcuaXa\bUcBa:a2b;b]bxb?braUa;baaXb6bWcJcNcqaNa&b6b{cjb\aJbCbIbPbKb(bWb/a8bkcga-b\cycBcDcCcHcMcOcMcMcCcvcCckcqb}b&cpcCcLcOcOcQcQcQcQcQcZc3c3c3c3c0c0c0c0cWcUcMcvb;b;cccocrb~b#ccclb_b_ceb~b#b7bYbUbXbVb,b~ckcrcrcocrcscqcncwcEcOcQcUcUcUcUcUcWcUcOcKcCb=bMbJb#b5b,b5apa-a[bUb7bXbLb!cla6bNb7a.cgcsckckb,cBbCaQaVb)b2b9b)b/b:b?b}a>ceb/aPaUbvbGb\b%ckbtbLbUa_bQb[b[b:b-bYbgb!a}bna+aya^aBa1aTa[bpb\b7a&a;aNaCa1bvb6bHb7b?b:b}ctcwcAcBcuclcwcAb\b&b&b:b9b/a2b&czccb_cfctb?bpb^cFb-bgbEbEaYaJa3aPaDb}b[a,b|",
"bFbcb|aHaLb?bgbsaOcGcBa7b!b:bPbAaEataoaqaSb5cebQbHb<b2bHa*ctcma7aNa\a_bYb*b:b?b!bWa)b<bAa#ctcmaVaHaWbhbVbAa+aJaPa8aPbob:a%a.b[b5bca8a0aUaBaHbDcebKb<bUb1c1b8aAbgbJb}a4aLb!c4a9aVaUa}b?a_avb-b4cNcJcmaMa9b0b<cab/aEbzb6b^bIb0b6a^a0bxcga/b|cAcDcJcGcNcOcOcOcxcscCczcscncwcGcNcOcQcQcTcVcVcTcOcQcZcZc2cZcZcYc3c0c0cZcXcOcrcibMa`clcib]b_b~ckcvcEcEcGcGcvckb_b[b.b.b]cicocfchcvczczcCcLcQcUcTcTcWcWcWcUcUcOcKcfbqbGb%b=b#byb#ccaybgbjb:bLbXbIb9a:aWb)b4a,cgcrcfcfb:cBbCaTaVbkbrbsbEbAa:bgcpa$b`b-aOaSbfb1b`cjchceb!b?bxa*a6a4a*bcbHb-b&a=a!bIaCa[bKbUb7coc%cDa[aTaxaXbTbBbcceb&a%b$bia^b<cucwcqbfa{cecAcya#cmb&cebpbRcybga<b&bYbga8bUb4bia\a:b?bnatbLb&b!aSa[cla}bN",
"a(a#bRbwbgbjbka,bDcta{aEbGb?b4b}bcaiaOa]bqa>bjbbb!b!b&b&beceb6aCataUa%a[b3b`b;bVb&a_cnbMb)cNbParaOa`a<a]bXbba=a/aUa:bsbqa,a8bcb4b?bXbsbwbLbHbHbHbNb8cuc%cBaxa6bQa:b8a*a%b5b=a#a_a0bxcabgaHcdb7cAceb\aKa7bKb+cdb?aWb1bva|bka?a/brbAbRcga+b|cAcEcKcKcOcOcKczclczczcEcEcDcLcNcVcXcTcTcXcXcXcYcWcYcYc0c0c0c3c3c3cZcZcWcUcHckcobJa,b\bOb*b&b3b]crcCcCcCczckb~cxcCczcsclcfcocxcHcQcUcWcWcWcXcXcWcWcUcUcPcOcKcCb%bJbVb*b*bVaYbDcfciaHb4bLa\bnbla?a=bYbsb-b1a.cdcob]ccb;cBbEaRa0cpbKbkbocjbsbxcma6b*b-aQaVbxbfb/chctb)b8bYb&b:b5bQb8b)b\bta7a1a+aVaXb&b`ckc5c%b8aVaCaEaZa_bUb&b3b&b!a,bFa9b6cacucBchbra-bGcVcja<b?b:b`cdbra5a4bXb~cib#ckb/a)a=aJaHa?bxa8a4a#bxbHb!b4aYa#",
"bNbobbbXb8bXb4b-b4a6a8bjb,bZbsbsa2aia6bZcob=b)b3b\b:b}cdb&b1cpbiaPbFb,b~b`b\b.b)bUbeb\cqcjb|bTa}aLbLbZa~a<a_b>bHa=a-a]bhbBa0a\aLa:bUb7b&b:b\chcGcNbwa{a1aHa6bYb)bQcqa:a0bJbVb)cha6bBbIaBaWcgbYctctcdaGa3bKb+b(bHaHbza|b(bFbFbAbbb4b7cga+b\cwcDcNcOcPcPcKczcscuctcLcQcOcQcTcTcXcTcUcWcXcZcZcZcZcZcZcXcZc2c2cZc0cWcUcOcvcocrb*b=b,bqb~cocrcCcHcKcHcEczcqcbb`b\cfchcrczcKcPcUcWcTcXcXcXcUcUcXcXcPcPcPcCb,a~bhb*b;b#b#bObOcocicoa3b{aZa{bKbrbQbcb4a<bLb4a*b}cob=ceb?cNbIaRa0cja0a=b4b{a_bgcma6bXb$aQaWbRb3bDa_a(bgcab`cbceb\b)bGa^aTaFa7aJbCaSbRckcsc!cGa\aMaEa3bIbWb)bRbXb&b>bHa8a\bPcdcqcAcGcBcrb*cNc%bBbUcecDcbb3bjb)cdb&bJb~chb!a/aDaPa(bma~bebQb#b5bQb&bEaWa,b3",
"cqcsclb`b[b!bFa=a]bQb=cfb_bZbya*aPaOaYbSbVbgbxb4bUbbbjbQb1b4b>bPa7bfb\b1b`b8b?cjbXbFa#bUb[b&baaTaAbhb=b=bQa~bLb8bWbia,bhbJa0bcaLaFaUbjbbbgbobgbgbga[aSaOa8b7b\b\b)cna#a#bMb.b=csbsa/bda7aUcabYcBcqcbaEaXblblbzbza2bEa}b2bKbrbEa}b!bXcda+b\cucCcKcOcQcQcOcHcrb-cpcQcTcTcTcTcOcTcXcXcZc2c2c2c5c5c5c5c3c3c3c3c0cWcWcUcHcsclcrcob*bDcbcCcPcPcPcKcMcHcHczcrcvcrcocvcEcOcQcUcUcXcXcWcWcXcXcWcWcWcPcKcvb_bMa~bGb;b,b,b,b_cccibZb#cua0b1a#bHbEbEbIbibsa[bsbXa(b|ckb;cbb[c4bKaRaZcga5bAcma%a;bUcqa6b7b+aNaYbPb%b5b&bNbxa}a8a/baa;a^bfaCaIa7aTaYa;bLcpcWcWbPa&aKaKbdb+b>bNa_bsbEbRbba%b4b/b8bYcecqb1chb=cxc(bGbabkbEa|a[bFbFbjbgbHa.bgb\a>aWaYa]b#b=b;b#bJbGb7b.b\b.cqcQcH",
"a2aUa6a;a}bwbQb!b?cdcechcbb.b7a>a>bya<a>a]bmbHa_a_b)b8a%a#a*bycqb&a8b?cdcqcjcGctcabraHa^bGbMbka0aUb)cbcbbJbya]a}b?cdbHa}a~bObsa6a6bha:bgbLbUbsbFb&bYbxboa_a_bBb)b7cea8a6bGb.cbcNbUa,b6a7a8b}bUcwb:bMasaIa)bTcgcaaPbXblbAbRbHbAcabgbHcaa+b?ctcDcGcHcLcMcMcEcsb)cjcNc1c1c1cVcVcXcZcZcZcZcZcZc2c5c2c5c3c2cZcZcZcWcWcLcvcrcrcrb]bqb_cCcHcHczcrcscCcHcEcEcHcKcOcQcQcQcTcXcXcZcXcXcWcWcXcTcPcUcKcrb;b3bSb#b;b,b*b;b_cfcib]bqbub_chaHbFbxbkbLbLboa_b|a4bFbYa(b\cfb]b[b[c8bNaPaZcga4a\bTbHbUbYbXa#b}b<aRaWbzb9b-b:b\b.b:bWa}a_bQbIaRa4bwbzbfbLb|ckcPc1bwaVaKaVbKb^cacdb!bta?a)a|babdb&cNcTclceb`bGb&b~c&cdaUaNaZa[bHbIa%aSbcbNb)b&b1bha]a8bsb~cCcXcOcBchb.bUbEbga}a[a<bB",
"bIaOa,bobqbha`a>a*a(a,a]bmbDb1bMb)bVbSb,b=cfccb%b>b$aBa8b|bkarbmc7a:b:cpc1cAcmbUbda-aPbKb]b;bua#bScncebYa~bYbha~bDb\cqbQa}a}b%b`b_ccb8bca*bHbRawa_b:cbceb-a(aObJbLb-a6a}b.bLbNcqb8a?a!aKa{b-bjb7bobNaCa1bKb+b?b?aEbfb2b|bPb+b^bIaUbxcaa+b[ctczcHcHcHcHcCctbYbJcAcOcZc0c0cXcXc3c3cYcYcXcXc2c2c3c3c5c3c0cWc0c0cUcOcxcvczcscfb*ckcCcEcEcsb~b[cvcHcHcEcMcOcQcTcXcXcXcXcXcWc0cWcWcWcUcUcOcCccb5bZbZb%b,b#bVb%b]cfciccbVbmbScxcob_aJbzbpb^b2bLbxb&bTaOb8bXa%b?ccccb;b*cVbHaMaUclb7b4bUbUb1b4b7beceb>aSaRa;b1cqcDctb0aRaxbvbdaTa4a|b.b`cfcfcocscTcia&aTaMa+b9b{cgcmclcebFa^bRb<b>bUb|b|chchceb}bYb4chc$aRambHbQa5aUb$b<a2b$cscob.bGbScicrclb)bsa3aHazaHaGaSa[bkbFbBbFb:",
"b>bnbta)b)b}cbb`b=b;b,bZbmaUaUaWa]b:cqctcbb[b=b%b:bBavbpbPbxaAa}cyaYcbcVcNb1bdbnbza&aJbVcccfccb_clckb\b\b}bUbJb5bMbJb/cjbKa{a[b1b`cbb`b:bGa~bTaEaUa.bHb?b2a_bga6bxb`a6bocwcAbibta/aZbzbfaZbFbgcectcjaMa5bRb+b-b>aSbKbzbEbabvbdbza\bWcaa)b[ctczcEcEcEcDcvb:bYcwcScXcZcXcXc1c1c2c2cZcZcZcZc2c5c2c2c5c3cYcYc0cWcPcsb~cvcxcfbGb~czcEcfcccvczcMcHcCcEcLcQcTcQcTcTcWcWcTcXcWcWcUcUcQcOcsb_b3bDbGb5b#b,b;b=cfcrclccccbOa8b&cHcPcxb~aJbFbHb8bxbxbEbba<a(b&bUa#b?ccb]b5b#c4bEaIaQa^bfbibwbpbpbQcsa6b`b^aSaRb0b4b`b+a-axaXbaa&aVbtb:chcqcuctcqcsc&cyaRaQaKa|b(b{cdcmcqcqcqcucwcwctcqb[bYbUb:b/b:b|b?b4bscNaSaObQbBa?aPcebQaLb8cfcrcvcsb.bga2aUaQaOa8bga8a.bsb&chcqb(b-b/cw",
"cbcGb9a.a`b:b`cncscvcrckb=bJa$aDa>bybmbDb%chcfb;bGbUbeaWaUa<bQcja%bocNcdbfa;bfa7avaya~b5b%b3b,b%b;coclcob~b3b#b]b\bZbDb3b|bHa}a:bMb:b}b}b\b#bpa`bObZbqbJb$a^aBaWbFcta(a[cXcPbCaFa/bob+bvaDb$bBcjcpcdaQa!bPb+b^b?a9bUaXa=bvbna|brb(bRcaa)b[cscCcEcCczcwcuchcBcUcUcWcWcWcWcZc2c3c3c2cZc3c3c5c3c5c5c5c0c0c0cWcUczb=b_cschb3bGb}c1chbUb9b%cncvcscEcMcOcUcQcUcTcXcWcUcUcUcUcPcKcHcrb,bDbDbVb5b,b,b]cfcicscrcoccb#bua.b3cCcRcRcHcka0cja\a+a|babca_b:bGb7bUa6b:b~b;b%b#cBbaaKaRb&b7b1bYb|bebscma#b^b>aQaAaXbgb2a|aKbzb/b$bBb!cdcnctcAcDcscsc#cBa-aQaQbvb/b{cdcjcncqctctcyb\b?cqcvcobYa<a\a^a[bfb4b|bba_bRbfbwa9a6b?bYaDbBcBcnbQa-aPaSa(bsbGbGbSb7bhbBb\cqctcActb|cjc2c%",
"chcqb-a8bYb?b|bsbScvcsclccbDbhb,ckciccb#bDbmbSb~cebQbgbcbHbNbFa2bBb/bYb4b)b^b|b8bAbHbFa`a,bobYb?bpbScfb#bJb_cfb;b5bZbObDbOb~bwa=a$bDb#b:b*b3b#b_cbcbb;bZb:b[a6a0bycla:a*bqb%bzaFbWa(b6aRaBb|byclcqb}aIa9bWb<b|b.a-a^bibIblbibTa)bUbLcaa%b;csczczczb_bJcecOcQcUcWcXcZcWcYcZc2c5c3c1c1cZc5c3c3c3c5c3c0c0cWcWcQcscrcrccchchb7bYcNcncechaSb.cwb&b%czcOcRcQcUcWcUcWcQcQcOcEcrccbha.bgbqbJbSb1b_ccb~b=b=b;b=b_bZbea2b3cCcRcWcOcEcfa#b?aXbFbBbHbKbfbUbUb4bUa4b/b_b,b,b5b+aOaFaLb|a0a#bgctbxbscma#b[b+aKaybEb^bUaPbwb\b`chcqcqcqcucAcCczcsc#cqaYaNaNbzb<b}cjcncqctcAcqb`b$a+bLcdcfcscNc1cQcsb-bQbhbsbsa*a#bkbHbKbBa_bgb}b-a%aIaMa(bAb3b*b;b5bSbJbYb&cscsb}clcab(bLcgcOcL",
"cabFaSb6b>b<a#aJb;cscscocfbhbmcfcrcocococcb=bSbmbJb]cbbya4aYa$a4a<bUa|aFawayaZbEbNbxbRb&b3b?cfcva<a4bObOb:cscscbb*bObJbGbDbZb/a(a8a0bmbObZbVb]b]b2b7b,b3b\b`a0a6bYcDbca[bebya^b9bRaWa=a2a^b^bxcucCclaKa!b2b?b{b?aMbIa+bdbIbfa}bxbLbxcaa9b,cscAcDcsb;b:cLcTcTcZcZc3c0c0c3cZcZc3c0cXcZc3c3c2c2c3c3c3c0cWcUcQcHcEcCb`b&b)b?ccbVbJb\cea*bEcjbta^aWb$cKcOcOcPcXcXcXcTcQcHcrcfccbZb3a8aLbUb%b~cicscsb3bZb*b,bDa~a}b_cHcOcUcUcMcsb_aWb?bfbrbgb2bxbBcda[b1b1aYb(b_b,bmbMcqa^aBaOb|a6bLcea_a#bqcla#b?b<aIazbdb?bEa0b+b[b~cfb~b]cvczczczczc$cEa&aNaNbvb/cachckcmcncvcBchbUb}b[cecsc!cAcNcpbnaGavaCaWbzbwaUa0a=bcbsb.cDb(aWaGa7bBb1b5b#b*b%bybpb)b}cqcEcEcCb)bFcpcAbRbob)cA",
"b8bHbXb2a{aRaXb0b\cqcrcockb3bmb;b~b~b*b_ccccccb,bObybJb=b~bDa>a$a~bTahaybucAaPa#a}bLbxbEboa_a+a2aOaUbJcfcqcucqb-b3b]b3bDbJbubMb*a?a)a4bGbVcbb?cdb|a^a,bMcCcPa.a,b)cJbja`bLbUaSb-bDa$b8a7aXb+bGcwcBcdaIa!b0b>b|b|aGbEbRbUbFbUb9b<a2bEcaa7b/ctcvcrb.chcOcTcTcXcZcZc2c2c3c5c3c3c5cZc0c3c2c2c2cZc6c2cZcXcTcOcHcEcCckb.b[b)b1bwb/bXb&bHbob!a(a/a}a4a}cocEcHcPcUcWcUcOcxcocrczcCcxb5a~bSb=b;cccocscsbObqb#bBbsb]cvcOcUcWcWcQcMcAceaYb$bhb^b&bXbQb?cjaUb&b1a0b&b=b#bSbZcybLaRaVcda#bFcdbHb4b:cea6b|b<aHaIbCb(b$a#bUcicQcbb3bxbRcsczcCc6c4a_aTaNbnb-b?cdcecbcdcqcAcIcgb1b$bIbkbNbLbLbBbFaXaOcta\a(a2b>a0aWb&cEc9b-aWaDa1bFbQbYb7b5b#b7bebYcecwcBcDcJcNcwcjb$bob9cpb-b1b\",
"bUb9b4bkbKb+b9a&a8b`ckcib*bma*bubMchbXa/bZb=bVchb~b}cjbXa(b[b;a>a*bwaDaWb8bYaFa.b2a8b<b<bNboa*a.bpa_a}bkchcqclb`b[ceb[b5bSbubScfb:a^a8a?b3b)a0b^b(aJaHcec4b\aBbzb;cHbga*bcb2aYb\bJa]a-a1a?b>bsb&bgbQaGa9bTb/b>b>aMbPb6b-bEb!bPbta#bUcaa7b)clcdb&b1ctcTcXcXcXc0c0cZcZcZcZcWc3c5c0c0c3c3cWcJb\b:cNcQcWcTcHcEcCcvcrc*ctbub1b&a~bYb[b1a}aWbAbsa_ceb}beb`czcKcOcMcxcockcsb|bFckb_bVb,b=b,b_ckcrczcrbJb)bMbVcrcMcQcUcWcWcUcPcKcCcfaYb+bxb?b9bPb!b)a_a4b`bUaYb!b*b;cbb.cFbLaRaVcja_bgbkbsbpbka`a.cdb>aOaRbibEb1bLbcb1cBb^aHbwa2b]cEcUc9bnaRaKa{b+b{b\cdb}cdcqcwcpb|b}b)bYbLb7b:cmb/a#c1bka%bXa\a4a(cdaDbGc$cga0a,a[bsb8bua]bBbHbDcbb:a[cncwcHcCcCcEcJceb8ceb}b1b_crb.bY",
"b0bPbXbibIbnaBa6bZccb~b*a]a$bZa$a]cqcSaHaScyb?clcqcmbFa+awa?b(cgbja8bQbXbAbgb8cda)a7cebQb)b4bxbLbxbcaWa0b~clcqchb\b%b#b]b_b*b5b5clbQa%aYa`bMbEa|a7a^cPcYbXaDa.b:b=cCa*aOb*b:bGb)bkaWb-a^aYb{a*bbbBb\aIa7bTb<b>b^a6b9a^bfa}bka/bKbUb&caa5b!b}b1b4cscHcTcXcXcZc3c0cZcZcZcZc2c2c3c3cZc2cPccb\cpa<bYc9cLbqb=cKcHcCcfcdbBaAa.b*b[a<b4a_a0b$aLamaTb{bEaPbRcrczciclcdcebLb?cSa/bsa[b*b~b*bScfcrcrcrcob~b_b]cxcKcPcWcWcWcUcUcOcKcDcha0cjbBa:a|bka-a-b!byb\bMaYb!b_ccceb`c!bNaRaVb2b2b2bUbYb1b&b}a.cdb>aSaWbzbcbBb`cbb&bQbcbFa#a6cfcHc#b!aTaKa!b$b>b>b|cjcqctcwcBcqbQb7b?b_b*cwcrb&bFa6bFbAbsbjbQb\b)aYbUc4a_aBaIbkbpb7b&b.b`cAaWbDcNb}a}b1cJb5chcucBcCcEcbbMb^b!b1cnclb.",
"b)b1a{a?aAaHa#bQb%b%b5b5bMa(cNb`a#cjc4a[a8b{b?cpcdb$b(a+aUbUbGbVcpbNaPa,a|a-a{aRawb(bXbjaBbga[aSa[a0a2a9bScccfb]bSb5cicrcoclccb%b5b*a8a#aYa_bcbsbwbHa^aSaFa{bZb_b_csa*aPckcLbcbLa0bmcSa#a2b{bjcqcqcdaKa7bTb<b>b>a:bLa<b9bfbtb2a_b*b4caa5b2b$b?cAcHcPcXcXcTcXcZcZc0c0cZc2c0c0c3cUcLcwb}b8b)cpa8b?bUbcaYb:cOcPcOcvb1a:bLb}bOclbxbpa<b.a[arbHa#aLa?bDcecrccb7bGbFb-bLa<cuboa_aSbFb&bBb?b_b_ckccciclb=cscOcPcUcYcYcWcWcPcOcKcvcfa$cjaYa{bka?bAa?b3byb?bHaYb!b_b_cfb~c4bQaVaZbwbFbAbFbAa-a}b/a4b}b<aSaYbKbHa.a?bEbRbFbta7aWb)cvc$cma5aXaZb0b<b`b}chclcnctcwcub4bob2bFa2bYb6aUb!a_baaOa5a^a_bEa6aWcjcjaQaKbcbgbBb7b.b`cockcua(bqcwb*a,cNcha6b(chcqcvcEcHcrb8bxbLbxclb)",
"bxbXbEbFaJa5bqa]bGb%b=b]bua#b|cqbscmcqaMbEb9b+bTb+cmbiata]b.b=b3bNcjb:a*a]a>a$a#a$bycdb/awaHbVbgaHaSaYa,bOb_b=b,bSb_cvcxcxcsclb*a~bGbQa.a4a#bubMbHbba[bgb/bEa.cecfcra4a:cTcEbLbsa6bScqboaUb<bBcucBcmaKa9b0b<b{b^a6brbkbYbLbFbBa}bPbRcda1bEb+cscHcOcPcTcTcUcWcZc2c3c3c3c5c3c0c1cAb$cqctb7bVb&bUbsbbbXb!cbb.cncPcLcAb?b\cNa`cnbFa?a_b$aYaUb|aSa8b\cncqb~b[ctb)bra/bra{b(a8bgb^b0a+a&b6b#b~cfb_b}b[ckcEcQcUcWcWcWcWcWcUcOcKcGcla#b<a5bUblbNbrbfbNbwb1bIaUbQb_b=ckccc#bTaXa1cjbba\a|cgbba}cga4b\b(aPa3bIb7b&bAbtbFb&a_a#b,crc9c#a|aXaGbvb)b|cdcdchcqcncqcqcjb+bKbUbQb/b.ava!bNbAa7aUbUbQbsbgbSc#b9aAa2bUb7bJa:b$cEczcrckchb\a:b|bYb&cNbLaSbIb`clczcCcEcHcsb~b\bQcpa,",
"a:bkbtaBaHa?a~bMb*b_ccb]bZbhb4bQbFc7b|bEbPbFa&a=a2aBaFaSbJb]b~ccb;bMcmcga]bGbSbqa,chb1a%aJbybgaHaLbGb*b#b&cqbubqb;crcAcBcsclb%bSbJbDbGa8a-a0bybObLbFbwbfa9aZb3cnckcsa6a6cncrc#a#bFbBb6aUaNb>bFctcAcbaGa9b0b>b^b|aHbFbkbFbQbUb4b|a*bLcaaXbQcpcEcKcQcQcQcTcXcXc0c0c3c5c0c3c2cHceb|bXbsb_cHb_bSbYbHc#cebUcVbQa_crcEcAcecLcea~cGa0b$a%a0bwaUbPaUa]b]cib~b%c$c&bZb?b|a\bLb2ctcya{aJbfb6a?bJcib&bJbNb<cxcKcQcQcWcWcWcWcTcTcPcKcDchaWb+bgbBbcbFa]bQcpa0b2bHaWb!ccccckb~cVbKaVaXb|aVa_b&b!a#bccda2b?b-aRa5bTbka^bsb(bWaWa2b:cicKc)b.a3aIaNa)bBb:b|b}clcsclclctbQb}cwcBcqa_a#bkbIbKb(a_a*b.b)b5cic)bUaBa;b7b&b%bVbHbea<bFbUbBb1cbb]ceb}bJb&a_aUbKchctcvczczczcvb[bQb|a_a4",
"a6a2a<a`bga_a<bSb5b,b]b#cJcjbgcdcab)b2b(caa|a{b1bKbNb8bja]b`cickckb=bYctb/aYa.a(a.bLaWa*b3b*bFbocbbsa~b)b?b?a!a+b`cqcscscib]b3b5bMa~a#a]a7a/a$b%b#bubBb)bgbxb]crcocEa.aUchb[cpb)b!bja-a-a0cabNcwcJcbaGa&b6b^b^b7avbBb2b{bFbYcjbLaUbLcda8b;cscHcOcRcUcVcVcZcXcWc0c0c3c0cOb}chctcycgb!bxbFb&b?bGbJc#bxaEa7aPa+b?chctc!cAbDcpbgaVa|a?aXbtbAa?bfa}bXb*b=b*b3bBaFb&cqa[b|cyb>bIbvbNb1b?b1bWa^bHbQbJb~cxcKcHcCcQcUcUcUcPcPcPcKcEciaSb$a>b:b!bFbNcdbKaJb*bDa2b>ckckcib~c!b1aXaXb|a0bAcaa%a_b1cla6b\b(aPa3bTb&cdcNbXaJa/b]cfcrc%c8a-aXaMbEbda)a{bgb-clcqb`b&b`b.b!b7clcAbEbUbYbQbHbgaLblb3bSb~c(bWaCa,b2b5b#b!bYb!cAclb|b)bjbsb`b;b;b~cfb.a>b?bQbMcncrcrczcMcDcnbYa4a2bs",
"b`ceceb`b[b&b3bYb1b!cececpb^b1b4b1bIbPbPbvbzbia&a!bka9aGa0b1b,b*b;b5bObmcdbvaPa[bSb*b&cecwb?bNa#b?b:a0b(b<bNa^aTbNcjclchb/bYbha,aUa,bOcrbKa=a2bwb;b[b1bYb<b$bocdcicEa<a2b1b.bRcabka-a|aUa6cjbQcwb`b)aMa+b6b^b>b9aFbtb9bPbzbEa\bva{b9cda%b[cvcEcOcQcQcWcWcXcZcWcWcWcWcUcOchb5bHbLbKbIbobLb7bXb7bUbSb_bxa#a[b4chcGcNcqb&b4a;aOaNaJa2a,a)a|btbfbtbRb8cgcsb^bUb^caa^b2b6b0b9baa5a{a?aYaFaJa[b3b}b[cicocscqb.b_cocsczcBcBcCcHcKckaUb$bpbHbEbIbvbka_a<b.bDa8b\clckcib]c#b4aXaXb|a0a[bPbGbJbHbHa6b]b$aOaYbLctcBa}aUa[b>cfciczc)b(aXaKa/b6b>b{b.b!b}cmcpb2bLbHb!bRbkcub.aUb)bNbYb8bgbsbYbSb*c$b4aqaCbabAbUbMb7bYbgbHbwbgbbbIbVb)b!b&b7bQbYbLbQbgb1cpb|cbctcJcEcrcecncqch",
"aPaUa4a(a}bBb&b|b?bFa-a#bgbHbYb:bAbNa_a<a:bKb1bKa=aZa6bqbqa`bJbJbha>a8aAa_cgbca8bZb]b1a_bHb?cebGbGb!a/bkbRb6aWaPbGb\b\b8bMbja8bmbJbZb%crcja+a9a*b:cebUa:b^a9a0b^b~cEa{a+b3b1bYb7baa7aTaQb1cjbUceb}cjaTa-b0b>cdb^a2b4a/a|bnbibwbibWb1cda%b[cvcEcOcOcPcUcWcWc0cXcXcTcTcPcOcEcrc1b8a}a2cec7b|b!b4bFbcbcbQb7b)b&b&bLa[a2aWaUa,bkbFbLbBbga<a8a2a2a#a`b6b?b|b|b!bFbva&bpb^b)b7bNaYaDa}bIbTa$b1cicrckccb~cfcscrcicrczcCcBcnckcrcwcha0cqa!aSa+a3a%a#b?bub:bMa(b|ckclckb]c8b1aXaVceb1bYbUbXbXb2b2a]b;bWaJaZa\brbzaOa=bHb}ckckcTc9a/aRaNbIb$b8b)cacfcncqcnb/bxb4b&bRbocnbqbOb3bLbgaJa7bYb1bScrb<aEa!b2b(b1b|chclcib[bUbbbTb^b.b.bLbxbLb7bpbUbBa<a8a4a_b?cNcIb/bga6aOaBaHaW",
"bKbbaXa?bca*a4a#bBb?b?bxa<bDb%a`bHbsbXaYapa0a0aRa-aYa]b#a0a]bSa~aYa8a`bybybYb!aSa6b%b*a]a_b&b)b.b#bSbxa[bia}bHb\bRa0bsbDa,a$bSckcsckb%b%b,aHa2aXb1b}bHbPcyaTbschb~cCa;bnc!b?a:b(a7aEbCb2aDb$bUcqcAcqaTa/b6b^ceb?a%bga|bTa}bfbRa=brbIcaa(b[cvcCcKcOcOcOcQcUcQcQcOcQcQcOcHcCcobwaYaWa\c&cnbHaPa<bUboa[b!cmbzaYaEaDa#bQb:b)bXboa^a?a#a#a^bEb1b4bFa:a2a2a[bUb{bIa.bxbWaJaFb-b(b1aya/a\a|a8b)crcoclclcvcEcMcQcOcOcOcOcKcEcCcscscla6b.aWbPbxa[b2a|bsbBb.bQa*b|cocockb=c4bUa1aTa_a}bkbjbca[bBcma2bQbCaOa1bKbFbkaUbwb4bscccoc%ceaZaQa/b9b/b.b^cfchb^b%c7cVb\bBbkb3b%b}bGbVbVbEaSa6b4b#bScfcvaTaIbYb`ckcscCcCczcvcvcrb1bva%a*a;aHbBb\bxb1a#bwa<a_ctc$caa(aBaFaYa}a_a[bUbF",
"b/bQcabXbKbWbNbjaPa4bcb?b/a^aYbcbtaiazaza4bjbpbubha`bya.aLbybJbmbGbZb#b]b]b3bHa#aAa<bDbOb.bJbLbsbeb#b)a<bLctbAa#aVa!bca#a~b]crcxcCcxb,bmb*a.a9aXbyb7b9bWa!a;b\cqcncza:bkb\cja+a}aPbHb<ataLb|bQcAcEcsaRa-b9b^cdb{aQbCa\bibkbfbrbFa|a|cga#b*cvcCcHcHcHcMcMcQcMcLcLcQcOcNcDczclb&b!b\b?b[b.bwaFbcbUb:bgbIa-aIaBbEcjb!bca#aWaYaSbeb.b1bcaSaYa2a#bBb&b:a_aLbabsb1bXb&aRaraWb$braLaOb4b:b2b=cscCczcEcOcQcQcQcQcOcQcQcQcQcOcPcHckb`aUbTa[a|a:bEa`bcb\bxbHbEa8b\cocrcfb=c4bUaZaVb^b&b3b3cdbcbkcha8b.b$aPa5b2bUbpa}bza#bbb~cEc&bFa3aTbFb.b|cechclcncebIa-bocjcubyb]cXbHa_b1bea0a0a,bQbGb5c!bcanaxa%b(clczcCcCcCcCcxcxcocfb~b[b&b)bYa[aPcda%a2b.c&cbaSasaFbybYb?b1b)cubXcA",
"cqcqcmb?c8cub9b-a$a_a8a8b7cdbca6btaqa4bFbZb5bSbZbMbqbGa>bhb3b%b;b%bSb]cqcrb_b3b}a(aPa~b\cAb?bHbFbxa_b!bQb$b(a-axaDb$a[a8b~crczcEcEcCccb#cvcea+a5bicab-bYb/cpcucAcqcva=a/b!ceb$aSaYa<bobRa%b$bGcBcGcAaTa&bXb(b|cdaGa?b6bYbxbFb)b/aSb1cqbJb[b)csczczcCcMcOcQcOcOcMcCcscuctcmb}chcwczcvcebYbcbBb7b}cebgaJara%cIb.a2aHb&cBcOb!bScnc9cTcfbGb}cAb[bNaAa(b1b&a2aWbmb7bua%aAbubja:a^b*clcscococscEcOcOcTcTcTcUcOcNcNcScVcPcKcHcEb\buaObLbFbYbNbBbxcdcAaWbPbFa,ceb=b=ckb]c1bYaZaVcda#a,bgcjbjbscja.b`b+aSa7b6b?b|b)bUb8cdcoc5c#a^a5a3b7b?b}chclcrcecbbzaZbEb/czbZcqb|a`b&boa[bgbga(aYa6cvctavasa{bbbLb|cjcsczcCcvczcCcCcCcCcCczcob}b[b*cla8cAc%a_asaSbGbGbQcuc)c9cSc$b]c&",
"cecdb1cJc#b&b)bgbsbHboa6aSbZcjbja_a4aUbHbObybJb#b3bZbYb|bYa<b*b*cdbxbVcfcocfb5cqb)aOa}cua;aJa4bka#a-b3cAb6branaBa$a[a8b7clcvcxcEcCcxcockcAcDa|a+a[cgctcvcDcDcEcCcocoa;a-b&b8b(bxbsa/bKaOaFb+bHcycNctaJa7b`cNb)bBaLbLb+b-bLbYbWbbaWbUcfc9b|aLb3ckcrczcEczcocvczckb~cfb~coc(c&b`b!cwcGcJcJcLczcGcqcjaYazbMcIaWaya[b4cjc#c4b!bgbjb&b1bEbycGcNcnb8a,a?aFa.b=a]a.b!bUa?aWbMceckcocsczcvc#c$cfb3clcxcEcOcUcMcHcHcKcOcHcEcCb!clc7bQaWbAbubUb.bUbYb\bfaYb%csc7ccb#bmb;b=cVbXaXaQb-a2bEcpbfa<bHcma.b|b+aUa#b$cacjcqcqcscrcvc%cLa%a7a?b-b|ceclcqcuctb?bEbRcncbchb}c!bNa\aZbaa0a8bTcba2bqc7bIaAbHb}b?bNb)b:b[ckclb~b`cbczcEcCcCcCczczcrcobZcVc$a)ara>bQbJbQczcTc9c)cvcDb3cA",
"bHbsbKcgbLbwbEb$cbb\bHbNa_aUb&cda:bga2a4bDb*b]b;b3b&bccBbUaFbUb&ctaKa>b%b;bZbJb&cmaUa,b&aFbsb#c$a{azbBbBa&apaFa~bVb=cicscBchcbb*cscxcxcoczcZbEa=a%b>ctcycDcNcKcEccbSa2bsb\bXcqc7cbbGaNaQbgb<bQcBcNcqapa6a[cAc4bLa0bIbIa^baa{a+bEb.cec%cVazaUbqb[ceclcib=b[cvclcAb_cxbGcwb$bEbfa6b&chcDc1cVcJcucwbkawbscVaLa0cecub\bQbQbQbgbgbNb?b&bFbBbUbBbpbjb/cpbQa2a}cha<bcb&bna|bFb}clcrcBcfb&cebjb4bxbBckb.ckcocKcOcOcLcEcCcEcPcda2cEczb!bYbtaSa/a=a)aYbEbLcvc*cdaJbRa0bUb[cSbTaUaRb+aUa}b^bQb7b|cea.cbb-aXa)b+cacpcucucxcrcCc(cma7a0brb<b`cbclbWb$cqcwcucAcBcAb[b}cqbfazbKcNa_a}bjcea4bYc1a3a!b[cbb[b7b!b}cjb&byb3cpbBb:b}cxcxcEcHczcxb.cbc(a_asbpb%b]c#c9cOcsb-b-b!bgbabT",
"b?b[b{a;a=bTcdcjcbb1brbbb|aAa[cdb4aWb1a*a<b5cnb7a<cqcmb{a(bzb<b{a7aGbjbYa}bFbJbGcua?awb$a4bga_aWaHbUcmaYaraQaUbjb5cbcrcCcbcjbFa:b2bUcrcvcvc6b1a|a8b-cqctcAcFcEcCckcca8a?cDcAcBb?bSbYbLa/aOb$b1cBcGchavaBa.bGcAc$cBb:bgbEbYb!cncLc&c)cmaBa0b2bEa^b1b?cccscCczcqc4cncebUb3b8a5a5brb:cucVcVcIcAcpa}aAaXcVa,aDb[crcxcpbNa%b1c#c5cnb\b?b|cqcda|a=clcVcub1bEaSbBb/aWbFb4b8b4b&b[chcnchbya>bBb`aLb2b\cfb!becxcHcKcKcHcHcGc7b$a7a8cjcScub9bHbYbobYb-cNc*c(b$aTaXbBbFb_b=cVbPaXaTcda}bcbobBbxbBbga}chb/aXa&b(cgcqcwcwczcocEc(b>a&aZbIbUb>bLb1bzbzclcwcBcBcgcab1bFb1b}bFa6aSa7bbbLcbaycjctaNbvb\b[b\b}b8bHb\cnb.beb\csbPa:cuc4b[b:cwcnbgc(b-ayaOctbucDc2c2cNb`bLa[byb}cqch",
"bFbgb`b:a}bIb!bUbHbcbbbKbcaHa2b;cta4aDb)bUb&cubBa_cub!bHbXbXbbaPa6b&cAbYbcbLa`bGcmbNapa2bybDbUbYb&bBaYa3b4b^bRcga[bxcob~cqbUbpb}b\bcbucocxc9b/bfa#b$cucucvcAcMcQcDc1a]b\c2b=b)b>bNbqb1bMa[bYb&cBcJchaPcGcAbubHb!clcDcQcQc0c#c9cQb<a;aJa=b1b|a=aGbVchcxcKcHcWcDbQb#b[cbbZbSb:b|ccchcqcqcncjbNa0aHaUbLcDaBa.b.b#bJbta-b~c)bVbScJc!csb*bqbMcdbjbsbXbHbsbcaLa2csa$bpbYbQb4b:b:b;b\b~clclb&a4bJclb&bBa<bSb=cncOcPcWc0cLcfbobHbqbpbZb}cscDcMcWc7c#cIb&a)aVa<cAcTbpb,b~c4bUa1aTbHbUb1bYbUbUb7b;a(cib{a0a%b-chcscAcAcCcocPc)b)a+aWbRbQbYbYbXbWbLb7cuclcAclcfcnb,bQbFbZb3bNbHbFb1aXaYc!b?aPb1b_ccb_cCcbbDa_bLcbcbb_cccebgbXcqb*clb{aDb:c%a(aza>cscbcvchb\b!bFa,b:c7b}bpbp",
"cNbQaYb|bwa7bYb&b&b!bXa|a$b&aUbQcNbFatbebxbLbPbRb$bKbNb^cjb/b6cmc4c4cIcjcjb}cdbsb?bXaAaUa2a]bUbLbzbXcacSc4ctcdb|b7bgbZbSbDcechb7bxbsbubDcrc6b/a?a7b2cucFcLcOcQcMcAcNbececbc1c7c$ctb\b8bHa[bgb&cAcLcvamaDc(cBbLb\b#bSbPbLbLbLbna{a?btb&cecaa9awa\b;ckcxcEcXcTcDcsb>b!b!b?b[b7bQbJbJbDbBbxbBbcaZa;a*cdb&aUcqcNcdb&bka`c(b#bcc%c#c1cEclb\a<bUb2aUbIb:cdb-bFa4cpbsbcb;b#b\b&bMbQbUbQbHbjbBb/b[b3b$b-cfcncbbZb;cHcPcYcQb~byb.clb)bSbJbBbxbDbDbba/a^bzbHbjc4c#aPaJcfb~c7bUaYaVbEbAbAbAbIa|a:b`a#ceb{a0a#b+cfcqcAcAcCcocOc(b1a7aZb$bAblbZb\cdbgbxb}cuc7cDchcwcJchb:b:b4bQb8bia)a_bNc#b0a(ctckcEc0cWc4c1cAcbchcAcqb\b*b#bQbNbQa_a4aWcZcqaOaWclbGcbcLcOcnb!bca`c2b*a8csc7",
};
