/* XPM */
static char *xpm[] = {
"320 180 256 2",
".. c None",
"ab c #000000",
"ac c #010001",
"ad c #010101",
"ae c #010201",
"af c #020101",
"ag c #020300",
"ah c #020302",
"ai c #030201",
"aj c #030403",
"ak c #040300",
"al c #050401",
"am c #050504",
"an c #060602",
"ao c #060705",
"ap c #070500",
"aq c #080907",
"ar c #090805",
"as c #0a0802",
"at c #0a0c0a",
"au c #0c0c08",
"av c #0e0b04",
"aw c #0e0f0d",
"ax c #0f0f0a",
"ay c #110e06",
"az c #11120f",
"aA c #12110d",
"aB c #131412",
"aC c #141108",
"aD c #15140f",
"aE c #16140b",
"aF c #161715",
"aG c #181710",
"aH c #181917",
"aI c #191914",
"aJ c #1a1b1a",
"aK c #1b1e1e",
"aL c #1c180f",
"aM c #1c1b16",
"aN c #1d2020",
"aO c #1e1b12",
"aP c #1e1e19",
"aQ c #1e2224",
"aR c #201e17",
"aS c #202221",
"aT c #212426",
"aU c #221d15",
"aV c #22211c",
"aW c #231d0f",
"aX c #232119",
"aY c #232423",
"aZ c #232728",
"a0 c #242117",
"a1 c #242420",
"a2 c #25241c",
"a3 c #252726",
"a4 c #25292b",
"a5 c #262012",
"a6 c #272623",
"a7 c #272928",
"a8 c #272c2d",
"a9 c #28251c",
"a! c #28261f",
"a# c #292419",
"a$ c #292925",
"a% c #292b2a",
"a& c #2a2922",
"a( c #2a2e2e",
"a) c #2b2413",
"a* c #2b2b27",
"a+ c #2c2b24",
"a, c #2d2921",
"a- c #2d2d29",
"a. c #2d3031",
"a/ c #2e291e",
"a: c #2e3234",
"a; c #2f2d26",
"a< c #30302b",
"a= c #303231",
"a> c #312918",
"a? c #312f28",
"a[ c #313436",
"a\ c #322e25",
"a] c #32322d",
"a^ c #323433",
"a_ c #332d22",
"a` c #333229",
"a{ c #333738",
"a| c #34342f",
"a} c #343635",
"a~ c #35332c",
"ba c #35393a",
"bb c #362d1a",
"bc c #363228",
"bd c #363631",
"be c #373936",
"bf c #373b3c",
"bg c #383225",
"bh c #393223",
"bi c #39362e",
"bj c #393833",
"bk c #393b38",
"bl c #393d3e",
"bm c #3b321a",
"bn c #3b362b",
"bo c #3b3830",
"bp c #3b3b35",
"bq c #3c3d3b",
"br c #3c4041",
"bs c #3d3628",
"bt c #3d3b32",
"bu c #3d3d38",
"bv c #3e3625",
"bw c #3e403d",
"bx c #3e4243",
"by c #3f3d34",
"bz c #403b30",
"bA c #403f39",
"bB c #413518",
"bC c #413b2d",
"bD c #414240",
"bE c #414647",
"bF c #423f36",
"bG c #42423c",
"bH c #433b29",
"bI c #444642",
"bJ c #45494a",
"bK c #463a1a",
"bL c #464034",
"bM c #464138",
"bN c #46453e",
"bO c #474031",
"bP c #474946",
"bQ c #48402b",
"bR c #49453b",
"bS c #494842",
"bT c #494d4d",
"bU c #4b4436",
"bV c #4b4c49",
"bW c #4c483d",
"bX c #4d3f19",
"bY c #4d4c45",
"bZ c #4d504e",
"b0 c #4e4839",
"b1 c #4f4632",
"b2 c #4f5251",
"b3 c #504f48",
"b4 c #514b40",
"b5 c #515556",
"b6 c #524627",
"b7 c #53514a",
"b8 c #544b3b",
"b9 c #545550",
"b! c #545757",
"b# c #555044",
"b$ c #564517",
"b% c #565b5b",
"b& c #574e32",
"b( c #57544b",
"b) c #575752",
"b* c #58503e",
"b+ c #5a564d",
"b, c #5a5b56",
"b- c #5a5f5f",
"b. c #5c5546",
"b/ c #5d4c1f",
"b: c #5d5a50",
"b; c #5e5f5a",
"b< c #5f5539",
"b= c #5f6362",
"b> c #615949",
"b? c #615e54",
"b[ c #63625b",
"b\ c #636767",
"b] c #65562c",
"b^ c #655b40",
"b_ c #655d4d",
"b` c #676256",
"b{ c #676760",
"b| c #686d6d",
"b} c #6a541a",
"b~ c #6a624e",
"ca c #6c5b31",
"cb c #6c675b",
"cc c #6e6c65",
"cd c #6e7373",
"ce c #6f6753",
"cf c #715b1f",
"cg c #71623b",
"ch c #726d61",
"ci c #74736c",
"cj c #747977",
"ck c #766c57",
"cl c #776124",
"cm c #777267",
"cn c #7a6a3e",
"co c #7a7770",
"cp c #7b725c",
"cq c #7d7e78",
"cr c #7e7869",
"cs c #7f7048",
"ct c #81817c",
"cu c #826826",
"cv c #856f38",
"cw c #86764d",
"cx c #867e6f",
"cy c #878781",
"cz c #8b6f27",
"cA c #8b7640",
"cB c #8b7e5f",
"cC c #8d8678",
"cD c #8d8d89",
"cE c #927529",
"cF c #927e47",
"cG c #928667",
"cH c #958d7f",
"cI c #969894",
"cJ c #977b35",
"cK c #998c6e",
"cL c #9a854e",
"cM c #9c7b26",
"cN c #9c9689",
"cO c #9f8238",
"cP c #a08b54",
"cQ c #a1a29e",
"cR c #a39e93",
"cS c #a48127",
"cT c #a5883c",
"cU c #a5956d",
"cV c #a9872b",
"cW c #ab8c3d",
"cX c #ab9f82",
"cY c #ababa5",
"cZ c #ae944e",
"c0 c #af8b2b",
"c1 c #afa898",
"c2 c #b18f36",
"c3 c #b68f28",
"c4 c #b6943b",
"c5 c #b79c56",
"c6 c #b7b5ac",
"c7 c #ba942d",
"c8 c #bb9940",
"c9 c #bec0bc",
"c! c #bfa66a",
"c# c #c09830",
"c$ c #c29f47",
"c% c #c2a65d",
"c& c #c69f35",
"c( c #c9a84e",
"c) c #cca43a",
"c* c #cecdc8",
"c+ c #d0a83e",
"c, c #d7ae44",
"c- c #dededb",
"c. c None",
"aAaMaFaDaBaBaFaFaFaFaFaDazazaBaFaHaPaFaPaPaPaVaPaNa1a6a1aVaVa6a1a&a!aVaIaraDa&a2a!a&a&a&a*bjbPbDa+aVa!a2a!a6a<bDbqbkbjbDbDbIb)aHa}bea{a}a{a}bqbfbebabwbqa6bpa-a7a=a<a.aYaSa%a%a%a7a7a%aYaTaSaZa%aZaYa%a7aYaZa7aYa%a<a}a=a7a.a<a}bebqbPbGbDbwbebwbwbIbwbGa-bdbtbja`a~bia<a~a?bqbwbxbrbfbla{bfbfbablblblbrbfblbxblbabxblbxbTbxbrbxbEbxblbab%cdb\b2bTbJbJbEbDbqb2bTb5bVbJbTb5b5bTbPb!b2bDb2b5bDbIbZbTa}b2b2bTbJb\b=b!bqb2b|b|bVbTbabeb%b-b-b!bZb=cjcdb=bJb-b-b|b!b\cDcjcdcDcDcIctcdb!bVb\b!bVbqbDbPbPa*a-aJaHbZb2bZbEbDbDbea^a^bdbPbqa$a-aSa%a(a$a3a7a7a7a7a7aYa7a3a%a%a%a7a7a%a7a6aSaSaYa%a.a-a.a-a%a}bwbqbka}bIb%b=b2cqcqcdcqb|bZb,b%cdb)bVb;b;b;b{b{b\ccb{cdb[a<",
"aAaIaGaDauawaxaAaxawawaAaBazazaxaxaAaxaBaGaMaRaXaXaXaRaXa9a9aXaUa!a#a#a,aCa,bga#a_bgbgbgbcbca|bubSbSb3bSbYbGbka}a^a}a.bebqbIb)aHa=a:a:a.a=a=a.a^a{a{bZbVaVbwa=a}a=a%a<a^bda=a|a}a<a^a=a.a.a}bqa.a=a.a.a(a:a:a<bqa=a(a(a.a=a[a[a:a:a:a[a:a[a{a{a[bablbJb2bqbqb7bVb7b:b{b?b,b)bEbrbrblbla^babxbxbxbEbEbxbxbxbxbEbEbEbEbrbxbJbxbxbxbEbxbEbrbrbTb!b=cjcocqcjcdccb|bEbEbEbxbqbfbxbEbrbEbxbTb%b%blb2b\ctcdb%b2bZb2cycqb|cqcqb\b-b\cycdb|cdb%bea.bZb!cDc6ctcdb=b%b=b-b%b|b\cqcyc6c9c9cYcYc9cIb=bja]a<bubua6a<aSaBbJb2bIbwa]bda-a*a$a1bVbqa6a*a$a*aPaPa1a7a*a7a3a$aNaCaDaRa1a-aYaHaPa1aPaKaPaYaNa6a%aVaJaPa(a3a(a<a^a:blbDbJb\bDbDb|c9c9c9c9c-c9cYcDb)bkbkbZb{bPb;cycRbD",
"axaBaAarauaxaraxaAaxaxazaDaFaDaAauaxaCaMa5bsa_bbbga_a/a/a0aEa0a#aUa#a#aUa\a#a5a0a_bgbga>a_bvbsbha\bga\a_a;a]a<a}bSa;bua1a]bDb,aFa}a^a=bDb3b7bja-a}a}bwbIaVbAbdbSa!a+a!a*a|a=a^a=a(a=a7a4a%a.b3bGa-bea]bda^a^a^a.a.a4a8a(a}a}a{a.a(a:babaa[a[a{a[a[a:a[a{bfbaa{bEbEbfbrbrbrblbfbrblbEa;aOaFa%blbfblbfbfblbfbfblbrblbfbablbfbfblbfblblblblbfbfbaa{a{baa{a{a{a{a[blbxbJbSaXa1aPbrbEbEbxbTbZbrbEbTbJbEbxbxb2bTbJaYa$aJbwbxbTb5b2b2bJbJbJbZbkbwb!b-b%b-b2bJb2b5b%b-b%b-b%b5bTbJbJbJbJb%b5aMaAaGa<bdaXa2bda|aVazbIbTbPbGbAbia+aVa<a*bAa<aPa*bkaXaMaDaVa]a-a(a(a|a^a-aNaGaOa%a=a.a6a%a7a*a=a=a%a7a^a-aNa7bea{babrb2b\b5b5bTbrbaa=a3bGb2b;b[b|b\bZa=aYaKa1a}aIa+axbwcqb3",
"axaBaxaxauauaxawazaGaBaDaIaIaRaRaUaXa\a#a/bbbga_bsa>aRava#bgbsbCa#bcbibca`a,a+a`bnbzbnbgbsbhbvbvbHbHbba)a\a~a[a=bZbqa]a*a|bIb,aGa:a=a=bDbYbGbda}a[a:bVbZaVbwa]bPbta&a6a*a(a(a8a4a4a8a4a(a(a8a|b)bGbGbubda^bkbka}a^bea^a.a.a.a}a.a(a.a:baa[a[a}a{a{blbaa{a[baa{blbJbabrbfbababfbrblbJbpa!aYa=bfbfbabfblblbababababaa{bablbabababfbababfblbabfa[a[a{bfbfa{blbabfblbJbJb9bka<a=brbEbxbrbEbJbEbTbTbTbTbJbTb5b5b2bwbIbab2b%b!b!b-b=b%b5bTb%b%b9bZbGb[b-b=b=b-b%b-b-b-b-b-b-b5b5bTb5bxbra3aGaxaFa1a$aGaVbIb2a1aFbPbVbPb7bVbpa-a+a|bdbNa$a1a]bubAa*aPa-a=a*a7a(bda(a-a}blbebebea=a<a=a.bea(a^a.a.a}blbaa=bEa^bJb\cdcdcjctcjb|b|b%bTbfa=bqbwa^a(a7aSaYaKaJbqbIbAbwb)b;bw",
"axaBaxaxaxazazaDaIaIaIaIaPaXaPa&a#bnbUb1bsbgbgbcbnbzbgbcbnbLbya,a<a]a|bdbdbda|a<a^a|a]a|bjbibibzbHbHbba>a~a]a.a.a(a.a.a.a=bDb)aFa^a.a(a(a}a.a}a}a^a(bVb9aJa}a.a.a}a^a^a.a.a(a.baa}a(a(bqa}a}a]bDcbb4bpbYbVbwbka}a}bwb2bDa=a=bea.a.a.a:babaa[a:a:a[a{bra:a{a:a[bfbTa^baa{babrblbfblblblbxblbDbJbwblbrblblblbla{baa[a{baa{a{a[a{baa{a{baa{a{a{a[a[babfbfblbrblblbrbxbEbrbEbxbxbxbEbEbfbrbabEbTbZbTbEbJbJbTb2b2b%bZbTb-b-b-b5b!b%b!b!b!b!bpaUayaxbAb=b\b=b-b\b|b%b-b-b\b-b5b%b5b5bZbTbaaMaMaxaDaIaIa<bZb[a3aFbTbZbPbDbDbPbwbubpbIb;a-aPbdbpbjbdbda]a%a=a-a.a^a<a{bqbqa=bea}bka^brbla{a=bea=aZbxbTbEbEbTa{b%cjcdcjctctcjcyctcDcjb%b2cdcdb|b\bZa:a%aYaJaJbkb\b{b,cibP",
"auaBaxaxauaxaAaFaMaMaVaIaJaKaVa<a/bCb0bCbsbLbca9a;a~a|a;a-a]a<a-a(a=a=a=a^a}a<a(a=a.a<a.a=a^a=a}bca,bhbva_a/a.a-a(a(a(a.a=bDb9aFa{a.a(a(a(a(a8a.a[a.bqb2aMbea[a.a[a.a.a(a.a^bea^a=a[a=bDbGbIbYbNb`b+bSbSbwbIbIbka^a=a.bEbTbea(a:a.a:a[a:a{a{a[a[a[a.babla[baa:babTa[babxbfa{bababfbfa{bfbfblb,bSbxbrbrblblbabfblblbfbfbxbEbqa{a[a{a{babaa{bababfblblbxbEbxbrbxbxbxbrbxbxbrbxbEbEblbrbJbrbEbTbZbJbVb=bEbIb2b5b5bTb-b\b-b-b=b-b-b5b%b%bMa_aUavafa-b-b|b|b|b-b\b=b-b\b|b\b=b-b5bJb-b5bEbIbqa<aNa-bda|b;b=aoa6b!b,b2bPbPbPbIbwbAbGb3a$aIa|bdbkbdbda<a<a]bDa}blbxbxbDbkaPa.bZbTbTbxb5bIa}a=a%aZb2b=a{b5bxb=b!b=cdb|cIcQcQcIcDcIctb%bJb=cdcdcjcdb2blaZaYaKaJa-b,b|cDb7",
"awaFaxauauawaGaMaOaXaVaGaHaQaPbdbnbnbzbia_bzbLa/a3aPa7a%a(a%a7a*aPa6a=a<aFa*a8a(a(a8a8a.a.a(a.a[a}a=bvbHbQbQa_bobjbja}bebubVb,aFbaa.a:a(a.a.a.a[a{a8bVbPa6bea.a.a:a:a.a=a.a.a<a.a(a(a=a^bebebVbubNb(b:b(bYbYb3bNbDbebwbebfbEbaa(a.a:a(a:a.a:a:a[a{a:a[a{a{a{a{a[bla{a{blbEbfblbJblbfbfbxbxbEbrblbEbxbrbla{babfbfbababfbEbqa{a{bablblbaa[bfblbfa{a[a{brbrblblblblbEb2bTbrbrbxbrbrbrblbEbJbTbTbJbTb9b[bZbTb\b=b%b5b-b-b=b-b-b\b=b-b|cdb,bSbLa#aVbYb|b!b5b\b=b\b|b-b|b\b\b\b-b-b-b!b!bTb!bTbJbZbTbJb9ctbDaubecDb\b;b9b2bTbTbAbebScba|aVbda|bkbda=a<bebwbTbIbrbTbJbJb2bTb2bTbrbZbEbDb|bTbaa}bTb!b|a.b%b|cdb%bTb\bJcjcDcIcjcjb-a[aQaJaGbicjcDcjb=b-a:aNa3a3aYa<bZctb,",
"awaFaAaxauawaDaXaXaOaJaHaNaTa6bIbybzbCbObsb#b.bCa$a1a4a.a.a-aPaPa<a7a-a-a3a%a.a(a[a(a.a(a.a.a{a[a.a}bHbUb]b6bhbsa~a=a^a}bqbVb[aFa}a(a.baa(a.a.a[a{a(bPb!a-bDa4a(a.a.a]bVa|a$a.a(a8a(a(a8a{a8bwbwbGbubGbNb)b7bYbYbka=a:a:a.a(baa.a:a:a.a[a{a}a[a{bfa[a{a{bfa[bfbablbEbabfbTbJblbTbTbJbJb5bTbTbTbrbJb2bEbrbEbEbJbkblbfa{a{bablbxbrbfblbwbIbqa}a(a=a:a[babfblblbfbfblbxbxblbEbxblbEblbfbEbJbTbTbTb5b%bZb2b2b|b|b\b%b-b%b\b|b=b\b|b|b\cdb|b7a?bNb[cib\bTbJbJb2bJb5b%b-b\b\b\b-b%b-b5bTb2b5bTblbIbDbkbZcca$aFawb!b[bubIbPb2bPbjbdbYcca;a,bYbda]a-a^bqbVbVbTbZbJbPbka(a}bPb5bJbZb5b%bTb!b%b2b!b|b!b%b5b-b5cdb|b|bJa[braTbJb5bEa:aQaQa#bMctcDcycyctcjb5a(a4aYa7a1a*cIb;",
"aAaHaAawauaDaOaXaPazaBaKaNaQaSbqbybFb0b0btbRbRbzbia1a3a=a-a$aVa-a=a%a%a-a.a.a=a(a(a:a:a:a.aHaBa(a.a}bLbUb8bBbbbHa~a^a[a}bub)b\aGa:a(a.a[a{a8a(a:a:a:bEb2a<b7a8a(a.a(a(a:a.a.a(a4a8a(a(a(a8a8a^bNb+b3bubjb3b7bGbwbka.a(a.a(a(a.a:a:a:a.a[blbla:a:a{a{a{a{bababla{bfbfbfbrbEb5blbxb2bEbZbTbTbTbTbJbTbTbJbxbJbxbEbJbxblbfblbrblblblbkbrbJbJblbabfbxbrblblblblblbxbrbrbxbrbxbEbJbEbxbxbxbEbxbTbTbTbZb5bTbTb%b=b=b=b=b-b\b|cdb\b\b|b|b=b2bIbYa2bGb=b=b|cdb\b-b-bJa8bEb5b5b5b5b5b5b5b%b5bTb2bxbqbDbwbIbPcob3a6aqaPb;b=bGbDbGbPbjbdbWcia]a+bIbpbkbDbwbubEb2b2bTa}bqbka6bab-b%b=b|b\b%b=bTb!cdb|b-b%b-b=b-b5b5bJbxa4aTa8bfbEbrblbfa[aYbccDcQcDcIcIcIctb|bJa:aSa%a.aScyb)",
"aAaJaBazawaDaRa2aHaHaKaQaNaTaZa4a%a}bFbMa|bAb[a?a(a$a7a=a^a(a-a(a<aVa%a.a.a^a:a.a.a[a.a(a(a.a3a(a=bqbUb>bBbBbhb1bna~a[a^bkb,b{aFa=a:a.a(a(baa.a[a:a:bPb!aubpbDa<a8a.a.a.a.a:a(a8a8a8a(a(a(a(b7b:b`b?b7bebdbIb3bwa8a[a:a.a.a:a[a:a:a:a[a[a:a:a{a[a[babla}babfblbfbEbxbfbrblbTbTa{bJbTbxbJbrbJbTbJbEbEbEbxbxblbJb2bxblbfbrbrbPb2bIbwbfbxbxblblbrbxbxbxbxbEbEbEbJbJbJbEbJbEbJbJbJbEbTbJb2bTbEbEbEbTb!b,b9b2b-b=b%b%b-b-b|b\b\b=b\b|b!aDaybFb9b;b2b-cdb=b5b=b=b-b=b\b|b|b=b-b5b-bTbTb2bTbJbJbEbDbDbwbVccb{a-aqa*a-b9bIbAbVbIbpa|bYcobja!bpa]bebIbVbPbEb5b-bZa{bZb5b2b5b-b|b-b=b%b=b5b2b5b|b\bZbTcjb%b%bTa{a8a8aTa{b-cjbla[a[a.a4a-a.blcdctcIcIcjb|b-b5bfa4bDb5a^cyb,",
"aFaPaBaBaAaDaIaXaJaFaKaQaZa4a4a[bjbebNbybdbub,bia-a7a%aZa7a.a.a-a(a*a-a7a7a%a8a8a8a[a:a8a.a[a[a[bdbqb1b>bHbBbLbvbgbza}a[a=b!b[aFa{a.a.a.a(bJbJa[a[a:bDb!ananbZa|a(a(a.a.a(a(a.a=bebwa=a(a8a.b(b+b3b(b9bRbPbda.a.a(bfa{a[a.a.a[a:a:a:a[a{a:a{babfbJbra{babfbaa{blbrbxbxbfbfblb!brbxb5bEbJbJbJbJbxbrbEbZbEbEbEb2bJbxbabqbVbPbPbEbrbxbrbfblbrbxbxbxbEbJbEbEbEbEbEbrbxbJbTbJbJbZbJbEbJbJbJbTbTbEbJbZb?b#bIbDb5b-b5b5cdb-b!b-b%b5bJb-b\b(bMa_a!bNb|b|b:a2apbYcdb\b\b\b-b-b%b%b%b5b%b%b5bTbTbZbrbwbxbDbVb{bua*aAa<aBa|b9bVb,b!bSbdbAccbuaPa]a]bebPb2bPb5b-b5b)b2b\b=b%bVbkb|b|b%bTb%b=b=b\b\b=bZb\cDcdbJa[a[aTaKaTaYbqb-a[a4aTa:a[a|a6aQaQaTbJb|b%bla:a8a.blb5b!bab[bj",
"aIaVaFazaxazaPaVaFaFaJaTa4a4a4a.a.bEbqa%a|bqbNbSaYa7a8aZa7a(a-a%a(a.a<aPazaFaua7a:a[a[a.a.a[a{bka}bAbUb1bObObUbUa_bzbqa-a=b-b[aHa{a.a:a.a{a(bqbla[a{a}b5asaPbVa-a.a.a.a(a=a.bjbSb#b3bSbdbubIb+b7b+bWb9bYbVbGa.a(a(a{a[bfbla[a.a[a[a:a.a[a{blbrbxbqbabfa{a{babfblbxbxbEbxbxbxb!b5bJbZbTbTb5bZbTbTbTbZbJbJbTbTbTbZbVbIbPbPbxblblblbrblblblbrblbrbEbEbEbxbEbxbEbJbrbEbJbEbJbJbrbEb2bZbJbJbTbTbxbIb,bGbGbTbTb2b%bTb5b\cjb%bTb!b\b|b|b\cdcobYa0bib|b-b7b3bRb4b+b[b|b|b\b\b-b5bTbTbJb5b%b2b2bJbxbIbJbDb9cda&a1aFbjb,bVbPbVb,b%b,bGbMccbNa&a?aXaRbibZbZb%bIbGbGb5b\b=b!b5b|cqcjcdbTbEbrbfbfbEbZb\ctcdb-bEa[a:a^a-a*aYaYa<a(a3a(a<a=a<a*a3aTa4a[a[bJbraTaQa4blbEb%bVbNaV",
"aIa1aDaFaGaFaIa!aBaKaQaTaZaZa4a.a(blbEa<a|bSbWbMa=a%a7a4a%a-a(a-a*a(a2aGaIaxaeaeaNa8a:a:a.a(a.a^bubSbUbUbOb_b8b8a_a.a.a.bIcibJaFbwa^a:bfa{a:blblbaa{bqb2a!b7bka<a:a.a(a(a.a(a(bkbNbAbjbPb#b?b:b(b:bYbYbSa^a.a.a.a(babrbPbfbaa[a{a[a{a[babxbrblbxblbrblbfblbrbfbabxblbEbEbEbEbxb=bJbEb2bJbZb5bJbZbZbEbEbZbPbDb7b7bJbDbxbxbxbrblbrbrbfblblblbrblblblblbrbrbablbxbEbEbJbJbxbJblbJb5bTbTb2bTbJbEbYb{b)bGbZb5b=b-b2b-b%b%cdb\b!b%b-b\b\b|b{b,b+b[b\b,b9b=cob7a#b(cocqb|b=b=b-b5blbxbTb!a:bqbVbTbwbIbwbGccb,a1aocqcybIb2b9bVb2b7bVbFb[bpa+bua+a?bobZb!b3bDbdb,cdcdb-b5b|ctcjcdb|b-b%bEblbTb5bZb%b|bTbxbfa7a?a|a-a]a-a%a.a^a|bwa;a~a.a^a(bTbJbxbabTb\blaZa4bablb=b%a~a2",
"aIaSazaDaMa2a2a!aJaKaQaQaZaQa8a(a.a.bDbqbNbSbYboaTa.a3aTa*a*a<a=aPawauamadababababaHa^a8a(a(a8a(bkbebjbibsbsb*b>a_a-a%a(b!b{aYaIa}bea:a{a{a[a{babaa{bIbIa-bka(a.a.a.a(a(a.a(a.a:a=a(a.bebNb7bYbNa^bkbwa{a[a.a.a.a[blbfa(a[baa[a:bfbaa[bfbfbrbrbfbfbrbVb2bxbaa{a{babfbrbEbxblbfb!bZbEbJbJbxbTbJbEbxb2b:b[b;bSblbfbrbrblbrbrblblblblbrbrbrbxbrblbrbrbrblblbfbaa{brbEbEbEbEbJbEbEbJbTbJbTbTbJbTbTbIbDbwbEb!b=b%b-b%b-b!b2b|b|b%b2b5b5b%b[b)a$b9b|b-b)ccb)b:b[b?b[cib=b%b%b5b5b5bTbTbJbxbDbqbwbwbEbDbDbqcDbqaccdb;bDbSbAbSbNa`a~a+bNa|aGa;bda~bobjbja?bAbEb=b%a]a}b\cjctctcdb-b-bTbTb-cjb\b!bTbeb3bSa]a6a1a1a$a]a<a}a]bebua|a=a}a7a7a:bEb%brbEa[bfa{a4aTa8a.bPb5b7a1",
"aMa1aFaGaFaMa!a\a%aJaQaZaZa4a(a8a:a:bea=bpbYbYbyaZaZaZa4a.a<a*a|a6alajatabataoahabaoa(a(a8a(a(a}bebka^a|a[a\bsb>bja.a.a%b,coaYaPa}a.a{a:a{a{babaa{a:b,bGa3a<a.a.a.a.a(a(a.a.bdbYbNa~bea=bNb9bYbGa}a}a}bfa[a.a:a:a.a[a8a8a.a8a[bla{a{bablbxbJbIbqbEbTbJbxa{bfbfbabablbJbEbEbxbrbEb-bJbTbZbTbJbZbEbZb,b!bPbxbxblbEbEbxbEbxblbrbrblblbrbxbxbEbEbxbxbxblblbfa.a:a{a{bfbxbTbTbJb5bZbTbZbZbTbTbEbJbPbDbIbIbxbTb%b-b%b-b-b%b-b!b-b5bZbZbIbTb,b[b=b[b\b=ccb{aGavb4chb{b\b\b|b\b\b-b-bTb5b%b5bTbEbJbPbEbTbTbEctbIacbVcibZb+bobobLbta2aEaVbjaAaDbibobobubNbPb=b=b\b9bebDb;cqcjcyb\b\cdb|b-b-cdb!brbDa<a~b[a|a&a<a~a?a;a<a]bdb3bNa*a^a=a%a%a=blbfa[bJbaa[bfa{a4aYa(a(bkbAa!",
"aVa$aGaDaFaBaVa&a-aJaQaQaTaQaQa4a8a4a%bkbGbGa}a-a(a4a{a.a8a^a*aIaParaoamabaqazaoamadaFa(a(a.a$aYbububea^a[a[a,bDbja.a.a.b\b{a1aMbka=a[a:a{a^bfbaa^blctb7aNa<a[a[a:a:a.a.a(a:a]bubka|a8a8a:a{a=bDb3bpa[a[a[a{bkbea{a{a{a:baa{a}bPbrblbfbEbEbqbDb2brbrbfbabfblbfbfblbrbxbrbxbTbTbJb!bTbJbxbJbEbTbJbEbEbxblbxbxbJbEbEbfbrbxblbxblbrblblbrbxbrbJbxbxbxblbrbla{a:a.a.a.brbJbJbJbEbJbTbZbZb2bZbJbTbIbTbZbVbPbqbJbEbxbEbTb%b=b-b5b5b2b!b!b%b?b{b,b)b\b\b|cob(bbbsb.b|b|b=b\b\b=b\b%b-b!bTbTbxbDbrbDbJbTbZbJb|bAabbkb{bVb)b9bRbib4bLa?aOa<aAaGbYa_a#a\b:cdb\b-b=b|b|b\b\cdcdcdcdb|cyctcdctcqbZbwa<a]a1a]bMa|a`a;bAa;a*a*a]a|a=a}bfbabfa{a}bxblbEb2bEblbJbla4aSa.a}a-a+a,",
"a+a<aDaFaIaFaPa$a*aYaNaTaKaQaQa4a8a.a]bDbebea(bea{bwa.a[a^a<a<aGaIa&a;a;aMaeahamajataKa*aYa(a+aVbebebea}baa}a[a[a.a.a.a.ccbka,aHbDa|a{baa[a[a{a[a.cjcYb[aMa<a.a:a.a.a:a.a(a:a:a.a8a[a:a.a.a(a.a:a.a(a:a[a}bfbkbka{bfbfbfbfbxbJbrbfbfbxbrbababfbrbfa{baa{a{a{bla{bablbEblbEbJbTbxbIb-brbxbJbJbTb=bJbEbJbJbxbxbEbEbJbrblbrbrbabkbwbfbfblblbxbxbrbrblblblblbfa{a[a{a^blbxbrbEbEbxbxblbJbEbxbEbTbEbZb9bZbVbIb!b5b!bEbTb-b%b!bZb!bTbPbPb!b;ccb3bPb%b\b|cjctcob?b4b,b%b!b!b=b-b-b=b%b-b2bTbJbEbEb2b%bTbVbIcybwaeb,bIbZb!b2b)b7a,a9a,boa?auaDbDbzbGbZb{cdb|b=b|cdb\b-cdb|b|b|cdcdcycjcdcjbEbEbGa<a]a|a-bzbMa1a]a?a$a(bebebkbabkbkbEbZbEbrbJa^blbTbEbfbfbfa.a3aYa<a7a~a2",
"a+bSaIaFaJaHaHa$aNaKaQaNaQaTaZa4a.a[bAbGa}a(a8a(a:a[a(a.a}a=a*a6a$a-a]bda-axamabaiauawaBaPaYa<a-bebwbwbwbla}a[a}a[a[a.a[cyb7a6aMb9bwa{a[a[a{a{a{a:bfcyb;aHa.a.a:a:a[a[a[a[a.a:a.a(a.a[a:a:a.a:a.a8a:a:a:a{baa{babrbEbDbEbPbJbxbxbZbPblbabfbfbaa{bla[babfbfa{a{a[bablbfblblblbxbEblbEbxbrbEbEbEb-bTbEbPb-bJbrbrbxbEbrbxbrbrbrbxbxbrblbrbxbrbxb,bDbrbxbrbfbabaa{a{blbEbJbJbJbEbJbJbJbTbTbEbJbEbEbJb2bPbDbPbTb5b2bTb!b2bTb2b5bTbEbTb2b%b!b=b9b)b9b)b\cjcib|cbb?b5b%b-b!b5bTb5b-b-b-b\b%bEbJbZb-b%b%b;b5b;a6afb,bDb!b!b2bGbSb:bYb+cba}axaDbNa;bGb5b=b\b\b|cjcdcdb|cdcjcjcdcjcjcjcdbJbfb%b%bwb)bIa]bda2bWbSa;a-a=a}bebabEbTbEblbEb!bEbxbZbJbJbrbxbxa7a3a7a3a(a%aSb7bq",
"a!b[bNaOaHaHaJaKaJaKaQaZa4a4a4a8a}bIbebka[a(a(a8a:a8a8a8a4a4a%a3a%a%a*a<a-aXaxaDa*a6aMauacaBa$bkbebwbea]bfbqbfbaa[a.a-bJcoboa$aDbZbqbfbTa:a[a{a{baa.brb,awa.a:a[a^a7a(a[a^a:a:a.a:a.a:a:a.a:a:a:a:a{a:a[a[a{blbEbDbDbJbwblbEbJbEbDbfblbJbTbqbfbabwbxblbaa{a:a{baa[blbfbfbfblblbrbla{a[a.a{brbxbEb5bxbTbTbxblbrbxbEbEbrbxbxblbablblbfblbrbxbxbxbxbxbxbxblbaa{bfbrbxbrbqbwbkbDbJbIbxbJbJbEbEbEbJbEb3bDbwbZbTbJbrb2b!bTb5b!b2b2b5b2bZb2b5b-b,b9bYbNb-b|cbb:ccb9b5b%b%b%b%b2b2b-b-b%b!b2bTbZbNa~a2a-b3b7a$aJaubZbeb5b5bZbPbqbFbYb?cma]awaGbYbubGbTb;b\b5b2cdcjcjcjb\b5ctcjctb\b|b\b5b\cyb)a^b,bua<a|bubAbNbna^bkbDa.bkbZbZb5bEb-b|b5a[bfbEbla(baa.aSa3a3aSa1a%aSbdbI",
"aXb:cbbiaHaJaJaJaYaSaYa.a(aZa8a.a^bra8a[baa:a8a8a[a[a(a4a4a(a8a4a-a%a*a*a2aIaPa&bda~a$aMaVa=a-a+bkbka?aDaMbqblbqa-a6a}b)b{a2a-aFbIa(brb5a[a[baa[a{a[bDbPaBa.a=bTa~a~a1a$a[a{a:a.a:a:a[a:bla:a[a:a[a[a[a[a{bfblbablblbaa{bfbxbEbrbabablbrbrbabrbZbSb)b9bYblbfbfbfa{a{a{babaa{a{blbkbPbFbiaIa<brblbJbJbEbxbxbrbxbrbrblblbrblblblblbaa{a{baa[a}brbababfblbababfbqbPbkbkbSa?buaVbDbwbrblbJbJbxbrbJbEbNbta|bIbkbqbDbTbTbZb2b2bZb5bTb5b!b2bTb2b%b-b;b,b-bVb+bYbIbGbTb9b2b!bEbrbTbTbTbJbEa.bca`a+aMa!aGa!bNbGaMaFb2bxb2b!b!bTbqbcbAa!bcbdaAaXbMbpbGbZb%b-b-b=b=cdcyctcdb\b\cdb\blbTb-bZbZb)bVb,cobZbpb2b)bwbib4bNbGa%a3bqbJb!b=b=b|b=bZa:bEbDa(a.bqa=a%a=a3aYaSa1a%bAb3",
"a2b[bAaPaHaHaJaNaYa7a3a8a(a8a.a.a:a.a(bxbra.a8a4a8bfa{a8a4a(a:a(a%a3a6a1azaDaPa6aPaPaPa<bka}bda}bjbkbIbjbebqblbrbaa.bwctcca1a<aIbIa^a{baa{a:a{baa{a:bEbPaFa=a(bEbYa]a$a.a=a{a[a:a:a[a[a:a{a[a[a{a{a[a[babfbrblbfa}a{a{a{bfbfa{bfbaa{a{a{bfbabfbrbkbTbDbaa{bfbablbaa:a{a{a{bababfbabEb3boa6a^blblbxbwblbxbxbxbxbEbEbxbrbrbrbrbrblbxbPbPbDbPbZbebebfbfbaa[a[blbfbEbxbqb2bNa|a-blblblbEbxbEbJbEbEbrb[b`a]bGbTbPbJb2b2b5b5b-bZbTbJbJbZb=cdcyctb|b=b=b\b\bya\bNbSb)bYbIb2bPbTb5b5b%b2bNa<a!aUaVa+a1aGa1bGb)aFaPb2bJb!bZbTbVbdaXa,a#bFbuaAa?bNbwb)b|b=b-b|b|cdcqctctcDctb|b\b\bxbabfblbqbdb!b!b5b\b)bIbwbwbpbSbMbna=bPblblb%b|b|b|b-bTa=bqbla=bebra-a(a=a7aNa6a(a$bjb2",
"a&b7aNaMaJaJaJaSaTaZa8a8a4aZa4a[a:bfa(bVbla(a.a8a(a:a[a8a4a.a8aZa%a%a*aPaPa6a&a*aXa!aSa]bkaHa$bDbqbDbSbSbVbIbabfbaa[a=cIcoa2a;aGbPbwa[bxa[a{a{baa[bfb,bZaHa}a[a:a^a[a^a=a[a=a^a=a.a.a=a^a{a=baa}a^a}a}a{brbka{a{a{a[a[baa^a=a[a[a[a{a{a{baa{bfblbabfbkblbfa{a{babebDb,b3bIbPb=bZbqbrbDbIbrbIbJbTbPbxbrbxbxbDbxbxbxbDbEbEbDbrbkbGbAbda?a!a6a!aIaRaNa3a}a{bebrbwbxbDbEbxbJbIbJbJbEbDbEbEbEbIbEbqbwb`b:bwbIb!b9bPbZbIbqb7b,ciccb;b[b?b3boa~a]a;bfbTb2bTbia`bAbybia2bAbRbGbSbIbDbDbDbia?a&a`a!a&a+a+bjbtbdaFaPb-bxb=bZbxbqbjboa;a;b3bAaAa<bSbSb9bIb,cdb\b%b\b|cdcDcdb%b5b5cdcdbJbJb5bEa{b5bTb=cybVbda<bVb)a|bobnbIb=b!bTbJb-b=b-bTa.bDbVbxa^a}a}a=a.a%a%aYaYa6a3a$a<",
"a+b,a1aPaNaKaKaSaYa(a(a7a4aZaZa:a(a8a.a:a:a.a8a(a[a8a4a8a8a4a4a%bda$a6aPa1a6a$a<a<a?a]bkbwa$a1bDbpbVbSbYbDbwbla{baa{a%b=cDb[bGaMbZbda:baa{a[babaa{blcib9azaVaNaSaSaSaSaKaVaSa1a1a$a1aVa$a6a1a6a*a1a$a6a$a$a6a$a*a$a1a6a6a1a6a6a*a$a$a6a$a$a7a*a$a*a*a*a*a*a]a]a<a<a]a<aVa6a$a$bea<a]a<bda|bdbpbGbdbja|a|a]a-a*a$a1a1a6a1aVaPaMaVaVa9a+a&a!a+a2a2aMaDaIaVa1aVa$a$a*a-a*a-bdbebja]a<a|a]bjbka|a$a*a<a-a*a-a-a<a-a1aVaMaIaFaRaVa&a+a!a!aXaXaVaMaGaIaFaDaFaDaDaGaDaDaGaGaGaIaMaMaMaRaMaGaGaPaRaMaFaIaMaMaMaFaPb\bxbZb2bTb2b2b9bPbMb:bjaDbjbAb9b,bVb,b\b=b\b\b-b-b\b\b-bEbrcdcjb=b%brbJb2bDbkbqbIbDb{b)b,b5bkbMb7bYbSb!bTb%b|b2brbDb2bJbfbqa{a=a}a.a}a-a3aSa$a.a%a6a$",
"a+cca]aMaKaSaNaYa(a%a%a=a(aTa4a8a8a[a:a(a:a[a4aZa(a4a4a(a.a4a4a4a-a%a-a-aVa6a*a-a<azaua$bwbwbwbqbSb9bPbYbxblbfa[a{a{a.a:bIcyb9aPbVa}a.a:a{b%a[a[a:b|cDbNaVa<a(a7a$a<a^a<a=a<a=a|a=a=a]a^a}a^bebkbwa}a}bkbwa}bka}a^a[a=a.a.a^babababkbfbrbwbqbea-a-a^a{a}bfbabDblbrbJb2b2bDbDbrbxbfbabPb%bkbDbZbIbwbPcyb3bebkbkbIbDbqbqbwbkbkbwbebkbDbDbkbebkbwb3bPbebka}a|bkbwbwbJb2b2b5b2b5b2bTb2bVb9bVbVb!b2b;b%b!b2b,b2b2b)bwbIb)b9b5b,b=b\b|cdcjcjcjcib\b{b2b9b;b[bZbYbIbAbjbpbYb3bGbubGbYb,bNbYbubNa<a<bda9a$a~bYbdaHb|b5bab5b!b!b!b5b9b?cibobNb,bpb9bZbZb=cdcdb|b-b3bqbJb%b%b\b-b=cdb-bJb-b|cjbZbJa=bea]bIb5bVbIa}bPb{b+bYb!blbZb\b2a}bfbVblbxbDbJbka^bka(a6a3aNa%a^a$a*bD",
"a?b{bda!a3aSaSa7aZaYaZaZaZaQaTaZaTbZblaTa4a4a4a4a8a4a4a8a:a4a4aZa7a7a%a-a6a<a]bdbja6aFaMa]bVbdbpbYb?bZbIbxa}a.a[a{a[a:a(a(bEbPaPbxa^a:a[a[bTa[a{a{brctbYaMa<bjaMa]a9a3a%a%a=a<a.a%a.a%a8a=a=a=a.a}a^a=a[bfa.a.a:a(a:a:a:a:a{a{a{bababaa{babxbSa9bpaXbabfbrblbxblbxbxbrbrbxbEbJbJbJbJbTb5bTbZb-bVbJbJb2bJbJbJbZbTbTbTbTbZbTb5bPa?bGa-bTbJbTbTbTbTbTbJbTbJbEbEbTbVbZbVbTb5b5b%b5b2b2b!b-b2b)b)b2b)b%b=b-b-b%ccb3bSbpbAb|b,b%b,b%b,b;b\b)bqb,cob7b{cib;bSb7b;bSb3b9bSbGbYbubGbYbAbpa]bubAa|bobNaPa2aXa+b7bAatbZb2bab5b!b5b5b%b,b3cqbyb;ccbSb2b;b!b|cdb|bUa5a5bbaLa5bab2b|b=b=cdcjcjb-b\b\bTbZb5b-b!b\cybxbwbEb;b)b:cjb=b2bJbTblbEbDbEbJbwbIbea%a}a}a<a-a3bea-a7aPaY",
"a?ccbja6a%aSa4a4aTaTa4aTaTaQaQa8aZbJbla7a8a4a8a:a[a4a4aZa=a7a4a8a(a-a]a]a]bdbdaXbAbobjbububIa]aVbGbSbpbqbxbfa:a[a.a[a:a.a(brb[aPbla}a{a{a{babaa{a{a.b;bPaMa-bNa&a!a2a7a7a$a=a|bea]bda=a=a^a^a=bkbkbebebebebwbwbkbqbkblbka^babkbkbqa}bkbwbea^bGa|a*a<bea}a}bwbwbqbqbwbEbIbDbxbIbJbVbPbPbVbZbVbPbPbPbPb2b9b2bZb2b2bZbPbJbEbJbZb;a|a<a`bJbEbEbJb7bZbZb2b3bZb7bZb7b9b)b9b3b9b3b)b)b7b3bVbSbIb3b(b#b:b+bYbSbYbSb9b[bYbAb7b,b,b(b)b7bVbYb;bpa2a&bya;a~bia9aOa?a!aOaVaXaGaGaVaMaMa!a&a`a`a&a<a<btbNa!a!a2a+bYbNaFbZbEbeb!b2b5b5b%b-b(ctbob?b{bIbGbVb%cdcob{b1a)aCbvbba)bsbFb!b\cdcdb-b|b=cdb|b5b=cDb\cjcIcIb%cdb|bZb2b,b;bZbPb%bIa3bkbTbTbTbwblbIa=a=bkbka(a<a=a^a<a6a$",
"a+b{bIa1aYa7aZa4a3aZa4aQaZa4a4a8aZbEbJa7a.a4a.a8aTaTa8a(a^a3aZa.a.a<bpa~bibybFbibNbpbAbAbja+bpbAb3bPbrbqblbla%a{a[a[a[a:a:blb2aKbDbaa{a{bfblblbfa(bZcybpaJa]a-a]a|a$a-a^bpa]aDaDaDaDaFaDazazazaFaDaIaFaFaDaBaDaAaFaFaHaDaFaAazazazaBaIaGaDaDazaBaAaGaGaMaMaPaGaDaFaDaIaIaIaMaPaIaMaIaIaIaPaXaPaIaPaIaGaIaIaPaPaMaGaBbdb3bTbTbZb5bVbJbPbTb)bGaRaRaVaPaPaPaPaRaPa9a1aXaPaRaMaIaIaDaPaVaRaPaPaIaRaMaPaXaRaPaMaMaMaPaOaMaRaXaMaIaEaDaxauaxazaDaAaIaDaxazaDazaOaVaMaDaAauarauauarauaxawaraMa+btb:b(bNbSb7b)bDazb;b5a}b%b%b!b5b%b=cbcybFbSb)bSbVb9cdcjcjcjccb>b.bOb8bQbLb#cdb-cjctcdb5b5cdb5bEbfbrbZb=b\bTb-b-b%b2b%b\ccb=b!b%bwa*bqbVbJb2bPa^bebEbka^a<a%a<a^a|a^a|bD",
"a6b)b3a]a(aYa4aZa8aTa4aTaTa8a4a8aZbxbTa.a(aZa4a4a4a4a4a(aTaZa8a%a|bdbia~bybSbRbWbNboa?bpbkbDbqbwbVbwbrbrbfa.aSa^a:a:a:a:a[blbPaHblbfa[a[bEbEbla{a.blcibwaIbda]a*a-a7a<bwaPamabawaPa1bdahabababahaMaVa=aFababababata1a6a|amadaeadabaqa6a-bdatabaeahajakaMa]bda1abadadadabaBa<bkbdahabadabaoa-bubuaHaeaeahadaza-a]a]alada1b2bPbJbJbTb5bVb2aPagagaVa]bpaSacaeahadaBbdbSbIaqahaeaeaeaVbPb)a]alanaoahanbdb9b,a6adajajahaha2b7b,bGanagaeaeabaqa$a]bkauahajahahaGbjbpa;aradadaeanaVa&a!aBabadaAa!bib:b:bjbGb[bIaBcdb=bebTb2b%b%b!b)b+cCbub+b;b3b;b|b)b)cdcdcdb|b+bSb#cbb,b=b|cdcdcdb|b5b\cdb=cjb%bxb2b5b-b\cjb!bkb,b=b|b,b%b)b5b,b2b!bDbJbTbDblbqbEbIbaa^a=a.a-a3a$bubu",
"a6b)bwa-a.aYaTaTaZaZa.a3aZaZaZa(aZbJb2a(a[a8a(a^a(a4a4a(aZa4a]bebpa~bybRbMbWbFbFa`bFbububwbkbwbkbxbrbxbla{a:a^a}a[a:a:a:a[brb2aMbrbqa{a:bEbEa^bTbra4bVbwaIa-a<a=a=a]bGbIaBaeabaqa1a|bZabababababaPa-bVaMadaeadabana6a<bVajadadababaja1a]bPatabadaeacabaFbdbwa*abaeaeadabawbebIbIajajaeababa-bIb9aMajaoaeabaubdbAbVacababbSb)bVbZb9b2b;bVabababaBbdb,a6adajadabaqbdb3b[anaoajababaMbIb[bpabajahabaea^b{coaJadahahahabaPb9ccb)agajahababaja$bua-anajaoaeabaxbpbGbyahajaoahabaVbjbGaVababaraPa&a;bia`bjb{bVaxb\b\bIb%bJb2b=b!bVb:crbGb3b,bTb)b;b\b\b|b|b-b\b=b,b%bZb-b|b=b\b|b5b-b=b\ctcdb|b-bEbPb=b-b=b[b+chb4b!b\b=b{b)b9b2bPb2bPbwbPbkbkbIbwbPbkbka|a%a=a|a<bdbA",
"a$b7a^a<a8aSa4a8a%a4a8aTa4a8aZa4aZbJbaaTa7a^a}a-a(a(a(a4a%a.a6a$bjbpbNbMbybFbNbAbRbNbwbwbkbqblbrblblblbfbaa{a[baa[a:a^a^a.bEb[aHbrbfbaa{a{baa:b=braZb=b7aFa%a}a<a=a-bSb)azadabaqa1bjbZagamajacadaMa*bDaMaqaqamacaka6a|bNaqanatahabahaPbpb3axaqataqahabaFbjb,bjarawauaoadawbqbIbIawazataeada%bSb)aVazazarabatbjbNb9alababbSb+bVbZb2bZb;b,alababaHbob)a*atawaoabaqa`b3b,aEaMaFamadaPbYchbjanatatajaka=cccta!atawataqadaMb3b:bYatawataoadaja!bAa<aoajaqajabaxa|bNa?axaDatamacaMbpbuaMadabaoa;a`aRa~bGb3b,bZaqbPb|bZb-b!b5b-b-b2b:ctbNb,b,b9bPbVb|b\b=b=b\b|cdb|b|b\cdcdcdb|b|b|b=b%b=b|b|b|b\bTbPb;b=b\b|b;bPbIb=b\b|b\b(b4b%b,b!bVb5bJbDbJbIbTbVa=a-a<a<a(a*a$a+a-",
"a1b7bPbea(aZaSaZaZa4aZaZa4a4aZaTa4bla(a4aZa4a.a}a(a=bka|a=a-bebja?bobMbibobFbia|bybAbpbpbwbwbea}a{blbabaa[a:a:a[a[a.a]bea{blb!aIblbfa{a^bkbDbka}bkbqcobTaFa-a^a%a<a%bAbNaBababataMa<bVasaqamacaeaIa6bZaPatazaoabanaNa`b3awarataoadaeaMbjb7aFaxaAazamabaHbGb[bAauatarauahazbDbPbDaBaHazamaea%bIb,a1aAaHatadatbib(b{aiadabbAb7bTbTbPbPb{b{amaiabaPbjb:a.aIaFataeaqa?bSb3aPa+aPataha2bYb[bpaGaMaFanaga|cmcta$aIaqahaqadaIbYb[b7awaBaBataeaqa6bdbwauatawamacaza]bWa`aPa2aBamabaSbAbNaValabaoa!a2aUa`bAb3b)b9atb,cdb-bSbjbDbpbwbIb+cybVbYb)bIbwb%b\b!b-b|b\b|b=b%b|cdb=b-cdb-bJb5b5b|b\b=b%b|bZbZb\b-b=b|b|b%b!b\b)bkbTb\b,b2bVb-b9bJb)brbPbTbPbZbIbDa-a<a|bka*a6aVaR",
"a6bVbubea3aSaZaQaTa4aZa4aTa4a4a8a8a:aZa4a8a4a.a{a^a}a.a4a6bkbobGbobibRbibtbNbobibybNbRbiaVaIaVa}babfa[a[a:a:a:a[a=a[a(a^blbTb\aPbfblbebZb+b:b{bScocycybRaJa<a=a.a^a]bDbVaBababaoa1a<bwauawaqaeahaFa$b7a1azaBataeana1bdb7azatawaqahaha6bdb;aIazaDaBarabaHbGb;buaDawaoaqamazbIbVbNaFaPaBaoaha-bIb9a3aFaFatadatbFb,b?apafabb(ccbVbVbZb2b\b{aralabaVbpb(a=aPaJawaeaqbdbYb?aXa-a2awaga&bYccbGbna\aManaca^chcqa~aRataBataeaGb9ccb,aFaJaBaBaqatbpb,bVauaBataqacaGa*bAbia2a-aJaoaea1bYb,a6aladaraGaIa!bGbkbVb;b9aqb5b|b-b{bYccbSbkb7b9cib3b)b;bPbIbPb9bZbPbZb5b%b,b2bIbZb\b!bEbZb%b2bTb%b%bTbJbZb!b!b=b3bEb\cqcdb-b!bZb!b\bPbPbPbZb!b9b2b2a]a}bPbVbqbdbwbkbqa-a-a<a6a<bp",
"a6bVb3a`a+a,aSa7aZaZaZa4a4a4a4a8a(blaZa.a4a4aTa(a}a^a.a%a*bqbpbobzbYbMbMbFbFbFbca~a\a2a!a/aUaia6bfbaa{a[a:a:a:a[bja-bua]a}bPb,aPbrbfa}blb)b2b[bDb[cDcybSaJa-a:a=a^a<b,b7aFaeabara1a]bDauawaqaeamaMa]b2a$aBazaqaeana6a~b3aBaAawaqaeaoa$bdb,aPaIaOaBarabaFbjb;bAaMa9a1axaiazbPb9bPaMaKaBaoaja$b7b{a-aFaBaqadatbAb3bYapajabbYb?bJbZb2b2b[b;atalabaSbyb[a|aVaJawajaqa]bGb,a,boa&awada1bSb,bFbobga!avaebkcccmbpa!aJaIaqabaGbZccb7awawaqataoawbjb9bPaAazatamacaDa6a!a&a+a<aMaoalaSbSb;a6anafaoaGa<bpb9bTbTb=bZaAb)b|b%b\cjb;bVb%b-b)cibIb7b)bIa!bpa<bGb;b-b{b9b7bNbpbVb)bIbZb9bZbTb=b=bVbPbIb9b|b{b\bIbGb|cDcjb|b\b\b\b=b9bZbPbDbVbZb2bSbebwbPbkbpbwbPbwa]aGaDaAa6bAbw",
"a6bSbYbIa!a!a7a^a8aTaZa4a8a4aTa8a.a{a4a(a8a4aZa4a4aTa4a[a]a]bAbAbSbGbubGbNbNa\aLaAaAanaPb#bza2a9baa^a{a[a:a(a(a.bVbDbGbpbwbqa1aVbxblbaa{a:a[baa8b;cDcybRaJa=a^a}a<a}b9bGaBahabara6bjbIawazaqafajaMa$b)a*aAaBaqadara1a|b;aDaBaBataiaua<a|ccaVaDaIaGauabawa&b{bWaMa1aXawabaBbVb,bYaPaYaHaqala6b3cta<aPaFataeatbMb7b7apamaba]bPbVbTb5b9b=b)aqarabaPbdb{bdaPaJawahaqa~bNb{a&a~a&axada!bYccbGa;a`aXaxasbGchcca|a+a(awababaGb)b?bYazaoaqaqadaxa+a~bpauaqaqahacaAaAaxa+a$a-aPaqakaYbtb,a6arafaoaObSb%b!bZbTb,bIawb=b|bZbIb-b,b%b:b7b+cibIbqbZb[bSbRbdbIb-b2byb3b7bYbVbZb9bPb!b-b%b\b{b%b,b=b%b)b9b-b,bVb-b|b=b|b|b|b-b=b=bPb%b=bTbwbubGbDbVbIbPbDbZb2bTbwbIa+aGaGa$a<a<",
"a$b9bqbqbebkbkbea}a.baa}a:a.a:a:a{baa[a:a:a:a.a(a.a[a^a=bpbubAbNbSbNbNbYbFa!a_a_bgbgbcaLa9bRb4bRbFbNbGbGbGbubwbubqbIbAbAa|aRaDa1bEbabra{bababfbfa=bZcIbNaSa|a[a{bdb)cobRaBahabaqa1bGb2auazaqaiamaVa-b)a<awaBatadaua$bpb;aBaIaFaqahata|bjcca,aVa2aJarabaBa?b[b3aEa&a!aAabaHbPb:b3aPaYaFaqaqa$bGcoa<aHaHawaeawbtbSb3asamaea+bNbZb2b5b!b{b[atamafa1bocbbeaPaKazalazbibWcca+bta+aAaibcb:ctbRa1a!aMaDaubob4cxbwa+a7awadabaIb?chbYaFabaeaJaeaAbibybGaqawatajacawa-bda+a6a-a1auaiaSbAb3a1aoafaraGa`b-b-b!b!b)bDaMb{cdb-b%b\b|b=b>b:b:cmbSbNb=cicib{b%b,b[bYbNb3bVbNbPbPbVb9b9b,b9b2b[bTb,bZbVb9b\bZb\b=b{b|ccb=b)b9cjcdb)bJb=b\b|b9bDbpbwbpbwbZb9b,b%b)b)b3b3bGbAbAa&a~",
"aFa*a6a1aYa1a1aYa-a$a*a$a7a7a*a%a6a$a7a7a6a3a3a%a<a|a<a<a-a*a<a]a;a;a+a;a!a\bcbca\a,bgbnaMaGaMaHaMaMaHaMaVaVa6a1a6a$a;aVaPa*aMaSbDbablbfbfa{blbla:bIcDb3aSa<a}blbpb9cmbMaBamabata6bAb7atataqahaja1a<b;a-azaBatadaxa*beb[aBaFaHaqahaqa]bpcca1aPaVaFaqalaDa+bSbSaPaPaFawadaMbDb,b7aJa1aFaqaua-bAcca$aPaJawagaAbNb4b)apahaha;bSbZb2bTb2b,bNawanafa$bAccbqaPaJaBapazbFb(cca&bta9azagbgb?cxbFa`bya+aEaybobWcHbAa&a%azahacaGbYb+bRaoababamacawa,a9bNaxacaeamabaxbjb,b3aua-aVaqaiaPbdb,a*arajaqaMa?b9b=b!b%b;bDaPb[b|b%b|b|b\b=b!bPb:chbVaXa}bIbIbIbubpbebjbdbjbkbAbDbDbDbwbubebda<a^a]bja<a6a-bpbjbda<a-a|a]a6a$a<bka<a%a<bqbja<a$aPaIaPaVaVa*a<bka<a*a-aPaIaPa1aMaRa!",
"aPbpa<a]a]bobtboa~bdbca|bna~boa~a<a|a]a]a}bdbjbAbdbdbkbAbpbAbGbAa|bAbpbybUb4bLbCbzbUbpa,a!a,a_bca|bdbkbebkbkbpbwbubwbebkbja]bDa6bDbrblbfbfa{bfblbabfcqb9aNa|babrbkbab,b7aFaradaqa1bwbZaqawaqahaoa6a<b[a-aBaFaqadaxa-bdb;aFaDazaqadata-a]b=aVazaFaBaAanaFa]bYbNaGaJaPawaeaPbkb7b9aJaHazaoaua|bucia]a1aIataiaAb:b#b,apafaia;bVbZb2b2b2cib9auanaca*bFcbbkaVaNaAaeazbMb?coa!a?a9awaba\b(cybWa~bta&aDasbob#cHbua?a-ajaeabaObnbMbWabababababaAa?byb)aAaoaoababaAbjb,b,alaVaHaoabaSbWcia<analauaGbib%b;b=b-b\b9aAb9cjb=b-b-b-b%b!bEb3ccbSbGb{bZb,b[b,bVbIbVbdbGbjbdbia`cca*aOaOaLaMaUaLaVa!bca,a!a_a!aOauaAbVb%b=b=b\b;b5b2b9b2b!b2b!bVbVbTbPbPbVb|b,bZbZcicqb{ccb)a<a|",
"aVbGbia]a_bnbzbza=bda^a}a|a]bja|a}a^a.a8a(a8a(a(a(a{a^a}bkbwbubebkbkbpbqb~b_b_b>b*b`cxbMa/bsbzbsa[babfblbrbfbrbxbGbja-a|bkbDb;aSbxbfbabablbfbfblbEa.b,b)aJa]babwbEbebZb\aFaoaeata6bwb7atataqahaqa;a]b;a-aFaBaqacaxa*bjb)aFaFaBaqadaqa-a|cca1aFaFaBawahaJa?b+bYaPa%a7aBabaHbwb7b9aPaNaBaqana|bpb,a?aPa1axabaDb(b7b:alaiada*bYbZbTb2b9cqb{araoaia`bFcqbAaPaNazagazbUb`cia!bpa+awadbgb`cNb#a+a`aJawapbAb>cHbAa2aoaiatahaObub(b#abababababawbob,b)axawataqabaGbub9b9aqa6aNaoabaYbVb,a$adadaua2b{b\b\b\b%b|b,atb2b\b-b\b\b|b\b-bwb:cmbDb3b|b,bZbubDb9b!b5bVbVbIbAbSbub)cib(b[b:bFbnbgbzbzbtb+cib+b3bRaPbPb|b|cdb|b|b|b\b-b-b%b%b%b-b%b!b%b!b2b2b!bZbZbTb2bkbdbwb3bAbA",
"aRbpbWbza,a#aSa-a8a8a.a8a8a8a4a8a:a4a4a4a4aZa4a8a:a[a(a[a(a:a.a:a[a[a}a{b+b:b8bUbUbUb:cxb#bha+a2a[a[a.a{bfbababrb3a;a,aUbqb=b,aPblbaa{a{bfbfbfblbJa[bVbZaHa^bablbrbrb)b[aHaraeawa&bGb2axazatagaqa]a|b,a<aHaFataeaxa1bpb;aFaMaHataeara]a|b{a2aFaFazaoadaPa|bYbVazaNaJaBaeaHbkbSb7aKa1aFatana<bkb,a?aXaHauaiaFb3b(b:apaiaba<bYbJbPbTbVb{b{auaoafa6btb:a^aPaSazakazbMb[cha&bda+axaea\b(crb7a;a|aJarapbpb:cxbNaIabaoaqaeaRbWchb+agajabababaqbjb7b)aqadatataeaDbqb)b;azaVaHaoaba*bGb3aYaeadawa&b{b\b\b|b=cdb2awb=b2b2cdcdb|b\b5bPb)b{bpbAb=b\a~bta-bGb=b=b%b5bEbDbPbDa}bVcdcjccciccb[bza\cdcQcQcyb-bIbVb5b%b%b\b|b=b|b5b2b!b2b5b-b%b5b5b5bZbTbJbEbJbJbTb!aXa9aIbjbwa1",
"aRbFbtbGa?a+a7a%a4a(a8a4a8a8aZa4a}a7a4a3a%a%a7a(a<a.a(a.a<a=a<a^a}a^a]bea.a=bda~a=a~bFbzbMbzaSa-a[a[a:babfblbaa{bZbYa]bdblb,b;aKbubkbpbpbebebAbGbwa|bIbVaJbebabfbDbrb)b{aHamadata!bub3aAazatahama;a`b9a;aFaBataeawa$bjb)aFaFazataeaqbdbjb{aVazaBazaoaeaKbobNbPauaoazaFaeaFa^bSb7aFaIaBaqara]bub,a-aVaJauaiaFbNb7b+avamabbtb[bIbPbZbZb;b[auaraga1bpb,a|aHaKazahaBbMb`cca2a*aVazana`b4cqb4a;a]aJauapbFb.cHbIaGaeaeaoajaXbSb`b[aFaFawauahatbpbIb9aAazazatadaGbGb,b?aDaMaHaqaba|bNb9a$aladaua`b{b=b\b=b-cib)aAb7b;bZb|b|b|b=b2b;b;cibGb9b=b=b[b2bZb;b-b\b,b7bSbAbZbVbPbIb3bVbIbVb;cdcocycjb|b|bIa%bIb!b%b%b!b%b-b-b\b2b%b%b!b%b%b)b2b2b2b2bVbIbDbJbPbVb,b;bGbAbwbNa$",
"aObWbpa;a.a8a4a4aZa4a8a4a4a4bhbUb/cAcEcEcMcJcScJcEcOcucEcOcEcOcOcMcVcFcfa:a.a.a%a-a}a|a=a-a-a%a^a^a[a{a^bababmb_csb]b&b~bOb(b=aFcfcPcVcVcJcJcLclcLcnb3bYaNa^a^a{brbabVb=aFajabaBa-bkb,axazaqahabb/cwcea>aBawaqacaycgcBcgaHaBaFatacaobibpb;aVazazaFataeaJbubwbIawajataBadaza}b3b`aFaGazamamb8cZcFa!aIaPazabaDcacwb_avahabbpb9bIbJbZbTccb[aualaeaVbub;bdaMaFatacazcncGb?a0a]aPawagbBcwcNb1aMaPaJatapb(b>crbpa2aoaiawada9b3b:cbaPaNaVaBanaqbjbjb2aPaVa1aBadaCb~cGceaGaVaJanabbjbRb?a+aladanbOcmb=b{b%b!cqb=a#cDcob=b\b=b\b=b%b%b!cdbFb(b[b:b\b;b\b=b^cBc4cZcWcAcAcacJcOcwcgb)b,b;bqb2b9bPbVbZb-bVbZb5b%b%b%b-b\b!b{cWcZcPcWcucZcZc8c2c4cZcOcJcAcJcJcLcOcBcnbVbubZa<",
"aObja<a%aZa4aZaZa-a-a8a8a9bFczcOclcMc7c#c#c3cEcVcSc0cScVc2cVc3c3cWcEbGa+a.a.bja?cacaa4a*a8a(a.a.a^a=a{a(bhb.cucOcTcEc2cScFcab,aVcuc$c#c#cFcfcsb&cgcgb:bNaSa}bebebea^bkb2bjaAakaMa+a|b)aEataqapavb}cLcgbBaFaBawana5b/cFcwa9aGaFawanaDa-a+bVa$atawatajadaNa<a(bAaBatatawalaPbub#b`aBawauauaCb1cncAbUaWaIaAasbhb&cgb_asasaVbZbVbJbJbVbPb7b,boaEasa!a|bYbpaIaIaAasbbcFcAb.bba?aOavayb/cscGcaaXa0aIauaybFbpb,bLbFbga0a&avbyb4bycia2aIaMaAalaFbibob(a2aCaMazana)cFcPcua6a2aFaravb0b6b<bdapaca9crceb%b-b-b9ccb,aEctcdb|cccicBcGb~ckcpcebGbwb=cdb\b=b-b=b,b!cOc(c+c#c$c8cWcJb.b8bwbEb!bIb5b5bZbZb,bVbTb%b5bZb2b5b2b=cOc!c8c&c(c(czc$c)c+c&c+c$cScucFc2cVcLcJchb:bVbPcca$",
"aObia.a7aZa4a4a7boa|a7a-b6b]clclb/cvcEc0c2czcMcVcVcVc4c0cVcScTcubHbHa{a.a(a4bBcscLb}a4a(a8a:a(a.a[a:bhb8cMcTc2cVcWcScEcTcZcJb#bhcUcnczc8cLcfb*bFbDbfb[bVaSbea}a=bfbea{a}b)b,a+a&a-a$bibpa`a`bmb1b6b&b&b]b*b6b6b&b<b1b&b*b1b*b*b#btbjbjbdbkbwa]a]a*a<a<a*a(a}bdbebjbGbubjbpbwbAbubea*bHb&b&b1bHb.cnb<b6b0b/cgb8bQbWa+bdbVbZbTbPbTb2bZbVbPb;b{bobjbpbwbMbYb8b&b<cgcgb<b1b.b<b1b6b*b~bQbQb~b^b^b>b0bda]bkbSb:b#b(b?b8b>b`b0bAbSb+bWb#b+bYbRa`bLb&bObvb&b]cacvcvb8b<b^b.bHbvb&cgb<b^b*bbbtcbccb;b;b=b=b%b)bVaxb3b{b|cccrcUcGcgcwcbb>bkbkb|cdb|b|b-b!cncUc#c(c$c8cJcvcpb&bwb9bkbIbZbwbTb5b5b2b-b!b-b%b%b2bTb5cAc5c(c&c)c(c+c$cEc(c+c)c&c7c%c2cEcTc2cOb>b1b=b-b)cqcIa?",
"aUboa]a<a.aYa4a4aTaQa3aVcucJcAb$bXczcMcScScMc3c7c#c0c3c7c4cSb8a)a;bNaZa8a7a%cvcAboa+a(a8a.a.a.a:a+bFcuc8c7c3c3c0cVcScMcWcLb/b4bib~bQcSc$c&c7cscabDa-b%bPaJa^a}a^a:a^a^a[a.bDbEbwbubGb<b~b/cgcJcAcnb$b<b&cab<b8b&bQb^b^b<cvcFb~cncmb&bVb2bRb9b>b.bSbYb9bVbZbZbTbZbPb9cncBcLcPcAcLckb^cscwceb&cscLcPcTcZcPcPcOb~b1bEbJbVbTbIbJbJbTbJbPbJbEbJb2b!b2bVb)cgckcZcZcTcZcLcFcLcLcPcPcPcOcFcZc4cZc5cZcBb^b%b5b)b%b2b)b=b\b[b\crchb{b\b=b-b9b5cncPc2cZc2cWcOcPcOcFcAcAcFcLcLcTcZcZc5cZcKcab5b9b%b%b!b%b[b[b=b,b,bIaJbjb-b|b{cccKcnbPbEbAccb;a$ckcGb=b=b7cccJcZc,cTcTcWcpb6b`b0bxbPbxbxb3bwbPb2b5b5b5b!b5b%bTbJcvc5c(cWc&c8c&c(c(c8cuc$c)c&c)c#c&c#c4cTckb&bacDc6cdcic6b;a1",
"aUbibibtbea6a4aTa8aTa+a+b}cAcVczcucVc3c7c#c7c3c7c#c7c)c#b~bbaObkbWa0aTa[bmb*b^bBbubda.a.a[a8a6bjczcWczc3c3c7c3c3cWcMcMcScPclbSaPbcbFcTcWcFclb^b0bCb#b(bGaKa^bda*bpa<a^a^a}a^bdbpclcscScWcucuc0c&c8cSczcJcTcMcncAbXcscFb]cgb<bGbub&b_bububobGb^b<b_bQa=a}bkbea:a{bMb:cacLc8c$cTcWcAcgb^b&bObMczcZc)c8c#c$cLb]bAbIbqbDbDbJbIbJbGbjbpbjbJbPbJbxbrbEcucZc8cSc&c)c+c&c+c#c7c)c+c+c,c,c$cVcncAc5cvbDbVbJbJbJbPbPbVb2bPb2b2b2bZb)b\b!bJclcUc)c)c+c)c)c)c#c7c4c0cVcWcVc0cScWc0c$c5cvb+b?b5bZbTb2b2bZbGbLb(b:b;bDa|b[b-b-cAc!c(c4czc5cGcnbVb)cWc!cLcgcwcnc(cOcTc8cBb}bDbPb(bYbDbIbxbZbVb)bwbPbZb2bTb5bTb5cncUc,c,c8cEc$c$c&c)c(c2cfc%c+c)c&c)c)c$cwb6blbJbEcjcIb\cIcDaGaR",
"aLa~a=a3aTa4a4a4a_bFa>b6cfclcucEclcVc7c7c2c3cVc3c&c#cwbKaNaQb1b^a7a3aVa?cwb]a0bNbka*a8a.a(a(clc2c&c7clc3c#c#c3c0c#c7c3cVc0cObWaUbIbpbtbNb6ceb~bmbdb(ccbRaSa}bYbob(boa}baa^a^b]cncVc4c#c#c0c7c7c#c#c#cSc2c7c3cLb$bqbwb8b.bubPbyb4bkbebabkbrbebda|b#bUa^a}bka}b]cFcAcEcTcZcfcTc#c8cZczcvcacvcFcgcfc2c8cPcfbebebrbqbxbDbxbJbIbVb3bibYa`bTbJbrbrcfcPc+c,c)c#c#c+c)c&c&c&c&c+c,c,c&cubWbNb5b!b>b_b.b.bIbIbJbVbZbZbZbVbTbZbVbVb.cbcgcFc)c,c,c,c+c)c)c#c#c7cEcScScVcScSc4cWcLcubJbAbJbTbZbTbTb2bVbPb8b#bWbYcqb,a+b[clcUc,c,c+c,c,c,c!c5b%cdcgcBcacwc(c,c,c,cPclbJbxbIbJbwbNbJbEbDb9bVbua^bJbJbTb2bTcgcKc,c,c,c+c$c4c+c)c+c+c(c$cfc(c)c&c&c+cZclbrbrbEbEbEb5cIctc6cQaVa!",
"aEbca}a$aQaTaYbdb/cgcfclczcEcucEcMcVcEc0cWcScEcWcFb$a4a4a4a(bqa-aTaQb&cga+aXbzboa$a%a4a4b}cOc&c#c&c)cSc3cMc3cSc7c7c3c7c3c2cMbMa9b[bSa{a{a{a{a{bfbpcocqbSa6bja}bwa^a}baa{b}cFc4cVc0c4c8c4czcWc#c$c4cOcucncAcnb.bQbSbVbCb:bYbFbQb~b#b4bGbIbYbSbPbNbYbYbIbDb&cpc$c$c&c)c8c4cTcAc2cZc8cWcTcZc$c8cZcJcPcvb3bPbZb2b)b2bZbVbPbIbEbDb9bIbxbVbTbEcacLc$c,c(c,c(c5cucLc$c4c$c8c(c)cWcLb>b4bEb%b-b%bVb;cecrcqcrcqctctcdcob)b5b-b|b;cncZc$c(c)c)c#c&c#c2c&c#cWcTcScWcTcOcScOcWcJckb^b_b~ckb~b~cpccb.b5bZb2b7bPb9b=b2aWcwc,c,c,c,c,c,c,c(cFcLb2b[cpb_b`b.b<cecLcvbTbVbTbxbMb(b~bObPbJbIb[b,b+brbPbJbxb<cGc&c+c+c)c&c$c)c)c5cSc2c+c$c#cfc5c)c)cZcvbEbxbJbEbEbxbrb\cyb-ctc-cDa;",
"aCbnbYa*a)b>bCbhbXcAcgb$czcWcScMcJb}cEczc7c7cFb/aZa4a8a8a+b3a.aTbKcLcFbKa+a^a&bda+a<bXcAc&c3c#c&c)c&c3c0czclcSc2c7c#c#c3c8cObRa!cmb+bqbkblbfbebqbIb;b\bGa|bwa=a=a{a:b/cLc$cEb6bQbQbHb6b&b/b6b6b1bHbha_a_bHbha&a2aVaRa2a!a1aVa,a;a+a;bcbtbca~bnbobRbMbMbybUbQbHb1b6b&b1b6bMbsbvb1b&b1bQb&b6b6bQbBa;a`bkbkbjbpbAbda?a~bPb2bIbEbDbIbJbxb/cGc%cFb<b8b*b8b0b0bMbWb0bUb8b<b*b.b#b0bGa?a$aSa1aPaSa6a%a]a|bka|bPbNbtbdbpbtbMbYbFbHbUb6b6b8b&b8b1bQbHbOb1bObHbgbga_a_a#a#a,a_bhbvbvbvbHbBbHbQb<cecbb#bZb5b)b;b[bya5cUc,c,c,c,c%c2cEcZc5c5bYb#cUcLclcFcZcAb~bUbPbVbIbqbAbSbMbFbVbPbVb9b7bSbEbJb1cpcTcEc8c)c&c)c&c+c(c&c$c8c)c#c$c(clc4c$cJb3bDbEbEbJbEbJbEb2b2b=b=b|c9c6a]",
"aCa_cacgczcOcna)b/cnb$b]clczcMc4cPbXbKcvcPcfa(a3a8a(a8a4a8a4a9bCc4cTbza0a+bSa:aHbmcgcSc0c#c&c&c&c)c)c)c7c$b$cVc$c#c#c&c)cZcfbSa*cqbIa[a{a{bfbebDcgcgb;bYa|bwa{a.bXcsc$cWbHaWaCbbb/b/b6aWaCaxaCa)cfcucnbKa>aWavaqaMa+aYaVaFawazawauaBa1a$a-aMayaDaOaGaObgb1b6bFaLaGaOaLa5b/cacucla>a5a)a)bbb&bja;aJawawauataPa-a-a-axarbdbVbVbJbxb6ckc5cZbsaLa)b6clczbHaWaWa5a5bXczcAcna>aWaWaLaCa6a<bdbuaAazaPaMaFa<a|bea?axauawaLaWbXcacgb/a5aWaWaLaWbXcAcEcwbKaWaWawara5bObsbhaAaAaAawawa<bqbka*avaga\b[b`b-bZb<cBcBbQa5c5c,c,c,c,c!cuc$c(c!c5b(byc4c,c(c8cUclb(b8bqbDbFbyb:bLbubIbIbIbSb:b3bSb8b_cEcZc$cVc4c4c$c4c0c,c,c#c7c+c(c7c$c$b}cwb)bLbEbJbJbJbJbEbDb:b+b:b\b5ccc9cRa+",
"aya_cncabQbmbHa>clcTcub}clclc2c7cTcla5a`bda3a4a8a4a4a4a8a4aQbBcBb^a>a\a|cebvbbb^c3c#c0c2cMc#c#c#c&c&c)c#c)cEcMc8czc+c)cMcnbQbwa1cyb7a=a=a}a}a[a{a]bNb{b#a3a=bBb~c#c#cUcuaqacaca)cEcEb^afafafacapclcEcwaWafacababaDboa<bGaqababababaqbdbdbYaGababababafbzcucLb4acababababbKcLcPcuafacacabaca=bub3aYabahababaFbebdb2alababbqbZbUb_c2c(c!b/acabafb&cWcTbOabacacacaAcEcWceapafacababa$bIb7bVabacabababa}bYb;a|abahajaeacbKcZcZb}abababacacaycVc%cLaEafacafafaWb>b#boafafacababa%bVb3aJababada]b;b>ckc4c(cKbBa5cXc(c$c5c8c$c(c&c$c5c!bWbGcUc5b`b1ckcebHb~b_bHbRbyb#bybNbwbIbIbPbDbIbVb$cUc#c2c+c$c0cTc5cJcFcFcVc(c,c)c)c)c(c2b:bMbEbEbxbEbEbEbrbxbVbSb+cYcQcjcDc6cYa?",
"aEbhb4a+a6a|bKb6cVc2czclclcuc4cVcgbma*a4a8a[a8a8a4a(a4a4aPbOcFb$aNaTa>cscgb/c3c+c&c#c0c&c&c#cSclcMc7c)c)c#cSclcWc2cTbQbQb(a/bqa1crb~b&b*b6b_bta<cgcwcHb1a5bUc2c+c+c#cKcgaKajafa>cMcTckavatamafapcucAcea5alaoahabaGbpbob:azamaoahabaqbFbiccaPaeajamaealb0cscFb3afamajamacbKcWcZcAafaqaoaeaea<bpb,bdaxaDauabaFbjbpb)aeababb4cbcTc%c#c&cXb]aoaqaib1cWcTbOayaBaqacaEcMc5ckaLaUawahaba|bVb;b3ataBazahaebucmcxa|apaGaDatalbBcZcUb}avaDatamabaCcSc(cwa)aLaxajabaybYb[bNavaGaoacaba%bPb,aPacabajbhb_cWc,c,c,c5bXbbcxc5c5c$c(c)c(cMcZcFc!b3bicscscGb]bIbPb<ckbWbybtb3b4a~bwbqbwbqbubub.b>cuc%c)c+c+c2c0c,c+c)c5cMcLcTc)c,c+c#ckb1b2bJbJbTbxbZb!bTbxbrbJbxbIb5cycccbcHb{aG",
"aLbcbia+b<b]b}cvcVc4cMcVc7c#c2czbsa_a(a4a(a8a8a8a:a:a8a7cacga~a+a`a?cMcZc0c&c)c)c#c)c#c)c#cEcfb}b6cacEcMczcAb$cnckcab<cwbIbybSa;cibqa.a}a|bubebdbpbSb{bGaWcnc+c&cOcucKcna8amafa/cEcTcwaCazatapalb<b&b?a#aqawamacaGbNbFb[aBatawaqabatbNbtchaVaqatawaoalbnb^cnbjalataqaqacbBcPc5czalanajaeadbdbGb)boaDaIaxabaHbpbAb,acacacbXcUc,c2czc4cUcaatawambHc2c8bha5aVaDaiaUcwcnchaLa&a&auadbub9ccb3axaKaHamahbqb9cqb0bQbCa)aRavbBcGcsb/a&a;aIaraiaDcEc5b~aLayataoabaxbSb?bYaragamababa<bZb,a2asaeajbXcZc)c+c(c)cpbKa-cqcecGc,c+c(c)c$c#c!c%b2bdcgcUcPcgbIbDb.b_bybpa`bFbYa`a}bwbqbkb.b*b~b^cEc(c)c#c5czcgcLc$c+cTczc$c)c+c)cBb<brbxb!bIbTbJbTb2bTbJbEbxbEbrbEbEcccqb~cmb#aO",
"aLbcbYa,bhbnb/cncucEcEcScOcTb1a)aTbla.a7a4a.a.a8a8a:a!bobWa9aQa(aWbCcSc&c#cScMc3c&c&c)c&c&c&c0cVb^b&cncnbRb.b3a;bhbUb.b~b+b[b(a;b;bda^a^a[a[bfa:a-bycmb1aWcgc$c3cWcEcKcga.aqafa>cWc8cpaEaEazanaga|bAcca*amawataoaCbYb#chazawaBatadatb6cncma5atawazamacbCcgcLbYavaBazatadbXcZc5caarajajajaea<bWcbbtaEaVaDadaRb3bLb)alacabbBcBc+c&c2c$cKb]aKaHaibvcLcAa>a0a+aGalaDbYb7ciaMa9a+axadbjb,cib9aFa6aHaeakbRcwcGb0bObHbba2asbbb_bLb(a_bObca0asaEcFcZb.aEayaFaFacaqbdb,b(a&abawamaba^b9b?a;aLalanbKcLc&c)c(c#b~bQa]cYcBcBcTc5c0c$c2cTcscBbIbAb&cecwcsbPbPbSbYbPbPbua|bebkbebebwbebFbcb~b^cuc5cZclcFcFcFcAcTc$c8c$c+c+cGb]bJbJbxbxb!bDbJbEbTbTbJbEbxbEbxbrbrbZcecxckb>coa;",
"aEbcbqa-a)b^czcEclczcTczbQbmaQa4aZa^a(a%a8a8a=a=a(a8a(a4aZa:aSa*clcWc#c&c#c#c7c#c)c#c7c)c+c)c)cMceb6b0b<a~bYb7b?bIa.a?b2a;b[b?a1cob3a^baa{a[a|bqclcWcBb6a>cFc)c&c4cVckb<a-azaia>cVc$cBaEaGaBaqagbdbGb{a`aBaFawaoaCbWb#coazawaBawalarcucZcBa)awawawaqacbCcPcFbRaEaMaBazaibBckb?ceaGaXauagafa|bub;a?a9a`aEanaPbAbIb{asaeabbBcec+c)c+c#cpb6a*aFaibbcLcua]a,a,aOavaGb(b,cra!bca_aBadbub,ctb[aKa1aJajafb^c!cZbjaDaAaAaDakbgb>bMb`bbb0bLa_ayaOcscgcba/a2a!aManaDbdb{b3a!asaGalabbkb3b`a+aeadaubBcZc&c&c$c4cwb&bicIcncPc4c$c(c4cLcgbwctb3a|b>ckbYbWb!b9bZbIbVbPbPbIbDbeb&csbWbnbNbtcgcscuc5c$c4cWc5c)c(c$c$c#c&cUcfbxbEbJbEbxbxb5bGbJbJbEbEbEbrblblblbxb<cwcwcsb3b?c6bP",
"aCbcbka+a/bMb&b/bQbmb<bba8a4a4a8a:a(a8a4a(a8a[a=a.a(a(a8a.a.bmcnc7c#c7c#c#c3cuclcEc&c&c&c#cScVcfcnb.bka3a<bVbYbYbSb(b9bSa$b3b)aXcocia[baa^a^cfcPc&c)cKb/bKcPcWc0c8cVcsb&a(aAasbbc2c$cBaEaOaBaqala<bScobtawazatajaCbWbWcraBazaBatanatcucZcra)aBawawaoacbgcLcvbDaGaPaMazala*bwb)b{a&bnazaoasbGbNb{bobobtaLagaMb<cpb[ayatabbzb#cWc(c)c#cGb/a7aPalb6cPcAbsbnbga0axaGb(b?cqa>bRa/aFagbGb;ctb{aSaNaBahaib~cPcPbAaya0a`aMagbhb~b.b?bga_a/a`aCaGb(b{cxa9bta+avadaxa*cmb`aOasauaqabbkb^cka&acadanbmcPc3c8c$c3cUb$a:cjbvckc,c,c5clblbrb7cIb9a]bGbDb,bubZb2b3bZbVbPb2bxb/cscZcZb8bHb>bQcwcsczc%c(c(c$c4c$c(c&c)cUcvbEblb*chb+b#bEbab+bYbEbJbJbTb3b3b(bYb8b^cAcAcGcrb?b{c9bS",
"aEbcbka]aYa<bta!aQaQaQaTaZa4aTa}b4bFa^a4a8a8a8a(a8a.a8a.b/cncScSc3c#cVc3cScVc2cVcVc0c7c&c3c7cZcubUb>bea=a}bDbubAa<a-bkbka]b)b:aVb3cia:a[b}cFc$cVc7c)cUb/a>cBb}cucSc4cBb]aTaqafa>cWcOchaLaPaDarala~bNcqbyaqaoajabawbDbNcoaBaBaFawanaAcscAcha)awawazamacbscZcFbzaMaKaFawaha3bPb;b{aPa1aBaraoa^buccbjaIaMaqafa#cPcnb+ayaqaebOb>c2c$c8c7cBb/aJaqaib6cPcnbta~bza5aqaAbYb#ctaRa2a,aManbAb{cjb{a%aJazaoamb^cLcUbFaXa,a!aAabbbcecBckb1bOa\a&aGaGb(cicoa0aFawacabaja%b{chaAacaoazalb8cZcWa$acabalbmcncEc8c8cOb~bCa^b=b$cBc!cJb5bJbJb%c1c6bYbub;bDb,b9bkbDb2b!bTbxb6csc5cTcTcZb}cLcFb/cUb]czcZc4c(c4c$c)c)c5cAb#b9bJbxb6cBcncvb>b1cgcpb^b^cecgb:b8b]cwcvcJcOcJcBcwb=cqc*bI",
"aDa~a.aZa!bAb<bHa6a-bibta]a-a|bAa<a%a4a4a8a8a(a8a}a(bBb^cJcJcVc8c)c&c7c&c#c#c8c3c8c7c&c&c#c&cPcfa]b,b,a-a}a}bSa]bIa|a[a(a`b:b,a2bGb[b/cFc5cEcMcWc$c&cBb&a)cec7c$c2cVb~b_aYajafaXb4b*ccaOaPaFauarbdbucobyataxaqaeaubpb.cHaIaFaHaBaraxcgcFcra#aBaFaBaqafbOc!cOb3aUa1aFazafa3bIb,ccaHaPaBaoaoa}bNcobwaRaHaKapa>cZcAb#aEawanbOcec$c(c2cWcrb>atacafbzb~cxbNaDaHaqabazbSb(cDaXa+a+aMatbRcocHb{a%a4aKaqasb>cwcKbyaXaHaDazacbbcscpcpbhbWa`aOawaFb+crcyaCacadababanbpcmccanalamatavcgc5cTa,afabara>bUcSc(c5cEbjaKbHcGcLcLb;bPb2bTbTbEb{cYbYbqb#chb:bYbYb,bTbVb&cpc$c(c$c2c4c8cvcPcgb/c5cgbXcBclcFcZcvcLcFb,bNbTbTbJbrbrbrbxbJbTbxbwbwbTbEbxbxbQcecZcOcJcWcWcWcGcwb[b{c6bZ",
"aAa?a=aZaTa4aZaTa`bobnbsbta`btbNbya`a4a4a8a8a8a:a(a8b1b*b<b]b&b]cacacacacab]cab]b^b]b]b]b^b]bla<a:a{b=a|a^a.bpa<bVa~a=a<bob?b,a!bSb(b^cgcab<b6cgcgb]b;b4a\bYb6cab^b6b?b[aPahabaBa<bVb{aOaPaIaqaqbpbNctbpawaDawajaybYcecGaHaBazazaqatb<cGcHa)aFaJaFaqafbzcpcpb+a2a*aPawaea7bPb2b7aKaPaIaAana|b(cybya;bjaRalaUb^b~b#aEaAanb3ccb^cgb~caccb{awadaia]bYcybNaAaIaxanaDbGb7cDa&bua<aFanbRcrcyb?aZa%aHaqasbYcCcNbparaHaPawada9b,crcxa+a`a&aPauaBb+ctctaEaMaoababasb:cCcbaEavajatasb#cgcsa*ababaqa)cbcwcvcpcKb-aDbzcCcyb+b%b%b!b5b2b!cHcRbPbDb0b`b:b7b(b,bYbDb<ckcab]b^b&b^b~b^b~bObMceb<bobGb#b.cbb#b5bTbZbJbTb5bTblbxbJbJbJbTbZbwbDb!bTbJbxb8b~b^b&b<b<b^b^b*cecicyc*b2",
"aDa~a=aTaTaZaTaZaQaKaTaQaQaTbkbDa%aZa8a8a4a8a8a.a:a(a8aZaZaTaTa8a(a8a8a8a8a8a4a4aZa4a4a4a4a8a.a:a(a%b)bZa-a(bAbZbea]a6a|bRb(b:a!bYbGa{a.a.blbJa{a:a.b!b9a%bpa(a(a:a(b)ccaNarabazbdbSb{aOaPaFauambobGctbyazaFawahaxb7b`cHaJaMaJawaqaub+b+cIa2aMazawaqagbdb[cob{a!a-aMazaja$b2b[b\aIaFaAauaia|b9cQb#b#bta0araAbWb?b,aCaxaib)cib!b%b5bTcib|aAakaia;bSctbGauaDaIauaDb7cccIa$bpa*aBaebAcocDb;aYa3aPauanbAcxcRboaGa1aKazada0crc1cxa<aVaVaFaoazb.cCcqavatadababarbAcqcbauanamamagbwb9b!a~aGauarbdb9b!b\cdcIb%aBbwctcyb|b=b-b5b%bTbZcDcQbYbIb9bZb!b)bVbkbwbSa^bebaa.a:brbrbrbEbJbkbpbxbJbka<bEbTbEbTbJbTbJbJbJbTbJbJbTbJbJbJbJbxbEblbZbJbTbEbxbfbfbfbfbxbabTcdcycDcQc-bZ",
"aDa<aTaQaKaZaZaTaQaQaTaZaZaZbqbea=a7a8a8a4a(a.a(a.a(a.a8a8a4a8a.a.a:a.a(a.a8a8a8a:a.a(a4a:a%a.a.a.a.a}b=a*a-a^bPa]bDbobAbtchb,a!bDbja{a:a:a.bxblbla:b,b;a$bwa[a{baa[b9ccaJaqacawa-bPccaMaMaBauaja|bRctbtauaFazaraCb+chcRaVaFaFawaoatb(b#cDaLazazataqagbecocIb{aVa7aHazama*b!cicdazaBaIaCama^b3cNbWbWbFa5awaxb3b?b[axauagbYb;b7b7b[b)cqcqaAalaca6bAcqbjaoaRaPaxaIb?cocQa9bjaXawaba;cccIb+a%a-aNawalbIcCc1bdaXaBaBawabaXb,cCcCaNaAaJauacawb~cNccagalaMaBacasb?cNb.anauatacabbkb;b)a<anajaobdb3b!b{b=b|bxaSa=b=bJb\b=b=b%b2a[b=c6c9b9bAb2bGbVb)bIbpbdbubpbka|a^a}bDbTbJbwbwb3bSbwbZbPa|brb2bTbxbEbJbEbJbTbTbJbTbTbEbTbTbJbxbxbrb5bTbJbJbEbrbEbfbxbJb%cqcycDctcYc-b9",
"aCb7bSaRbja<a4aZaZaZaTaZaZaZbIbNa{aZa.bfaZa.a}a=a.a8a(a.a8a4a(a4a(a.a(a4a4a8a8a8a8a.a.a<bda-a(a.a(a:a(bPbPa|a}a}a<bwb+bRbtccb)aRbAbAbDa.a{a{brbfbaa[bPbZa<bua}bea{a^b;b{aHaqadatbdb7coaIaIaBaqala~bIctbGaDaMaBaqaCb+cbcHaVaPaJaBaoaqb#b?cDaOataAazaqaka|cicHb|a1a$aIawaha*b,cqctaBaFaIaDapbpb,cIbUb`b0aOavaGb7b?b?aEaAabbSb)bPbPb2b,cIcoaAalaca6bpcibkanaAaDasaPcbcCcQa&a|aVawaba~cmcDb,aJaSa6azapbYcRc6bFa;aVaPaFala6bub?cyaFaIatajabawb?cHb[a2aObRa`asavcccNb*aPboaSacabbqb[b;a$awaiaebdbpa|b{b=b-bVaVbeb|b!b%b%b%b!b5bxbVcRc6b9bqbVbIb2bNbubpbubpa|a}a}bqa}bwbEbJa]bkbSbDbwb2bTbIbEb2bTblbJbEbEbJbTbTbJbTbJbTbJbTbEblbDa=bZbJbEbEbrbxbfbxbTbEb|cob\cccdcDc*bI",
"aOb:b7a;bwbdaTaTaTaTaZaTaTaZbwbja.a4a%blbqa(a=a{a(a8a:a:a.a8a(a.a4a4a4a.a4a(a3aSa.bka=bGbwa6a8a{bDa.a:a{bVa=a-bqbAbubjbGbzcbb,aVb3bAa(a4a4a8a^baa^a(b{b2a-bua}bea{a=b;ciaHalabatbpbSb{aIaMaBaqala?bGcybRaIaPaHauaCb?chcCaPaKaJaBaqarb.cecDaUaFaFaHaqala]b[cIccaPaSaJaFaha!b9cycDawaFa0aUavbobWcmbobia~aOauaIb:chb:aGaAabb(ccbVbPbVb7cYcoaxakaba6bNcha^aGaVaIavaPcbcxcQa+bAa<aFalbycicRb;aHaSaJauaebIcxc6bGa;a*aVaqaea*beb)b{awaAajamabazb)cobYbNa`a5aVauayb?ctb:b#b?bGaGafbDb7a|aMaPaeaea<a-a6ccb|b,cdbDbDcdb2b-b%b5b2bTa{a^b(cQbYbpbVbkbAbGbpbdbtbjbubebea}a{bqbxbrbebDbGbubTb2bTbJbTb2b5b2bTbJbTb2bJbJbJbTbTbJbJbJbTbJbEa{b2bTbJbJbEa8a(bEb%b%b!b=b=b9b;cyc*bI",
"aVbMaKaJaNaTa7aSaZaZaZaZaZa4bqbda4a8a8a4a}a.a}a^a8a:a.a:a.a.a{baa[a[a[a(a(a(a%aYa%bka[a.a8a}bubVa{a.a[a.bqbwa7a<b7b7bycccccob{a;bIa]baa[a[a[baa{a{a(b=b3a6bea{bkbaa^b,ccaMalabatbjb3ccaIaHazaqara1bpb{btaPaXa$axayb`crcmaPaJaSaFataob+cmctaOawazazaqahbpckcHccauaHaFaBaoa!b[cDctazaNbba5aybob4cba$aAa&aIanaDb3chb7aOaxacbYb;bZbSb2b7ctcmaAaiaba+b(cma]aVa&aRasaPcbcxcQa\bSbdaMarbAcicIb,aNaNawaeaebkchcNbwa!a%a(aFana3a.a}bEakaqabababaBbSb{b?cbbUbbaFaiaDb,chbGb+b?byaMabbqb{bpaBa1alaja*bua|a!a&b{cDbdbuc6cdb-b%b5b5b2bla8bIc6bVa*b,a|bpbIbGbpbibpa<bjbDbrbkbqbwbxbubIbDbwbTbTbTbTb5b5b2b5bTbTbJbJbJbTbJbTbTbTb2bTbJbEbJa{bZbJbJbJbEbrbfbEbEbZb%b;bZb2cccYc-bP",
"a2b7a|aDaKa4a%aTaTa4aQaQaZa8a=a.aZa8a4aQa*bVa.a7a-a^bdbpbpbGbpbpa=a}a:a4a8a4a4a8a8a8a.a.bkb)baa}a(a.a:a:a=b2a6bIcocmb(b(b[cqcca!bka^babaa{a{babaa=bqcDbRaYbka}a}bea^b[cqaParadaqa;bpbVaDaHazataraVa+bSa+aMaPaSauayb:cxcraJaJaJawaoaob.cxcyaRaPaSaJatala~b>cBb[aDaNazataea9b)cycoawaFa_aLasbnb4cba$aua|aMaiaAb(b?b:aDaGasbNb,bVbVbVbPb{b{axalaia<bRcbbua&aDaDalaDb:cxcRa+bYbpaIarbLcycNb,aoatawabaea}bwb=bka1aFaPaNaraSb9b%bAauaPa+aLaiawbdb,bYbNbsa\aAaDaAbjb;bGb:b?boaOabbkbSa6aPa<agaobjcibpaOa]b[b\a1bAcQb%b5b%b%b5bTb-b;b:cNbPaqb9bPbIbPbVb2bta]a-a|bxbxbDbJbVbTbIbGbubIbIbTb2b!b!bZbTb2b2b2bTbTbTbZbZb2bTbTbJbJbEbxbEbabTbJbEbEbrbabJbEbEbJb5b=b=b)b!cqc9bS",
"a!bRa}aYaTaZaTaQaTaYaTaTaZa(a}a(a4a8a4a4a7bDbka*bibpbobjbybtbubda(a%a(a.a4a3aTa4a(a:a:a[a}a^a:a[a:a.a:a:a=bEbGb,cycmb:b+b?cqcia9bZbjbabfbaa{bfbla=a{cRb9aVbqa{bebfa=b[cqaHarabamaVa-bSaFaHaBauaoa!beb{bpaHaJazaoaqbNcbcoaBaFaFatajajb(cbcDaRaIaJaJataca&b8ckb,auaBawataba#b3ctcoaya2aLavasbib0chbjaAawawabawb4b3b)aCaGasbYb{bZbVbZbIb,b;auakaka~b4cmbdaraDaGagaAb#cxcIa!bGa<aBaebib`cDb)adaoaHacabbqb;cqbeaHazaHaSaqa1cjb)b\auaVa`aXamawa=bVb7bGb`b.bFaXataNa|beb.b`byaOacaPa*aPaIa~asaxbicib(a?bAbVb3aJbGb;a8b!b%b5b%b%brb,ctcDbYalbjb)bGbpbIb3bIbubkbjbqbqbwbGbPbZbYbSbdbAbZbZbVbVbZb9bZb9bZbZb5b2bTbEbTbTbTbTbTbTbJbJbJbqbTbJbEbEbxbxbJbEbJbTb2b-b,b\b,b,cRb9",
"a,bAbeaYaZaZaZaQaKaNaTaTaTaZa.a(a7a8a4a4aZa7b,a|btbibobpbubja|a|bja<a8a:a(a8aZaZa8a{a(a.a:a(a{a[a:a.a:a:a:a:bea-b[cmb`b:b[ctccaUb{bSa{babfa{bDcdbfa(ctb;aVbea^a}bkbab)b|aPawakaza$bdb;aJaJaBaxata&bGb{b(aNaPazaqazbVb{cya7aFaHawajaFb:cbcRbpaFaHaFatapbib*b>b[aHaBaBauaqbsb>ctcNaPaPaGauaCbobCb.b3aVawaoafaVbFbFb[a#aDasbYb,bIbPbVbDb,b;aEaEaCa~bFchb3auazazapaPb(chc6bqbda*aBaobpbVcjciawazaNatawbkb!cqb!aVaJatawaqaKa-a<b)aKaAaIaMaxaMbDbYcdbdbtb(bRaGaqa3a]b!b.b7btaUanaVbka^a+aMaCazbtbNa?bGbVbVaYarbScIbabJb2b5b5bTbra8cIc6b7axa$b,bAbGbTbZbIbubkbIbZbwbwbVbPbPbjbGbpbSbwbwbSbVbZbPbVbZb2bTbTbTa{bxbJbJbTb2bJbJbJbrbra7bTbJbJbEbEbEbxblbEbJb%bTbPb;b-bPb2b{",
"a1aVaKaTaZaTaTaTaQaQaTaTaTa4a.a=a(a%a-a-a(a%bGb3bdbdbibpbea|a:a.a=a=a=a^a.a(a(a.a{a:a(a.a.a.a.a.a{a.a:a(a(a:bebfbFcib?b#b(cbb[aVcmb`a(babababfbfbaa[bIbwa$bDa]a7a|bkb9b)aPa|a&a*a-a~bGa]bSbAbubjbpbAbYb(b3b3bPbSbSb,b?ccb?b:cichb+b?chcbcmcCchb_b+b.b8b.b*b*b`ccb>b#b*b8b*b.b.crcbb+bWbLbCb0b0bHb7b+b3b3b4b(b#b#b.b(bCaOb(cyb9bubwbIcib,a/b4bLbCbLbWb`ccb{b;bWb?b+b:cycIctcycob[b?b(b7bSbZb;b{ctbZbwbrbrbVbwa-cibEa3aYa%a}a{bGbVbFb`b4bUb(bMb`cmcbbMa1aYa$a^a-a-bjbebIb7bwbIb,bwbGa1a&axbdb:bGb7b;b=bDaHbAcYctcicycIcQctb\cccQc6b)aIaDb7bSbAb2b2bwbubDbVbAbGbIbwbVb!bVbwbtbybwbSbVbTbZbZbZbJbJbTbTbTbrbrblbxbJbEbxbfblbabDa]bEbEbEbEbrbEbxbfbxbEbEbJbPb|b,bIb)b!",
"aGbjaNaQaQaTaQaTaTaZaQaZa4a8a7a.a-a$a\a/a*a-a<b)bua+a]bda^a<a.a.a|bka-a<aKa%a.a7a:a.a.a:a.a(a(a(a.a:a[a:a:a:a.a{a<b2b?b#b#b+bNaVbSbAa}a^a{a{bfbabaa[bPbDa1b)bwa-b,a|bIb9aHa1a<a;a?a`bAbybNbybebNbka]bPbIbPbZbVbPbPb9b;b?b(b#b:chcmchchchckcrcpcpcpceb>b.b*b>b*b>b*b8b.b>b8b*b>b8b*b*b1bUbOb1b8b8b*b8b#b>b>b>b*b.b.b*bLaLbYcma<bPb{beb{b?a;bnbnbnbtbMb4b7b#b:b?cbb{b?b(chcxcCcrcbccb`b(b7b;bja4a=a(bxbJbrbqbeaNa=aYaSa.a{bka=bAb)cbcmb.b*b.bRb8b.b?bnaPa}a^a-a-a1a}bZbYbIb7b{b;bVbPbDa6awaVbka~aLaXbMcjbea]b,cccYc*cIcIc6c6c6cQc6b%aIaRb{bSbVbZbPbpbdbubSb3bqbubVb!bZbVbVbjbGb2bZbJb2b!b5b5bTbTb2b5b5bTbJbTb2bTbJbEbEbDa^bwa^bEbxbEbJbEbxbJbEbEbEbEbxbxbJbDbrcib;",
"aRb(aJaHaHaNaNaQaQaTaTaTaTa4a(a(a-a$a*a$a(a(a<a<bdbja=a(a(a(a(a8a|beaVboaSa<a(a4a.a(a:a:a8a:babkblbka{a8a:a:a.a[bScicbbWbRb?b7aMa=a^baa}a{a[bIbPa{a[b9bDa1bIb2bwbwbAbVbPaxa1bda?a]bobWbybia`a?bjbGbDbPbDbAbPbNbIb9b!b)bYb4bMb4b.cececkckceb_b>b>b_b>b8b*b<b*b~b~b.bUb8b<b>b_b<b*b*b*bUbObUbUbvb1b*b8b8b.b^ceb~ckb~b8bsaLbYb:bub3b)bSb,b:a9bobnbsbibybRbRbLbRb#b:b[b3b4b+b_b`b#b:b`cbchcrb{btb7bAbebka}bDa=a-a|bea-a%a{a}aSa%bja|b.cbb>b*b>b*b(b0bFa;awaNa]a6a6a!bdbNbNbAbub)bPbubjbIa6aDaVbjbFa?bNcqcDbDbdctbJbTb!b-b|cjcDcQc6cYbPaAaVb{bSbYb2bVbia2a`bYb{bVbPbVbPbubSbSbdbVb2b2bTb5b5b5b2b5b5bTb2b2b5bJbTb5bTbZb2bEa:bqbTbDa{a7bEbxbEbxbEbEblbEbJbxbrbfbkb2b;b9",
"aXbtaHaHaHaNaJaKa<a3aNaQaQaTa8a(a4a7aZa8a%aZaDa*a}a}a(a8a4a%a(a8a%a(a|a<a8a(aZaZa8a.bkbDbIbwbla^baa.a:a.a:a:a(a.bGcqcbb8b4b+b)aMbubqbfa}baa:babfa[a:b,bqaSbja(bwbqa^b-b[aqafaraJbjbAbGaramaoamaAbqbubIaJajaqaraqa+b;b`b`aAarauawaxa,ckchb`aUaoauararaybob>b>b8ayayasavaybHb>b`b#ararararaCbMb*b>a,asauaqavbocxcrb8aCapaeb#cmb?b?bSbAb{b[aualava~bnb(byasauarara6b+b?ciaAajahamatbFcicobNawawatauaHbPb[b{a%acaoaraqaqaKaSa<bwaAaqauasaraPb3b#b7aAababadabaHbebda1auauaqaqaqa-bSb3a3aeadarbdbWa?aRa?cccRb=bub[bZb2b5b2b%b%b=bTcqc6bEaraRcobYbNbSbPboa;a?bNbVb9bPbIbPbVbZbSbNbVbIbVbVbVb2b%b2b2bTb2b5bTbTbJbTb2bTbTaQaZaNaAazbebrbJbEbxbxbEbEbEbxbEbEa4a=brbkcycibZ",
"aUb+ccaRawaJaJaSbea$aQaZaTaTa4a4a4aZaZa8a3aZa<bea=bwa.a^a=bka(a.a3aSaZa8a%a8a<a}bDbea^a}a:a.a8a:a(a(a:a[a[a:a[a(a^ccchb#b4b+b7aPbAbNa{bea{a[a[a[a[a(b=bZaVa}a^baa^a}bZb;awababawbubSb;aiajaeababa|bdb,aHacahaeabaMb+cocmaoamaoajabawchchcoaDacajamacafbcb_cebMaiamafaiafa/b#cob`afararafaibib#cha6aiarajacaVcxcrbUaiacabb#cRcNbSbAbActchamacafa?bzcrbeacaeababazb7b?cqacajaoaeabbGcccIb7ajauaxanarbkcqcDa6aiaqacababa1bebwbVaraqarauaeawbpbDb;auahamaeabaubdbqa<atauamajaba<b)b[a7ababatb3cqb[b;bVb;b|b7a|b9bEb2b5b5b5b5bTbJbIcYb3aua2cobYbybNbGbca\bobMbIb7bIbGbVb9b,b%b3bzbobobca~bIbIbZb5bJbJb2bTbrbJb5bTb5bTaJaNa<aJanaVbJbTa{brbEbxbJbxbxbEbxbrbwbDa{blbPbk",
"a0b[cya,ajawa$a]aJaQaYa4aZa7a8a(a8aZa4aZaTa8a:a.a-a=bka^a=a.a%a(a-a^bpa|bubpbda^a(a(a4a(a.a.a.a.a(a(a8a[a[a.a8a(a(b;crb4bLb3b7aFbAbAa^a}a{a{a}a^a:a.b[b\a1bqa=bebka}b9b\azamacawbjbVb{araualababa*bucqa&aBaDatamaGb[cHcoaIaPaIaxakaqcbcbcbaMawawazaqaia~cpcxbWaCaDaxaraca#b_cocbaLaPaAaoapbRb_cha,a!aVaAapaXcCcebyasajacb4cYcCbSb3bYccb`aoarapa~bWcHbqakaeaeacaDb+b`ctafaxazaqaebYcicIb,aAaMaGauata3b)cIbna/a2avauaoaJbkbVb)aya,a!aGaratbkbDb,a+a,aXarabaMbobpa<a+a&aBauaba$bPb3aSacabatb9cQcIcDcjb|cdbZa$b9blbEb5b2b5b2bJbrbPc6b2aAaIb,bYbAbMbFa?a~btbtbpbNb3bYbZb)b-b-b+a]bMbLbcb4b2bVb2b2brbxb2bTbJbTb5bTbJbraKaVa6auaPa}bJbTbEbxbEbJbEbfbxbEbEbrbfbfa}a^bIa^",
"aVaMa~b(bFb.bdaRaKa3a6aPa3a%a7a(a4a3a(a4aZaZa(a8a=a-bPa-a%a(a|a<a-a<a}a|a<a.a%a7a4a8a8a8a4a(a.a.a.a(a.a[a:a.a(a(a%b\b`b#b0bzbSaMbjbjblbea{a(a%a}a{a:bJbPa1bAa}a=bwbeb7b=aDalabaub+cib?aOaDapababa<bDcqa&aIaIazanaOcccycCaVa2aPaDanaub>b`coaUazazaFatapbickcNb#aOaOaGaAaba5b4cpcba_a/aPavakbFb_cha,bca,aLapaXcHcrbUayayacb#cRb`b:b)b(b3b)apavapa?bMb:boaOaIapabaAb#cbcyavaHaBaqafbAcccIb+aFauataoarbDbucQb1b*bgaCaBaqaHbqchcca/a`auaraoaqa}bwb9a!bLa#auaiaIbobNbGbibFaVavaba}bYbMaSaqacatbGcqcycjcjcdctb!bAcibwbZb!bTbEbTbJa.aYcDbVaFaAbpbSbybMbMa?a!a,a;bFb3bYbAbIb,b%b-b;b,b,b3bFbCa;bMb2b2b2bZbTb5bTbJbrbxbTbJa(aAaiawa3bJbTbJbJbEbEbEbaaYa8bEbrbrbxbEbrbabDbk",
"aRa;awazaHa1aFaKaNaZa%aNawawaNa*a%a-a(a%a%aYa7a(a}a.bdbPa-a<a=a7a%a%a-a%a=a*a8a8a=bea.a(a8a(a.a.a(a.a:a.a.a.a(a(a-b[b*bhbsbhbMaMbNbwa{baa}a3a(bkbaa[bIbwa]bGbka<bkbkb9b;aFaoabawbpb)b,aAauakabaja]bGcqa1aMaXaDanaOccctcoaPaPa1aDaualb#crcNaUaHaMaMawapbtckcNb(a0a2aRaGala5bUckchbhbsa2avapbob.cmbHbUa_avadaRcxcpb0aEaAaeb#cNb)bRb3b,ccb[aragaibtb_cebza9a0apabaAb:crcHa0bCa/axakbMcbcIb;awataqarasb{cocRb1b*aXaAazaoa&b[chchbpaLaqaJaraqbjbwb+a9bnaLasacaMbjbNbSa\boaXapaba<b)b(aSauabaubob0bRchcqb=cdb)bVctb!b|b-b5bTbEb2a^b)cQbSa1aDa~b(bFbGbta?a;bca~bGbSbSbNbZbZb7bDbZb%b,bGb3b3bLaUbIb2bTbTbTbTbTbEaJbabEa=bqbDbabJbJblbJbEbJbEbEa.axaNaFa$brbrblbfb5bDb;b,",
"aRa~azawaBaFaFaKaSaTa7a4a1a1a?a!aSa*a$a6a3a%a%a(a|bda*bVa}a$a4a7a7a7a(a=a.a%a8a(a(a.a.a(a8a(a:a.a8a.a:a.a.a:a(a(a.a}b>b*bsbHb7aMbubka{a[a^a8a(a}a[a:bVbDa]bNa-a<bqbeb2b;aJanabawa$bVb[ara/aEaiaja]bGcqa1aVaMauajaIccctctaIaPaVaDaranb.crcRa2a2a2aPaxapbycHc1b.aUa,a0aFapa5bMckb`bsbCa0ayasbob#cxbCbHa/aCaba2cBckb#aCauadb:cmbwbIbIbVchb{aralaba`b>cNbUbhbCaEacazb+cqcNa_bva5aqalbob?cYb9aBazaqaoanb[cRc6b4a&aBaFaFaqa!coctccaHaKaSazaqaqbNbYcca2bgaWauacaGbSb(b#a!bca6asaba$bybGa*axaoaub+cHb0bcboa/b9b[bDcyb2bEbEbTbTcdcIb=b)cybIaVa!cNb3b3bNbybGbybibca`btb3bYbSbSb7bIb2b7b9bVb!b!b7bMa,bibIbZbqbkbTbTbEbTa^a7bEbTbJbTbJblbxbEbEbEa=aFaBaMa<a1brbra{babPbZcib2",
"a2bNa~biaNaDaJaBaFa7a%a7a1a*a`boa9aRa*a*a7a%a%a7a-a.a*a<a-a%a%a%a%a%a%a(a%a%aYaZa%a8a(a(a8a(a.a.a(a(a.a.a(a.a8a(a.a(bUb_b8b1b4aHbebea.a:a[a[a:a{a[a:bIbqa<bGa^a}bka^b9cdaAakabataYbPb;aDa_aWalafa-bDcqa6aVaIawalaIb;cjcIaGaPaMazarakb>crcIa/a&a9a2aEasbzcCcXb#a_bna#aIasa/b8crb`bgbza9aCasbzb+cCbCbgbnaWafa6cxcxb.alajacb(b{bGbIbPbPccb[aragaba]b.cxbta)bUaWadaAb:crcHaCa9aOavanbib?cDbAaBaBaqamaeb9cDc1bPaJaKaHaNawaXb{cob{aJaZaYaBauaub:cbb[a0a/a/avabaEb3b#b4a/bgaRasaba-bAb3a-aBaqaqb`cHb`crcmbLbDbVaub=cDbTb2b2b2b\cDb5bIcdbyaMbAb{bybNbFbIb3bYbSbybAbYbYbMa_bcbNb7bVbYbVb)b5b2b2bVbWa~a_bga!a|b5b5b2bZbZbxbJbTbEbEbxbJbxa=bka}a*a1a7aNaFaYbrbla{blbea=ctbP",
"a!boa6aGaBaJaKaTaZaZa%a%a$a-a<a?aRa_a+a+a(a-a(a*a-a}a-a-bwa*a%a%a%a.a<aVa7a.aYa7a(a.a.a.a(a.a.a(a.a(a(a:a.a.a8a(a.a=a]bMbUb4bSaVbqa}a[a^a.a[a{a[a.a.bIbqa-bAa=bebea}b3b{aBaoadata%bIb)aRa_aLagagbdbDcia6aVaPazanaIb;cicDaIaMaPaGaoakb?crcYa9aRbia\aGasbocrcNb.bsbsa>aPava/b4crchbsbMa_aCavbzb:cCboa,a&avapa!cCcxb.asamabbYbWbDbIb7bZb3b(aqaeaebjb(cCbiaCbFaLacaDb7ccctbgbUa/ayala\bYcta`aFaFazatanb3cDc6bDa$a(a1aKaqaVb,cyccaKa(a7aNaxazcbcNcma#a_a/axacaEb)cbb+a_bhaUapacaSa;b3a<aFabaob3cib?crcmcbbIbAaFapcycYb-b!b5bTb\b-cDcRbVaxbGctbyb3b3bGbNbFbYb3bYbYbybsb3bVb,b!bIbwbIb2bSbPbWbybbbCbybzbSbVbDbVbSbAa|bdbEbJbEbJbEbEbkaSaVaYa*aPaKaNaNa$a^a%a{bfbkb\cQb3",
"a0bWaYaBaFaTaTaTaYaZa7a%a<a*a\a;aOa_a`a?a?a&a1aFaPbubAa+bSbuaVa7a<aPaHaBaKa<a(a(a.a.a(a(a.a:a.a.a.a.a(a.a(a8a(a.a(a.a.a(a-a^bSa&bVbda(a.a.a(a[a[a:a:bPbDa6bebebka^a^b3b|aDaqahata$bIb:aVa/aEalagbebIcca3aXaPaAanaIb,b{cyaGaPaPaDaragb#cmcYbna_bsa?aEana~ckcHb_a#bHbvaLapa9bRcocmbLb0a\aCavbib(cybUbobgaWauaRcpcrb3asaiabb:bYbubIbIbPbRbWawadaga<b4cHbdavbCa#abazbYcccmbUb`bhaAaia_b?cibFaHaKawawaqbZcycYbNa*a8aSaHajaPb[ctciaJa4a8aYaFaxcpc6cxaOa5a0axaiayb+cNctbvbzaXasagaVa<bGa*a*atanb4crb?ceb?b+bNbNazacbTctb5b%b5b2bra:cDc6bTanbAccbyb(byaGbibWbSbYbNbIb9b7b!b!b2b9b2bIbTbZbubPbUa`bvbCbsbCbybtbAbGbGbAbdbPbJbEbxbxbIbaa]bea}a<aHaJaPaBaSa1aNaPa=bkbfb5ctbd",
"aPa*aHaFaFaNaQaQaSa3a3aYa1a&a;a&ayaUa\a+aVaAanaFaGaMa*a]a~bNaPahaFa]a<bka7a7a7a8a.a(a(a8a:a:a:a:a.a(a.a.a.aZa8a:a%a%a(a=a=a}bVaFbwbka.a.a:a:a:a{a[a8bDbPaYa=a=a.a.a(b;cqaFanaeaqaYbIb+a/bsaEagaga=bIcqa*aIaVaAalaDb2b,cyaFaPaOaEaqasbWb`cHbtb1bHa+aGaka?cCcHchbObQbva#asa!bNcmchbHb0a,aCasa~b3cxbRb8bta0apaIcmceb(apahajbSbGbkbkbDbqccccatalaba$bGcqbiaGa/a0afaAbSb)chbFb(aWataea\b#b{bSaFaFawataqbSb{cYbGa3a7aKaFahaPb[ctciaKa8a8aQaBawchc1cCaGaEa?aOakaEb+cCctbhbLa?ayalaPa!bpa$aPatalbRb[b>cmb`b:b{b,auaJcjbTb2b5b5bTbZcycIc6bEbAb;bYbtb9b7bNbGbGbGbGbpbpbwbZbZbDbubPbTbIbTbPbPbTbPbIbRbLa_bha>a/a_a_a\btbPbVbJbDbDbIbEbwbwbPbkaJaHaNaoaqaraPa1a%aPa^bla:b{bV",
"aOboa*aIaBaKaZa3aSaKaNaPaFauagagabalaXasabaBa9a2a&a?a?a`a+bYbuarabaBa<a=a=a%a(a.a.aZa.a.a:a.a.a(a:a(a.a:a[a:a8a.a3a7a.a^a}beb9aDbqbua[a{a{a[a{a{a:a(bkbwaYa=a=a.a^a.b;cjazaladawa-b,b{a0a_ayapala<bIcqa~aVaXazagaBbIbPctaMaPa2aDaqaoa<bkcqa6a?bta&aGapa`b+cCb`bga>a5a#aya;bNchcbbHbOa;aCasa|b7cybFbWboaOapaIb_b`b+asamambkbwa]a=a}a=b)cjauadaba$bRcoa`aRa!aLacaBb3b7b=alaxauaoada,bYcobVaBawawataubwb3cYbNaSaKaFazahaPcccDciaSa8a7aKazatcbcRcDaGaLa`a2apaUcbcxcCa`bna~aCalaIa!a?aVaBaqaobzb`b?b>b`b`b,bYaha3cDb5b2b5b5b2bTbTb-cjbGb;b)a;a~b#b9bYbNbSbSbybpbSbdbYb2bPbJbPbTbDbDbIbPb2bZbTbIbwbtbobgbhbsbgaObsbPbVbPbPbDa*bDbwa(a$aSaSa1azamaoaqaBa-a-aIa$a^a[b\b7",
"aXb3b+bcaBaTaZaYaJaYa3a7a3aoaeamacauaXaCaraua,bibybibda~a<bpbYa-aHaeamahaHa^a8a=a.a(a.a(a(a.a.a(a8a:a.a:a.a(a8a.a(a(a(a^bqbqb7aFa=a=a^a:a{a{a{a[a:a(bPb2a6a<a:a:a.a%b9ciaBafaeaBaPb,b{aoazazajaja`b(ctbjaVaMawadaDbja;cya!a!aXazaoaoa;bNcqaPaNaSa!aEasbdb4cocha>bbbha#aya&bNcbb`bvbva#ayasbdb7ctbCbRa\aLapaGb.b_b3ayagaebebIbebDbVbIbYb{aqacaba6b4cobjaoamadabaBb3b3b,akajadaeaea!bicibVatawaBataubja,cybYa1aPaBaFalaJb=ctctaSaZa1aJataqb[cNcDaIaXa&a+asa5cbcCcxbybLbjauaeaMa1a|aNazajajbychb`b>cbb`b7bdauacaKb|b2b5b5b5bxaTa-aRa6b)b[bubibSbYbNbjbSbya,bSb3bPbIbVbZbTbVbPbEbea|a=bTbTbEbEbJbEbwbDbIbVbVbpbubZbIbIbwbja<a6a6azaqaHataNaAazauaraxaDaPaPa!a%a<b,bV",
"aRbpaFawaKaZaZaTaTa4a7a8a3atamaqabamaDayaGaAaxa1aXa;a+a`a?a;bSa~a<aKaoawawa7a4a.a(a8a:a.a8a(a:a:a.a:a:a:a(a8a(a.a.a.a.a<a}bebVaMbkbebIbaa}a[a[a[a[a8bwbDaYa(a8a.a=a(bZccaPababawaVbkb-aNaQaFajaha`b3b3a!aKaFatacaubpbdb;a1a1aHaxaoaoa<a]bqaIaFaJa&aLasbib:cCcbbOa)bHaUasa2bAcmccbhbba0ayarbdb3cibCbHa+aLapaIb8b#b7apababbebPbrbrb9cIb,b7atabada1bFcobeauawajabawbGbNb)alataqajada!aMccbDaEa?a;avarbjaxccb3a+aSaFaHalaMb\cyctaNa3a3aFaqaqb?cocyaIaGaMaIasaOb?crcoa_bWa]avaga1boa+aJaxadahbzccchcechcbccb7a!aPaobZb5bTb%b5bEbxbda+a]bubVbIbobSbYbNbGbSbYbnbDbVbPbIbebkbVbPbEbIbkbqbIbJbEbEbEbEbxbEbEbEbrblbrbrbqbDbIbkbkbDaFaNaqaza$ajaNaFadazaAauaxaCaHaMa%a=b,bV",
"aGbNbkakaKa8aZa4a7aZaZa4a$a3aMaDaeaeaGaGaOa;aPauaGa2a;a;a-aua]a-aFataSa<a=bDa^a.a(a(a.a(a8a.a:a.a:a(a(a:a(a.a8a:a=a=a<a.bpbubZaPa}a|bfa[a:a:a{a:a^a%b{bIaKa-a7a7a.a(bSb{aKacabawa&a?bwa%a8aFajada$a&a*aDaNazaqaeaDbjbRb[aKaPazatahahaFaPbIaHawaFaGaGasa2bRcmb_b_b&bBaMasaXbAcbchbhbba0ayasa|bSccbvbCa_aLapaGbUb4bYaladaebebIbqa}a|cDcybYazadaeaVbdcca]aqazatacawbdbubVaraFazamabaMaMcobGaLbFa&asaoa1asb3b3a/aAauaFana2b3cycma9a-a1aMatawb7cbcqaIasaDazapaEbYb#cba`bCbAaEalaVa!aMaFataeabbnb#b*b.b`b#cbb;a\a;atbxb2bTbTbTbJbTbxbPbka*bSbpa~bFbYbSbFbybubAbqbIbDbDbDbwbEbDbEbDa^bebIbEbEbxbxbEbrbrbEbxbrbrbrbxbkbubwbwbka$aYaPaFahahaBa3aralarauaxaDaVa<a6a8a-b,bP",
"aMa]a3aNaQaTaZaZa7a7a8a4a3a3a*aMabama0a`a/bgbWbWboa`a+a-a1azazazaua<bubea1aPaKa(a.a(a4a(a8a.a(a8a(a8aZa8a.a:a.a(a%a6a+a*a|a|bVaAaAa-bDbVbla=a=b2a(a=b!bwaPa=a(a7a=a%bwb\aPacabaBa~a&a=a3a4aFamadaMbobdaDaTaFatamaIbFbRbYaHazawaqadada,bNccaHawaNaCaxapa!b4b:b*b.b6bvaWava!bdb+cba>bha0aCasa]bMccbbbha>aCapaGbzbLbNaiaeaha=bwa{a^a%b\cobPazaeabaFa-bSa3azaBaoacaua|bpbPauaKazaoaba/bFcibNaAaVa2aCaoaFaybGbiaRawazazaja6a$b)ccaAaPaKaFasaxb3b[b[aDaearawalaubjbRb:bObWbNaOala1a;aDawaqamabbcb+b~b_b>bRb3bYa;a9awbTb2bJa4aTbTb2bJbJa-aMbNbtbAbYb7bAbobobpbDbwbIbPbPbPbPbea=bDbra^bwbrbwblblbrbrblbrbEbrbxbrbwbxbubAbwbIa^azaraFaFaBaSa$a%aralataDaAaIaIaPa1a(a{bVbw",
"aFbGaNaSaYa8a7a3a4aZa7a(a$a6a-aVatamaDa&bibobobzboa;a1aBaqaqaBawaPbwbSbuaSaBaBaSaSa(a%a.a7a.a(a(a8a(a.a.a%aKa(a(a+a2a;a+bRa+bAaAaoaPbebVbEa(a-bVa:babDa}aVa=a.a(a=a%bGb{aPafabazbia`a(a%aZaHaqadaHa]buaAaNaJatamaPbtbNbWaFawawaqacambobFb{aPaUbza/ayasa+bob+b4aEaLaWaOava,btbSbFa>a_a#ayasa<bFb;a>a/a/aCaiazbFbRbNafadaea^bka[a^a}brcyccawadacaBa1bpa3aBaBaqacaqa]bubVawaBawaoacbcb4cbbGauazaFauaraFaRb{beaPaKaFaFamaPaVbSb(azaVaVaBauaxbFb3bYaDawaragaeavbdbCbWb.b:bFaRaka1bAbdaBawaoabbnb:b_b.b_b.b{b7aFaAbxb5bTbEa{bxbJbEbxbla-a6bubkbyb3bYbSbAa~bkbIbDbDbVbPbPbqa}bebwbfa-bDbDblbkbkbfblbrblbrbxbrbrbGbubobibAbNbwaPaKaSaVa$bGbAbkaHaraoazaFaVaPaNa1a1aJbIbA",
"aDb7bVaPaQa(a7aZaZaZa3a^a*a6a7a7a*a*a`bobzbna\a~a~boa^aFaka]bGa|bobSb7a~a<a^a.a6aNa1a%a3bea.a(a.a(aNaSa%a7aKa$a<a2a~aIaybda+a1aDbjbqbaa}a:a.a%a7a[a.b2bAaJa=a<a=a%a.bGb;a$asabaAa&a&a(aKaKaFaqadaVbobGaxaJaFaqajaDbyb7b?aBaBazatacaha+a<b:a&bsbha,asafa6a?b)b4avaLa5aWapaVbjbRbNbba/aEasala1bib9bcaWaUavabaAbnbybIaiababa}a}a=a^a{a}bqb{awadabaBaPbjaNaqazaqacara*bdbIarawazamacbcbWb:bFaoatawaragaMa+b;bdaHaJaBawadaFaAa|buaMaVaIaxaoaoa&bGbSaDaIawababaGbta`bob_b*bpaLabaPa*bjaJazaoabbgb>b*b0b8b*b?bFarbZb%bxbJbJbTbEbEbxbEbJbja-bubpa?bNbSbNbGbjbqbDbwa}bIbPbIbebka^bka}a^brbrbrbrbrbxbEbDbxbxbxbxbrbDbubybsbGbGbua1aHazauaVbtboaDawawawauazaGaIa1a%a7aFbGbq",
"aybYcoaVaNaZa4aZaZaZaZaZaZaZa7a%a-a<a`a?bca#aXa\a<a|a<a;a2bpbRbMbSbRbtbya|a1aSa$aMa*a3a7a=a.a(a4a%aFaNaKa%a%a6a1a`a;a/a+bLbMaVaDa]bAbqa}aJaMa3a<a(a7bPbuaBa-a!a-bua+bjb)b3a!aXaXa9aXa*aSazaBaqata9a!a,a*aFaFatamaIa?a\a;a`boaSaDawaFa&a~b3a&a0a#aMayaqa6bibNb?bha)aUaDasaPa6a?b)a_a5aIavasaVa+bNbya0aGaCauaMa;a!a-auajaHbea^a]a<a-a$bqb;bwaFaraBaFa1aPamaqazaraAaKaMbjaKawaBataraXa~bGbYaFaDaDauaxa!aPbibpaMaSaIauaoaBara-b;a2aPaMaDalawaVa!bGaPaMaIaAawa9a`a2aXbobMbtaOaraVa!a<a7aIaBa!b`b4bsbhbsa_bFboaqbeb-bJbTbTbJbEbrbra^bwbjaDa1bGa|bjbRbSbpbdbrbxbqa-bIbwbkbebea|a}a=bqbIbwbEbPbEbIbJbIbPb2bTbEbxbIbDbnbnbFbtbia*aVaBauaraUaLaDaPauauaxaxaDaGaFaMa7aMb{bS",
"aybYcya?aHa4a8a7a4aZaZa4a7aYa7a8a-a-a&a?bia;a&a,a|a|a|a<a~bpbybSbMbybpbua*bubja$a^a-a3a(a(a^a7bqa}a=bqbea%a%a|a-bca_a_bUbCb#bMaDaMa+aFa$aVaIaKa6a=a.bPbeaBa$bia`bta+bja|b9b{bGbobua~a~bda}a%a$a~bpa]a&btbGbja~a?bja|a|bjbubSbWbSbGbpa|bea<a|bpa-bGbububpbGbGb3b:b3bYbubwbpbpbpbNbYbGbGbNbIbububobGa|bjbAbja;a-a*a$a1a%bwa^a<bAa~a~a&a}a}b;ccbDa|a<a=bjbubwbubpbpa|bdbdbAbNbGbGbAbua*bdbVbYbMbSbRb3bubdbAbGbNbYb9bGbNb3bubwb)b9b7bIa<a?a-a!aVaRaRaVa?bda;aXaXaVaVaPa1a$a*aVa6bdbda]a+bRcqb_a_a;aVaXaMa*bjaqa6b=bTbJbJbJbEbEbJb7bYbuala6bYbobobAbtbebdbwbDbwa^bDbububYbea|bqbxbwbJbIbwbwbIbxbDblblbrbxbEbxbubIbUbybFbtbGbpbobAaLaEaEayaGaPauagaxaBaxaAaFaPaNaHbDbk",
"aybWcia$aHa4a4aZaZaTaZa4a%aYaZa7a$a<a]a<a`a~bybna+bobpa!azbpbybobtbGbNa<a%a%a.a.a%a=a^a.a%a.a(a.a.a^bea{a.a%a?bpbCbgbsbgbUb.bAaDa;aDakaVbfbka=a%a^a^bIbeaAaSa<aYaVa6a-a-a-a}bIbIbIbIbwbwccbVa]b9b,bIa^bIctb9bVbSbZbSbPbka=bqbNb9b7b{cib(bDbSb:ccb;bubNctcic6cibDbSbPbPb)b)b[b[b)b;b{cccocdb[b;b7bVbSbYb,b[bSbxbfa}bfbqa}a{a{bkbqbkbea}a=a.brbPbPbPbZbVbZccb2bVbVbZb,b2bVcib;b2b9b)bPb9cdb,b)b,b9b,b)b9b,b9b7bVb{cqcIcIc6cyb|b;b\b2a1a1bjb(a`bLbCbsb8bWbga_a_a+a_a,a!a/bzbCbgbCbsbCbCb0b_b(bga&a|bYbya?a]aubVb5bEa{bJbxbEbJa{a$bNbqawa?bAbSa~a;bibdbjbqbDbDa<bqbubkbjbkbpbkbEbDbJbPbDbDbpbkbwbwbwblbEbxbxbGbDbsbFbFa`bpaDaGasavaGaEaCavaEa-aVaPauauazaIaFa1aYbDbq",
"aCbScobta|a}a(a8a7bea.a*a(aZa%a=a-a<a]a|bibcbobcaxa~bta~a;a?bFbNbMbGbubNa=a-a^a=a-bebqa3a8a7a(a.a%a(a(a(a(a8a;a|bnbgbza\b8cmbMaCaFaDamaBa7a=baa=a^a=bIbqaAaNa-a6a3a$a]a^a<a|a^a=a=a.a-a^a^a.a]a=a.bkbea=a=a=a<a(a3a*a%a3a3aYa*a]a|bda|a|a<a<bub)b3a=bdbIbScob5a-a^a=a}bebebkbebkbjbebkbjbubAbubqbubea}a-a|bVbIa^a^bfbaa[bebqbqa}bea^a}bebea{a^a=a=a[a=a.a.a}a^a}a}a}bqbqa{a=a}bkbkbqbwbubdbebja}bubwbAbNbwbpbqa-bkbPa=bla^bebGbIbubda|b7ccbnbvbObUb1b*bObsbLa/a_bCbLb0b.b_b0bsbga_a9bna_bnbna!bFb,bobdbuawb9bwa|bebla:a{aSa|bjbFbdaAaza1bja?bjbGbNbpbdbkbqa]bIbDbDbDbDbwbxbEbwbDbJbDbZbVbPbqbqbwbDbIbEbxbkbDbsbObMbcbiboa`aCaCaCaEaEavapaFa$azaVawaFaAaHa1aBccb;",
"aCbScxcra=a%a7a8a<a^a%a=a(a7a%a-a-a-a-a|a;a<bpa&acaDbtbMbGbobobibRb7bGbybAbGbea]bka6a$bqbwa-a(a^a8a.a{a.a=a.a\bFbiaObiboa/b:bYaDawaFaYaYa%a.baa{a:a:bIbeaAaMaFaIa6a6a3a*a<a]a.a=a<a(a(a(a^a}a}a%a3a(a%a%a(a^a%bebqa7a=a3aJaNa%a7a-a.a<a(a]bdbua|a}a}bebwbqa=bkbwa}a^a{a}a}a{bkbkbkbebebebpbkbjbkbea^bea}a^a=a}bebabaa}a^a=bebea}a}bea}a=bebkbaa^bqblbkbebaa}a}bebebkbfbebabaa}a}a}bebwblbebkbqbebkbDbGbIbGbqbebVbZa^a^a%a%a(a*bqcbchbYbobMb4bza_bHb*b.b8b8b8b*b0bOb8bHb1b*bHbia/bna~a\bibRa;a,a`bGa?bNb,axbIa$a1aYa=bxbqaMa&bAb+bdbjb,a]bjbAbAbYb3bGbSb7bPbubZbSbDbwbqbDbDbDbwbrbDbqbrbwblblbkblbfblbrbxbDbwbUbLbCaCaCa?bya\ayaEaEaEaLavapazawauaPaPaFaMaFaub{b)",
"aEbYcmbRa}a%a7a4a%a7a|bAa|a*a^a-a%a<a=a^a]a.a~bpa;a&a?bGbMbobobybybYbMbMbDa]a%a%bda^bGa}a3a(a=a%aTa3a(a(a<a*bgbCb(a_aRa&a_chb7aCajaFa%a%a%a%a7a^a:a:bwa.aAa6aVaxa6a$a7a-a(bjbwbDbubebjbebGbja|a|b7bpa$a-bwbja]a|bebubAbqa|a]bGb7bGbNbYb3b:b7chcbcicccicqb`cccocob:b?bPbSbPbjbpbIbYbSbSbNbNbAbYb3bwbNbDbubqbqbubebqbkbebea{bfbqbebkbqa}a}bkbDbqbqbwbwbqbkbwbIbSbIbDbwbwbNbDbDbDbGbkbDbwbwbwbwbIbNbIbDbVbSbVbVbSb,b[b9bDbSbVbGbSbSb`b`bLbza;a,a,aGaGa!a9bca_bgbOb>b8b.b1b*b_b<b*bHbzbnbCbsbFbca!bibtbpbja]axbdbwa<a6aVaVa*a;a]a~bua-bPb=bebSbNa|bkbdbebkbVbVbwbPbYbVbIbubIbAbqbka}bubkbkbebkblbabaa}bfbfblbwbrbCbgbsa/aRaXa9a`ayavayaCaEasaxa$aJaBa.a6a3a^a%azbdbD",
"aCbYb3bAa(aYa3aYa$a<a*a$a8a%a7a(a.a=a.a.a=a.a<bdbFbNbMbpa`bubibobMb4bYbFbjbGa]a<bqbea(a3a%a}a8a%a}a(a%a(a-a7a+bobHb8bna,bnb`b3aOa$aPaIa3a$a<baa=a.a(bwa^axa;a!a2a;aVa|a}bka*azaDaIaIaRaOaIaIaGaIaPaIaIaRa2aRaXa2a!a2a2aXaPaGaJaMaIaIaPaRaRa2aXaXa!a2aXaRaXaRaRa2a!a9aXaPaMaFaGaMaXaRaPaXaPaIaIaIaFaMaMaIaDaDaDaDaBaza]bZbebka?bibpa,bkbDb)a`aBaAaDazaGaMaOaRaRaRaXaRaRaXa2a2a2aPaRaMaGaGaPaPaXaPaRaMaVaXa2a2aRa2aPaVaPaOaVaPaXa2aMaCaGaIaAaDaAaFaAaAaAaGaIaRaLaPaOaRaOaLaGaLaAayauaqa#b#b8bOaXaUa&a&a~bdaxa$a]bwbPbIa<aJa!bja?a`a$bjcca}bobNa<bqbkbdbkbEbIa^bkbkbDbZbYbPbYbAbpbwbwbwbwbqbDbwblbwblbfbrbrbqbla`a2bybNbGbNa#a/avapasayavaRbqbIa^bkbla=babla}aSb;b7",
"aEb?bqaJaSa7a-a1a*a-aYa%a3a8a(a(a.a.a-a.bda<a|bpbFbFbtbobFbRbNbWb:cbb(bFbybSbja|bjbda.a3a7a[a(a(a{a}a8a(a(a8a7a}a\a;bFaEaUb(bSaMa-bda}a<a.a-a.aSa%a3bea]aAa$a!a2bda*a|bqaJaoacazaXa2a1agabadabaoaRa9a?a&auaqaraoaIa+a,a;auaiamamagaAa`a+bpaIamamaraoara1a;a;a-apajaeajajaMa+a$a+aoamajajasa+a`a?aFadahahaiaAa&a!aIalaba6bIbkbSbya~a;bub9a$arasaMa0a/aPalamamakaua~bibpaEataraqara2a<a`a;aoanaoamaua1a&bdaIakanalalanaVa|a;a<anajamahalaua2a&bGaHalaqaoaraXbSbGbtaxaoaoahala1a,a;aBabaiaPbWbCbRa,a0a\bMa|aAa<bwbebxbJbZbeaFaPa*a`a*bkb)a^bjbNbebka]a|bIbDbEa^bkbqbqbDbIbIbPbIbPbVb9bSbIbDbDbDbkbDbrbfbrblbwbla!bubpbGbSa`aOaEavaxauaGaVa<bwbxbfbrblblblbra{bqcIbY",
"aLb3a%aNaQaQa7a%a6a-a<a]a%aSa3a3a]a-a^bpbdbpbWb4bWb4bRbMbobRbRb4b7b(bRbWbYb4b3bSbpbjbea^a=a(a.a.a(a8a[a.a.a(aZa.bobnb^b1a/b4bYaMbIbja}a=a8a-a(a%a%a%a}a]aza$a-a*a-a<bIb3atacabawa+a6beagadadadabaVa<bNa+aqahaeabaya<aXbNarabaeaeabatbMbob(aDababababaca6bzbRa<abababababaPa&bibpababababaca&bCb(aRababababawbcbca$abababbpbAbkbqbjbjb3b;ahababaMa,bYa*ababababaqbtbNb;apadabababaXbjbGboababababaia<bibSaVabababababa1bIbSb3adagahababaha&bNb;aGaIaBaqacaAbGb#b3arauatajabaMbRbMaFababadbscbbza/a_a?bpbDazaubqbwbEbTbAbDa-aDaua-a-bdb)a=bpbYbebea|a6bqbDbPbebebwbIbDbDbDbIbDbwbIbwbDbwbDbVb2bZbVbVbIbVbDbwbkbdbwbua!a+bdaVaVaxaDa~b(a!a&a-bDbxbrbJblbrbrbfbrcYb7",
"a1a|aKaKaKaNaTa3a1aSa|a<a-aSaVa}a|a<a|bGbFa~bcbNb4bWb4b4bWb4b+b#bWb(b(b:b(bFbNbFbYb3b:bRb3bAa.a}a[a.a^a=a[bra.a7bdbAb#bUbzcbb7aMbea-a.a.a(a.a.a.a3aSa<a<aBa6a-a<a*a<bIb,aBakabawa<a]beauawaqamacaPbub)a&awatajacavboa\b+azawawaoagatbya`b7aFauaAaGavaia6bzb4bNasaranahabaPa2bdbSaxaCajabaia\bsb.a1alajacabawbobzbjabadabbGbSbdbebkbjbNb9aqababaPa;b+a*alamababaqbybYciavamahababa!bpb7bpabajaiabana-bob7aVabamadahabaVbDb3b3aialanaeabaoa;bAccbFbya`aJagaEbSb_b:ataBaFaqaba1b4b.aYakaeajbCcxb>a>boa`bGb)aLaVa1bZbIbqbja|a-a$a1bAa<aFbPbjbubSbwbqa-a|bqbwbDbIbqbDbIbwbDbebkbqbwbIbPbDbZbwbDbwbfbqbxbJbPb2bPbebkbDbGbea|aGaPbkblbfbGb(a_b0bqbDbEbxbJbxbrblbka7ccb)",
"a$buaKaNaNaNa7a7aVaSa9aPa$a-a%a(a.aYa-bwbMa<a;a~bRb#b4b4b#bLbUb+b#b7b#b:b?b4bjbdbNbyb3bFbibjbPa]a}bqa^a=a.bkbIbea$bNb[avbtb?bYa2bea%a.a:a(a(a:a[a[a.bwa<aMa*a*a*a]a<bDb)aBajacawa?bAbDaxazawaoabaVbAbPaMawatahacaybMbLcbaHaJazaqalaqbia+b[aPaLaLa/a#asa,bFbMboayaAaxauadaXbAbRbRaOa#aAafapa?bHcma!ayauavacaAa`bobdadaeaebjbNa|a<bpbjbSb[atababa6bcb+a-auatahabaqbpbYccavauaoacaba$bjb3a~araxaoaiaoa<bdb3a1arazajahabaPbkbYb7asavaoaiabara]bNchb3b:bWa3asaGb7chb_azbja(aqaka6b>b?a6aeabahbLcHcebUbia~bpbSaMa<asa]bZbPbka3aPa}bwbDa-aVb=a]bDbSbrbqa=bkbqbDbwbDbwbDbqbkbDbEbqbqbwbwbIbwbPbIbIbGbIbfblbrbrbDbAbIbGbDbIbPbpaMaHbqbxbrbla[a7a%brbEbxbfbxblbfbla]aFb3b9",
"a6a|aTaSaSa7a%aSaKaKaSaNa3a7aYaTaSa%a<a=bjbAbMbRbRbRb4b4b4b#bRb4bWbRb(bRb4b+bybFbubFbobpbMbubja]a(a(a:a:a.a(a8a}a&b)bia+b+b+bSa2bDa(a(a8a8a8a.a:a[a(b2bVaDa6a1a-a-a*bIb)aHaqacata!bAbqaAaBawaoaia&bub7a1aJaoaqaeaCbRb4craBaFaFaxamambzbRb7aVa_bbbgaGava`b(bLbjacaoaAauaka#b`cbb3aOa)aUasapbibOcpa,aOaCaDacaFa\bnbkacababbSbSbpbpbGbpb3b(atadafa*bcb?a*auawaoabatbFbYb{asataoababa&a~bNbdaCaGaxapana*a~b{a*axataeajabaHa|bYb?asayaualabaqbib3b`b*b[b0a!araGb+cmcbbRb:buaVava!bRbLaVaiabahbgcCb_bga`a`b9b;aDa1aqbDb2bra}bea-a^bjbea6a|cca=bqbwbqbrbdbkbqbDbqbkbkbDbrblbrbDbqbqb7b3bPbqbkbkbIbqbwbrbEbIbDbEbGbAbpbAbIbwa]a-bkbqbxbrblblbfblbwa*a+bYb?bta~a\aXaLb;bS",
"a6a|aNaSaQa3aZa3aZa4a8a4a4a4a4a4a*a|bubAbibyb4b7bUb4b4bRbRbLbLbRb_bWbRbobFbFbMbSbWbja|a<a-a-a|a<a=a-a8a7a(a(a(a(a-b9byaXb+b+bSaRa^a=a(a8a=a{a8a:a=b2b3aVaDa*a<a|bda]bPb;aJawaeaqa!bubIawaFatagaga+bub)aRatawatamayb4b.craBaHaHataiamb4cCcba/b1bQa/avapbicmb*b7avazaGaxala9b+ccb>aLa/aUakasbib8cCa,aLayalacaHbtbRbuadababb)b3bGbIbNbAbGbSawabafa+bNb?aYaiawauacazb4b(b{asaeaeanala\bFbYboaEaIaxapaga]bRcDbiayaqaeahabaFa]b(b7auaAaxalabatbMb?cbb.b:bUa3anaGb:cbcbb.b~bSa&ava!aXaUaVaDaoaoa_cbb4bCa\a+btbAaMa2aebkbVa}bkbIbGa<bjbpa$bAb!a|bDbDbqbqbkbwbubjbqbqbebqbwbqbDbqbkbqbNbIbIbqbwbwbkbebDbIbDbIbwbqbwbpbwbNbPbDbqbIbxbla:blbrblbfbfbyaybcbga#a)a5a_a_a/bkbd",
"a1a<aZaTaQaZaTaTaSa4a4a4aZaZa3a(aSa3a*a}a;bGbRbRb(b#b4bWb#b_b(bMb#b+b.bRbNa~a$a+bpbAbpa|a]a]a%a-a.a<bjbSa=a(a7a:a^bdbAa?bychb3aRa.a%a(a8a[a=bla=b7b9a1a;aGa-a*a6a-a]b7b;aKauacata!bMb9arataqaeaha?bGcia6awaBawajavb4b.ckaBaJaFawaoarb#cCcma/bvbha0ayapbicecbb[aOa1aMaAaba9b+chcca5a#aDalapbib.cCa_a5aLafacaHb(b4bwahababb,b7bpbkbpbdb[b9awababaPa+b{a<auaIaxabaFb4b(ccaxa2aOaAala~bSbYa~aMaOaAanakbpb3cma~aDaxagahabaGa-btboawaBazarabatb(cbchb8b#bCaVanaGb:chb_b_ceb0a/asbpboa,a2aVauatbhcbbObhbMbnbubuaMaBaobwbZbTbTbZbka6btbFaPbIbIa<bqbqa}bea]bIbwbkbebqbebwbIbwbSbSbwbwbwbwbPbqbDbqbebkbIbIbwbPbVbqbqbkbqbwbqbqblbrblbfa8blbrblblbactcDcxb`bMbzbvbHa,a#b9bI",
"aPa7aSaSaZaTaNaTaYa7aQaZaTaTaJaQaSaYa3a7bybYbLbFb#b4b.b#b4b#b#bzbnb(b#b+a`a+a]bjbja*a<a-a]a^a]a(a7aYa(a^a^a.a(a4a<a(a$a*bochb,aMbea3a8a8a}a}bVa-b[bAa!a&a+bia<a-a<a<b3b=aVauaeata!b3b)aDatazaFaha~bAcqa~aHa4aFaeavbRb*chawaFaHawaqatb.cHc1bzbba)a!ayakbib~ceb?aUa2aMaxaea!b7chccaLa0auacapbob>cCa;ayaxakacaPb:bSbkaeaeabb+b?bqbAbAbdcyccawaiaca1bMcmbdaBaMaxabaFb4b(cqaCb8bgaDafbobtbSbyaGaXaDaparbDb7b{a?aAazauarabaPa|b(b(amatataoabaub?crcxbWbRbCaVapaEb+cmb.b~cpb3a)anbtb>b4a2a2axaua_cxb*bCbNbybja1aSa$b5bTbJbJbTbJbea=bYb?a1bGbqa}bwbwbkbebdbDbubkbwbIa6bAbVbGbqbwbwbwbebfbDbIbVbubwbDbDbIbwbAbZbGbqblbkbfblbfblbfblbfblblbfbfbrbla:bxb\b|b2b5cmbMa*a~cobZ",
"a-a<aKaQaTaZaZaZa7aZaNaNaTaKaKaNa%a%a|bjb4b3bRb4bWb(b>b4bWbUbMa~a9bMbWb7a|a?a~bAbja-a-a-a%a-a7aYaYa3aSa4a(a8a8a(a8a(a*bub?chb)aUbDa$aJaYa(a(a^aZccb3aXa2bibRa~a-bybGb[ccaMaqafaqa9b7b,aDaBaratahbibNcca-azaQawadavb4b1chaza%awawataub+chcHbnb&b<a\ayafbtcNc1b?aRa2aDaxaka+b[cqb[aGaXaAafasbFb?cHa;apaDauaca1b#bRbeacaeabb+cIbNbGbIbScHciaAalaka;bNcybSaDaIaxaeazb7b[coaCbOa_aDaibFb?b:bNaXa2aGauarbIb(b{a$aAaAauaqabaUb4cmb`aiaoahaoakaAb?crcrbUb8bsaPasaEb)crb`b~cpb#a#apa~cmcha/a0auarbocRb#a_bobibAbjaDa|b|b=bJbTbrbJbIbqb3b3a]bja^a=bkbrbwbfbib,bqbwa|bDa<bkbwbqbqbIbZbIa}bebwbDbka^bNbIbIbGbwbGbDbVblbfbfblblblblbaa{a:bfblblblbrblbfbaa{a[a:a:a[blbla.bZa=",
"a?b(a*aPa6a-a3a3a3aNaJaKaKaNa3a3a7a=a|a|a-a~a`bFbMb#b4bLbMbnboa?a?a~b4b4bja`a]a|a-bjbGbAbAbua3a7aZaZaZa(a(a4a8a(a8a8a`cmccbibdaHa|a%bSb;aYa(a.a8b,b;a&a2a`b+bGbibGbYciccaMawafata+b7b;aDawatatahbibSccbdaHaBazadavbWb.cpajaZa(azaqaqbYb[cCa+bQa)a0aLapboc1c1b+aRa6aMaxaga;b?cqb[ayaPaIalapbFb_cCa?apauauabaVb.b:bAaiafabb(cybSbSb7b9b,b)axanasa?byctbNauaAataiaBb(cccoa#bObhaDapbpb(b{b3aXaDaxaqapbGb+b{a,aXaMaDaoabaUbWb_b+alajararaqaAb.cxcxbOb.bvaPanaEb3cmceb>cebWa#asa1b`cma9a0auanbCcRbOa_bca,bYb3a$cqb\b2bTb\b|b2bqbwbDbZbda;aIaPbkbkbwbkbub,bjbAa]bea<bubqbkbkbVbDbebablbDbIbqbwbqbkbwbGbDbwbwbDblbfbabfblblb;b3bSa<blblbrbfblblblblblblbla{babfbxbJb9a(",
"a!b(b_b`b8bsa1a1a3aSaTaQaNaNaTaQaZa(a=a}bda|bibMbFb4b4b4a~bia~a?bobob7b3bNa6a<a-a%a<bib3b?bda4a.a.a(a.a.a(a(a(a8a8a4bcchcobWbDaHbea-bVbNaSa(a(a:bwcyaSaAaVbAbja<a]a|cbb[aYaxakawbcb:chaMaDaPawanbibNcqa]aqaFaFamayb#ckchaBataNaBaoaobFbScya+a>a>bCa5asbgcNc6b:aRa*aPazaea<b)cib{aAaXaIaeakbpb?cHbyaEaeaoabaHb:cbbSafaiabb7chbPb)b+b;cib7azadapbdbNcobSaFaMaxaiaHb7cccxa9b0bmaPavbFb+b(bMa$avaoaqapbub7cha`a0aDawauaeaObUb>b>ava_bva5anaqb(cxcrbnbUbOa2avaCb:cxcbb*b_b0a#ava2b8cha9aRavarbMchbcbsboa\b,bZaPbVb!b;b5bPb9cibxbka]bDa;bYbDbubVbwbebqbNb9bDbea}bqa$a.a<bDbEbwblbabkbxbZbDbababebfbkbqbDbqbqbebabfbaa[bfblblbrb2bwbaa{b9bZaSbqbrblbfblbrblblbrblbabVa<",
"a!bMb0b>bFa#aPa3aTaNaNaQaQaQaQaZa8a.a3aZa$a-bFbtbobtbRbRbia;a?a?a+a<bMbcb)bAa?a-a|a<bob3a^a<a[a:a4aZa(a(a{a^a8a.a(a%bFcob#cbbIaMbPa.a(a(a:a^a^bEa=b\b+a&a,bYbSbYbjbGcqccaPazanaAbzb.ccayaPa3aAaoa~bNcqa|ahazaBamayb.cpcraBaBataqaoaqbdbGcHa\bQbBa0a#ava?cxc1b[a2a!aPazaea<b7cib[aIaVaIaoapbtb?cNbNa2awaqabaJb:b`bYapalabb(ccbRbGb3b3cDccazaeaibdbycobYaIaRaFakaIb+cicba/b*bHaXavbFb+ctb(aFauaBawasbub4cha]aIaFauawana>b>cpb<bbb1bHaWanatb.cxcrbnb*b0a;ayaRb`cCcbb8b>bUa)ava`b`cea,aUanaqb:bFa2a&bjbpb;bPaYb=b=bTbrbEbEbJb[bubta`a$bea}bebqbEbkbebIbYbDbkbwa$a6a6bIbVbwbrblbfbfblbJbla{baa{babablbfbfa}blbabfbfbfa{bablblbfbfbfbfbabla:bablblbrblbrblblblbrbfbra|",
"aVbubRbya0aUaNaSaQaQaYaYa7a%a-a}a=a<a(a*a?bpbRbWbWbWbFbLbMa~a+bjbda;a?bpbpbMa;bpbMbubNbda7aZa(a}aVaNa3a%bkb)b9bea-a7a]bda1a]bda1cca\a4a.a.a:a[bfa=bDc*b+aVa]a|bkbAbAcDb{aIawakawbzb(b[aDaFa*awaoa~bNcia%aBaJawaqavb>crcCaBaJatajamaobua?cya,aOavaWa/aybncrcRb?aMaNaPaBaka?b3cqb[aMa1aMatapbFb?cNbka6aSawaiaPb:b:bDafajabb#cCccb+bNbGcocbaJagakbjbFctbYa1aGaxaiaFb7cocma`b>bQa2avbybWctb3aIaIaBaqapbpbLb`a-aFaFawatagbbckcrb<bHbHbHaWanaub>cxchbCb.bFaGaqaWb?cxceb<cebFaOasa+cecea0aUananb;b[a?bpbYbwb=bwbDcQbxbrbxbrbrbrbPbka\bWa$bda<a=bebJbwa}bjbSbqbkbqbea^bqbIbkblbrblblblbxbrbfbabfblbababfbwbwbwbDbPbqbkbxbfblblbabfbfa{a.blblbababfbfbrblblblbfblbxb\bZa<",
"aVbpbLbCa;aUaTaNaQaNaNaTa6a<bja~a-a$a*a|bobGa`bybtbibjbibobRa|bdbjbdbdbua?bSbFbtbobMbja*aNaZa3a3a-aSa%a-a8a4bNb9a-a*a<a*a%a-a|a+cCb.aNa%a8a(a.a{a.bZcRbFa1bka-a=bubdctb{aFauafawbob#b{aladazatara|bYcja6aHawatatavb.ckckaBaJaqajamaoa?a;cta!axazaEaGasbpcmcNb)aOa1aJaAala;b7cob:aJa1aMatapbMcbcNbkaJaHawaiaVb:b#bwaeahaebWcocbcbb?b3ccb[aFanapbpbMctbAaSaDaxagaFb3ccctbgcebUaXatbnb:crb3aPaVaBaoaka|bzcra(aYaSaHataba>cpcCb>bHbha9aOaqaxb.b~b`bCa`auadaeaLb4ckcbb>cpa-adaka!ceb_aLaUakarb7b,b3b[cmb:bZa}a-cibxbZbEbxbxbrbka^a;bya6bwa<a=bebqbqbebwa]bdbka^a^bkbabqbwbkblbrbrbwbEbDbaa{bfbfbablbqblbfbqbqbwbDbabababfbwbEbxa}a^bqbkbqa^a{blblbEbZbrbrbrblb-b!bVa3",
"a2bNbHbha_aUaNaKaNaNaNaNaQaTaTaSa6a7a~a|bobjbAbFa~bibFbpa<bybMa~bja]a+a~btbRb3bFbibta}a6aSaYa3a7a*a$a%a%a8a4aTaZa7a(a<a.a.a.a|a$cxcHcqbza8a:bDbTaKaTcobMa,bVbPbebka=b;b[aPawacaAbtb(b;aiacababaobobRcybqaJawawaqavbMbyb#aFaBazatajaja|bccya1atatatatapa~b?crb3aRaSaPaBala;b+ctb{aGaIaBanapbScmcHa=aNaJatafaPb+b#bAanagabbWccb?b#b?b3ccb:aFarapbob#cCbdaFaMaDapaMb(b{cqa/b(bOaXaxbnb{ctb#aMaPaHatasbSb_chbeaPaKaBatada9b.crb>bvbUazaqanaAb_ckb:aUaqamahacaLb4cmceaFa1aPauaeaRb_b>aOa0alaubIbNbPcdb,bVb2bqa6ccbJb5bJbEbEbrbea]a-a]a-a}bea^bDbDbdbwbubYbYbpa=a-bka.a^bwbqbfblbxbxbEblblblbfbfbrbrbqbfbfbfbababfbqbqbPbZbJbrbla[a&bNa,bia}bebfa{bababfbfblbfb|bwbPa-",
"aVbNbRa/aVaVaQaQaNaNaQaQaYaYa7a%aSa$a<a<a6aPa~b#bMa~bjbia?b4bYa~a|a<a+a-bpbAbobAbNa;a=a<a.a-a7a-a*a1a3a6aZa4a4a8a8a.a.a(a(a.a<a6ckcNcxboa3bIa(a-b[b9cobca-bPbDbubea=b)b[a1auadata~b3b{anaoarahaobybRcta]a(aJataharbFbzb4awazaFawajama!bictaPawawaqajafa6b#b(bYaRa1aMaBala2b,ctccaIaNaGaoalbRcmcxbdaNaHatacaHb#b#bNarahabbtb(b?b`b`b+b{b;aFaoafa;bUchbdaGaJaxafaMb+b[cqa9bLbnaVaubocbcxb3aDaIaHaBavb+cHcra]aBaSaFaqaja0b:b#b(a#bLa1auagaBb_ckb?aCaBaZaoacaWb#ceb~a_b#bWaOaeaLb*b.a5a0apaubYbSbPb;b2bEb9bwa6b=brbrbrbxbxbfbwbDbIbqa6a<brbka}bebwbIbwa}bDbpa^bdbea^a}a{brbrbwbxbra}bfbfbrbabDbDbrbkbaa{bablbDbTb2bVbxblbaa{babaa{bja/aWaYa]bla8a.blb5bTbxbxbPa}bDa-",
"aVboaSaJaKaKaKaNaQaQaQaNaJaNa3a%a<a]a*a-a]a1a9bdbdbobubia?bjbpa?a?bda+a-bib+bobMbja;a<a=a%a$a%a-a*a1aPaPaTa7a(a4a8a(a.a8a.a:a|a$cxcNcobnbIbdbjcccRc1cxa,a7bDbkbkbIa^b)b{aVarabaqbib+b7auaFaBafaqbRb4cja-aJaKadacama]a`bSatawaBatahaqa-a6b,aPataqaoacacaSb3b3bSaDaPaHaAaea\b{cxb[aBaIawagacbNb`cma|aHaBaqacaJbWb.bNasahabbob(b`cbcbb3bVb7aBaqafa9bnb`a]aCaBagabaBb3b{cDaRa;a!aBagbcb7cqb(aDaFaFatapb+cHcCbFa$a<aFarataLbpbMb`aKaFaza$awaAb<b_b`aUaGa$ababaEbRb>b.a0bFa`ayacaRbObhaLaRakalbkbPb2b2bZbJb!bea<b|bTb%b5bJbJbxbxblbwbqa6aYbZbVbZbPbqbkbDbwbjbwbGbda=a}bebebxbwblbxbEblbqbrbabqblbla{blbrbDb2bTbIblbfa{babababablblbqa.aLaLa1a*blblbabfblbEbxb,b2b9b;a<",
"a!a~aKaPaNaSaTaYaNaKaKaKaNaQa3aZa$a]a-a&a<aIa+a]a+boa|a~a~a?bda]bobia?a]bzcbb4bFbFa~a-a*a%a6a%a7a6aJaPaSa7a8a8a8a(a(a(a(a(a:bda6crcNcNb#bqa%bkcDcHcRcDa_a6bqbwa}bGbwb;b;a*aDauaPbMb(bZaMa6aNauaIbFbRb,bDaNaKaBawa2bya;bpaNaQaTaKaHaQa|a!bqbIaYaZaNaFaBa]b9b3b;bGa]aVa+a+b?cccqcNbqa}a=a7a,b:b+cbb{a|a-a7a2bAb>b#bYaXaualbob:b`cmcrcbb)bGa1aDaya2a_bFbua&a*a1aMa6bYb9cIb7a]a&a6aPbMb.cccDbNa]a<a&bgcrc1cHcmbMbYboa1aDa9bibMb+bobcbzbyaXa!b8b1cbbWa<bpaVaAa#bLbRb4bNbja]aVaRbSb#b*b3aUauawbub)bZbZb2bZb%bka6b;brbEbEbJb5b5b2b2cib3a*azbVb;bZb2b7b|b9b7b2bIbGbpbpbda{bfbqbDbDbIbDbIbTbwbfblbkbfbebTbPbwbfbfbfbaa[a{bfa{baa{blblbfa6aUaEaVa^blbfbabaa{a[bfbTb9cob;a*",
"aRbta7aVaQaTaQaNaKaKaKaKaQaKaNaYa3a7a-a-bda]a|a]boboboa?a?a<a]a~a~a?bMbYbtbtb4bia~bda-a*a6a6a%a1aPaYa$a$aZa3a4a(a(a8a4a8a.a.a=aVcecCcxbRaTa8a%bxa6b3cHboaYbea=a(bdbdb,bSaRbcbsb#b4b4b9bSbibjbcbtbSbYbobtbFbubobibzboboaXa6bNbDa}a*a&a6a-a6bAa|a|bpbIbSbSbGbYb7cccmb`b:cmcbb`cbcqcCctcrcrchcbb+b8b:cbcbb`b?b.b_b#bLbza,aLbLcrcrb:cbccb?bta!a~a_a_bsbCbWb(b[b?b:b#b+bYbYcccmcbchb:bUb_b(b_cxcpb`cbcHcHcCcCcCcxcxb~b:bMbybtbObLb*b.ceb*b~b8b>b>bHb8bWb(b(bLb0b4bza+bpbSbNb3b?b{chchcbbFaXaGbdbPbpbdbubGb,bja%bPbrbEbrbxbxbla{bra|bNa*aSaVa$bPbIbfa|bebebNbVb)b)b9b7bJbwbqbkbfbwbxbfbDbEbPbea:bla{a{a[a{bababfa{baa{babaa[bfbfbablbZbDa?aTbfblbfbabababaa[a.bZcib{a$",
"aRa!aHaQaNaQaNaKaKaNaNaNaYaYaYaYa1a7a6a6a<bpa|a-a]a;bja?a<a<a<a;bibMbybobda&bjbibGa~a*a*aYa*a7aSa6a6a*a-aSa7a4a4a4a4aQaTa(a(a]aVb.cxcCbza(a(a[bea.aTb[bMaYbjbebNcca?bPbPaUbWb(b:b?bYb+bWbzbMbybFbNb7boa`bsbna_bnbFbLbya+aXa2a1a&a!aVa|bda$a*a6aHaVbpbybNbSbSbRb4b[b?b?b?ccchchcicmchb`cbcbb`b+b#b4b#b.b.b8b0b8b8bRbzbsa5bLcybWbob`a+b(bYa/bzbzbsbOb0b8b.b>b8b>b>b>b>b>b~cxcxcpb~b(b.b.b>ckckb_cpcHcCcxchcecrcxb8bcbobnb4b.b4b.b^ckcpcpb.b8b8bOb1bLbsbOb>b(bUbia?a;bAbNbFbYb{cmchb4bLa&aGbjbNbsbyb>a_b:bpa-bPblbxbxbxbEbxbkbwb#bya1aPbqa6bubIbqbda<a6bjbAa|bubkbIb9b)bubSbVbPbkbDbPbwbDbka[a{a[baa:a:a{a{bfbqbfbaa{baa[bfbababablbrbrblbfbfbfbaa{bfbabaa{a[bfb{a$",
"aUbMaKaNaNaNaNaKaKaNaQaQaTaSaQaNaNaSa6a$a]a*a$a-a<a*a*a<a-a$a?btbAa;a<a?btbNa\cbbRbobia<aYa$aKaKaNaNa3a(a%a(a4a4a8a8a4a4a(a.a|aVb>cCbVa7a(a.a(a8baa^bYbuaVa<a^bkbtbAb{b,aMa!bzbMb4b#bFbta;aUa9bibFa~bca?a&aXaOaObobUa~a`aRaVa+a&aXa+bdbia!a;a&a!aRa?a~bMb+bSb>b#bRbRbGbMb`cichcob?b4bSb3b+b?b.b+bWbMbzbnbsb8b#b>b#bsa\aUbUcHcrcbb+b:b[b(a0a,bsbLb0b.b8bObLbLbRb4b*b.b~b*b.b*b4bUb~b~cbckb#b#bUb8b_cpcrcrcbb8bMbybFbobRb`b.b_bUbsbhbzb1b8b*bUb8bsa_bnbgbUb4b4bFboa;a+a?a+btb?chchbFa`a&aLbub9bRbFbpbNbVa*a$ccbxbxbEbxbxbxbxbJcmb#aVaPa^a<bGbIbqbqa^a=bebebdbebDbdbkbDbqbqbqbqbkbrbDbDb3bZbVbZb9b,b!b,bVbVb)bVbrbfbababfa{bla{a{a{baa{a{bfbfa{babaa{a{a{a{a{aNbDa-",
"aLb#a%aKaKaNaNaQaNaQaNaKaKaKaQa-a%a-a<a*a7a6a3a6a$a]bda]a+bpbAa`a;a+a-a-a;bYa\b:b`a\a*a$a$a1aHaSaSa3a%a8a%a4a4a8a(a8aZa4a4a(a|a6b?b4bla%a%aTa^bka{a7bSbpa1a}aSa7bjbIbVb2aFababaPbtb7b7aiabadabaua~a`bqaBababababaObRbib(awanajajafaFboa!b9aMababababacbdbWb?b,afalamahaca&cbcob{acabababavb(b:b`a6aeahabaca$b_b_bRasafakb8cCcCcrcrb`cbb,azacapbMb4chbAababacacaJb.cbcqavababacacb0cxcHb_acafajafasbScxcCbwacaeahamaha,ccb`cbauafaiaiafaAb8b8b+ayafajababaLbYbFbiadajaoajaba<b?cba$ababagbpb,bSbPbVbVb2a<a$cqbxbxbxbxblblbEbrbWb9aMa-a-a7bwbIa}a}bkbabGbkbkbubqbAbqbebIbqblbrbrblblbfbkbebkblbGbVbVbVbPbPb2b!b2b5b2bZbJbJbrbxbaa[baa[a(a:bfa{a[bfa[a[baa:a[a[b)bp",
"aLbRbkaMa}a$aKaNaKaKaKaNaTa(a]a%aTaYaYa3a$a6a$a$a$a$a;btbMbia$a-a?a-a$a<a;bAbSa!bSboa]a*a$a1a1a1a6a*a7a-a8a%a8a8a4a8bqbqa=a=bjaJa6a%a:a8a8a:a^a8a<a^b`bta$bSbla=a}babZb,aBababaJbib`b|adaeaeabaobAbybwaFajaoahabaIccb?b?ataqaoahacazbta9cyaMabaoaoaoakbNb.b>b;aoawaoamaca!b{crb[aoaqaoadayb?b.b`a-auawajaba1ckceb+apacakb4cxcmcmcmcmctb{a6agaba|bGcbbkabaoamabaHb_cHcDavaAauaoadb*cHc1b+anaxatalasbYcCcHa|aqawaqaqadaUcbcNcmazaBawaoacaib1b_cbayatatajacaybSb4bzawaxamahaibdb`cxa$ababaobAb;bZbIbVbVb9bja$ccbZbJbxbrbfbrbfblbub9a*a<a=a6bqbwa}a}a}bkbSbjbpbGbqa}bkblbwbIbEbDbxbrbwblbDbZb3b9bVbDbaa:babaa[a[bablbfblbxbJbEb2b5bZb2blbaa{a{baa[a[a{a{a{a[a:a8bwa]",
"aVa<aNaNaQaTaNaQaQaKaNaTa.a%a3aSaTaTaTaSa1aFa1a6a6a<bpbia`bybja?a`a~a-a?a-a<bja?byb:a|a;a6a-a$a$a!a&a-a]a(a7aZa4a4a4a8a[a%a}bqaFbjbwa8a(a(a(a:a(a6b)cqbUa$bDbla}a^a.b[b|aDacabaPbMb:b{aqatajabalbGb{b9a1aBazataeaLb{cccbaBazataoaeawbta0coa&awaBawatanbyb_b_b)aDaHaFataba#bicbb:aDaBanalavb_b.cbbjaVaFatafaVb8b8b_amacafbUcCcrcbcicccDb{a<auaba]bYcibpaqawauafaMb>cHcNaOa2aLaqaebMcCcRb+auaxazaoavb3cecra^aHaJatataeaOb`cqb`aHaFazawaoaubUb>ccaOawaqadacaCbNb#bWbza;aFalacbjchcxa1agabaqbpb)bVbPbVbPb;bwa-bwbfblbfblblbxbxblbwb2a;a6a]a=brbwa}a}bIa|bPbkbjbebka}a}brbqbVbVbIbIbZb3bIbPbDbwbwbxbqbaa8a{bfa[a[a{a{baa{a[a[a{a:a:babfa:a(babfbaa{a{a{a[a:a[a:a8a^aV",
"a1a6aKaQaKaQaNa(aTaNaQaTaNaKaNaTaTaQaTaQaSa3a6a3bdbta+a$a$a$bda~a;a<a?a~a|a]a`bja+bRa]a~a+a;a&a+aVaAa*a$a4a7a4aZaZa8a(a4aYbabGaFbYbiaSa.a.a(a.a(a4a.chboaYbDbla=a.a(bPb{azacabaFbnb#b,axazaoafakbMccb[a!aMaPawajaLcececeaFaBaBatajawa,aGb{a$aJa(aHatanbMckb_bYaDaFazatadaXa2b`b`aIaIaxagakbWb#cbbda1aMauala2b*b*b:amacafb4cHcochcicccRb|a1aDaba<bWcbbkaDaDaxahaFb#chcCa#a#a0aqadbOcCcNb#auaxazaravb[cpcCbIaNaSaFawajaXb(b:b:aJaKaJazaoatbOb*b{a9aHauababaybMb4bWbCbCaSanaba|cxcraMadabatbjb9bVbTbPbPb9bqa-b,blbabfblblblblblbdbSa&a+bfbkbla^a}a}a-a=bpa-bubka}a[a[bfbIb3b7b)b9bVbPbkblbrbaa[bablbfa{a{a}a{a{a[a:a[a[a:a:a[a{baa[a[aYaZa}baa[baa[a:a{a8a.a=a.a|aS",
"a!a?aHaJaNaNaNaQaKaKaTaTaQaKaNaTaTaTa3aZaYa3a<bja-a!a$a*a+a&a1a-a?a<bda;a`bja~a<a<a<bAa;a-a&a&aVauaPa$a2a7a3a4a8a(a.a:a8a%bqbAaMbAbtaTa(a:a8a(a(a:aKb,bFaPbVbVbSbea=b9b[aBajabaBbnbWbYauaxaragarbFb+b(aXaGaVazagaLcrcBcwaJaBaFawahata`aUb[a&aNa1aKazalbAcbcxb3aGaKazataja9bFb?b#a2a2aGanalbRbOb~bpaXaVaAapaVb.b*b:asafanb#cHcqccccb;cDciaHaMakbib4b?bpaMaDanabawb0chcma_a_a2aragbQcNcNbQatazazatayb9b#chbIa3a7aNaFaoaOb?b+bWaHaSaKaFaqazbUb8b`aXaPauadabavbMb4bWbnboa&asadbjcmcmaMaeabaqbpb9bVb9bVbPb,bDa;cobfbabfblblblbfblbob:a!bda}bebea^a}a^a<bqbPa$a-a^a}bwbPbZb,bSbPbPbqbfa[a[a}bxbra.a(a{a[a[a.a[a{a{a.a[a[a[a:a.a[a[a{bfa$aPa:a{a[babaa:a:a:a(a.a:a.bea6",
"aXbFbuaVaTaNaKaKaKaQaSaNaNaKaNaTaTaTaTaQa7a=a(a6a3a7a1a3a$a3a1a*a-a*bpbya|a~a-a6a]a*bua~bda]a6a!a-a&a!a*a4a7a8a(a(a.a:a.a]b[bAaMa7aZa8a(a.a8a(a8a-bkb`boaVbVb7b3bPbwb[b[aBajabawbnbWb7ayazaqaeaobzb4ciboaMaHatagaLckcccbaKaHaHazamaobSbMctbya4a%a3aFaka<b(cmbSasaFaDawaea2bMccb:aRa0aIapaka~bOb~bjaRa2aDalaXb.b8b7apabaqb.cCcicoccb,ctb{aPaDaia?bUb.bAaIaDakabatbRb?b?bgbcaOatajbKcGcCbHauaFazaqaybSb.cmbGaMa4aKaBamaGb(b[boaJaSaSazaoatb0b8b:a_aPaxaeabaybobUbMbCb8buayadbpcrchaIahabaqbub[b5bVb2bVb,bDa6b[babfbabababaa{a{bGcqa!bAbxbabfa[a^a=a=a}bubjbjbebDbwbrbrbaa:bkbVbVbPbfa^a.a[baa[a(a8bwa}a%a=a:a{baa{a{a:a{a[a[a{bfbla7a=a{baa{a{a[a{a:a:a:a:a[a(bSbd",
"a/bFaSaNaNaNaKaKaKaKaKaTaZaQaNaTaZaQaQa4a<a$a1a6a6a$a&a+a&a&a+a,a+a\a/bWbza\bya_a~bia?bGbobia&a-a?a+a-a-a%a8a7a.a(a%bka}aZa{bNaVa(a.a8aZa4a(a%bpcbb`ccbzaFbDa}bebkbjbVb[a?aUauaDa`bMb7ayaGaualaubzbRcia<aBaHawapaLb#b:cmaPaSaQaFaoata;a`b{a~a1a&a$aMaka6bAb?b9aDaDaDauaea`b)cob{aGaMaGasasbyb8b_bpa2aMaxaca!b~b>b+anasaLb.cHcochcib[cib9a!a&aybQb.b*bCa5aIayajatbob#b:a#a+a2aAanb/cKcrbKataAazamapb3cpcpbGaIa1azazanaXbYb:bzaFaKaIauavaua;a,bMboa_ayauanaEa_bgbFaUa?aVaqacbjcbb#aUavaCaGa}bTbPbVbTbIb2bqa*bPa8a[baa:bda]bvb*b>b~a!bdbpbdbwbwbwbda<bjbka*bwbdbpbjbda;a}a}bwbqbVb,bPbkbaa[a[a[a.aZbla=a8a8a8a:a{a{baa{a^a{a}a{a{bdbka}a.a{a{babfa[a=bebebea.a.b[bj",
"bbcgbda0a1a(aKaNaQaKaNa3aYaNbFa`aTaQa>bUcEcWc0c0cVcVcScVcVcVcVcVcVcVcTcVcVcVc4cSb&bQbdbdbobtbja<a<a;b#bsa4a4bsb.a=a8a)bWcncnbSa2b6cscEcucnclaWb6cLcnb`bFaObFcacabNbibDb2a/a+a#a0a`bob0b*b8b6bybtbqbeb*b^cncab<b<b&b<bLbLbKckb]b^b&b0b8bOb*b^b~bHbqa-a-a|b<b*b.bMbLbUcvcFckb6b\b2bvb>cAcJcAclcncwcJcFcJcvcvcAcpcCbUa/b]bmb&cGcbb`b`crcyb(a+b,b8b^b<b<b~b~b`b:b.bUcgcgcucncTcFczcvcvcPcxbCb<b^bHb1b1b&cgb^b4b4bWbYb4bybRbSbWb3bFa`a\bFb0bFa-a<b6cgcEcJcMcJcJcMcJcAcfcnb&bXcacgb/cgclcvb<bbbFb:bWb{b)b3b5bxa)cFcPcua|bYb3bybBcgcLcwa+a-b]cwcAcJcFcOcncsbHb_bKcncLcucTcFb0bnbaa{bcb(b)bGa{a[a[a{a:a8a8a8a(a8a2bLcFclczcZcWcTcTcVcTcTcTcJcucFcAclcAcOcLczb:bHa[baccbd",
"aLbFaYaKaKaSa3aNaKaKaQaNaTaSaQaQaNaTb}cFcVc7cMcEc#c&c#c#c&cub$cWc&c#c3cSc#c&cAb$a$a|a]a]a~bobja?a-a-bja+a8a%a4a4a1bdclcOcAcabFaXcEc5c&c&c7c3cucMcZcSchbsa5cwcwb$bAbpbwb3a_bzckbvbkbGbSbqa}a=a.a.a_b0cTc4cJcucgbXbgbOa>bCb/cvcFcucncucnb/cFcnb&bvbMa?a<a=b8b0b/cscFcfcscvbSbobSbNcacLc7c$c8cScZcJcEc$c&c0cZcMb_ckbXb}cAbXbQb`bVbPbYb7b{b9a1bjbtbubRb4b(b7bYb3cucOcVcScSc0c#c#c3c7cWc4cBbmcJcOclczcLcfbAboa}bka|bpb(bGbYbYb3b#b3bMbkbja-a=b&cnb]cncMcMc0c#c&c&c7c#c8c7cEcJc2c4cOcJb]b/b8a5bHb+bebwb*b~ccbUa)ckcZclbablb]csc2c4cAcAa3a-bhb<cOc4cWcVcLcubvcrbKcFc4cVcnbKa:a:a%a(bibNbSb3baa[a:a.a<beb&b^bUbvcuc5c)c&c7c&c#c&c7c4c2c0c2c8czcOc$c3c8c0csbXa.a[a{a:bZa]",
"aGa$aKaKaKaKa-a;aKaNaQaQaQaTaSa1b]cfcvcub/cOcEcMc#c#c&c#c#c3czc0c#c#c#cVcvbXbsaXa$a-a;bdbda`a\bRbobna=a-a.a(aZa(cfcTcVcEcFb}a]aPcSc4c#cMc3c7c#cScVc8cpbma5b~bsbnb#btbkbVa+bobpa~bwbIbVbAbla[a&bdczc8c8cEczc4c2cScOcJb$cgcScOc7c#c2czcAclcAcabQb8b*bsbAbAa=bqbMb0clcFcwb]bybNcgcvb<b&b]cacJcuc&c2cVc$c2c0c4cVcTcucOcJbBaLbLb3bqbDbIbPcib7a*bAbubNbSbPbNbVcucPc&c&c#c#c0c0c#c7c3c3c3c4cEcEc7c#c2c7cebBa%a[a<a(a$a]a}bubGbIbNbNb#b.bwbjb6cscAcvb}cncOcucVc3c7c0cSc8c#c&c2cMc2cVcsb6bkbDa_aybMbGa=brbQcpcGbHa*bTa:a[bnb#cSc8c#c7cAcAaSa6b$cPb}cFcucOcLcJa|bYbKcFcFb/a8a.a:a[a[a[a[a[a.bab+bYb1b<b^cgb^b&clc4c)c#c&c#c2c4clcJc)c&c5clczcZcVc2c&c)cPb/a:a:baa[a:a:bZa;",
"aGbtaTaNaNa3aKaNaKaNaTaQaNa3b/cvc3c7c0c3cfcVc#c7c3c#c#c#c&c#c#c#c&c&cEcua0aRaUbNa~a2a6a*bRbRbtbib6b<ckbma4a4b}cJc0c2cabXb<b1byaVcMc8c&c3c#c7c&c#c#c2ckbBa)csbua+bnbWbpbFaPaKaPa}bGbIbwb7bNbjclc8c)c&cga)cfcTc2cVcMcJb/czc7c#c3c#c8c0b^bKcacnb&b6bka|bAbAa|bqbqbEbEbIbdbub]cFc2cTcEcJcsb]cfcZc&c#c&c)c&c&c2cMc4cVcaa>aLaDbFb7bfa[bkbkcIb[aGbAbSbSbqa^b/cwc0c#c7c#c#c3cEczcMcMc7c3c3c7cEcTc)c&cFb$a(a(a~bNa$a-a7a=a<bebPbIbFb3bIbkb6cecWcVcvcvb/cJc0cMcSc3c2cMclcWc&c&c3c0cFb]bEbVbDbka$aubvb~cbb1bIb9b9bAa3bDbGbScEc$c&c&c&c7cwcna*aYb/cPb}cAcfcvcOcFa`b>chbRbfa.a[a:a[a{baa(a7a}bUb1cncwb8b1a[a(b}cPc+c&c&c0c&c#c&c#cPb/c2c8c7c7c8c2c2c0cPcfbNa<a{a:a}bqbIa`b9bi",
"aLbSaYaKaKaNaKa7a6aNaHaKa>cac2cMcMcSc0c0c0c3c3c3cEc3c#c7c7c7c7c3cVb}bXcga1a6aRbobdaRa*a6a~bzb7a?b8bOb.bbb$cFc#c0cMcScAb}bDbwbjaHcEc$c#c7c7c#c)c+c8cScHa_a)b(a}a(bBcrb.bhaJaJa]bebkbIbkbwclcZc,c+c&c&cub$c2c&c#c&c8c0cMcOc0cMc4cVb&bbbBcecSc,c&c&cWclb^bQa~bNbWbobubpb$cwc4cVcMcMcTcMcFcfb$cLc7c4cSc7c)c)c&c0cFbXaSaNaIawbibYbebka}bkcyb:aMbdbSbDbXcgc4cJb}c3c#c7c#c3cSc2c7c3cVc0cVcSczcEcPb}a=bqa=a.a<a]bibpa$a-a-bqbSbAbIbkbQb^cOc2cMczcsb/clcWc3c0cScScWcJbXcgc#c&cTcfbqbSbIbVbqa|a6awa*bVbqbrbEbxb2bxa9b`cuc4c)c)c#c#cEcWczcLa-a$a>ckcfcLb}cFcFcJa`bNb7bpa{a(a.a:a?bGbWa~bobLb*bOa-bkbla.b/cLc)c+c)c)c#c7c&c#c$c7czczc8c$c4c7c7c&cZcfa`a~b:a\a{a:bQckb^bbbIbj",
"aObAaNaJaJaQaPbda6aMa+a_b$cgcEcVcEcMc7cVc0c3c3c0c0c3c3c3c3c3c0clbbaRb1b&aTa*a5b*b.aWaYa7a6a|bda~a]bpbXcnc7c&c3c7c2cucMc8cAb]bdaHcEc4c$cScMc#c7cSbQb~cRbHaVbea:a8a-bub+bMaMa*a^a=a.a8b$cLc,c+c+c+c&c7cSc7c8cMcEcSc#c2cScMcWcVcgbmbbb^cnclbXcwc7c(c4cMc8c2cgb/b^b1cfcLc2cVc2cWc7c4cOcucTcJb/cFcWcucEcWc4cScFcla}a$a%a7aMaxbdbAbybSa^a]b{b(a?bYbybFcMc4c2cEcMc3c7c#cfclc0cSc#cVc7c7cvb/b0bCbka*a^a{bea]bkbdbdbea-a%a6a*bkbkbzbWczcZc7c7cWcScgb6b}cOc3cMcEcucOclbHbOb6cgbMbza|a}bDbPbDbdaMaxa<bVblbrbEblbTbxaLb:clc$c+c7c0c#c7c#cZc4a?a&a5bUczcPb}cJcFcla=bjbwa|bebebCb*b1b&bYbgb&b~bea;a:aTbXcsc3c)c)c)c)c+c2cSc+c&c#c7c2c$c2cVc&c7cWcJbwboa:a}bYbia[a{a:a:a(a8bYa|",
"aUb:a<aHaKaKaNaJa5b6cFb$cucEcEcEcMcVc7c7cVc3c0c3cVc0c0c3c3cubmaWaQaZb6cga3a+a&a<bAaVaUbRa!bcbAa]bHbQcSc4cSc0c0c3c7c3cSczcscabAaIcEc$c)c#c)cVb<bma(bTcxbLa1bua.bebHb>b.bUaMa*a}a6bmb^cEc+c2clc#c+c+c#cVcSclcEcEcTcEcScSc2cFb$a8a3a+a<a<a*bwa^bCbWbGa~btbOb8b<b]cvc8c8c0c0cWcScacacacfcOcWbKcnc8cuclc8cZcla|aZbaa.a.a*a1axbMbNa.a(a^a.bYbYa<bua;aRcOc4c0cScSc3cOb$aCcsc7c0c#c#c#c7cEcubea?bka=a^a^b(bCa(a^bdbea-a*a-a^bdbdcfcLcScVcMcMcVcMckb$bXcwc3cMcMcMcOb}bLbsa.a.a=a%a.a}bqbwbebda2aGbFb(bfbrbwbkcbbCaFa-b}c(c&c#c7c#c8b}clc5a;bba1a]bXcnb<b/bNbMbkbqa-a|bibzb]cgb<b&bka^bdbpa[a8bmcec#c7cVc0c0c0c7c#cEcuc&c&c)c&c4cVcfcuc4cMcwb6a=bfa.a:bwbaa:a[a:a:a:a.bPa-",
"aUb(a%aJaKaHaJaScfcvcEc0cScScVcVcSc3cScVc0cVc3c3c3c3cVcEbBaLaNaQaSa-b^bQbta`a9btb(a0aXbdbtaObObUclcFb}c2c7c3c3cVc4czb/b&bsbzbSaLczcOczc0cgbbaZa:a]b9cCbLa<bNa\bYb^b<b#btaNa$bmb*cuc0c#c&cVcVc+c)cMc&c)c)c&c&c2c3c7c8cPclbua+a:a4a7a4a%a(bea=a{babka}a:a.bsb*cEcOcVcTcJcMcAcAb6b^cFcAcEc5cfcncTc2czcAbCa5bBcpb8a)a.a%a!aEbUb#a.a.bibYbNbYaxaXa>bKc&c)c&c#c7cMbYa\b}cZc0c7c#c3cMcEb8bba.a}bAa`a-a<b>bva8a.bdbdbhb.a`a`bWbzb/cLc3c0cuclc0c#cwb$b/cJc3cScMcMcVczbna!a%a[a<a=a(a(bqbPbwa<a`aObpb3bfa{b/cFcBbbaBbIb/c5c&c3c#c&c#cuczcZa;a_a<a*bOb*b0a9a|b9a]bSa`bzbia;b0bCa(a:a:a:a.a4a/b.c7c)c4cScScTc&c#c8cVcgb]cTcTc2c4c2c7c8c0b.bbbQb^b~b6a:a.a[a:a{a[a[a[a<bwb#a9",
"aUbMa=aJaLbibQbBcucJcMcScScVc0cMczcucMcMc3cVc0cSc7cSbXaWaMaQaZaKaJa-b^bmbNa9a6a*b.a/aZaNbsbsb]cnclcJczczc3c7c7cSc7c3c7c)cLcubMaOcOcTb<bBaZa8a(a{babwcrbYa6bpa:a(bfa=a}bka)bCb/b]b/czc#c0c3c#c#c)c#c#c&c)c&c)c8czc4cubbbUb1bHb0bUb&b^bLa\bHb.bUbLa{a}a;bAczcZcWcEcJcJb<b6cacwb^b~cnclcEcZcFb/cTcLb8bva8a4bXcea`a0a<a7a!aLbNb4a{a[bibGcmb_aCb]cWcEc7c0c3c#c&c7cAcuc7c#c#c3c#c3b<bba4a{a~bCcLcga/a`b(a>a*bkbAbpa-a-b]cAb<b]b]cscVcSc4cScSc&cnbXcSc4c3c0c3cMcAb/aUaYa-a%a-bebebebkbkbja1a&aMa[bJb/cFc7c8cnbmazbZbBcFc&c7c&c)c&cEcTcZbba`a-bpbAbAbkbebpbSbdbDa\boa-bea<a}a(a:a:a.a+b4cEc$c+c&c7c&c#c#cMc2c7c7cJcuc&c#cZclcEcOcgbKa|a^a}a4a7a{baa(bka}bxbra:a[a=bdbNa9",
"aRbya?a,b$cvb/b/b}b/clb}bKclcMczcScVc3c0c0c7c3cub}a)aPaQaQaQbKcsbQa)bQbhbNaXa2a!cwbba#bocJcTbKcncfclcPb/czcVc7c7c7c7c7c7cvcfbpaRb<cgbMa;a4a.a:a:a8a(bwbjaVa}a=a[baa{bIa^bmb^cgcfb$cJcVc7cEb}c7c#c7c7c7c#c&c3c8cMbyaRbmb^b<bQb&b&bRbtbubGbtbybAboa^bdclcZc8c0cgbXcgb&bHb8b(boa~bGclcFc7c4c8czcGb6bwbxbea.a|aPaTa3aYa6a;aLbdbwa=baclcPcPb/a9bocEcOc2cVc0c7c&c#c#c7c#c#c#c3cnbBa]a(a8a}a}a=bCbObmb*cka)bcb3a<a%b$cLc&c7cOcub_b>b}cfc0c#c3c3bBb$c3c0c#c3cgbBbXcga6aUaYa7a6a}bVb3bea%aVaPa!aDbbcscVcOc&c2cebmaBbka5b]c$b}cVc&c)cuc2cZa/a_bsbLbNbebwbubpbpbkbIa}aSa|a]a%a7a8a8a+bAcMc(c+c&c7c&c)c&c4cEcucvcJcOczcvc7c7c#c2csbXa8aNa(bebdbGb&bQb*bHbdboa{a:a.a(a4a.bMa`",
"aIbda>b6b/clb/cgb$cucwa)a>b]c3cVc3c3c3c0c7c3cla>aGaZa4aSaTaZa5bUcvcla_bQa]aVa1aNcsbXb}cZc7cSb/cvcJcucJcucfcWc0c3cuczcucMcPcfbMa!bea-a7bebda%a{a.a8brbja6a6bwa.a:a-bycncAb8bba`a_b$cgb/cgcuclcVcScMc0czcMcMcMb&a>aZa4a`bCbhbCb0bFbjbdbdbGbebja.a.bKb^c0c2c8c0cOcvcgb]cscsb<b<b]b]cOcTczczcgb$b~bQbVbebebda%aSa7a7aPaPa,a;a^a.b/cLc8c#cWc2b:bbbmb]cVcMcMcSc0cVc0c0cScScvbKaLaMb4a)aNaYaYaVb&b&bmbvbUa5a3a%bXcgc2c0c#c0c5cubQbCclcvcMcScMcMb}cfcVc0czb$a#a#bsbcaYa6a3a6a$bGbPbVa<a.a&a!a)bbcEc4c3c7c&c&cgbmaCb*c3c7c)cSc#c7czcfclcPa/a)cgcwb7bobpbebNbFbGbubwa$a=a(a(aZaPa-cuc$c+c+c8cucfc&c)c&csbKb<cgcgcfcvcuc4c2cAb/a8a(a:a.a[baa{a{a=a.b3bya:a.a:a.a8a8b$cAcea>",
"aPa`aUaXbQbmaWb6b$cfczclbKczc0cVc3c3c3c3cEbXaOaKaKaQaQaTa3a3aQaJbbcsbQb&aKaSaSa1clcOcVc0c7c&clb$cEcTcEc2b/cMcMc0cJclcEcEcFb/bRa+ckbha8a8a*bda4aTa<beb3a|aYbqaYa^cucZcVc0cLcvb8bRb*b#b1b8b<b&b<b<b6b&b&b]b*bQblbGbAbNbAbAbpbAbNbGbRbNbYbNbGbpbtbyb4bUbOb8b<b1b&b&cacgcgb^cgcncscncvcgb*b0bkbqbYbPbGbSb3bSbGbAbSbGbda|bwbqbKcgc4c2cSc$c#c&c%cJb.bWb^b^b&b&b&b^b]cnb_bQbtbnbpbya-a$a<bjbia~btbFbja<a^a}bgbWcgb^b<b*cvcscwcabRb4b<b/b&b<b/b]cab]cab^bUbzbMbMb(b8bSbDbtbGbybNbpbAbda~bgbsb$cAcMc0c&c&c&c)b<bmaGb#czc2c)c)c)c#b$cAceb]a3aXbFbObjbpa|a2bubja?bob(a+a:a[a.a.b}cTc)c&c#c#c8cucfc$c)c)c&c7c+c+c&c&cOcMcLb}a8a4a(a8a.a{a^a.a[a:a[a[blbla.a:a(a8b$cwcWcEb<a)",
"aRbAbbb]bQbmbKb6cfcfb~aWbmcJc0cVcuc0cMb$a0aKaKaQaKaKaNaTa4aTaNa*aSaSa\bnaHaKa9bncfcvczcfclcla`a_cMc2c0c3cJb}cVcVc7c7cOb$a\bNbGaXbea(a;bNa}a*a>b<cOcucebKa*bwb/cTc8cMcSc2cEcMcZczcncscAcvcJcZcScWc4cWb~bQbxbVbYb(bYbSbGbGbNbGbpbebSbAb2bSb6ckcWcWcJcLb6b&cncgcvcPcLcTcJcZc$c$c4c8cFb]bebGckb<bIbGbIbAb_b(bYbIb7bVbJbDbnbMcEcTcTcMcJcVcVc2c0c7cZcTcFczcLcJcEcFcLcabGbIbPbIb2b2bDbwb8b?bWbYbAb7bVbwb0b_cJcPcTcTcOcZcOcTcZcTcFcAcOcTcOcucucJcFcgbibjbSb4ckb>cgcpcackb^cebUbybVbqbnbycvcFcucSc0cVc3c&c#cMbobpaWbyclc4c#c&c)c&cTcla`bYa&aGa|bda?bwa+a~a}a^a}bkbqa%a.a[b/cnc2c7c3c7c3c3cZb}b/c4c7c&c7c#c7c#c#c#cPb}a.aTa(a:a(a4a(aFa4a^a[a:a[baa[aZa8a8bBcecJcucuclbUa>",
"aObibmbHaEa5bvbva>bXb8aWa>cncMcSczb}a9aPaNaKaKaJaKaHaKaKaKaQa_bUa3aSa6a|b$cvcea)a#a+a`a*aZa(bda9b}cOc4cEczcuczc0cOcfa>aRaPa%bpaPa(a8a8a(a(a8a/bWclcAcwbXa)csc&c7c2czcVc4cVcMcVcTcWcEcTczcEc2cSc2cFb$a]blbea^bka]a^a}a^a=bua|a^a(a.a.bbb*cMcWcVc#cLb}bmb0b]b/b^bKbvbQcucvcOcEcncnbFbna`bnclcLbvbOa.a(bHb.bFa?a[a{btb0czcOcMc2cOczcMcTc3c8cSc8c&c2cEcTcabmczcLb:bvbqbIbZbAbrbkb1ckb1b8a|bjbAbFa|a~cfcZcScEc2c4c7c#cVcSb^b6b~b.b<b&cEc2cTcubCa#a[bqa[a[bLbzb*b^b6cwbObga^a^a=a7bXcncMcEczcScEcMcSclcVcEbybpaWcsc,c#c#c)c7cubBbWb~b<a*aIbjbiaIaRaPa<bea^a-a}bZaTbBcecVcTcEcOcJcMcOcEcFbXbKcwb^cncncncMcWcZcubQbda8a:a:a{a.a8a.aTa(a:a:a[a[a[a[aTbbb^cOczaLaya>cAb^bb",
"aMa&bbbCaUaCaOa+a_a/bCa)bbb&b$b$bsbvbobGbybGbka-aZa3a8aKaFaHaQaHaJaQbbcnc#c7b&bba-aZaZa(bKcgcwb$a5cvc#c3b]b$cab/b0b1bna?a1a<bAaHa8a8a8a(a.bGa8a4a3bwbMbMa)cgc7c2c3cSc0c4cSc0c3c&c&c7cMc7c7c7cFcfa{a}babxbea^bka=a.a^a^a^a(a.a.a[bcbWcucTcVc4cTcMb8bba~bibXb<cvcfcgcfcncub&b]cJcJcZcucPcab$c5bRbba8bababjbqa^a`bOcMc8c8c3c7c4c0cOcOcEcMc4c0c2c$c0cSc$cgb}cbb*b7bebNb7b9bYbVbYb&cgceb<bPb3b+b.cncAcJcEcMcTcVcScVcTcgb&b^cpb?b:b+b(b<cpb.bva6a%bMbqbMbja~a]b<cga}a]a[bqbea=b&b^b}cncEcMczcucMcScEb}cEc2b>bQaWb&cEc0c&cMb6a;a{bEbobya+aDbpbNbMbcaCa+a<a.a+a|b_a>b$cwb&b6bQb1bHbba)a0bgaWa&bubNbPbYbSb&cgbQbba{beaZa:a[a:a:a:a:a(a.a:a.a:a[a[a`a`czcZc0cMbXbmcfcAb^bB",
"aObybhbHb1bvbgbca_a_bHbQa>bga~bcbnbobsbzbzbzbcbzbFbLbFboa|bia]a]a?bnb$caclcabvbHbybnbHbQcfclclcfbXb/cMcMcsbBa7aTaYa=a<a<a*a^bAaIa(aZa4a8a8a[a8a{b6csb_bBbbcwc7c#c3c#c#c7cTcEcEcJcOcOcVc0cLcububdbDbAbAbAbAbAbpbpa~bAbFbobubFbjbpb&b^cncab/cgcncub~b&b]cgcnb&cab]clcncAcnb]cacFclcvcucscfcacsbGbna}bebebkbybWcgcLcTcOc4c7cWcScTcVcTcMcFclcEcTcTcTcWcJckb^b`b+bSbRbYb3b3b(bYb4b.b>b~ceb+b(b.b~cucwcEcJcJcAcucncncab^cgceb6a!aPa0bMb8cxceb_bSbpbsb*b^b*b1b*bRbubGbNbGbGbQb*b]b6a,aWa)b<b]b6cfcvcOcMclb}a?btaBa]bQb*b^bna{baa{a:bpb+a+asbubNbNbua+bdbja|a|bdb8bHa\bCa`a?a|bjbibda`bja?a<a+aIa&bYbNbua*a1a7a.a3a|a-a$a%a7a4a3a8a4a%a(a(a8a]a<b<b/b]cacfcacuclcnb/bFa/",
"aPa2a2aXaRaRaVa2aXa!aXa2a,a`a\bibca/a,a\a/a0a0a0aXa2a#a#aUa#a!a#a!a,a;a6a*a,a,a;a_a/bsbga?aVaNaVa+a!bibna`a;a6a6aVa1a1a6a$a$a$a$a.a8a8a8a4a8a;b(clcwcrbBa)b&b/b]b]cacvcAcebKaxazaEa5a0a5aOaGaGaRaUaRa0a0aRaLaIaMaOaPaUaOaMaGaIaLaLaLaUaXaUaOaIaDaLaIaMaMaIaUaMaIaFaDaIaRaRaGaxaFaFaHaIaKaVaLaMaMaIaIaGaMaOa0aOaRaLaOb/cGcFcFcsb/cacwcwcacsb6aGaOaPaIaOaXaXa2a0a!aUa0aRaRa0a0a0a9aRaRaRa0aOaMaLaOaMaMaLaOaGaEauayaAaAaEaDaGaIaGaDaGaEaGaEaDaDaAaDayaAaAaDaGaIaRaOaMaDaEaGaAaxataqanaqaIa~a~bzbQbLbea1a.bkaua$bdbubabfbrbxbla[a&bYa|a!a-a|a+a+a-a!a+a&a;a&a1aPaSa1aMaJa!bdbia?a;bNbja<aVaMaMaMaPbwbGbIbpbdbjbebkbkbja}bqbwbdbpbkbpbwbqbAbGbda<a$a3a(a%a7a<a*a!a6a-",
"aYa3aZaYaNaTaZaZaTaZaYaZa*a}a<bDb?b:bWb+bRb`b*bHbCbhbObObsbzb+b_b>b>b_bUa$a$a&aPaXaMbobFbGbMa(aHaJaSa1aVa&a2a*bda(a-a3a3a.a7bubwa(a(a4aZa4a8a.a8a4brcma#a$a}aYa7bebIbVbSaPanabaDa_bObzavaiamaiaubga_bCa#ahahalalaLbFb0bCauacajaeabaqa/bhbMaEafaeajaeakaDaUa#a+apahaeafama#bia`bgamafahahaya?boa+aPapaeaeabaFbobcaSadada1b`cmchb4b?cbcbb?aKajabaPa/bca2alamarapaMbCbsbiasanaoanaqa0bnbUa/akaeahaeava?a_bgaVacacabababaxaPa1aPajabaeahalajaAaDa$axabadadabasa6a?a9ajabababacaqaGaFaAacanaza1a-a;bNa$a]bubkaka-a]bwbxbfbxbrbra%a,bMbVbVbPbIbqbIbSbNbSbAbGbDbea}a-a}a|aVbobWbobMa,a\a~a`bca&aRaEaubub|b\bJbfblblblblblbrbEb\ctcHcqa|bebwb[b;bwbla{a[a}a^a.a{a{a^a^a}",
"aYaNaKaKaJaNaZaTaQaQaQaTaKaKaNaQaTaYaQaQaTa:bGbSbWbzbLbcaTaZaTa4a~a<bAa2aSa3aSa6a2aDaxaMaBa<aFalaraBakaHaPaMa(a<a.a(aSa3a%aSbjbka(a8a4a(a(a(a8a:a8aZb{a,a$bNbda]bobNb7bSawababaubbbWbSaiaeadababa>bzb0a#acadacabavb4b>bWaqaeamamabaia_bhbFaCanawaoaeanaIa0bca]acababababaEbFbLbLabafadabaia$bFbMaMabarahabawb0bMbiafababb4crchcbceb>b:b#aoacabaVbzb4a*abaeababatbLbObYapacabababa#bRb4biabadadabapa;bOb.a$acacacaeabaua6a$a$adababacabamaIa2a<avaeadacabasbMb4a?acabaeababaoawaDaFabadaqa9a!aIaDa$a!bebIafauaMbdbwbqa{babkbka~bNbIbIbxa}a^a=bebwbaa(a=a:a.a=a(a^a-a1aLbYbga0a0a#a;bza?a9avaEaMaRa(a.a.a:a{a{a:a[a:a:a:a.a:a.a(a.a.a4a8a4a(a(a.a:a:a:a%a.a%a(a%b9",
"aKaKa-a6a!a!aKaTaTaTaTaZaTaTaTa4aTaTaTaTa4a4aTaZa%a%a(a%a%a8a4aZaQaTaYaKa7a(a6a7a+aPaPa3a6aSazarajaFaSa%a7a8a8a(bja$aXa~aVa$bNbka(a.a4a4a(a(aZaZaZaSciaVaVa<a;bjbtbNb+bYazacabatbHceb7asauaragaebgbHb#a/aqawamacavb+b+b4a$aHaDazabala_bObNa9bGa-aVasapaMa_bObyapauanaoabaGbyb4bzaoauaoaeapa<bLbWaPaiaqaqabazbWbUbjafabadb4cob.b*b(b.b?b(aqacaba;b0cea=anaqahacaBbsbFb(asaiamacaba/b4bRbiaoatataoanbib~b_a*aBawawatadaAa|bda|aBazaqaqajawa1aPa|aPazaoaeacapa6a;a\acaeaoadabaoaDaVaMababaqa&a;a,aXbyboa^bPakaqaAbwbDbIbkbubIbea?bGbIbwbVbIa2a`a+bja%a*aNa-a-a%a%a^a6azaGaXaMacafalavaWaRaEavayaIaPa[a[a{a[a(a:a.a8a:a{a{a:a:a.a(a:a:a[a:a:a(a4a:a:a.blbtb4bua1a*b=",
"aKaNaZbra-aVaNaQaQaNaQa4a4aTaQaZaZaZaZaQaZa4a4aZaQaZa4a4a8a8a.a8a4aZa7a%a1aBaMa$a1aVaPaPaSa6a1aNaFa3a(a8a(a%a%a7a]bZbFa?a*aMbwbda(a%babra8a8a(a8aNa{b[axaVa]a;a`bMbYb+b7aJababazbCchb:ayaxauajaba_bCb:a_aqaFatadaxbGa\cba,a#a1aCaeala#bCbRa_bcaLaLayapaMa#b8bGaOauauaqafaGa~bRbLazaBaqaeapbAb+b#a6atawaqabaAbRbWbuaiabaibRb`b#b0bLb#ccb:atadafbob#cka^alatamacaHbzbnb:avaoaqaeaba>b4b4boawawawaqara~bOb`bAaXaKaIawadaybjb+boaBaJaFataoata]a<a<aHawatajacanaIaDaVamaoabahabaoaDaXaKababaqbcbta\a_a+a!a~bkaPa^aoa^bZbTbJbEbuaSaGbGbPbIbEb\b[bNbIbubea]a[a}a}a^a}a|aPaMaDasalaxaLaWaCaEaLbOa\asasagawa:a{a.a(a:a.a(a[a[a:a(a.a.aZa(a:a[a[a:blb\baa(a.brb+bSa-a-a(b2",
"a,a~a~bca%aTaNaNaQaQaTaTaZaZa%a3a3aSa*bwa=aSa3a.a=a%a4a8a8a8a8a.a(a(a4a(aVavaGaOakawaOaDaBaPauaIaAaBaFa7aVaFaSa$a8a=a}a.a=aYbwa<a8a%a:a{a:a(a8a(aYb)b(aGaVbia+a;bobGb9b7aSadabaAbMb:b3ayazasahaba5bsb+a/aBaBatadaya;a!cba0a_a0aCamala_bCbWa0aWaEavayalaRbUb.bWaCaEaEayalaGbib#b4aDaBatabapbjbzb`a^azauarabawbMbRbuaiabahbFcrcbb#b#b8cbb:atabacbib.b`a<awaHatacaFbnbzb?aAawawahacaObobUbMawawawamala;bncmbNa2aSaBataeaCbWcbbLaBaFaFaxaoatbFb9bSaBawatamacavbFbza0atatadababaqauaIaNababaoa~biaLa,a;a,a$a|aNbZa6aFbxbPbTbEbqa|a<bya|bGbGbSb,b,b)bwbebqbea|bja<a]a-a1a6aLaLaOaWaWaWaLaEaEaLaOaEasasaea=a{aZa4a:a8aZa:a:a.a4beaHaFa4a(a:a{a[a[bla(aTa8a(a(a}a.a.a(bP",
"a0bLbCa>a-a+aSaNaNaSaNaKaJa$bLbzboa;bzb4bMa~a`bybSa~a1a3a6a1a7a3a7a<a.a<bpa?axavagaranakagaqaoataragaBanababaAa3a3a7a3a%a7a7a]a$a8a(a8a8a.a(a8a8a4bTboaLa!bpa+a;bobub3b3aPagabatbybMbYaAaEauajaba9bzb+a\aHaFaoacavbobCcbaOaRa_aLapara_bsb8a#a5a)aUayalaXb8b.b#aLa5aLayakaGbub?b+aGaIawabapa~a`b`bjazauaqacaDbWbybFapabagbRchb:bLbyb#cmb:atadabbdb#b`bja6aQatadazbCb0b[aEaJaBaoacaGa;b0bWatawawajapa`bOcxbGaMaPazawajaLb3chbRaPaPaBawaoatbRb+b9aGaBawamacaybnbLbnatazatanabataxa2a$aeabaoa,bia,bcbobNbobpaSbZbPaKaPbebEbZbDa%a&bYboaXaXaXa$a$bwbIa]a&a,aXa/a/aOaGaLbca_aLaLaLaOaOaWaLaEaEaLaCayayata$a%aYaPa=a|a-a=a<a8a1a-aPa6a<a=a$btbFbja<a-a<a(a*a7a%a-a^bAbj",
"aVbia!a&a!a&a9a?boaRa!a!a;a?a~boa~a?a`bibia;a;a|a;a<a|a~a&a+a+a+a?a~bia~a?a9aGaPaDaDaGaBaMaGaDaDawaAaDaMaVaPaNa1a6a6a6a<a]a-a|aIaHa$a.a.a(a4a8a8a(a4a_aOaVa<a!a;bubpbYbYaFamabama?bybSaCaGaxalada_bLb+a`azataqadasbgbOb~aBataOaEaoarbgbCb.a#bba5a5aDafaRbcb#b3asayaCaDaiaIbAb{b(aBaMawadapa|bMb4a-azauaoabaBb0bLbuapadaeb#b`bRbzbLb(cbb(azagaia?bMcobwa$aKawabaBb0b4b`aOaKaFataeaObCbUbCazatawamapa`bUcpbkaVa1aFawanaMa-bSbNaPaFaqatajaqbMb#b[aIaBatajacaEa?a!biazaBazatabawaxaGaJanabaoa!aXa2aVa2bcbDbIaSb2bZbxaSa$bDb2b2bDbGb)a!aDaXa2aOa0aOa!bibAbNbGbNbNbSbGbFbAbNbLbWbMbha_a`bya~a;a+a`a~bdbjbdbpbGa1bjbda+a&a<a+bdbjbqbGbpbAbNbGbAbMb3b7bGbubGbSbVbFa&aMaR",
"a#bRbLbna,a,bUb4b4bOb4a\b(cbb(bobMb+b,bMa(a7a%a}a-a(a-a%a$a-a*a*a$a|a-a1aXaGaOaXa0a!a2aUayaOa2avanaMa&aVaPaVa3a%a%a7aSaSa$a7bpaMasaIa(a:a(a(a(a8a%bDbgaLa1a?a?bobGbobGbYaFaoabamaXbtbYaxaGaxajaha!bcb?bnaFaHataeana;bCcbaBaoaFaDamara_bLcoaGaWaOa#aCafaMa_b#b+aEaCavaxaiaPbSb:b7aGaMawagasa;bMb:a*aqaxaxafaDbzbcbAapadaebWb`b#b?b#bUb3bWazagala~bFcmbeazazatacaBbFb0b[aOaTaHatagaWbUb>bCaFaFawaoasa?bzcmbNaPa6aMazagaPbyb:b`aPaPaFawajaqa?a`b3azaqaqadabaGa9aVa&aHazawazadaza2aRaParabaja!a2aGaGaLaMa<bwaHb2bIbkaJazbIbIbIbVbSb(aXaRbgbsbga/bcbWb7bMbybga\a_a+bobybcbva>a0aLaEaGaWa0aWaWaOaEaEaEaPa<bDa3aBa7a%aYa(a(a3a.a3a%a}bIb7ccb{cbb[bDbPbqa}bVb)b3bta!bia2",
"a#bRb(a_aEaUaVa;a$a-a<a$a<a=aQaNaSbebkaSaTaQaQaNaZaTaYaYa1a1a1aSa1aVaVaVaVa!aMaGaXa!a!a0asasaCayaua6a2a!a6a2a1aza1aVaVaMaOa2a]aCaGaGa(a(a4aZa4a(a%bTbhaWaMa6a!a|bMbybNbYaFaraeajaRbobSaxaGaxagalbcbnb:bcaBaFatahasa;a`b`a1azazawamaqbObUchaOayaMaAavaca6b4cbb`aLaLaxauagaPb7cbb+aAaLauaiasa!bgb+a?aGaAauacaGbFbsbAapaeaebWb+bMb#bMb#cbbSazajafa-bob:bjazazaqabaIbCbUb:aRaSaHataha#bnb.bLaSaSaBamapbpbUcmbuaIa1aFaxagaMbub?b?aMaVatataoaua<a;a<azaBaqacacaOa`a;bdaHaFazatagaDaMaXaManadama,a?a_bna\a9a$a|aNb2bGbdbkaua<bIbwbNbSb7aXaUbzbLa5a/a,bRbNboa~a~a`a+a\bnbha)a>a)ayanakarasasavavauavalalaqa=a{a(a7a=a8a7a.a.a(a8a4a8a.b2a^a3a4a4a4a4a8a(a=a(aGa!aEa<a|aM",
"a0bMbtbcbca,a1a1aKaJaJaKaQaNaTaTaSaTaYa4a3aZaSaNa%a%a4a7a$a1a6aSaVaNaVa1a!a1aPaMaPaXaVapacabayaLaDaxa2a*a2aPa!aIaMbGa2aRa!a2a<avaza7a.a(a8a4a(a(a.bjbLaLaUa-a1a?a~a]bYbYaHaoaeahaRa`bSaCaBaxaoaja,bibYa?awaBatajasa`bib?aVaPaHawaoaqbvb0cra#aUaUaIauaca6bWchb;avaxauataeaIbYcmb+aCaOaCanafa6bhb+a`aDauauacaDbzbsbGapaeabbMb?bobnbobWcqb4awaeaca6bcb[bjazaBaqabaFbCbUb;aOaSaHataha#bnb#bCa-a3aKaqapbtbCcbbdaGaHazawagaXbpbMbMaHaFaqawaqata1aPa7aBawatamacaGa~bRb(aJaFawajaia*a!a2aVavajaea_bzaOa#a\a_a-a}a1bVbIbwbjaAaBaPaFaPbSbYaRaRbnb:b#a/a9btbia~btbybzbgbhbva>aCaWa>aCapalagagakaiarakanapapaea7baa=aJaHa(a(a=a3aJa4a.a=a.a:a.a.a.a.a.a8a(a8a7bqb)bAa*a<a<aM",
"a0bWbGa!aYa%aNaKaJaKaKaJaKaNaQaQaTaQaNaTa3aSaSaNaSaYa3a3a6a1a6a1aXa!a!a1aXa?aXa2aUa0aRavaiauayavaCaVa!a&aqauaMa!aIaOa!a2aDaDbNasaoa8a(a(a4a4a4a8a(a(cbbga6bya<a|a]a&bAbYaJanaeaoaXa?bGaDaDaxamaja,a+bSa`aBaBatahara<a+b+aMaFazataqaqbHb.cmaWaHaVaIauacaVbWb`b,avaDazazaeaIb3cmb?ayaUauanaka,a_b(a\aGaAanabaGb0bMbGagababbWb:bybRbWbob`b7awafabaNbccmbkaFaHatabaBbzbMb:aIaSaFatada/bzbWbca6aVaFaoalbdbQcba?aDaHawataeaRa;bMa`aPawaBaqahaqa7aNaFaHaBatajacaCa~b+b?a6aHawajaia;a;a!aMalabaia,boa_bgaUaAaVa*aPbDbpa|aVaFaPaIaHaVbAbYaUa-bWa\bgbna/a/a`bFbFa`bHbha)a>aWayaWa)aCakakapapapalarapapapalabaqaFaBahata%a.a.aSaNaYa3a.a(a(a8a8a:a{bkbla:a.a(a4a{a[a8a8a^aH",
"aUb4b)aPaNaNaQaJaKaJaKaKaJaKaNaQaNaQaQaQaSaTaSaSa7a3a7a%a7aYa6a$a&a&aXaXaOaOaEaUaUaLaLaOavayasayaDaIa!a;aualadaPa+aVa2aIava2a?apalaKa}bea8a8a8a4a4baccboa,bpa*a&a+a+bubSaPaoaeaqaRa+bGaDazaxajaia+a!bNa+azaBatahaubjbcb+aSaPaBawaqaqbUb_cia2a1aMaDauacaVbRcbb7avaAaGaAakaPb3chb?ayaCauarafa\bgb8a,aGaGaracaMbWb0bAafababb(b?bca\bcbib+b4awaiaia1a!b?a|aBaHatacaFbCbMb(aEaKaHataea/bLb.bsazazaDarapbobUcea$azawazataiaFaBa-a-aIa~aPaoalaqbjbYa}aJaJawaoacaAa+a,bYaIaHatajaca]bza\aAanaoaoa/bza#a_aXaObdbpaHbxa}a1aqaAaVaAauawa&bRa2aVbsbza>a#a5a;bza~bCbgbva)ayaCa>a)aWa)aLapapasasasapapasapagagagabababaoa%a:a(aYaJaSaJaYa(a.a.a=a^a^babebla8a(a.a(a(a4a8baa]aJ",
"a2b(b3a,bjbua(aNaNaKaKaKaKaQaQaQa8aSaZa%a3a(a3a%a<a$a-a*a*a?a$a$a!a2a/a0aOaCayaEaLaLaLaEavayauakauaMa;a+aPauaAa6a<a;a!asava$aRasatafawbwa}a4aQaZa3bPb:a,a$a]a&a&a;a6bdbIaHanaeata9bzb9aEazaxamaja&a&bAa$aFaJawahaubdbcb`aSaPaKazaqatbLb.cbbRbZaAawaqaca1bLb?b:avanauatafaVb)chb?afanaxasaia;bnb0a!aLaAasacaIbUbLbFapafabbWb`bzbzbcbRb`bRaAaiaia1a,b+a]aAazaqaeaFbobCb3aLaJaFataha_bzb#bsaIaIaxarapa`b1cba*awatawataeataBaFa]aObya]aAanata6a1aNaSaNazaoacaEbMb4b+aAaoataraba~b_bLauauaxaua5bybCbgbsa/aGa*aFbqbea1auaxaMaGawaIaLbta2aOa!a9aGaUa&bibMa`a5bba>aLayaLa>bba5a)aOayasapapasasasapapakanakadalawa.a.a%aZaSa$a7aKaNa.a.a.babaa}bIbIbea.a(a4a4a.a8a<bkaGaA",
"a!b[a]a*a7a%aZaQaTa4a%aTa7bkaTa4a7a8a-a^a-a=a;b7bSa+a+a;a]a?a~a&a!a!a/a5auapasavaEaOarafaiamakaxaAavaRa!a2a2a-aVaGa$a!aLaCaDaVayaRaOarakaHawbqa.a}bDccbSa1a-aPa6a*a1a|bSaJalagaua!bnb3aDaDaxamaja1aVbGa!aBaKazaeaubja~b:aSaKaKaBaoaqbLb(b:aXaPaOaDaqaba$b#cmb+aCaIaIaAafaPb9chb4ayaLaUapapa9bnb.a*aAaDaoacaMb4bObSasaladbRb?bobcbUchcmb`awabaca1a\b(a<aDaBaqacaFbnbob7aHaJaBataea_bFb*bnaDaAatalaka~b.b*a1axazawaqaeaqaJaVa*aLa;aVazauawaVaFa3a(aZaFataeayb4b`b.aoadazauaba?b?bLauavaGaua0bzbCbObga/a&a]aIa]a]a-aMaAaCaAaqaxaVa!aGaVa1aGa$azavaLa#a/aWa5aLaWaWa)a5a5aWa>a)aCapa,aDakapapasasagapadaza=a}a^a(a%a3aHaPa=a6a.a=a=a=bea^a}bIbPbqa[a:a(a4a(a(a=a$aIay",
"a!b:a}aBaKaKaQaQaQaQaZaTaTaSaQaTaZa%a*a]a<a-a<a|bdbja|a<a~a`bia;a+a&a9a0aqacabauaLaUaxaiadaeasaMabafaUaOaXaXaMaoaRa+a&aLaRaGaVaxa9aOaVavaba*bJa(a}b)a|a+a*a-aPaYa;bdbubSaFauaiawaXa,b(aEazaualaha1aPbdaNazaHawahaybMbAb7a3a1aVaBajahbcb4b(aUaOa!aXavaba3b#crb)ayaIaDaAacaMbGb:bFavaGaDasaiaVbnbFaIaxatajadaFbUbzbNapalacbMb`a;a;bob`cob?auahabaVa\b+bdaHaBaqacaFbMbAbqaBaKaBaoaca_bnbWbCaAauawaoaka~bMbWa6azawaqaoatawaBa6a1aMaGawataqawa1a=a<aFaHazatacasbMb`bCamamaFaraba<cbboaCaxauana0byb0bLbCbFbiaXaDa$aRa&aRaGaGasaAaGa1aVaMaGaOaUa9a!bcaGaLaWaWa)aLaLaEaWaWaWaLaWaWaLaLayayavapagagakaeagaqa}a^a^a:a.a(a.a|a%a%a-a(a.a=a7a7a}bebqbDa=a:a(a.a(a.a:a^bqbNaM",
"a!b:a%aHaKaQa%aNaNaQaNa4a7aSa7a4a3a(a-a<a-a-a;a|bdbAbtbjbda`bia`a&a&aRaOaIapabahaCa#aGacadaeamaoanava!a+a/aLaxaianaBaXa2a;aRaDaqaLaRaIanaca3a:a.a(b-bGaDa$a1aFaSa2b)cbbSaMaxaraFaXaLb3aMazauaoama1aSbda]aFaFawaqaMbybtb?a|aXaKauamaAbibyb:bRa2a!a&aGaubpbRb?cma+a2aGazara!bFbMbRazaxaxauaCa!a_bga-aGawaoalaVbLbsbYaDanaibUcbbybcbnb:crb+axauasa!a\bYbuaBaBatamaVbFbjbIa6aFazawatbcbyb#b_aFaBazauaEbobnbLa|aGaHaBawawaBawaNa=aVaPatawawaBaSa%bVa6awaJataoavbcb.bMaVa1aBaqasbpb>bCa+aIaAaraRbMbza_bUb0aVaLavaMa5aLaOa)a&aGaDaRaAaraHalapaRa_a5bvbba>a)aWaWaWaWaWaWaEasasa2aLayayaWa/aWaCapaeaealalanaVa-a|a-a*a%a=bwa-a$a$a%a$a%a7a1a7a=a=a}a.a3aZa(a4a7a8a8a4a-aK",
"a2b(b3aPaKaKaJaKaNa4aSaTa7aTa7a7a-a|bjbja]bpbjbpbtbGboa~btbia|a`a+a`aRavaOa2aCanaOa9aIababafalabava&a/a/a&avabaHaPaMaGaXa!auaIalananababaFa(a8a8a8a[cia?aMaYaSaKaDaVbYbGaPaVaFa1a!a;bzbWa`aGaFaFaKa$a,bRbMbFbMb4bRbLbyb#bRbob#bRb[b4bRbYb.cmcbb>b?b#b.b4bLbtb#cbb+b4b4bybCbzbgbFbUbWbUbtbga_aUa#bFbobLbMbzbCbCbCbFbFa9aCbFb?bWbzbcbRb`b+a2a`a\a\a;a?bWb4b(bRbtbobtbjbGb[bSbYb#bYbLbobzb?ccb4bybzbMa/a/a\a*bSa4aSa.aTaZaKawaKbPbka%a(a*aYaQaJa(bka<bjbAa?a#bnbhbHb:b>bWbWb.b8bUbOb0bUaXaCaObtbMbnbLbLaMaGaCa9a>aWaCaLaLbia]avaMaHaFaca!bGa_a_bga_aWa5aWaWaLaWaWaWaWayapa6ciaPada;aWaEayavasasasasapaVa`bGa;a&a-a-bda<bda-a?a1aSaSa3a<a%a-a(a7aZaQa.a.a4a4a8a4a|aV",
"a!bRbqaIa(bfaKaJaNaQaQaYaTaSaTa%a|bjbjbjbpbGbNbGbtbGbybobobybiboa|bia+aLaEaCaCaDaUa0aRapadababajaGa+a/a;a&aOaIaVa1aVaIaDaDaCa$apaiaYamaFa8a8a8a8a(a4b7a|aIa6aVbwb{a6a^bDaAaPaFaIa!a!a\bcbcaGaFaJaPa$bzbybCbCbtbCbUbUbLbUbWbMb#b(b:b(b#b.b(b#b8b.b8b0b8bCbzbsbzbzbzbzbCbsbca_a>bga_a/a)a/a#a0aLaOaLaLa#a_bgbgbCbLboa_a9aybMb?bzbRb:bpcob+aRa&bcbnbgbnbCbOb8bUbCbcbybFbta;a~bAbMbRbFbWbSbRbCbgbcaUaXaXaWbCaFaIaJaJa{aTaFaHaBaoawaNaNatawaHaZaNaBaBaJaPa$aRbzbza)bhbOb*b*b8b`b*b8b8bLa_aOasa2b7a?byb`a\a?aRaGbRa_a>ayayaEaUbzaUaGaGaParaGa+aVaqaEaRayasayaLaLaLaWa5aWaWaLavaeauaDaXaWaCayavavavavasaVa6aLbYbtaXaVa$a$a*a?a&a]bya<a$a$bda%aSaNaNaSaNaTaTaTa4aTaNa*aN",
"a!b:bkaFaHa:bPa-aTaJaKaTa(a7a7a=a]bpbpbebAbGa~bpb7bMbFbMbybAbobdaGa&a;a\a9aWaLa5aOaOaOaOaLaGaRa!a;a+a&aXa2a+a$a1aAaPaMaDaIaIa2auaxaoaqa4aZa4aZaZa4aZa]a*aVa*a*bkb2a$bjbkaAaHaBaFaGaPa_a/a,aIaNaKaPaYbLbUbzbCbCbgbzbLbWbWbWbobMbRbWb#b:b?b+b4b4b4bWbWbWb4bzbnbzbzbnbnbMbLbObsa_bga_a#a/a/a#a0aXaXaOa_a_a_bhbgbsbMbsa_aXavbMb?bFb4b#bzcob(aRa;a_bCbHbObUbUb1b1b1bCbUb4btbibybybFbNbRbRb4b0bga_a_a/aXaDaMarataNa(a-bua$aQaTaHaKaSaSaHaKaFa*aHaFaJaYaPaKaVaRb3b.b0bvbHbUb1bUb*b.b>b8bUbmaRasa2bYa&bAbNa\bia2avbibCbgayaDaIaFaIaAaGaXaMaDaAaravaRa#a/a>aWaLaEaCa5a)aWayayaWayapa2aVaIa/aCavasasavasasa+aVasa;bGaRa!a<bibFbtbjbtbubpbAbibya=aYa6a$a(a1aQaQaTaZaTaQa3aN",
"a+b`bPaIaJaJaTa:a}a3aNaTa(a^a<a}bdbGbGbybAbNbybSbpana\bSbia?bda`a2a+a?aXa!a0aGaOaWavavaRaUaGaXa2a2a?a!abaAaPa!a+aSaVaVaSaOaGaParaDanaQa4aZaQa=bra8aZa<a*aVa*aYa-a%aYbAbwauagaeazaFaJa6aradaeaeauaNaPbpa2aqaqaranaIbybkbSazaoaqaqanaFb#b?b`a&aqanaqaoavbibUbMbMaparararara/bWbLbnajaeahahava!a`a`aDakamamapa9bnbLbpavalanbRcbbRb#b4b#chb+auanaCbLbUbQbcavanajakaRb4b0bSaEaoaoanaAbMbWchb(ayararaoaAaMa+a&a$auawauauauaKa-aNa]atajajaoara6a?aVaFazafafahagaUbWb4bsauaparanaybRb~b*a;apanaoaXbYaVaPa]bRbdaVaCbiboa_aGagaeadazazaGa6aMaDayaCaUa9a/aUaGa/a)aWa5a5a)a)aWaLayasafaPaPaxaPaIaCapapasasasa!a&aLaIbRa9a+a|bMbAbybjbGbybFbSbAbGbua*b3bYa]aSaYa%a.a7aNaQa%aS",
"aUb:bwaHaKaKaKaKaYbkaZaYa%a.a-a<a|bAa~bNbYb3b(b:bRa+bybdaya+a~aGaRa;a?a#a0aLavaEaWaOa0a9a0a/a1alaca1a+avaoaFa&a&aYa3a6aSa2aPa!apataFbfa7a4a8a3bxbVbea<a$aSa$aNaSaZaTbAbGarababawaPaNa$abaeadabaoaPaSbAaPahajababaubqbkbZarajaqamabaqbWb:b:aOahaoaoaeaba$b#b.byakaoahaeabaGbFbRbzadaeaeabaiaPa\byaFapajababazbcbLa}acabalbFbWbMb4b0bUb[b+arababa`b*b>a|acadababaxbLbFb+anajahababbcbMb`boacahajabavbpaUaLa1auatahaeabaBaVaPa<ajajataqacaubtbca^aoacadababaGbRb#bLararaoadaibjb.bOaHacabaqa!b#bNbca?b:b)aVaOb3bcbgaVaiaqawamaiaraVaXaXaEaUbna;a/a0aLa!a+a#a9a!a\a/a>aWaCasaGa9aIauaHa<a^aSayaCaCaUa-a<a$aPbMa`a;a<bAbubdbFbGbAbjbibka;a<bdbDa-bdaYaTa3aTaTaNaQa*aY",
"a,b:aKaJaJaJa%a6aKaTa-a^a*a*a]a`bpbFbpbYb(a~a2bYbYb3bLbtbFa~a\a!a!a&aRaMa2aUa0a9a_a&a0aXa?a;a!aGaIa+a;a&a!a+a$a3a&a2aPaDaVaMaVaraBa3a8bEa:aTa4aTaZaZbubda6a-aJaQa3aSa=beaqababawa+a1a<anaranabaoaJaVb7a!atatamacawbAbkb)aFaDaFawalaubUcbcba!azaFaDasadaVbLb.bFavazauaqabaGbibMbyaqanaeabafaVa~bzaMaAaoaeabaAbzbMbuafabalbFb3bObMbRbyb4b(aualaba*b0b`a|araqahacata~byb:aDazawanabbnbRb`bLacataqadapbFb.a>aJaDawajaoabaFaPaMa*awawaJaBakaua]aIa1awajaoadabaUbzbUbOaUaOaxanafa~b(b0aVababaja,b+b#b4bLbLbGa!axbYa_a/a9a5a9a/a\aRafaMaVa$aGa&bca_a\a/a0a/a;a+a&a\a<a;a/a9a5a2a!aXaFaMbqa<a7bfa=a]a-a=bebea-a]bpa]bobGbybGbtbubYbRbSbya$bjbububjbja=aPaNaQaNaTaNaQa*aS",
"a2b(aYaFaJaNaNaKaQaZa$a]a<a&a&a`bAbNbWbybAbybFbYbRbMbMbMbta~a\a\a,aXaRaRa2a;a;aOaXa`a~a?a]a<a~a&a!a;a-a+a$a6a$a-a$a6a&aVaMaAaGauaNaYa4a(a{bfaZaZaZaZbpbGaVa7aKaKa3aZa|bkaqababataVa1beavataradajaHaMb,a\awawatadaAbSbwb,aIaMaJazanaub4b:b{a0aGaPaDauaka!bLb4bYaEaMaDaqabaDbAb7b4auaraqaeaiaVa?btaPaxaAanacazbzbRbAakabama`b4bRbLbWbRbRbNaualaca$byb`a}awawamacata~byb)aOaGaGarabbzbWcob4axazatajasbnb.b8aMaMaqaeahabaAaFaIaVaHaVaMaBaiaua~a!a]aBawatajabaLb4b_bUa/aWaPasafbpb.b8a1ababama_b+b>b_b:bUbFa!aybMa?bgbca_a)aWa_bga+bFa1a<a;aCaWa/a_a\a>aCaGa_a?a+a;a2a9a&a3a*a3aNaIa1a^a%aZa(a4a4aYa%a<bea%a%a<a%a6a<a|bdbja?a?a|bibpa]a?bybYbNa~a|a$aQaNaKaTaNaNa*aY",
"a?bGaFaFaFaJaFaHaSa3a-a-a<a~a?a]bcbMbSbcbubcbFbRbRbybyaRa;a&a,aLaIaXa2a!aGa?a]arabaJa&a<a]a]bcaUavaCa!a*a-a6a$a*a3a1aPa2aIazaPawaKa7aZa8a8a8a:a4a4a4bjbjaYa6aJaQaTaNa<beamababawaDaYbjauauaradabaFaPb)a&aBazaqacaAbSbAb9aFaFaBawamarbFb4cca#aBaGaAauaka1b(b3b+aDaMaFawafaDbpb3b4aAaCawaiaiaVa~bNaVaxaxanabaBbcbMbAaiabaoa,b3b4bRbUbWbSbyauagaca!bnb?a<azawaoacata~bob+a&aGaDarabbFb#crbyacaiaoajapa~bHb.a?aIaeaoaeabaDa1aHa1awaPaSauafata?a2a-atawaqaeacaLbzckb8a&ayawanacbibRb0a6ababaoa_b+b>b?b_b:b(aXaCa]aEaOa_bna|a]a=a-a-buaVa6a!aya>a_a_a_a]a2a1a%a3aSa3aYaTaZa%aYa%a3a3a%aZbqa8aZaZaTa4a4a%a%a-a.bob:bSbya<a*bta|a?a;a+a2a6aMa7a$a%aYa6a3a3aYa%a6aNaKa|a<",
"a<a$aFaJaHaKaJaJaXa+a&a&a?a`a~bta2bFbYbRbMbibibza~a,bca&boa!aRaOaVa!a!aXa`a?a?a,a&aXa&bpbybAbia?aEaya&a;azaVa$a!a1a1bya0aVaVa<axaNa3a4a4a8aZa4a%a4aQbAbkaVaVaJaNaQaNa=bearababawaRa]boauaxarababaFaJb)a!awazaqabaDb7bGb9aDaFazatalarbybLcma&aGaMaGaxakaVb?b)b(aEaIaxataeaIbYb?bRaLaGawakafa6a~b3a6aqaqamabaFbCbMbGalabaha2b3bMbWbWbRbNa~auasaca1bcb:a<awawaoacatbcbob:aRa&aVauafbOb8cobRaqawaBadakbMbvb~bYa\awajaoabaGa;a9a?awaPaFaoacaoa?aRbVazaqamacabaOa!bnb0biavauaoacbAb>bUaVafacama_b(b#b`b?b>b7aLaLboaWaCboa~a=a^a.a8aXbpaVa1a$a-a*a*a<a=a8a(a8a4aZaZaZaTa7aKa1a1a9a!aVa$aZa[a.aZaTaQaTaZa%a]a+a!a#bgbRb#bAa`a;aMaIaLaMaXaIa$a$a^a]a7a3a<a3a6bea-aKaKbSbj",
"a*aVaMaIaFaGaMaPaXa!a;a2bdbFbWbFbybna~bFbiaRa2a?a2a+bybobca!aRa&bca;bobia;a`a`a~btbtbFbFbMbtbiboa|a`bda~a+a&a9a0a1a3a&a`a1a]bpaDa[aSa8a4a4aTa4a8a4aKb?bNaPaYaKaNaTaTa.bkaqababataPa]bAauaxaradabaFaMb,a+awazaqadaDb3bYb9aFaDaFaxalaobFbCcCa+aDaMaFauaga6b?b)b:axaMaDaAagaMbNb[b4aGaAaralala!a~b+a*auaxaqabaDbybUbGapabala&bobtbMbWbMb:bRauaxafaVa\b?a=auataoabawbnbLb[axawatamabbLb#cob3aqawaBaeapb3bUcrbWb3bYa9aAagaLbRbFa/aSaBamamafaqa!aIciaJataganaka2a6aCbtbFaEaGasafbub~b.a1aiadanbcb.b4b#b:b:b(aAa#bCa_bga}a^a{a[a|a1a#bCa6a$a%a4a%a(a:a.a(a4a4a4a4aTaYaQaPaVaOaCaCaEaCa!a4a4a8aTa4aQaTaQaYa}bua2a&a~a-a-bIbua;aRaXaGaOaGaMa2aZaYaNaTaTaNaQaNaJaZaNa1b7bA",
"aGa1aMaRaMaMaXaIaXa!a+a9bnbibia;aRa&a;boa+a2aXaRaxaMa&a+a?a;a,a;a;a;a;a~a~bobybybFbLb4bLaVa~a~a`a*a<a|bda|a&a6a1a4a4a4a4aSaZbpaPbwa3aZaZaTaTa4a(aZa^cobFaGaSaJaHaQaSa=bqatababataRbjbFauaAaraeabaFaVb?a&awawatadaCb3bNb(azawaAataianbUbYcqa/aMaPaIauafa6b+b3b)ayaOa&aFakaMbpb7b4aFaGaqaeaia*byb?a$axaFaxabaGbMbLbFapabaka!bibobobMbRb3bNaxauaiaMa;b:a-aqataqabaubsbUb3aCazatamabbCb#cbbFazahahaeapbyb*cpa*ara-a;aBadaLb4b(bnazawaqadabaqa?aIccaJaFalauauaGaMaMa?aUavaDarapa~b*b0aOavaeaoa\b+b8bWb#b#b7aCa0b4a|a<a[a[a[a:a=a%a+boa&bja}a.a(a8a8a(a8a8aZaZaTaZa$aBaAbGa1aLasavaHa-a8aZa.aTa=aTa4aTaQaQa.a7a(a}a^bea%aPaDaHa!aLakafaxaMaNaSaQaQaNaQaSaSa3aKaPa7bYbN",
"aAaRaDaEaIaAaMaXaXaXa;a;aXa&a;a~bobcbta\a;a2axaDa;a`aXa2a+a`a?a`a~biaOa`bobWbRbObLbRb#bza+bzbAbia&a-a<bda}a.a(a4aZaZaZaTaTaZa|aGa(aYa4aQaQaTaZa8aYbwcba~aMa*aKaJaKaNa}bwaqababataVa~bjasaoauadabaIa1b9a&azawaqadaxb7bjbYawawazaqaiaobMb_cma#aIaMaFauaea1bFb7b3aOaPaIauahaMbNbSbRaDaHaAagaia6bob?a1aDaFauabaDbMbRa;asagagaXbtbia\bcbMboa?axauacaFa9b+a$auataoacaubvbUbYayazataoabbOb*b:bnaeaqaqamakbob*cea]auahahaiabaLbRb4bRadamaoaeacaqbobcb[aJataoaGakaGaPaAa!axauaGavapa!bObCaIavaeaoa/b4bLbUbUbWb)aEa;b,bqa.a.a.a:a.a(a(a(bea$a*a=a=a8a%a4a4aYa(a6a6a+a&a/bcaVaAaKa$aNaVaZa8a8aTa8a%a.a^aNa4a8aTaQaQaKaKaQa8a7a7a]bea~a&aDasava1a7aSaNaNaQaZaSaYa3aKaPb2b(a&",
"auaAaGaDaCaDaIaXa&a&a`a;a+a?aXa;a`boa!aIa!a!auajaPa1a!a2aXa2a;bjbGbya`btbRbMbRb4b4bWbWb0bRbLbybia<a-a]a]a{a.a8a4aZaZaTaQaTa4bjaPbkaSa4aZaQaZa4a4aYbqcobcaFa6aNaTaZaZa|bqatababaqaPa*bAasararababaPa6bYa!awawaradaubYa|bNawawawaqaiambtb4b?aXaFaFaAaqaca$b7b(bdaXaPaDaAafaMbPbMbAaFaGawagaia$byb9aVaIaFaradaFbybUa<avagada;bNa~bGbSbNbya?axauabaDa2b3a6aqaqajacaubvbUb#aCazawaoabbCb8b#a5ajaqaqajapbob*cea|aRaFaoababaEbMbRbLaNaNawawaxaubFa`bZawaraDaFacaAa+a9boaGaAaqakaka!bsbCaIakahaoa,bWbzbzbWb#bAara,b+bPbpa:a.a(a8a8a.a4bqa*a6bdbAbpa]a4aZaSa}bna_a#ayaCa_a%a3aTaTaNaTaQaQa4aTaZa.a1bIaQaZaQaQaKaNaQaQaNaNaQaNaQaZa7a.a*aVaKaYaZaSaQaKaQa3aNaVaTaNaPb)coa;",
"axaMaIaGaxaGaOa!a&a,a+aMa;a~a+aGaFauaRa`a`a&aIayaVaDaGa!a2a!bibiaPaFbzbybMa~bzb#bWa\bgb(b4bgbFbta]a<a(a%a7a3aTaTaQaKaNaQaTaZa<aMa}aSaZaZaQaNaQaTaZa^b?a|aIaYaKaNaTaTa<a]atababaqaIaVa;aAaxanababaIa1bAa!awawaoabara]a-a$aqauauaqaeala\bybNaRaBaDazarabaVbybYa+aGaDaqaoabaDbAbWbiaIaJawahadaVa`bNaMaMaFatabaDbobya~asalafaBa-a=a^a}a=bja-avaxabaFa0bSa!auatajabatbsb0b(aCaxaqamabbbb0b#a_aratawanaia~b*b>a,aIaFamababaCbcbcbcaHaFawaMaGaxbia+aFauaIaEarabaua*a;a&aDaMawaeaka*bgbsaPavajaoa,bYbzbtbRb4bDara9b+b7a$aSa.a.a.a:a:a=bka2bjbAbibpa|a|a*a-a$a+a-a!a0a&a\a<a*aQaQaTaTaTaQa4aTaQaZaNbDa=aSa4aKaKaNaNaQaNaNaQaQaQaQaNaQaQaTaQaQaNaTaNaKaNaTaNaKaNaJaIbIcca~",
"aAaAagaPa-aDaGaIaRa2aRa2aPaGaAatauanaxa!a&ayauaDaXa!aVaxaRbobobia+a`bnbibMa~bybRbyb4b(b#bWbFbSbta]a*a7aZaZaZaZaZaTaKaNaQaZaZbdaMa.aSaTaTaQaQaTaZaZaNa*a-aBaYaNaNaSaSa*a|awababaqaFaIa;aAaxanababaGaPbya!aqaraeabaka1aVaVaraoaqaoabaha!a!bdaMawauawajaba1a~bGa~a&a!aqaoabaza*bta~aFaIatadabaPa<bAaHaFawamabaBbnbybiakaeagaPa7a7a%a(a%a<bdarasadaIaRbRa+anaqajabawbHb1b+ayarajabaca>b0b.bQawazajabaia?bQb*a2aCaFaFaoabaAa!aVa6atawaHaHaVaxaPaNaIaHa;asababaua6a?a+aLaRaFaiabaPa\a/aEaDadada,bYbWbMb4b3b3aDa&b?b)bMbwa*a.a:a.bebdbdaPbAbea*a.a*a-a-bda?a|a-a3aYaXa!aya#a6aNaQaQaNaQaTaTaNa4a=a<bJaPbEaYaQaQaNaQaKaNaQaNaNaNaQaNaQaNaNaQaKaQaNaKaNaQaKaFaQaJaJbIb3a;",
"aMaRaEayaDala6aVaiaoananaraxaAaraeaoaia1a;aIaRa2a;aXaPaPa+bobibibtbsbtbobzbtbia?bRbMbYbSbSbSbpbja-aVaKaSa4aZaZaZaQaQaTaZaZaZa]aMa<aSaQaQaQaZa8aZaYa3b7bcataSaQaKaTaQaVbkbtaRalauaxaxa+aIaxauauaxaDaDa+b3aMaDaDawaDaGaDaVa1aIaFaDaAazaXaXa+a1aIaVaIaDaAaPa!a!bda+a&aVaFazaIaMaXbpa6aGazaxaxaIaPaPa`aVaGaMaDaPa&a!a;avaxa*a=a3aZaTa3a4a1bwbYaIaxaGaGa`bAaGaEaMa#a_bha_b0b4a!aMaOaRbHbHbCb0a;a#a2aRaLa#a#a5aPaGaIaPazauaAaFaMaVaNatazaPawaqawaBaFaMaRaGaqauaAaIaXa;aOaXaOaGaGa2a2aOaDazanaVbMbRbWbFb4b4b)a!aLb3b#b_b:bYbjbpbNbNbibNa2bNa=a$a3a(aZaZaTaYaTaZaYaZa,bna_a#aTaTaNaQaTaTaZaQaQaNa%aSbIaSbkbfaKaNaKaTaNaNaKaQaQaQaQaQaNaNaNaQaQaJaZaTaSa-aQaHaJaYaXbScba?",
"aLa!aLaEavaCaAaxapanaAauaxararapahaeavaVa&a2a+a`a?aOaOa<a!aAa;btbia~bobybtboa`a;bNbGbSbSbDbwbka}a.a(a4aZa4aTaQaTaNaNaQaTaQaZa<aMa%aKaTaTaTa4aZaZaSaJb+a\awaYaSaKaPa7aSaKa<bIa-aVaSaVa*a-a-a-a]a]a-a-a<bjbGbda?bAbpa<bjbjbubpbpbja|a?a<bja`bjbGbGbubpbda]a<a-a]a|bda]bjbda|a]a|a|bjbdbebebua|bjbubpbpbpbpbqa<a<a%a$a1a=a(aTaTa1aSa-a6aZaQa}bZbpa+a+a<a?bubybybFbMbtbobibybFbFbWbSbFbobtbobzbnbWbFa~a?bda-a<a]a~bpbybtbybobybibNbGbNbobNbSbMbMbAbGbGbybiboa~bibobGbMbybybybya?bda`a;a+bLbybzbLbRbWbMbRb,a\a!b4b.b:b`cCcocbbya+bobSa,bNbua<btbAbGa$a7a.bka6a-bkbkbka^aYaNaTaKaNaQaQaTaQaQaQaQaKbea^aKbeaTaNaKaZaQaKaKaKaNaKaNaKaKaKaKaNaKaKaKaNaKaJaKbka-a<a!bAb[bt",
"aGaGavavayaxaEavalaAaGakararagaeatalaraFaxakaqaAaXa~aXaIa\a!a&aMbcbtbobia~a`bibtbAbIbNbubwbqbla[a(a8a4aTaTaTaQaQaNaQaQaZaTaZa|aFa7aTaTaQaTa4aTaQaTaHa;a*aAaYa!bGbMa&aNaSaQaTa(a(a4a(a}a=a=bebfa}bebebkbebwbkbdbGbGbubNb7bYbGbubebpbNbNb(bGb7b7bYbSbpbubAbAbpbAbkbjbpbjbda|bja]a<a%a%a8a:a.a.a=a{a^a.a:a.a.a8a.a(a(a8aTaTaTa3a_bLb3a#aZaTaQaTa.a.a.a(a.a[a}a^a.a^bka}a=a(a.a=bqbla^a=btb{b_b.b4bRbGbRb+b4b4bWb*b.b8b.b*b*b4bMb3bNbNbGbYb(a~bcbtbtbLb#bUb*b>b:b.b.b4b>b#bMa/a#a!aOauawa_bnbnbCbnb4bza\bSaRaIa<b>b`b`cmcmcmbVa6a7bqa;bob:bRb3a*bka*aTaZaTaTaQaTaQaKaQaQaQaTaKaKaKaQa4aTaNaNaKaNa%bDaJa}a(aKaNaKaNaKaKaKaKaKaKaKaKaKaKaKaNaKaJa4aSaKaPaJbtb3aGa+cobM",
"avaMaCasasasayayauasaxapanalagagaranahadajabajadakaFaDaua?bpboa~a~a?a+a?a~a<a&bobdbAbwbubqa}a7a=a(aZa4aZaQaKaJaQaNaQaTaZaSa%bAaDa4aQaTaTaTaTaTaKaTaQa-a$azaSaNa<a^aNaSaSaQaQaTaSaQaTaZaTaTaZa7a%aTaTaTaZaQaZa3a%a<bja<a$a]a<a1a%bobAbybNbSbWbjbda<a<a|a<a+a-a*aVaSa$a3aJaKa1aKaJaPaKaKaSaKaJaNaKaKaKaNaKaKaQaQaTaTaTaQaQaQaQa<bwa-a1aTaQaQaQaTaTaQaNaQaQaZa3a4a4a8a4aZaTaZa4a(a4aZa.b0b:b.b1bHb8b_bUb0bUb8bUbFbca]a]a(a(a%a%bkbda~bGbjaxababababaEbCbhb*b0bUa`a,aAaraiaiasaCaUayafaca0a~bhbLbUa_bobUa|aAaLb{cmb_bNbda[baa4a4a%bka6a<a]bubua1aQaQaYaTbda7aNaKaZaNaQaKaKaTaTaKaNaQaNaNaZaQaNaQaSbIaQaTa4aKaKaKaKaNaKaKaKaQaJaJaJaJaKaKaJaJaJaFaFaKaSaMaDaGaMbAbWbi",
"alauaLaOaGayasanavavalatalanaoanalalahaeaiamauaoacaearaIa!a?a+a&a&a?a]a+a-a|a|a`bdbdbebda(a]a4a(a8a4aZaTaQaNaKaKaTaQaNaNaNaYa]aAa4aNaQaTaTaQaTaQaQaNa7a-aFaYaKaNaKaKaTaTaQaTaQaQaQaQaTaTaTaTaQa4aZaTa7a%aZaTaSa-a$a*a*a$a$a|a3a<bubGbMbpbybjbpa+a|a]a-a6a6a6a*a6aYaSaVaKaJaNaVaKaSaYaNaZaNaJaKaNaNaNaKaQaQaNaNaNaQaNaQaSaNaQaNaKaTa3aZaTaTaTaTaTaSaQaZa3aZa3aZaZaTaTaZaQaZa3a8a8a~ccb^b_cpcpb*bza=a8a3a[bda]a(a%a8a4a8a8a4a(a%a-a6a|a`asaOaCasafa)bLbbbHbObLbsa#a,aEayayayavayaWayafasbcbnbsbLbLbMbCbNaUaXcbb2a*aQaTa8a8a8aZa%bqaVa6a6aYbkaSaSaTaSaZa7a3aSaQaSaZaNaKaKaQaJaJaJaKaNaNaQa%aQaKaJbea4aJaNaKaKaQaNaKaJaJaJaZaQaJaKaJaJaFaFaFaFaFaHaBaBa1aAayaXa?bMa`",
"akanayaIayaPaOayavaEaraiaoahalagaoaoajahaeauaDanaDaGauaPa9a+a&a?a~a<a|a&a!a<a|a?a]bja<a(a.a%a4a4a4aZa8aTaTaTaQaTaTaQaQaNaQaNa-azaZaKaNaQaQaTa4aZaTaNa7a<awaTaKaNaQaNaQaTaTaQaNaNaQaTaTaZaTaTaTaTa.aTa3a3a%aNa1bda]a-a1a-bGa$a1a=a~bMbNbFbAbybNa$a1bda<aVa1a|a<a$aSaKaNaKaIaSa*aYaSaYaJaQaKaJaKaKaKaQaKaKaNaQaTaQaNaTaTa7a%a<a}a7aNaYaTaQaQaTaQaNaSa3aZaYaZaTaTaTaTaTaTaZaTa4a^a=b4b`b*crcBb_a=a6a4a4a4a4a4a4a8a4a4aZaZa4a8a.a%bebMa~aLaAbva)aEa5bCb*bHbHb8bUbObCb*bObLbsa>a)a/aLa#a5a#bnbsbnbnbzb.b8b:a2aAb[bZaSaZa4bra8a4aZaYbeaYaPaYaNa3a6aSa7a7aNa3aSaKaNaYa$a4aKaKaTaJaKaKaJaKaKaJaQaTaQaKa%a3aJaKaKaKaKaKaKaJaHaFaFaKaQaKaFaFaKaKaFaKaJaQaNaDa6a2aLaOa`bSa\",
"apaAaCasakaoaralakararaeajamagalauaoajatamaoaranaGaRaMa2a!a&a1a&a&a!a*a-a*a*a]a<a<a(a(a8a7aZa}a%aZaZa8aTaTaQaNaQaQaQaNaNaQaTbjauaQaYaTaQaQaNaTaTaTaNa%a|awaYaNaNaKaNaNaTaQaNaNaQaQaQaTaQaTaQaTaQa7a(aQaYaSaSa|bdbda<a-a?bdaSa!bSbNa~a?a;bibjbua2a<a$a6a$a-a1a1a1aNaPaYaYaSa6a3a3aYa7aTaZaNaQa4a8aZa4a(aYaZa7aZaNaNaKaNaNaSaSaZaZaNaQaSaSaQaTaQaQaYaZaTaTaNaTaTaTaNaQaSaQa4a=a.aZa;b{b?bna(aYa8aZaTaTaKaQaZa4aZaZa4a4a8a(a8a.a`bSbnb4bta!a#bzbnbsbzb#b8bUbLbOb8bUb0bsbzbsbobsbFa/a#a_bzbsbLbna_bgbCb#b+aXada%cca}aSaSa}aYaZaZa3bkaVa1a*a$a`bja;a$a6a3a$a1aYaYaKaNaSaKaJaJaNaZaNaKaKaQaZaNaKaZaJaHa}aNaHaJaKaFaKaQaJaHaHaQaHaFaKaKaBaBaBawazaJa9a0aOaOaOaAaLa/bia&",
"apaGa#aWa5aUarafadaqaxahagalajahanaoanaAauanauaxauaGa2aXa$a2a1a1a1a3a6a$a(a-a%a%a8a-a.a%a4aSa(a%aTaQaQaNaNaQaNaQaYaJaPa$aJaSbjaqaJaNaSaTaMaMaYaYaZaQbda<ataSaKaQaVaIaSaIaQaNaKaNaQaTaTaQaQaQa4a3aNaSa(aYaSaSa~bGa&a-a-bda%aNa?bAbybtbNbtbpa`a+a1a+a*a1a6a6a1a$a$a*aYa6bea*a3aYa3a.a*a(a(a7a3aTa3aZaYaQaKaKaKaSaTa(a=a.a.a7aTaQaSaTaNaTaTaNaNaQaYaTaQaSaNaKaNaYaTaQaNaNaQaZaTaTaTa+cqbuaYaTaZa4aZaTaTaTa4aNaQbqa=a(bqa.a%a4aZa~b:b_b>b?b>b:b4b4bUb4b8b0b.b*b*b8b8b*bzbzbLbzbzbzbza\aUbgbza_a,bcaXbsb4bFaOaoaza7b2bFa\a+a9aFaSa%a7aFa6a\bya2aLaKaMaKaSaNaNa*a6a1a-a$a6aZaKaSaSaSa6aSaSaNaKaFaKaHaBa%aJaHaQaFaFaFaFaFaJaKaJaFaHaKaBawaFawazaPa/a#a#a5a0aCaCaObzboaX",
"asaCaEa5a)a5ayakacabaeadaraoajahaqaralaoaAaxaxaxaxaIaMauazaRa3aVa3a3aYaZaKaYa1a%aHa(a%aZaZaZaTaQaNaNaQaNaKaQaTaQa7a{a$a1aKa3beauaNaTaSa.bua1aNaYaTaJb3a]ataNaKaTbua6aFaIaQaNaQaQaQaQaTaTaTaQaNaQaKa^a-aVa-aPa6a<a1a]bFbSa1aJa?bGbibMbNb4bpa`a-a$a+bda+a<a$a1a$a$aSaVa3a$a<bda<a$a^a=a7aYa3a%aKaKaNaTa3a%a=a3aTaNaQaZaTa7aZaTaTaNaTaTaQaQaQaTaTaQaNaQaQaNaQaSaTaZaZaTaQa8aZaTaNaTa=bIa4a7aTaQa4a4aQaQaNaNa~b(cmb_b?b3a$b)a^a-bRb:b_b_ccbUbia,aEaXbWb#b4b0b#b4bLbLbzaUa/boa_bgbna_a5bcbsbobLbta\a!bgbna9aAawa%aFa1b(b8bcbca1aNaJa%aJaYa+b3a~aLaMaSaNaSaSaPaKaKaKaSa6a1aSaKaNaNaNaKaKaJaJaQaKaJaHaNa$a1aFa1aJaFaBaBaJaFaBawazaQaJawaHaKaxaDa/a/a_a/aWa\bga#a#bzbyaD",
"aCbga5aCaLaEaCaCaoarauararaoazauataAaqatawauataqasaMaIasavaMa2a!a6a1a*a7aqaJa%a*aTaTaTa4a4aTaZaTaZa4aTaQaQaNaQaSaQaZa3aZa1a3a}awaZaZaZaTa(a8aZaZaSaNbIaPaBa3aQaSa4a%aTaTaTaZaTaSaTaTaZa4a8aZa4a3a$bebua$a]bdbta`a~b3bWbAa$a|bFbSb4b(b`b#bybWbpa]a]a|bobtbia|bda|a<a<a|a<a-bjbea|bkbVbIbubwbjbwbqa=aYaYa3a4a7aZaZaZa4a%a3aZaZaTaZaZa3aTaTa4a7aTaSaZa4aTaTaZaZa4a7aZaZa%a:a7a4a.a:a^a}a.a.a(a4a.a}a=a^bpb,cbb4bYbybGbda]bdbyb:b:b#b:b+b(a!aXa`bobUbWbWa\a!a,a~bRb4b4a5a/a/aUa0bca_aXa9a<a`bzbzbibca,a&aDawaBaNaBaKaKa=a<a6a4aTaNa7aPa6a*a*a]a-a7a3a3aSa$a1aYaYa3aSaYa%a*a$a(a6a1a*a1a<a-a6aVaSaVaVbcbRa*aIaKa3aQaTa.a3aSa7a1a1a!a/bca_a0a9a/a/bca\a_a_a_a\bCbLbtaE",
"ava,bga/aLaOa0aEaOaUaDapajaqavaxavavaAaxanaDaEa_a_aLaGaOaLaOaLayaxaxaOa2aVaPaPaJaJaFaBaNa1aAaDaFaVa1aVa<aPaPaJaKaPaNaPaNaDaFaPaza3aNaSa-bPbGbea1a7bua3aMaBa%aSaNaJaKaPaJaKaJa1a$a1a6a1aVaSa$a6a1a6a*a?a&a?a<bdbjbtbybAa?a?bpa]bpbRbMbAa!a*bja~a;aYa1a1a!a<a6a1a1a1aPaNaBaza*bda-a-a<a-a]bjbpbubGbSbpbda|a=bpa<bAa|bpbibAbpbpbpa|bja*a1aSaSaNaPaKaYaYaKaKaSaSaSaNaNaSaYaSaYaYbobFb4bWa|bGbka]a|bAbua<bFb:bYbtbGbobtbtbua-bYb`bGaxaDaFauawaxaMa2a`biaDaraqauauawaFaPaMaAaDaMaxa%a%a$aYaMa$a6a6aPaMaAaBawataBaSaBaJaNaNaJaNa3aSaNa*aPaVa6a1a1a1aSaVa*a;aRa<a;a$a&aVa9a&a;a,a!a1aRaMaxaGaXaUa9a9a!a/aXaUaUa!a#a!a!a/a,a,a!a/a!a,a!a9aXa,a,a,a!a/a!a,a!a9aXa2a2a9a-aA",
};
