/* XPM */
static char *xpm[] = {
"320 180 256 2",
".. c None",
"ab c #000000",
"ac c #010101",
"ad c #010201",
"ae c #020301",
"af c #030401",
"ag c #040502",
"ah c #060702",
"ai c #070705",
"aj c #080803",
"ak c #090a08",
"al c #0a0a03",
"am c #0a0a06",
"an c #0c0d06",
"ao c #0c0d0a",
"ap c #0e0f0c",
"aq c #0f0f06",
"ar c #0f0f09",
"as c #10110e",
"at c #11120c",
"au c #12120b",
"av c #121310",
"aw c #131106",
"ax c #131412",
"ay c #15150d",
"az c #15150f",
"aA c #151613",
"aB c #161715",
"aC c #171508",
"aD c #181810",
"aE c #181813",
"aF c #181917",
"aG c #1a180b",
"aH c #1a1b15",
"aI c #1a1b18",
"aJ c #1b1b12",
"aK c #1c1d1b",
"aL c #1d1a0c",
"aM c #1d1d18",
"aN c #1e1e15",
"aO c #1f201d",
"aP c #201d0e",
"aQ c #202017",
"aR c #20201a",
"aS c #212220",
"aT c #222115",
"aU c #22221c",
"aV c #232219",
"aW c #232422",
"aX c #24241e",
"aY c #25210e",
"aZ c #252624",
"a0 c #262518",
"a1 c #26251b",
"a2 c #262621",
"a3 c #262826",
"a4 c #272823",
"a5 c #282927",
"a6 c #292511",
"a7 c #29281f",
"a8 c #292924",
"a9 c #2a291b",
"a! c #2a2b25",
"a# c #2a2b29",
"a$ c #2b2d2b",
"a% c #2c2d26",
"a& c #2d2c23",
"a( c #2d2e2d",
"a) c #2e2c1e",
"a* c #2e2d17",
"a+ c #2e2f2a",
"a, c #2f2812",
"a- c #2f302f",
"a. c #302f26",
"a/ c #303230",
"a: c #313022",
"a; c #32322d",
"a< c #323332",
"a= c #333219",
"a> c #333228",
"a? c #333433",
"a[ c #343324",
"a\ c #343634",
"a] c #352a14",
"a^ c #353530",
"a_ c #353736",
"a` c #36352b",
"a{ c #373527",
"a| c #373833",
"a} c #373837",
"a~ c #38382e",
"ba c #383a39",
"bb c #39382a",
"bc c #393a36",
"bd c #393b3a",
"be c #3a2f17",
"bf c #3a3623",
"bg c #3a371a",
"bh c #3b3a32",
"bi c #3b3c3b",
"bj c #3c3b2c",
"bk c #3c3c38",
"bl c #3c3d3c",
"bm c #3d3c34",
"bn c #3d3e3d",
"bo c #3e3c28",
"bp c #3e3d1e",
"bq c #3e3d2f",
"br c #3e3f3b",
"bs c #3e403e",
"bt c #3f3f37",
"bu c #404140",
"bv c #413418",
"bw c #413f32",
"bx c #41413d",
"by c #414342",
"bz c #424139",
"bA c #424340",
"bB c #424543",
"bC c #43402d",
"bD c #434121",
"bE c #434135",
"bF c #43433c",
"bG c #444646",
"bH c #453a1c",
"bI c #454642",
"bJ c #46463d",
"bK c #464847",
"bL c #474538",
"bM c #474844",
"bN c #474948",
"bO c #484532",
"bP c #484840",
"bQ c #494b4a",
"bR c #4a3e1f",
"bS c #4a452a",
"bT c #4a483b",
"bU c #4a4a47",
"bV c #4a4c4c",
"bW c #4b4b42",
"bX c #4b4e4d",
"bY c #4c4a36",
"bZ c #4c4b3d",
"b0 c #4c4d46",
"b1 c #4c4d4a",
"b2 c #4d4f4f",
"b3 c #4e441c",
"b4 c #4e4930",
"b5 c #4f4e42",
"b6 c #4f4f48",
"b7 c #4f504c",
"b8 c #4f5151",
"b9 c #505353",
"b! c #514922",
"b# c #514e3c",
"b$ c #51514a",
"b% c #51524f",
"b& c #524e35",
"b( c #525145",
"b) c #525554",
"b* c #535451",
"b+ c #544e26",
"b, c #54544d",
"b- c #545656",
"b. c #555448",
"b/ c #565341",
"b: c #565650",
"b; c #565654",
"b< c #565757",
"b= c #565959",
"b> c #57533a",
"b? c #58564b",
"b[ c #585a56",
"b\ c #585b5b",
"b] c #595a53",
"b^ c #595b5c",
"b_ c #5a5328",
"b` c #5b583e",
"b{ c #5b5847",
"b| c #5b5a4e",
"b} c #5b5b59",
"b~ c #5b5d5e",
"ca c #5c5d56",
"cb c #5c5e5b",
"cc c #5d5f5f",
"cd c #5e5c51",
"ce c #5f5930",
"cf c #5f5f5c",
"cg c #5f605a",
"ch c #5f615f",
"ci c #5f6161",
"cj c #606363",
"ck c #616055",
"cl c #625f4c",
"cm c #626360",
"cn c #626565",
"co c #635f45",
"cp c #64645e",
"cq c #646562",
"cr c #655f39",
"cs c #656457",
"ct c #656768",
"cu c #666765",
"cv c #676452",
"cw c #676760",
"cx c #676a6b",
"cy c #685e26",
"cz c #696a67",
"cA c #6a6a63",
"cB c #6a6d6e",
"cC c #6b674a",
"cD c #6b6a5d",
"cE c #6c673e",
"cF c #6c6e6b",
"cG c #6c6e6f",
"cH c #6d6a55",
"cI c #6d6d67",
"cJ c #6e7171",
"cK c #6f6e62",
"cL c #70716f",
"cM c #707374",
"cN c #71716c",
"cO c #726625",
"cP c #736f5d",
"cQ c #737267",
"cR c #737677",
"cS c #747053",
"cT c #747673",
"cU c #75766f",
"cV c #777138",
"cW c #777a7b",
"cX c #787976",
"cY c #79776c",
"cZ c #7a7a74",
"c0 c #7b7766",
"c1 c #7b7d7e",
"c2 c #7d775e",
"c3 c #7e7948",
"c4 c #7e7f7c",
"c5 c #7e8081",
"c6 c #7f7f79",
"c7 c #807f74",
"c8 c #828586",
"c9 c #848065",
"c! c #858682",
"c# c #86867d",
"c$ c #898671",
"c% c #898b8c",
"c& c #8c8c84",
"c( c #8e9191",
"c) c #919188",
"c* c #959692",
"c+ c #9c9d97",
"c, c #a5a59e",
"c- c #b6b7b4",
"c. c None",
"a}bsbGbybXb8b9bybibub^b~b-b8b2bVb8cjc8b^b}a/a9bhaVbJbNbdbNb-b8bsbVa_a<bua_a#a3a}bVblbybua(aOa}bGbGb2byblbibybibsbGb~b9bubXb<b2bGbGb-b2bub7bma~bTa`aVa|bMbabubKbNb9b~chb)bybaa}baa?a-bybybaa\a\a}bubGa<a$bab=b8bNbKbda<bubNb=b8b~b=b2b2ctccb-b~bibNcjcfa|a.a>aZb*b8b%cccicjcnctccb2bGbBb-b~b^b=b=b-b-b2b2ciccb~b~cicicnb^b)b-b~b~b<b)ccb^b2bVb2b-ccb^cib~cucGcucBc&cfbha%aIaIbGbya#a_byb^b8bVb~b<bybabublblbGbNbGbna?bibybNbGbVb8b=cjccb~ctcjb~b~b9bVbKbnb-b=b~b9b-cMcRcJcBb^ctcMcua2arasaQb]b]bWbzbIb0bma+a;a;bPbPb,b]cacab$b,bPb0b1b$bFbzbIbWbIbtbIb]b;b,b1bMa|bkbxbnb}cqcmb;bBb6bUcbcWb-b)b\b\b/bOb`bSaFbzbda3a3aZaWa#a}a_a/a-bib<b)bGb2bKbubKbaa5a5a?a<a}b8b9",
"cibybib8b~blbVb9bnbQbXb9b8bKblbibda}c8c5cNbca*bpaTb#b^bna?a-b2cncBcnb2bGbna3aKaKa-a_a<a}bNbybibabybybNb8b9b2a}a#aKaFa5a<a(aOa$a(a(aSaSa5a;bFcQcPbEa{aWbBbQb8b2b<bNbnbKb8b2bVb9b2bybGbNb8bVb-ccb<b~ctb-bGbBa-bda}bGbKbua-a3bdbGbGbua#a3a-bibQbyaKaSb<c4a|a`a>a-b%b)b^b^b-b<b<b<cxctb=b2b-b-b)b\b9b9b)b^ccb-b9b-b-b2b2b-b=b=b^b~b~cjb2bKb-b)b)b8b2bQb<b=chcFcWc1cTcIb$a%aRaMaObGbna/a5aZaZa(a?a<a?a_blbGbXbKbKbGbGb-bda}a-a-a-a(bub9b^b2b9cBcBcjb=cjb~b~b8b2bVb-cictb~bVbVbua_bnbnb0bFa{a>a.b?bIbha|a!a4a%a.a;bhbtbzcdb0bhbtbzcDc7cIcdbIbtb7bPa8a|b%b1cgcgcgcab[b0bFb0b1bIbFbFb7cmb:b7bKbabNbubnbNbUapaVa!aIbIbKbdbaa_a_a-a\bnbGbVbybVbua-a/a/blaZa$bnbBblbVb\b)cc",
"bKb2cBb1bXbKa}bubVb8bBa?babBa_bubNb2b=cxcQbzbDbgaYbYccbGbda-a5aZa?bGbnb9ctcibNa(aSaIaWaZa_bGbubVbKb8bGb-cJb~b9b2bia?a$a(bibGa_aSaFaSa3bVbVa^b#b{bEbja;b:b)bKbKbBb8bybda/a\b9bXb\ccbXbNbna<a?bVbXbubQb7bnbsbubXbXb8bVbib9b9byblbya/a/bnbaaSaxaIa-a$a(b)aKaJaUbccqctb<bVbubBbNb<ccb=b<ccbNbVb<ctb~b=b2b2b2b-cncjb2b=b9bXb8b8b-b)cjcqb%b)b9b=b<b-bNb8b=b)cnchcLcXb[b6chaUaRapaFa}byb)b~bVa_a(aZblbGb2bGbVbGbVbncicxcBcxb-bnbVb^cjcjb=b^cGcMctb=b^b9b=cicBcWcGb~b^b^b9bya-aWa-a_a<blbra^a7a0a%bma4aHbjb|b(bbbObObta>bmbtbFb(bPbJbWbwbmbtb?cscIcscAb]bPb0bFb$b0btbAbUb]cgb:b]b:b,cpckbAbka_a\a_bNcqcXbMaza0b(btaXaZa<a?bca}a5aSa?b\cib~bGa#a#a/bna}b2chbXbBbVbIbibNbQ",
"bda\b<cuccb-b)ccccbNbKbybdb)bGb=b=b^b^bucUbEb3b_bpbpb%b%b<cjbGa-aSaSaSaZa3b2cjcccib<b2bda-bVb-bVbNbVbVbGb9ctb^cJc5c1cGcxctb^b)ccb%ccctcxcub1a7bWbLa{bIcpcMcGcjbQcxctcccjb9ccchb=b~ccb8bybnbnblblbna<a5a5bnb2b^b~ciccbVblbya_a<a\bGb8bsa<aBaIa}a_a5a3a|aIaUaRa4b$b[cmcTczccb)b9chb^b=b\cib^b=b\b=cJcxcicccxcGctb^b9b2b9b^b-b)b)b-b8bVb9b<b^b9b)b2b9b8b2b^cjcncLczb,cwa1a!a2aHbNbybyb9b^b=bNbVbQbibybnbub)cBcJcnb9bGb2b~b^b=cMcMcxb~bya?a?bnbubycjb=b9b~cjcMc5cWcnb=b9b9b2b9cncBcRb\a2bbbbbLcQcsb]bWbtbScocvb>a^aXaRaEaDa7bJb0btbcb5cwcsbjbFcdcgb6bzb6b6b6bFb0cacbb]bMbJbPb]cKcgcpcmcbb*bQbQb=b;b%bzaQbqcDb?a1aWaSa$a(a?a}a}aWaZa#a3bdb)b1bsbQb-bQbna}a\bab1cbb)bG",
"bNbGbdbQcWb~bVbabsbXbVbub8bVbsbQbKbybVcMcdbjb+bDa6bgb%b8byb2ctb<bVb2b~cGcibGbnbQciccb^ccbVa<aWaObabVbaa(a5b<cWcnb8bXbKbibVb\cJcMcnb<b-bQbublaRa>bha7a3bUb^cjb=bBbnb%b\cxb=bGbQbVa<a-blb}bVbya?bKbKbKbKbNbVbGa}a(a_b2b)bubGb8bNbybGa}babyaSaFasaxaSa/a;a8aUaHatbWbWbzbKbna_aZaAaKa3a?bnbybsbia\a<a?aZa3bibVb2cxcBb^b8b8b2b-b<b=b\b=b=b8b9b-b-b8bNb2b-b)b8b=b=bAb%b:b7aVa!a%aEblcicib~b~b~b8b9cib8blbNb-b~b2b-b<b=b~b~cjctb9bGb2b8bna_bGb8bVbGb^ctctb^bVbla-bVb~cjb8bGb^cBcxcGcRcBb2aKa7a1a&bWbPb?b]bFa9a>bOb#b]bWa7aMazanasaMaUaIaHa!bhbPbWbta^a%btb]b6b$b:bWbPbFbWb$b:b]b,bFa|bxb7cqczczcub)cfcha~a>bZbJa;aOaWa<a-a/a3aZbaa}aKaBaUa_bBbQb)b\b;b*b8bUbNbna}a#bnb2",
"bibnbubybQb%a/a}bKbna#a<a_a_bda$aSa(ctc1b6aTa6a6aCa0bVbla?a_bubia}blbybaa_bXcBctcjcib8bQb2cjcnb=bNb<cxctb^b8bybibsa-aIavaKaZa-a}bnbVbXbNb~b8a7bJbma&a<babibubybVb^b^bya}bQbablbXb=b2bubBbXbQbGbKb2bybybubGbNbVbVa\bnbVb\bQbyb<bla?bKb-b~bsbdbXb=b8b9cfbca2a&aVbPbFbkbAbdbcbnbka;a4aRa8aFaKaKa8a+aWa2aSaFaoapaSa-bVciccb=b9b-b-b^b=cjcib-b=b)b)b=b^b^b~b=b:bhata2b[b7a8a>a8aEa(cBcRcJcjb^cjctcxb~b~bVbubybKb-b=b~ccb^cncWcRctb9b~cMcMcWcMb2bVbGbVbGbGbGbna(aKa(bdbGb9b9bNbGbubnbGbVaSaUa.axavaNa+bWb?b|b|bta7a2aRaxaEa2a.a|a;a;a%aHasaRa^b6b6bxb1b$bPbca+a~b,bWbtbFb0ckcab:b:cab:b;b;cfcucucbb)b)cabhbLb5b$a^a$a5a5a3aWaSaZa5a+bAbBbra5a<bsa<bdbAb%b7bnbBb)bubBby",
"bBbXb9b<a_a(blbdaOaFa(a<a_bua_aZaWb8cxb%b0aQaYaPawa:b)b<bQbdbub8b^b=b-cib)a?a-a?bKbybGbGb9cib~cjb=b2b2bybna#aKaObdbsbubdbybda(a\bybyb)cJcxb9bmbza^aXaOa<bNbGbdbua$a3a\b2b)b-bua/blb2b~b-b^cxctb~bKbNbna}a<a<babubyb9bNbVbNbiaKa5a?a?a_bVcJcRctbGa_a$a+a2a!a&aUa`bWbPb1bUbVb*b}b%b2bMbubnblbIb:bMbcbMb%bIa#aUaSaKa5bXccb9b-b^b-b-b^b=b<b8b8b-b8b8b8b8b7b%b5bqb6bFb0bFa!bha+aRaKbKb-b9b9b=ctb~ctctcGcjb8bGb=b2b9b^cxcjb2bGb9cxb^b~cxc1c8cWcBcBb~cnb~b9b-b~ctb^bVbVb^cjb~b8bGb2b^b^ciaZa!bta+a+a2aMa&b,b.bwbza>aIa2a%a;bPbPbPbzbJbJbtbJa|aQa^a%aUaRa;bkbWb0bPa|cacmcwb|btcacwcpbMbkb:b;cmcXcub[cib~ckbJbwb(b]bka-a3aZa$a5aWaOaWa/bAbsa/a_a?aSaKaWa$bnbQb<bXbsb=cbbs",
"bda?a?a5a$a#a-a5a#a?a#a$a-a#bubGbacxc4bxa:aQa0aPaLa9a<a|a#a?a}a<a-bub8b2b^cxb8bdbab-bVbKbVbGb8b9bXa(a$a$a#aZa#aKapaBa#a}bibibaa-a#a#a}a#axaAa%bJbFa.aoaKbnbQb2a}bnbababdbya}baa}a/a?bib8b~b=b-bXb8baa<a-a_a-aFaWblbKbKbla$aFaoa5bya/a}bVbKbGa3asapaxa;bxbPbka2ama!b6b1b;cbb}chb;b8cncib\cbb8a^a|b8bUb%b8bMbrbFbxbka^bybNbsbsbGbubGbBbVbKbUbNb1bAbka-a%a+a;bFbMa8aoaEa~bFbFa+aAa_b8b^ciccb~b~ccb~b9ciccb9b^cib-b^b=b9bVcjcxcib9b8b=bVbGbybnbabdbdb9cjctcxcWcGcxb^b2bdbub9b=b~b~b^bdaka+bWa;a+a|a+aEaIaXaUbha>bcbzbMb$bLb(bTb|cdbZbha>bJb6a`a;a>a!a%bhbFa~a;a%a.bhbJbPbrbxbBb*cfcFcFb*bkbMcfb*bla\b0a^a:bZb]bPaUa(aWaSaWa(a+aKaOaEaOa(a}a3a3a}a/a?a(a_a-bdbVbla_ba",
"a_a?a-aWaSaFaOaWa#a#a-a$a-a_a}bla-a/bUbWaTaPaTaQaJaqacaiapaFaOa(a$a3a#a3a$a?bVbKa?a/a(aZaIaBaFaBaWa#aWaSaWaSa#bibka+a<a<aWaOaFaEaMaSa8a.bwbTbLb5cdb5a%avamaBaOaSa5a5a3aOaZa_a$aKapakaoaoapaIaKaFavaxaxaKaxaFaxakaiakaAasapavaoaiagaeagakaiagaoaZbzcacgcab$bxbca!akapaOaWa8a(bkb7bublbsb7bXbMb1b7bBbcbybKbAbsbIa+aAaoamaiaiamasaAapaMaXaAarapakaoapajaiaiaiadafakaza^bFbtbMbmaFacaoaIaKa#a<a5aKaKa#bab<b^b9bua_blbybya-aSaFaSaSa5a?bababnbGb9b-b^bVbubVbybGbVbyb2b9b=b=b=b2b2bGa#aWaka2bPbxa^b0b$bPbWbMbJbcbkbMbUcdcwcdb|b|cvbFa>aXaMavaRa`bJbJbzbzbzbhbzbtbca4aRa#aMaBaAaAaOa+a-a^a^a;a;a?bAbIbsbhbza`b.cmcpcgcUcwcgbAa!a(a-a\a(a+a/a}bda/a3a\bKa?a}bKa|aWaOaSa5",
"aoaBaRbmb5bJb0b:b7bra3aWaIaxaOaKaxavazaEaPa)aLaTa)a0a0aVaBaWaXavaSaIavaFasakapaIaKaMaOaWa%bhbkbca!a7a`bqbbbjbqbWb5b?b5b5bzbtbtbwbqa.a[bZbqa1bma.a7a.a%a&aJayauaDa0a)a:a1aJayaDa7a9a0bbaTamajakaoauaUa!a>bha`a`a&a2aHaxaxaJa8a&aNaUa!a>a.a.a>a&a7a|a>aUaUa5a2aUaHaoaiaoagababacaoapapaoakaiasasapamasazaEavazaDataoanakahamamajagaiaiaiaiakakaoakakakakakapataEaHa2a|aOaMaXaUaOapaeafaeacacacacacacacacaiadacadagagagaeaeaeaiagacacaeakaoakakakakasaxasaiaiaoaoaoapapasasaxaoapakaoapa2bFbcaOa%bra^aMaIaOa4a^brbIbPbPb0a.aRaUa%a+a4a2aOaBavasakabadacaeakapaxaoamalananarauaqajajahahaeafacadadadaPb.bmb0b:cgcpcTcTcucYb?a7a1a4aOaOaEavaFaZa#aWaKaOaOaOaOaOaHaxas",
"a-bFb_cCcVcVcVb`b|ckcDb|b5bLbma9a7bPbLa:a=a=a,a9aYa,bobSbwbwa`a1a^a&a8a+a;bha|brbPb0cdcwcpb$ckcwcKcNcAcabJb6cAcZcwb1b%cqcacNchb7b7b1bxbkbIb0b]b$bUbAb;b]cacsb{ckb/b#cdb{b5b(bmbzbJbzb5bLa>a>a`a~a^a~bJbFbtbhbFbzbta^a`a|a`bhbtbkbFbkbWbFbtbzbLbTa7a%bUcbcuczchb}chb$b]b$bWbta`a&a.a1aEanaHaHaNaUa&a~bFa`a^btbmbJb7cgb[b:bFbJbza^a%aXa4a!aRa2aUaXaUaXa4a8a>a`a;a%a+a+bhbrbFbtbma.a%a>a%a!a7a.a>a%a+aUaSaMaOaXaUa+a8aXaWaZaOaBaFaAaxasaoaoakaoaoakakakakakakakakaiaiaiaiaiakapaKa$ava+aIaAa2a;a#a%a+a+brbJbka^a+a+a;a^a;a;a;a!a;a;a$aUaAasaoapaHa2aRaMaNaNa)a)bCbob4bgbgb>b_ceb+bga=bga=aYawawayalaCa)bYb/bZbOb5ckcgcpcQc7cdbYbEbbbhbZbFbwa|a^bzbma|bFbtbJbha.axar",
"cLcFcvbDbScScDb|cNcLcUcIcwcpcfcTcIczcfb7b0a^a;a;b.csb/b/b?b?bUbUb1cbcFcLb%bcbma|bFbrbrczcLb<b<bMbubib8cbb<bNb2b=b}b;bXbKbnbycGcxcccic8c(c5b9ctc8cxccccctcnbVb9cRcxbXb-ccccb^bNb<b9bxbub*a`bmbJbJbta|a;azaOaZaOaSa-bBbKbAb9b-cncccicncBcRc1c1cNcNchcLc1cGcxcWc1c1c5cWcLcLcFcTcUc!c7c#cIa.btbLbWbWb.bZa|bhcbcbctb8b=cBb8b^b^b)b)b8bQbIbGbIbtb,bJbha^a|bFbJbAa|a(bKcjcccccBc5cncmchb[czb\bXb1b)cgbMbXbGbybQbua\a}byb2b)b1bsa|a\a2a;a^a;a+a$a3a3a#a-a$a(a#a$a}a-a#a3a5a(a#a5a#a-babNbXbnbBbdbMb}b%b[b<b%b<cjcTcTcXcLcFcLcRcMcMcqb[b8b*bAa|a;a^btbPbWaUa|bYb/cCcCb|b#b.b#b#bYcSclb|csc&c7c$c#cDcDcKb5b.b5b,b.bZbJb(cdb5b,b:b|b5bLb5b|b{b(b$cgb*b}b=cjcqcmb)ccbXbNb~cM",
"c(c%ctbyb~cMcRc1cicjcxcGc1c5c1cRcRcncjcxccb9a}a}bKcucJcqcicGcWc5c1ctcxcBcFb;b7brb1a$bubUa(bBbXbVbnbAbBbKbNa}aOa$a|bnbxbrbIbxbibXb9cXc&cLb2bsbGbua(a(bdcib8bna_blbdbub^b~cBcGcJblbkbxbubGbKapaHbPbta.a$a!b\ctcicicictcjb<cJb<ccb^a_bGb-bVbnbGb-b-b)cnb^bua$a\b9bKbGbGbyb)cMcMcGczb%b*b[cmbtaXa&a7a%aHaKb<a(axaKa#a-a}a(a(babnbib2b)b8bQbVbGb7b5b:b0b0b)b8b8b2b=b^bya(a(bNctcWcRcxb^cncncWctcMcRcJctccb9b8b8bVbGbBbKbKb2b-b9ccaSa4a+a^a~a|a|bcbybGbubna<a_bVbsbia}babda<a?bubQbGbGb9b^b8b2cnc1cJcxcjctb~b-b=b8b<cucNb6cjcib=bia/bNb)b8bxb6b0bWb,bmaMcgcdbWbTb#cHc2cDb/bKbcbPcIcQcKcwcgcNcTc!c)c,c-c-c-c&cucqb:b:cFcUb,a8brb7aMa1btbEbbbVcBcxccb2cxcGcBcxb~b~ctcicJ",
"b^bubNbVbGb9b9bVb^cxcxcGctb-b9b^ctcxcBcJcBcJcMcBbNa\bdb9ctcMc1cMcibVbabGbybia!a+aOasbubaaSaBa3bsbNa\aSaOaWa5a(a-a|bubAbAb[cMb$a5bkbKb1bBa$aKaKa/bGbQbsb}b)bGb9b=cGcLctb-b2cncqb$b7b%bQbQcIb)ayaUaUaHavbycucucucqcGcxcTcGcncjb-cxcjbGa?a$a#a$a3a5a}a}a5a\a/a\bsbubQbnbQbVbNbaa}a?blbsa_b}cpaHaHarafabaOb)cBb2a5aFaFaKaKaKaSa_b2bnbabGcjcWctcJb)bXb=cjcRc%cXcGcBctcGctb=b~b9cBcWcMcncxcJc8cWb\chcub=czcWcBcJcJcxb^b~cxb~cncJctaSaAaRaOaoaObNbQb=cnb9b\b-bGbGbBbVbGbubXb=b2bXb2bQb2b8b8cGcBbGa5bnbNb2byb-bXbnbVb2bVbnb2b=bVbGbVb\b-cxcxbUaMa%a2a#asaHcwcgbWbZcdcPcoclcdcpb6a8bmcscsb(bTbWb[ckcgcsckcHcDckbbbsb1b{cvb|b.b]cAcZb7bwb6b(a~a}b~cMc5cGcMcMcxcMcMc8cWc5cM",
"bKcjcBb~bGbyb2cBc1cMcjb^bGbVb^b=b~cJc1c8c%c%c%c8cMc8c5cGbQa/aZaOaZaWaWa_bGa}aiaiacaob9b\bKbuaWaZa5a/bAbBbAbcbschb[cfcAcfb}cpb}bUbUb%bNb%b8bXb[b}cwb|bsa|bdbVbNb2b8babubNbVcTc#ckb[czcMcLcLb}aVbJb?b5aZa2aBaFaKaOa3a\bacbcBcub\bnbKb)bnbabnbXbGbxa_a<bBb%cibda$byb<chcJbGa<bda-a\bdbybQb2bmbhc9cHa.aVa/bNbub2cjb-b2bVbGb~ccctb^bGa}bNbXccccb)b=ccb9bsbib2cxcxbQb8cicncMb2bybnb-cxcBcGctb~cMctbVbub\cBc1c%cRc1cXb~cxcjb^b-b-b9bTbTbqa9a^bIb~b<b-b)b~b=b=ccb=b=b~b-bXb8b9bXb8b9b)b=b\bybNb8b)bVbyb9cib8bybNbVb-b8b~b=b~b-b)b9b8b\cMcMctb[amamaEaVaHa;cmb,bkbzb$cHcHckb{b{b|a;a`b0b]ckcHcYcDcgcwb:b,bFa|bWbPbIbUb/cKcHcHcpb]cUcgb(ckbEbtbna\aKa?b<cRcWcRcWcGcccxb9a/",
"ccb~b~bGbub9b2bubVb2b8bGb=b9b-b^b9b~cMc8cMcib=b=cnc5bXbubda_a#aSaKaOaZa-bda_atauamaMbXb9bMcTb:bkbMb[bWb0b*chb]cpcwcgbIb,b6bMcab%b1bAbka\a\a^bMbtbzb:bka#asasa.a;bha.aSbIcmcLc7cgb%b*b)bQbIb7a1bzbPb5bcaZaWa_blbua_a5a5a5biblb8bKa\a\bKb8b2b2b2b-cib9bybnbXb=b8bGa_b8cxa_aWaOaOa(a-a}a}bKbha%cDb/bma>bXbGbGbVb9b=b~b^bGbybla#a_bGb=b)b^b2bVb9bVbGbGbNa}aWbGb8bub=b^b-cccnb^a}a#bQb)bsa_aSb8c8c5c1cWcMc1cxbBbQb=cicMcMcBb~bubXbqb(bTa0aKczcjb=b^b^b^b~b-cjb\b~cib=b~cnb=b9b8b9b^b~ccb9bubdbub9bVb2b^b^bNbVbGb=b^ctb8a(a5a?babybyblbKbGbraVb/cvcvbYbWcpcgcgb,b0b`cHcScCb.b|bZaVbkcab.cdb|b,bAb1bAbxa_a^brbxbAbca`bWb?cscsckcqb%a`bJbha~bVcxbVbNbya_b2bVbGbVbna_bGb~",
"b~b^cGcxb~b~bVbybGbVb-b^cib9bdbdbubGa_b2cnb^bKb8bycncRcib~cicib^b-b<bVbnb8bXbfbOa{a&bMb*a\bIb:b[bAa^aZblbMbra#bkbIa|a|bIbFbcb,cacab6b[bxbra8aXa;bAbra&aDa1bTb?bEb{cvbJb?cBcqcUcpb*a^a3aWaIa+aUa|bFa`bBb*b)b)chb9bQbGa_a#a(aZa}b%bGbdb*b}bVblbybKb<b-cictb<bQbGbKbibGa|a/aOakaoaBavapaIa5bha!bPbta%a8a_bGbGbGbGb8b^cccxb8bdcccRcWcBb=bda_a?bya_a?a_b2b2a(a(byb9a?aZbdbnbabVbVbXbVbNa_bubuaWbNb=bybyb\b~b)bdbyb1bXb-bNbnbsbnb9a>b5bZbLa^bMcxcjb^b~ctcjcjctctcnb~cicjb~b^b2bQb-b9bVb~cGb9b~b2b9b~b8b9b2b8b^b~b=b2bna#aOaZa5a3a#a5aZa_b\bPaXb/b#bZbTcpcmcbb[bZcdc2cSclb&ckb#bPbqa?aMaOaMaMa4a#bkbka^a/a#a;a!a^brbkbcbzb,b/b{b*b0a1btb$a~a}bnbya_a3bGb~b2bVbVbnbVb9bV",
"b-bGa#a<bua<bdbybGb2bVbna_bGcncBb=b9b^b-cxcGb9bGbGbGb2ctcBcRc5c5c8c5b-bGb~b~a&a[bhbwb1b6b}bKa3aSaOa$bMa#aOaKa4a;bIbUa\a%bIb7bxbAcab,b$cwb:cAcqcfbUbMckcwcDcPbLbTcsb?b$bUbMb<cZcpbJcacIcLcNb[aUa^b0bhbAcuctb<b9cicRcBbGa(bQbBaZbQb}bUa+bda\bQbKb%b2bXb-b8bybabQb<b}bQa3blb8a}a\baa\a/aFaFa}a%btbza;a%cjcjcib2b<cBb~cjcccRc8cMb~b=b2bia<babVcccxcGb8bGcicncxccb=bNb9bKa-bla(a/bQb~cMcWcxb~bsa$biblbVccbNb)b\a-aAasa#a/bubububQbLcDbZbEa^aua$cJc5cncjb~b=b8cccjb~b9bVbGb-bVblbubVb8b~cjb-b=ctb9b8b=b9b9b=b-b-bGbybsaZa$a-aZa5a}a3aWaIaSa|aVb#b.bLbmcmcAcmchb7bIboclcScCb{b{bTbqa.bFb5cdcdcsb:b,b1bBbrbxbUa?bFcwbWbIbcbnbFb7b7cfa2bJbtbmbsa#aOaZa5aWbVb9bVb8b~ccb9b8",
"bVbybda3a-bybya_a(bubGbna_aSa3a_cjcMcib9b2b~cxcBcncnc1c5cRcMcWcxcGbVa_a?blb9a2a7a4bmchb7cbczb1bNb:b;a|bcbFb:cbcqcfcNcAcNcIcabcaRa;a;btbAbrbcbIbIcmcpb7b[cIcLb;cfcwcQcIbJb6b[cpcacqcXcWcMc6cXa.a`bPa~a$bubybdaSasaxa3a<a?a(bKb2bub9cnbicfcJb2b=b=bNbnbabsbybna-a-bNcicGctcWcRcGccbGbda\a#a;a8a^bFa+a2cJb^cxc%cWcBbyaSbVb-b=bKbVb=b=b8cib<b~b=b8bBbab^ccb=bGb8cGb8b8cicBcjcWcMb\ccb~b~b~cjcicicxcMcGb~cucMcJc8b[a#bBb=b<b-bVbKbwcDbTbbbFa;axa#cMcRb~b=b=b^bGbVb8b9b9b=cjb~b9b9b9b~b-b9b^b^cxcBb2cxcib^b8b9b9bVa?aSa(a?bda?aWa3a(a#aSa3bFa`a7a7ata`cpb0cacpb[b*b#bqcocHb/cHb|bEb5cDcsclb,b.bxa<bhcacpb6bBb7bIb1b6b%b$bPbra;b,b$azaUaRaHbybVbua<a(aWa5b~cxcBcGcxcJcj",
"cGcxctb~b9b~cncMb~bVbGbua(bybVb9bVbGbVb^bVbybybyb~b^cicjctcBb9b2a_a<b2aZaFa(a!a&aRa^b*bNblb;bIbcbAbrbFb*cpb,b6cpcNcwb]bkb]cZcwb$a|bFbka^bUbcaXa^b%bFbBa<a-bAb8bXb6bMbka&bxb:bcb*cFcMcjb\cpcwbhaVa;aRadaiaiaiaeaiasaOaZa#a<bibQbXbXb8b7bscGctb^bybKbla_a<aZa}baa}bib2b8ctcWc(c*c%c1cRcBb2a8a8bmbJa!aUa?b8bybibnbyb9bVa_bNbVbGb=cxcxcGctccb2a?a$bBb8blb;bQbNbybnbnbNb9b=bKb2bQb)bGa$aIbibVcBc5cRb-bQbUb6b6b)b9bGbnb*b}cbb=bQb-bPb(bFa>bma+aOaBbic5cMb-bVb9b-b~cncib~cib~b~b-b9cBctcnb^bVb8b=cGccb2b^b9bVbGbGb2a-a<a}a(a<a?aSaKaWa(a5a-bUa;a9a9a`bTckcpb?b0bJbkb5b$bOcHcHclb|b|bta.bwb(b?bha;bca+a|bkbkbFb7bxa+a|a#bhbMb$b,cpa`aHaXaFaua-bncccnbya(babVcBcjctcxcxcx",
"bnbybVbGbnb9b-b9bVa_a<bdb^b~bGbGb^cMbybGbybGbGbna-a<a-b^ctb9cictcxb^b8bVbGa?a+bta#a2a/a<a<a+b:cucmcwb1b%b}b}b6bIbcbkbkb1cAcacfcba%a%a7bha^a|btb,b]b,btb6b7bIbybybWbJb/b/b0bIbca;bnb%cicGcNcIbjbmbka%aIaIaIaHaOaOa5bda}a/a_bab2cbb~ccbQa$bXcLb^b2bGbda-aZa$bKb2bKa?bnbua?a$aWa$bBb)b2bsbaa2a8bma|a7a%a3b\b<b8bVbGbub8bGbNb~cxcRcRc8cWcccxcRc5cWcGc1cRcxcncBcnb^b=bNbda$aAaxasapaoaxa-bnbybVb-b-cjbGbubGbVbnblb;czcub*bAbkbkcmbPbtb5a~a|bFa<aZa3b9ctcGcGb~b~ctcxcxb~b^b~b^b^b8cccBb^bVb2b2b9b~b~b9b2cjb-bGbdaFaKaFa(bnbaa-a?a<a#a?a<a(a#bdbEa[bEbObub2b)bia+a;a8bFb(bZb>c9cPcHbTa~bLbLbWa!aUbrbWb0bWb$bWb$b%b:bAbUbWb,b]cdcYb|a`bta!a2bdbdbVcccnbGa?a-a(baa}a?a-a<",
"blbyb8bVa(aFaFaKa3a?b2b~bGa(aSaxaKa(bub9b2bGbGbybGbGa(aSbGcxcWcGcGcWcncRb~bKa^bzaXaIbib%b7b;b;czczcIcucbb:cwb1b6b%b6b6b:bIbrbIbkb7b:bmbzbMbMb7bMbAa^b0b]brbBbMbIcKcHc$cPcKb?b*b2a;brbucxcIb,bhbWa;a`a}a^bca+a$a^bubna5a5a-baa-a_bda}a/a$akaxa<bGbKb2b)b9b)b=bKbiaWa(aAaxaOaSasaxaoakaoaWaxaXbxbMa>a^bdbib-b-a}bibVb=b~bybGb~cWccbVbGbubna<a?baa<a-a?a<bdb<cncRc8cWbXa-a#a(a#a5a(a}bia#a5aZaKa#a}babNb8byb8b-bKbGbubKbBbBbBa|bzbhbFbha>b?b-bub9b<a-a_b8ctcMcib~b~cxcjb~b^b^b^b2bNb~cBcjb=b9b=b~ctctb=b-b=bybaa_byb2b2bVb-bNbubda<a-a?bibla)bbbma9bubdbub8cjb)b;bibLb?cCcob/bEbvbmb(b#aWapasaObFb$bxbcb0b*cab:a^bIbxa^a-a(a7bxa>btbma;b^ccbGbyb^cibuaWa_bGbVbVbVbn",
"cjb9bibybGbGa_a_bdbybnbyblb2b2bua#aSa3aSbna-aKaoaoaFa3a}babybNb~cBcGcRc1c8cJbcbza;araiaSb1bUbsb7bIb1cqczb$b]bUb7b]b:a|aOa$bkbMb1b7b1cqcub)bnbUbNa;a#aoakaza#b1b[b]bha>a^bxb%b;b%braWava3b}b:a1bmbWa`a^brbAbxa^a/a?blaWaSaWaWaSaoapa(bGbyaWasaSa$a/bub-ctb%bia5a3aFa(bGbBbabsbaa\a-a#a5aZaSbcbIbMa>a`b8bubGb=b~ctcxb2blbVbVa}b2b~b9bGbda#a(a5a#aKaBaBaKaZa(babGbVbVbubKbVbua<a(aOapaoaiakakakaoaBa(b2bsa(bub}cxcGcib~cjb~b9b=bmbmbPa~bEb(bQbsbucRc5cGcncccncjctctcjb=b~b~b^b^b9b^cxcBcib~cjcxcxctctbGbdbVaZaSbyb^b9b9bGbybGbGbNbybdbdbna/bqbja`bhchcbccb\b8b*cqcnb{cKc9cScrcHc2cScSb#a^bca|bAbza^a^bkbxbFbcbAcab]b:bJbnb0b;a8a&cab6a^a$a3a(aSaSa3bnbNbua}bVb~ctcj",
"bybyb9bGbdbda(aKaxaxaxaWb9ctb^b^b9a_a3axasakaoaBaKa#a<bya_bibVa}a$aSa3a5babaa^b$bWa>aFamapb}c%cIcAcIbIb;b1bIbxcucpb}cgcmbBb*czczb[bUb7b1b7a}brbaa(a5a&btbmbzb*b*b}b?bma]bdaOa5a\a-a;bGbKbIb1aQbtbWbWbrb:b%b)cbbua-bKbda-aIapaAa5bsbdbna/bsa5aWa3bibaaZaZaWaOaZa5a(a#a(a}a}bGb<bXb2a|aWaXbxb0bPbka;a8a/a\a<bib=b-b-bVbyb=cibVbnb~ctb-bGa?bnbGbaa-aWaSa?a<a3aBapaBbVcxccbVa}a_a(a3aOaWaZa3aZaZa<bibybGbsbybGb%bQbNcbcnctcjcBczbhbwbqa0b(b|a/a3aKaKbGcWcxbGbybaa_b-ctcjb^b-b^b~b-b^cjcBcjb^b^cnb~b^a(a3bGbGa#bubKbubGbGb-bQbnbybGbGbGbyblaIa9bja)a:cFcFcncGcbb2b*b*b(bTb4b`b>cob`bRbTa{bkbxbIb6bxbrbAbAbIbUbra|bmb:b:b]cab0b[bMa2bmbha^baa$aZaKaWaWaSaZbabsaSa-blbG",
"bybabNb-b8bua-a(aWaSaWaKa(bdb9b-baaFakaiaoaFa3a3a(a(bdbNa_a5aZa3aWaWaZaZaWaOaObIb,b]bJa&aOa|b;bMb:b[b[cmchb*cZcgchcZcNcmb1cgb7a?bNbAa#a4a^czczb[bAbIb:bxa\bca\b2cwc0b,b?aXaEa2bJa_a\bnbib0cgaJa.bhbtbrcpb\cjccb)bubUbKa(a#a#a?aZaKaKaKa/b*cmbua\a/a+a#a3a+a/aZaWa$aKavaAaWaOa(a\aMaIaHa|b0bPbxbrbha2a}bKa?a}bubna#a(a-a(bnbaa(bGbVbybdbyb~a_a?a(a3aUa(a3aBaKa$aZaWa}bNbBa<bdbBbubia}a/a-babGb1blaKaWbyb9b9bBa$a3a$a#a_bla-bya9bba[a6b(cKbXbGbua?a3a?b=b^b9b~b2bGb=b^b~cjcjctcjb9b2b=b^bGbGb8b=b8bub-b9a(aSbabGblbubnbnb2b=b2bVb9bVblbGaKa0bba1aVbrbxbFb:cAcNcgb,b6bFbLa`a&aVa^bkbmbWbFb6b$bIbcbca;a/bka^bPb6b0bma+bkbWb:brbca.a~bJa^bAa}a3aSaSaOaFaBa3b2biaSaSa_",
"bua<aZa-bGb2bGa-a<a?baa-aSa(a(a#aZaSaSaZa<a-a<a?bdbua}aWaKapaBa$a_a_a-aSaBa5aZbcb7b:b6bWa$aMbGb%b%b;b[b*b[b%b:cgcpb7bMb7bUaZa5a$aIbkb7b]bIa8a;bUb*bUbrb1bAbna4aMbmb.b?b(c0cPbmaXa+a|aWaKahaFaNa}b7bUbka\bIb)b<b=bybybQbGbla\a\aKaEaxasaBa8bsa/brbAbca|bla-a2aOaIaxaUa+a2aKaAava!a|cgb:cgcmcab[b:bFbhaKaIaFa#a(a?bGbda(a<a-a5aFaZbdbnbyb2b~bGbsbda$aZa#a\a<a<a-a-a-a5aMaIaZa/bubBbVbIbUbXb[bNa$aKapakakaBa#babya/a_bda?a5aSa/a.a.a&aDa2a~aWavaxaKaBasaKa3a_bda(aFaxa-b2bGbaa-bda(aWaSaSa(aWaWaWaKbnbna3aKbdbVbybybnbubNb^cjb^b<b-bVbua/a;a>aTa4aDajamazaDazaNaEaHa1a^bFbtbPbkb$b?b0b5b,bFbmbzb(b5btbPbFbFbWa;a>btbcbha;a8aEaXa2a+a|bka-a/a$a$a#a3aSaWaFa3bua<aSaZ",
"aBaWa(aZa#a-a?bGbnbdbla(axaxakaBa(bdbabna-a(a?a-a(aFaFaKaFaxaFaBaSa(a_bybrb:a`a;bUb:cmb$bWbFa5aHaOaFaAa+a;a!aFaOa!aOaKaMaIaSaOaUatafaoaEavafasaOaxaOaKaIavakagaeaiaiamapaMaEavaoamaoanaoaTbma&a&a^bIbMbUa.aHaUa!aVaUaMa8a/a4aIa$a?bca!a4aHarapasakaoaoamaoaFaXa!a#a8a.bka|bmbPb]b,bFbWcAcpb]cab,bUbza$afaeagacaeakakaoasapakaiacagaKaWaSaZaOa2a;bFa.aIaOaSaKaBaFaoapaya7btbma;a!a3aZa\a/aWavapataxasaoagaeadakapasaWa2aSaQaTb{ckcsbTb/bYbwaTalasaoaiacacakapbnbca$aSaBaBaKasakakakaiacadadacacacacacakaSa}bybla?a(a\a?a(a/a/a~b(bYa*aLbjbYbSa{a0aDauaeacacabafaiagagagajaoasaramapaHaAaoasaAaoaoajakaEaHasagafaiakakafapaUa+bLbLbCbOa%aCaBaUa(a+a(aOapaoaoaBaFaB",
"a6aLaDakava3babGbGbGbya/aWaKaSaFaFa3a<babNbIb0b$bAbFbPbPbFbFbWbWb(ckcPcsb{b.b(ckb5bEbFbPb0bJbtbLbEbWb(bqbha>bEbEaRatasaRaQa~bha8a1aXazajaeadadacaeamamamamamaoaraoaraDaNa.bhaNaJaDaNa)a[bObfa9a:a[bEbObTb>b4b#b#b>cHcobCbFbWa~a!a&a>a%a&a!aXa|bzbMa^bkbxb,b[b:b]b0b6bWb|cscsb5bLbEbPbZcdb|b(b5bha~bPbFa7azatavasaxaBaFasaoapaKaBaoapaxaMa4a;bWb$b(b$a%arafaiapaUaUa+a~a;bzbwbWbPa~a%aQaHaMaMa%a^bFbPbtbma%a2a%a>aXaNaTa)bSbpbSb>b`b`cycEceb+bDbfbobOa9a&bEbOb#b#b(bbbrb$b7bcbna-aZa#aZaOaFaSaKaKaKaKa$a~a~aTalara*bSb_bga=bgb+b+b+b_b+bgb!bpbOa[a9a9bja0aNa>a!a7a2aXa2aMaFazapaoaiaeaeafadafagagaeaeaeaeafataFazaRa%a!a!bDb>cVc3cVcVcVcOceb+b_ceb>bDboa*bpa=bgbg",
"b{bZbFbIb8b2bsbrbcbAbUb}b8b2b9b8bXa\bmbmbtbJbPa!a;b6bIb$b,b0cscYcYcIckcAcAcAbtbtb;czb:chcQb,a~bhbJa~bFb6cgb,cab,cbb%bUbBbUb)cmb[a`a!a;a.a%a8a1a4a;bmbFbtbha~a;bmbmb$b.bWb#b/bTbma~bzb(b.b,b.b:b?bJa~a`bwb$bmbtbzb?b?cdcdb7brb:cdb6b,b]cab.ckcab]b$a^a^a|a^bPbMcgb:bUb*bUb7b1cbcqcabMbxb[cpb[b0bca^a+aVa1a&a;a>bmbmbmbcbMb%bAbIbIa/a+a\bIb}cucqcbb7bxa.a%aXaqaEbMb;cmb7bda-bAb]b$btb(ckcsb:bJbPbca+bcbcb0b7cbcbcmcfb[b:b1b0b$bEa:a[a:bJb|cgcbbAbMb,bQbIbca^a!a4a8bzcUccb=b)b8b=cxbaa$babNbUbMa\bsbca%a{a)bhbtbEbob4bYb`b>a0a0a9a:aYa9a[bLbQczcTcbb7b%b$bFbrbcbNb7cnccb)b\bra5a;a4aUaHaFaBaAaEaEaAaNa8a$a\bIb*b:cqcfb*bxbxb`clb+bgbgb!cEcEcScEb{cob&b&b`b>crcEclb`",
"ccb\ccb=byb8b<b8bVbXb\b^b-bVb-ctcGcjb1a|a|a%aRaHa?a_a|bca$bxb8cqb[ccb%a|blb1bBa?a-bnbubQb\b=ccb<b<b*czcbczb1cTb%a|b%bAbBbububBbKbIasaRbxb5bWbnb%bAbubVb7cacZcDa~bkbxbIbUb0cAcucNcFc6c6cIcbb}cuc!c&cZc#c*c+cIb2bQbybGb9cib~cncJcMcJcRcWc8cubGb;chcabPb$b6a%aEaFccc8c%cWcJcGcxcBc5c1cnbVbGcncBcxcxcBcibMb$b[b;b-bGbabya_blcicic5c(cJcBcjb~cBcxb^b9bQa<a!bzbtaJaFa}bQcBcMcGc1cRcGb9aQa%a;bzbWb,b]bWbcbMbXb2bNbybKb^cRctb=bVblbaa_aZaKaSaFaKa-cccGb-cjcWcJcFb-a_a?bncbc&b=b9bKbXb9b)b-aoayaQaUa8cicnb)bsaSbacictb[b7btb$cJb~bia_babXa/aIbBcccBb\a$aSa$babnbubKcjcnbXbVcjcRcJb\bQbna/a_aSa9a>a~a9aXa1b%cuctcjccb8bKb8bVbsblbsbdbGbXcncMccb=b9b\ctcJb-byb9b~cjb\cnb\ci",
"a<bGb^ccbQbabNb<b)b-bubabububGbNb8cicca-a~a`a;a%bkb7b7bAb]brbrbUbNbrb%cAb7b[cbbna#bra|aOaOa^b<ccchczb}bVbVcmb*b;bIbUbIb1b-bQbsbGb~biatbtbFa7blczczbUbsb<b,b,csb/bkbrbrbIb1bAbQbsbkcbcUc#c&c&c#c7cwcIcNcAcTcZcWc4c8cWcMcxb2bublbubybda3a<b=bXa+a;a|avaza2bzbPbib*b2b2b9bVbBa}bsbya\aSaWa3a-bnb8cccWc1cWc8c8cRcnb~cjcnctcJb2a<bab)cBcjbKbBbyaOa-bVbubya_a^bma&axaXaWa}b8b~cxcJcna}aDa`a7aHa}bMbxbrb9b\bQb2bGbnbababKcBcWcxcib^b-b=bVbdbla-a3a-cBc%c%c(c,c+c+c8c6cza\chcjcicjb9b9bVbUb6b/bCaRaXb9a_bKcncjcBcXcxchb-bBcbchcxcMcRcWc8cWcWcJctbKaWaFaWa(a?a-bubGbVbGbda-a_b2c8c(c8c1cRctb^bqa:bgbSa0aQb%chcnb)bubia(a3bycib^bybla<a#a3b8cJcBcnbGa3a5blb~b=bXccccbybaaS",
"b2b=ctctb=b9cxcRc5c5cjbVbGbnbib2ccctcna/cdb|a+b0b}bdbMbAbFb7b$b7b%bUbxb[cmcFcmbrbcbUa|aMa!a!a\b:bKa(a#a^a<a$a3a;b7cqcqcBcjcjciccb\b\a+bPbxa+b<cFcucjb}b8b$b0bsbIbUbIbUbkbJb:bxbIb6b7b]bWb,cgcPc&cYcDbVbBb8b;cMc5cGcWchb9bQbubya<a}b<b\byb)ctchbsbJb.bzb6b6bha<bna?a(aOaFaZa5aSaWaOaKaOaWa5a5a}bdbKccb\cncJcjbGbNb^b~b<cMc1cib*a-a\bub)baaSaOaSbla-bua%b0c7bOaXa7bda-aSaWa<bub8buaLcdcZbObVb~cBcjb^bVb9b<bXbQbya_baa}cicWcGctctc5cWcjccb9bNbybyb^czcBcRcXc5cLb8bya?bKcub^cxcxcWcJczb}bYb|bma^cWcxbyb8cgb8brbrbcbkbPbPb]cUcRcBcncMcBb~bnaFaKa_bla_a<baa<a_blbnb8bVb2b9b8bVb~b8bNb^cMc5csbOb!b+a%a0b)b=bybGbybsbabubybGbVb=cxbybdbda#bGbGa3aOa}cibXbubybGb8bNbnbGb2",
"ccb8b)ctb^cicBcib-cGcMcGb\bya-a3a_b2b1blb.a`aXa}a|a#bkbra+a}bcbkbibnbQb7b1bAa\a^bca|b[cacfb:bUa;aiakaKbubsa3a!bxb7b;bIbMbBbBbya$a5bQbkaUaSa+b8bIbAbna+bkbma^bFb$b,b:bua|bFcsb.btbPb]cDcdcscQcvb/b$cgb%bMb1b7bIbka}bIcbczcnb9a/a(a(a?bubua}a$a}b<cZcubPa`aOaKbBb=bGbybNbua-a<a$a(a-a<bsb2bGbubnbGbyb=bNbGbGa?a_a?a$a_b~b2ccb9b-bNbVbGbQb=a_blbla-aSa3aXa`bqa0a`a~bBbla\a}a?bdb=biaNbqcdbWa#a(a}bsbNbVb8cjb9b9b2bia-a-a_b9cxcBcMc%c(c8cBcjb^b9b9bNbia?bubya-aOa#bibaa5bycucncxcxcjcmbVbwbwa4aXcGc%c4cgcbbUa|a^a|a|bwb{cScHcKcscncnb=b2b-b~cBc5c%c#cUcwb9bNbGbGb^cjctcBcBb^bubaa-a3a(blbmbjb+b4a9a~bVbKb9b9b9b=b^b9cjccbVbGbybNbna_a}a(aKa3babybdbNbGa_a-a}bybGb9b~",
"a_bsbubNcib=byb2bVb2cxc8c8c%c1cib8b9b*bra%a2bMcqbUbUb[cNczb1bIbAa|a^bIa\b1b7bUbdbrbIb[b%a\a|b%b,b*a\a5a/b7b[bUb0bxb7bsbnbXbBbGbNbnb2a\aWaOaIbyccc4c4b*bMbxa^bkb1cucpb}cfcAckb0a>a;bhcvb|btbzb,cacgcfcxczcib=b\cfb7cuchccbIbNcGcjb2a\a<bublbKbVbibnbxbha%aSaOaObnbKbGbXb~b^bNbGa?a<a_a<a3a5a_bibabKctbKbnbla-bKb8a_bybaa$bdccb^b=bQb)ccb=b8cBcRcMctbsaKa2ananaQa+b\b9bVbGbaa#a-byaRa%bJbWbcbda_a<bub2bNbyb~b9bQa_a<a(a(a3a3a_bGcxc8c%c(c%c1cJb^b-bVbubia?bubVbXbXbGbVbGbNcjc5b=bVb*b2a`a`a8aUa$a$chcacNcIcNcZcUcpbYb{cCcCcDcdb0cbctb^cMc1cxc5cTczcpcNc5c1ctb2b9cictbNbabVcBctcxcib~b=bnaKa*a*aHa4a\bsbGbVbNbQbNbVb8b^b^b^b=bGa}a<a_bublbnbGa$a#a5bybVa-aZa<b9a}a}",
"a-b<cib9b2b2byb2bGbabyb^cncWc%c8cWcBb<a}a`a.b1b<b;cbb*b*b*b[b2bIbXb2b7bxb1b*b7bAbIb%bIbAbIbcbnchcubUb;bIbUb%bBb}bUbkbsa}bxb)cBcGb=bna8bca;aIa\bAbdb*c!c!cWcFchb%cub[cwb]b0btbxa/aWa8a&bma|a\a}bcb%czcTcTcMcicncGb\cibVbKbXbVcMctb)a?a?b^cncGcxcjcGcja`a|a+a2a(aOa-bda$a5a5a$a}bubVbQa}a<a3aKaWa$aOa#bybna(aWbda(bnbla3bsbya_a<a-bGb9bGa_b=cncxcMcRa?a5bra:a{a9a2b8b\ctcBccb-b8b^a%bha^a%b8bGctccb9b=bVbQbGbubia<bdbGbaa?bubua}a#a(bVcib8a_a#aSaZa?a}bdbubsb2b-cicTcub=b\ccccb^bKbQbNa.b(a~aVaFaBa$a-bPbJbxcacZc&cHb`cvcHb]b,b\cbcJcJcGb^cnb\b2b7b\cFcJcWc5cjb9bGa(aZa<a(a_bVb~b9bVbVbVaMa=a[aAbcbya$aZaZa#a(a-babGb9b~b-b2b9b-b9bab9b2cicxbNb-bVa_bdbibVa}blbaa5",
"bnblbyb2b~cjcib^b=cib9bGb8bXb=bKbGb9czb1bqa7a4bkbabsa$a$a/bBbBbBbMbAbcb1brbkb1bUbrbcbAbibUcga|bccmbzbNbUa_bKb7bIbxbMb%b:bUa+a#a$aHaOaRa!aXasa^bBbda/a\bIb=b2bUbUb1b%bAbca^b1bIbUb%bca|a+bkbca$a-a#a!a^cqc4c!cub}cucFcBcBcMcJcGcxcGcBcib8bGbGbQbVcnbGa.bta4a+bsbubub9bNb2b-b~cJcxcBb=bKbGbybGa_a-bBa}a$a$bnbQbQbnbablbVb=bNbaa#a#babaa_a-a(b=cMcFbKa(baa5aPa.bbaTa?b^b=b^cnb~b8bVa-aOaOa8bGbybQctcxb~ccccb9bVb8bVa}bub2bVb9bVbVbVblb2a(aSaZaWaZaSaSaSaSaOa3aOaSaSaOa3bacLbVa5a-bGb2b8a:bEaOaMbdbaa3a3a&bWa!a1a%b:b?bba>bJbBbsbNbNbaa$bcbsbzbPb(b|cwb0b~b\bGa-a(baa-a(a?b^b^bGbubGa-aWaSa+boa=aSb6b9bVb~bVbGbVb2bua<a-a/a}a<b2cBc5cRb^bVb2b-b~b2bub9b9cjb=bGa(a_by",
"bQbGbNb-bNb8b=cjb~cccjb-b-b9bGb8bua?bBbxa;aDbAb;a?bIbBbBbAa+blbnbxb1bUbIbAa+bubUbka2aOaAaEa^bIa;b%b%bUbMbMbdb0b:b*bUb7b*b<a|aSaSa#bxaXa;a;aHcxc8cFcjcucXcLcnczcFczcucFcFcqb[b*b%b1bIbUbrbUbIbAbxb0b]bMbcbWcgcmc#c8b;b%b*cqc1chcLc+c(c%c1cRcBcRcjb6bJa7a%a$a8a?bibsbub)ctcWc8c8cMbna\bnbQbQbia<a?a}bnbdbybabGcBcWb2bGbybNa}a?bybybna_bda3ava_c5c4b^bnblaAaua>bCbfaScncGcMc5cJcib2a5aoatasb9cibKbub-cccncjcxcBcGcGcja-b2b-b^b~b~ccb-a?bybla-a(a3a5aKaFaBapavaAaAaKaWa$a(a?b8bNa?bub9b)a7a`a%aUaFaBaSa<a8b,bPbtbha|a!a/a$aSaSaKaKaKa-baa<a-a2a.bEbTbjbWb0bBb\cxcjb=bVb^b~b-bnb8b9bVb9b9a/a7a=bba>bzb~cJcMcxcjb-byblbabGa}bdb^b2bGb9b^b-b9bVbybyb2b9bNbybNbNb-a_bda_",
"b8bKbVb9b=b^b~b~bublbXb~b~b<bVbKccb^b;a^btaUa?brbNb8b1bAa_a^a}bra|bxbxbrb*bKbka+a^a|bMbBa#aBaFaFaFa8bQb[b}b1a^bxa+a\bcbAb%bAa<a$a/b1aRa$a%aMb=cLcGb;bAbcbxbUb%b[b7b:cjczcgcab;b]b;b[cbb0a+a+a4bkbPbFa^bAbzb]cwbJbsb;chb[b*bAb8cicWc5c8c*c8cWcWcGcKb.aRa;a#a#a-a\bBbQbNbGbubnbKbGbGb)b-bVbVbaa3aSaxa(a?a5aWa#bGcxbGa$a-bybybVb9cicMbXa-a(a#bib<b)ccccbdaWaVb#b#bCa+bMbGbGb-bVa_bGa^axauapaKa3a/a-a(bNcjcMcnctcJctcRb=bGb^b^cGcxb~bybVbGbnbda_a(a-a$a5a5a5a$a$a-a?a?a\babubKb-cxb9bub%a.btaXbcbNbibubsbAbra~bza~a^bKb7baa<a-a5a-a}aWaAaFaWaOaKaBaAaOaKa2a>bPb0b)cRcBbua(b9b9bGb^ctcMc8cRa~a*bgbtbLa#bncxccbubab2b9bubdbVbVbibubVcjcib^cnctctb=ccb~bGa_a(bGb8b9b=b=",
"b^b~b=b2bKbVb2b<b9bNbKa?a}bdbQbVa_bNbGa5a7aRa#bAbVbla|a\a|a(aSavaiakaBaKa+bua\brb1bAa8a^bsa}bNb*b;bMbrbBbIbkbUczcpbPb6bIb%b<ciccb7cba4a!a!aOb%cLcLc4c5cXcUcTczchb,b$bIbAb0b1cmcpb[b[cmb;bIa+a;a5a#brbsa!a+a+a^a!a;cwc!c!c1cFcxb-b<cnb9bVa}bGbVcbcDb|a!bha+a\babubybVccb~b2bnb8cBb\bXb2bQbNb=b^bVbna<a#a_a?a#aKa5a$a\bibsbya3a<a}a5bNcccxb2bdbBbXb)cMb^buaPb5boa:bFbkbla<a_a-a5a?a%aVa8aDaFaZaZa?a$a3babna}bdbVcjcib9b-cMb^bGbibib^cnb-b9bVbybGbybabibia<a}bdbabia\bsbla?bNb~cRctb8cjbLbmaUbAb9bGb9bNbca.a`bEa|bmbKbXbGa_a3a3aZa-bXbsaSaAaFaOaZa-bibKbnaZa<a<bubXb)cib\b^bNa(a#aSbdbnbua>bDcrb#b/bKb2b^b)b~cncxb8b^b2bQbNbdbubKbubscnctb~b9cicjb-b2bGa_bKb-bGbib9",
"b)b^b-a}bsbya/blbybubybGbBbnbsctcBctbBaMa1a7aKa2a$bybBbXbXbVbsa_a$aOaxaAaBaWa^bNbca^bsa_a#aSaIaObFb0bsbIbMbUbUa^b0b]cgb6b}cib~b)a;a%a.a^a!aMb7czb[bBa^b[b[cqcqchcwcLcNcub;b7bcbIb[b7b1b7cmb[bBa|a;aWaWa+a^a^brcgbca^bmb,cNcNb}cqcncjb-b9b9a\aUaoaXa%a%a;a5a-cjcMcGcnb)bXb9cncxcMc5cWcxcjcicxcGcRcRcccccnbsa#a3aOa_a$aSa$aZaFaFaFaFa(bnbGbya#a?a-bucjcLbKa1a~a9aCa<a\a}a}bGb=ctb<a~bFbhayaBbibubaa_a3asaFaBaIaKaFaSa-a5a?bVbybVb^b9bVcBb^b^b-b9b9b2b9bNbVbNbububibdbybda\a_bGb8b~bya#bha.aXaSa#a_b8b9a|a-a[bqa%bmbGbQbsa(a3asakasaFa3a\bda-a(a(a$a_bnbna(a(bub<a?a#a\babda-aBaBaBaBaFaEa:b+b!a4a%a(blcJcWc1cRcBcnctcRc8c8cMb-a}a?a\a-a_b-ctcxb~b-b8b)bGa_a_bubaa(",
"bBbNbXbGblb=b9bVb9bXb~b-bia}bnb8b-bXa8asaXaXapaxaIa+b)b%bUb%b;b7bVbubnbna_a-aObdcgb[bcaOaIaOaFavaEa3aZbdb%cpb%bIa$bcbxbUa3aSaZa5a$aXbrbWa;aHaFa+a$a/b7cfb}bNbca^b;b7bra/a4bnbka;aRaUa2a_b0b;b*b}b0a|a^bcbIbxbsbkbcb7b1b1bka;bkb7b%b8b=b^cfaWajavbPbPa;a;bra2aBaSaFa(bubKb8bNbnbsbGbVbNbNbsa_a}bda?bdbia_a}bnbub2b-bVbGa<a-bKbMb=b2b7a(a5a_a_a-aFaSapbdcfbFaVa&aJaOb2bQbBbBbsbNa-a>bmbtbqa2a;a<a?bKbdaSaoaxaKaOaOa(bua<aFaOaSaKaFaKbncBctcjb^ccctccb-b)bQb8bVbQbQa}a_bububda3aAapaiagaCbTbtaqaiasaIaSa/a2aJa7aHaUbuccb=bya_a#a#aSaZa<bdblbya?a(a(a-aSa3a-bybaa3a5aMasavaOa<a?a?a_a-a(bDb`b&a*aCa.a5aSa<b^cRc8cMczccctb=b<cxcxccbXa_a(bablbybna-bdbVb8bsbaa}a<a?a3",
"b9bKblbubna/a}bBb8b=bNbGb<cxcGb^b1a\aDaya;a%a7aQaMaBaOa+bsbKbKb%bQbVbUbNbKbBbxa2a4aMaFaMaMa?bkbna_a(a|a\a^bkb7a|a(a5aIaMa/a$aEaAaHa;a|bUa`aAaUbUcbczcmb7a;a$a+a\a^brbIbIbFb%bWbra|bcbkbkbtbxbJbMb,b:bIa|a?a4aOa3brbca^bcbWbPbBbFbXb*bBbdavapa7a^b|bJa8btbJbzaZa5aWaKaKa-bnbaa}bubda-bnbubBb9bNbGbybaa#a(blb^b^b2biaZaWaSa/bda4a#bsbka}a5aWa3a5a$a4aoavb*bFa1aVaNbcbUbra\a5aSaSbdbha`bhbLaOaRa3aZa(bnbdaZaoapaFaWa-bGbuaKakasaoapaxaxa_bGbNb9ccb-bGb<b-cBb<bVbna_bia$aKasasadaiapaXa&bbbWb(b(a8arapamajaEaHaya3blbib2b8bNbla-a3aWa3aWa?bGbNaZaFaSaMaHaKaIa$a#a#a3a.a.aSasaFa(a-bnbya!b+cea=bDbgbSa%aMaBa3a?baa_bMb)b)bKbrbKbnbcb2byb8bXa}a3bIbububBb<cBb)bKbib2cG",
"a}a<a<a(a-a$a(a(aZaWa}bnbia<a$aWavanaQaNbhbza7aUavaAarakajaoaEaWa+a_brbrbka+aUaRaEaEaFaraHaUaHa2a8a2aOaFasasavavakagatauaHa2aNaOa|bPa\a;aUaEaOamaoaoafaiaBaBaxatanajaoaoaoaIaMaOa4aMaMaAasapapavazakagababababacadafaeaeapavamajagafadaoaMa&a.bma!a4a`a2aJaXaOa2a<baa<a$a#a3aOaFa$bBbKbya}a(a3a}bsb2b2a?aFapakasaFa#a}a(aHahafacacaiaAaKaFaZaFaIaFaXaEaeanaNayaQa%aHasapakakaoaEa7bFbLbWbFaRaIaEavaOaUaOaAazasavaAaoakaeagadadaiadacadapaBaKaKaKaIaZaWaKaIaOaoaoamahamaoaDaRaXa.bqb5b(bTbPb.bJa~bhbzaXarapazaoamajaxaAavaEa!btbhbma~bqa[bfbgbRb!b_cycEb+aYaqarajaya7a)aPa=bDbpbScycEb+ceb>bpa[a6a0aPaAaoapaEaSa/a/a?a(a#a4a8a2blb1bAa<a2bdb7b6a%a~aXaXa\bibBbNbX",
"aJaVaQaQaPaVaJaqamamaoajaganazaDaTa)a[aQaQa7aVa7a)a)aUa4a!aVaMaDazazarajagahalauayaRa.bmbtbJbta.a1aNaVaRazamajapaEa+bLb6b(b0bWb5b?b$bWbma%a8aOaiagaiafaiaoakapaFaIarahagahahaeababacabacacadadafaeagahahaoaoakaiamamamaoanamarazauayaqaQa{b?bza7a>bja`a`a`a~a`a`a>a&a8aQaHaEaHaEaBavavasazavavaraoakaoapakagaiabacaeanasaTa7a1aVaEauaoaiajakajajaraEaVa>bwbba9aQahauaGaDaVaQaQaVa1a7bqbhbzbWcdb(bJbha>bha|a|a7aRa2aOaKaSaSaSa\bcbca-a4aSaOaRaHaMaMa2a7a2aDaRa&a>a~a>a`a>a.bta{bJbTa{btb6b|cDcZc7cDb5b5bTbJa>a9a.a&a1a.a%a`btb.bLcyc3c3cVcOcOcOcOcycOcycOcyb+a:aLaPa=b+b&b!bpbDb!cyb+bDbDbpb3b3b!bSbga)aGaqa6bpa6awalaqahaqawagagaeagakaiaiagaiadagamawaVaualajah",
"bYa*a[a0aGa)bCboboboa:a:a[bbbwbbbYb{bYbTbpbYb4a[a[a&bLbEbJbTbWbJbLbTa{a:bwbjbtbwbZcdcsb|b{b|b(b|b?bLb5b5bwbEbwbZbEbWcsc0b.bYbEbTb4b#bwbba>a{bza1aHaEaDayaRaRaUa|bzbtbha`bjbta:a!aQaDaRauaMaUa.a%a`a|bhbzbta~btbzbha+bmbPb0b6bWbWb6bPbFbFb(b?b0bzbMbPbUbxbWb6b,cAcUcAb]bFa!a2a|bPbkbka~a;bcb1b7bIa;a4aHaXa`a1a7a;aNaQa)bLbwa[a>a{a{a{a!a&a7aQa[bEbja~b5b5b5bTckcdbZb(b5b5cDcDcDcdbLbZb5b(b(bZbwb5bLbma~btbha~bhbhbha`a`a~a~a~b5bEbza>a&a`a&aVa2a7a>b$cpckb?cdbPbFbWbTbzbzb$b(bjb5cDcdcwc#c*c)cvc9c$cobTb#b{clb#b/bobObLbLa[a`b>b&cOcyb+b3cycOb3b3b3b!cecocDcPcsb|b?b:cbczb)b$clckbSb>b&b4cocScyb+b3bDb4b>b_cececyb+b3b_bSbDb+a=aLalayajaiaGaQaPaPa=a:bRbfbOa,a[aP",
"bmb,cdckb/bYbObObwb|b(cdcwcab:cab[cacNcXcpb,cwcYc6cwcvcvckcdc7cQcQcsclb/bTbLbLa{bEb?b{b5bZbjb0b?cpcgcmczcFcqcfb7bBb}cpcmbUbAbwa.a{a>a:a{bfbZb>b4bqa9bkbMb8b;bXcncJc8c8cqcncTcZbmbCb>a.a&bmbrbmbrb0bra>a|bha~bma>a7btb]b?b1bcbIb;b]b7b6b,cNb[b9b;bXb8b8b9b%b2b[bKcic(c!c8cBb=cJcRb9bua<a(a5a?b=cxctb^a+a.bTb5a.aJa1a~a7a7a:bqbTbZa.a.bUcfchb1b%b:b%b~b}bybabBbQbybKb=cbccb;bNb%cNcXcxcMcTcMc1cMcRcLcBcLcTcIcqb0a`a{a~a7aHaDa;a>a&a+a.a&a^a^a|a^bIbAa|a#a3a|bkbubUbUbXa_a#b1b}bxbdb;bAa(bra^a+a#a#bnb1cIcTcpcAcwcwcAcwckbUbHbobecHcQbHa*b#bTcDcUcYcAchcncncKcZcpcpcfb~cncMb9b~cjb=ctcJctb=b;b9ckcUb`bScecSb`a*a6a=bDbObMb0b}cqcrb+bobga]bOb+cocobSb3b&b4b4b{b>bLbj",
"cjcBcNcTckb5b,b:cIcNcucub)b<cbcbbya-bGb-ctcBb8chcFczcWc4c1czb~b}b<b)cucbcfbraVa7ata+cab:b;b}b1bIa\bda}a\byb8bXbXb)b<cncxc5cWcMcJcTczcnb~b;b7bza&a;b]cWcWcjcxcibVb)cxcGcncjctb}a;aYbCaJbFbUb,b%b6bxbkbFb$b$b6ckcdb.bTb,b?b%bFa^a?bmbWb%b%b:czcmb[cab,cgb,cmb7bxbcbicRcWcRc1cRcRcxcjb9bdbibNbGbGb2b9b<a|a>bZbja`bqb[cLcba2a)bwaVaNbubBb~cncicxcib<b~b~cib^b\b9b2b}b9b<b<b)bVb)b-bQb9b~b<b-b8bGb8bNblb8cJc1cMcBcGcna^a1a1auaDa;cbccb=cccib^cxb^bya<a3a}bla_a<a\bQb~cjcccjccbla-a3aSaWa#aZa$a5aSaZa5bcbxa+bkb:b1bQbKbNchc%c!aVaQa~cIcRctbQbVcjcicccncxcxcqcubZb/czb%b^b^b8cxcxb2bGb8cib^cncxb8bacxcWcgb$b5b|bJa[a9bdbCbEbba)cnb~cwa`bob`b#bfbucfcZc8cQb.aYa9a`cdcFcF",
"bBbsbNb=cjbybiaSa5cXcWb<bXb)chb\b9b)b8b9cxcxccb~cLccb}b)a}baa(a-bdb8b2bQbNbBbPb(a5b:cMb)b9b*b=czcncjcubVbrbsb1b)b;bQbaa5bNb~b8b8b;cBcicicRc8c8cRcxb=bnb-bya\bubda<a?blbKb9b9cmbMaQaTazb0bza^a|bMbWb]cpcab$b]ckcDckb6bWb6a%a_bJbWbWbFbMb$bxbcb]c6c#c&c$cvcdckb7bxa$bAcncncxctctcBcBcJb~b<cGcMcnb^b=b^bPaVbZaTa.bWbAcbcJb8a|bMbsa;b=bKa(blb=b^b)b)cbcjb^bQbabubQbQbNb2bBbXbBbnbsbaaZa$a$a(a/bubGb8b~b-b<b-bibVcBc5cIbFb#a=aNa!b7b<b=cjcccccJb^b\cxcib\b8b8b\bXb2b-b9bNb8b^cjcncxb<bKbBbna?aOa5a5a-brbIbFbka\bra^a#a3aIa;a2aEbza{b|b:b0a\b%b\b-cjb*bBbna;bPbxbMbsbBcxcxb-b8b8b^cJc1cncBctcncqb:bQb~cJcib\cxcRcRcBcjclcKbObfb[b=chbcaGb4bOa6a(b7b9bdbxbUcdckb}cLb\b2",
"cxb^bybsb8b^cBcna-aWa5a(a_a_byb2bBa?a}bNb=b9b%bXb2bublbibsbGbQbyb~cnb9b9bXbBbmbhaFbsb*a\bnb[b^bGb*cqcqcTcub}b)bBb-b-b8bia-bnb9b7bsa}bnbBa}b*cmb[b*b[a^a|a}a/bda_aWaKaKa5bubGcNb7aLa9aDbJb]b,bPbtbrbtbWb,bxbIb6ckcQcpbJbPbPbha&bzb$bPbPbcbhbFbFbPb|ckcKcYcQcQb?b6b7bAbBb;ctcGcGcGcWcMcJcMcRcWcRcBb)bya~a>cva{aHb0bNbBbBbsbBbsb=cnb=b9b8b=cjb^cicxb-bna<b8bQbGbQbVbnbabdbsbababybubsa_bsbGa-a(bBbQa_bablbubya}a?a-a\cmbYa)aTbWb=bXbya}a/a(a?a}bNb~b<bVb)b=b-cib9b8b=bVbGbKbKa?bnbablbKbKbBbubQb2b)b2bMbMa;bkbcbabBa}a#a;aoaXa>a&bZbLbwbWb,cmb}b9bya-a(a+a(a5aSbnbna<bubQbnbQbVb\cBcQcsb?bYbKbNa5aKa_cjcRcBcxcxcWc5cBcpbLa0b[cccaaCaqa[a[a9a-a\bKbVbNbubBbubVbyb%cj",
"b2b2b-bNccbXb2b^b)bibabsa?a3a#aOaWaZaSbabXbGbBbBb-b=bQbGbNbnbIbKa(blbBbubua\a;a%aoa+b8b2bNbubBa}a$aOa|bkcbb[b<bQbVbMbsbda|a/a$bIb8bKbMb7b*b1bIbrb:cpb$bha_blbIbGbkbGb1b1b)b2a+bma)a9a&b?b]b$b:b0b:cabWb$bBbIbIbtb,bWb1b[cKcNb0bJbrbIb$b$a|bAbkbka%a|brbIb0ckcmb,bUb$bsbkbKchcRc1cJcBciblb9bGbyblbsb*b5b(b{bZcwb:b9b)b)b9bXbubNb^b8b<cbb~b-b~b)b9bubnbQblbsbNbGbla}bua?a5bubGbybQb8bGb8b<b)bQbda}a3blbNbNb\ccb~cncib}a0aNa.b:bNbubQbNbQbsbibybXb8bKb2ccb~cnb^b9b9b9b2bNbubibsbQbBbVb8b9b9cjcJcGb\b2b%b7bQbub;cmblaSa/aUaxaQa8aJaVb/bYbvcCcQcQcfb~bna$a(a-a?a;bia/a$a(bna}a_a\bcbIb*b0a^a\brbQbsbaa/a3a_ctc8cnb-b)bta%bjbobIb*cva:bpbga[bCbdbybKb%bVbGbNbsbVb2bNbG",
"b-b8b=ccb-ccbBbdbGb-b^b=b2b9bNbubBbQa}aZaSa#a\a_a\blbGb2b)b}bybybQb9b=b^cbb*a~a.aobBb*bubsbsa_bQb8bra5aKb1b;b8b}bKb-cmcubXbabsb%czcfcbb:b;b7b}b7a|a~bra^bcbxb8b;b}b)bcaKaFaOa!bPbLaLa1b|b]bWb?cabFbJbAbsbxb1b1b1b$bMb7brbAbUbMbFbMbrbcbUb*b0bIbkbxbAbcaWa5a3a^bkbIbIb7cmb;b%b7bKbAa|a}bVbIa3a^bVcbcca[bma:bJb7b=bKbIbibVb9bXbXcccub)bNb8bXb;b<b;bXcjcnb\cncnbQb9b2bQb8bda\a\a$a-bQbXb<bXbubQbGb2bQa-bQb=bGbKb~cJc4bra)a9aUbBa_a#a?bBb8ccb\b=b~cnbVb)ctcGcJcnb<bXcjb~bVbsbGbGb\cGb;bia?b9b8bKbubBcccubXb1bnchb=b9babyaMaxa%aJaua1b>b>bRcSb`bRbybdaSaSa<bBbibda3a3babnbsbAbBbIa^aSa%brbsbybnb7ccb\b8bNbQa-a7aJaVaVa,a,bRb#bMa+b#bob3b3a6cdcBb<b<b8bNbVb-bubnbQbQbX",
"b)b^cxb-byccctcccccnctcccncnb=b=b9b=b^b)bXbBbdbubub2czb;bda?bub8b1bQb8bnbVb7aHa8avbcb;b7bBbBa_a5a$a!aIasakaFa5bMcbb7bNb7cqb*a#a$blb;cacgbkaMa4a\bmbkbAb;b[bubsb7b9cncxb9bibKb0b%bba)a)b{cDckb|bJbPb0b1bxa+a;a4bcbMbrbIbIbMb]b[b;cmczb;bMbxbka_bca+bkbAbBbtbIbxb%cgb%b7b*b7a;aHa$a+bcb*b8b*b8bub=cqbIbjbqa|bUb2b9bcbKb7babKbQb<cJb^ccbGbkbGa_a(bibGb=b^b^b^cnccbXb<cnb~b^ccb^bBbBb)bNbybBbNbKb8bybXb<bubBbXbGa$a#braRa1awaoa|b)cjcccnb\b=b\ccb\cBb=b2cjcxb=b^b~b^b2b2bXb2b~bVbda/a5a5bBbVb\b9b\cxcnb\b)b^b-b\cib-b<b}a|a%a.aJa9bjb/bOa,aYbeaEakaFa/a\a-a?a5a#bna_a/a^baa_a!a#a?bya?bcb;chbVbQb}b*a;a;bsbda<a-bvbCbeb4b%b1b~b2bSb4b!b3a6b/b2bsb8bGbVb^b=bNbQcccmbK",
"b)b\b9bVbKbub2b=b~ccb9bNbVbNbVb8b9b=ctcBcLb}cnchb2bka_bQbXbGa-a<bub<cJczcFccaJaEagaAbdb\cncqcbb;b1bNbKbna/a<blcbczcIb2a;cmcmb[a?bca^bha.a%a%a;b%cbchbGb9cbbKbQb)b8cncncJcGcBcubBaVaQa7a%a:bTbPbWbFa%aKaIaSa\bUa|bub*b:b:b%bIbrbra+bcbrbMbUb7bxa\a+a%bka|bxb:b]b]b1bFb1bIa+bzb0bUbJbIa;a4bNczcub)bAb6bwbZb:b0a$a|cib9b8bXbGb9b2b=cFctb~b8bVb)b2a\a-a\blbsbubNbQb2b8bVb~cjb~cccibNbubQbsb-b\b\b8a_a\bNcicjcMcxcib^b6a4a[aNaMbBbnb<b-b\ctccb)b8b8b8bKbaa}b9cib~b=bQb2b^b-bKbna?a?bKb<cBcFbXbQbVbNbNbXbKbGbsb2b}cjcncMczbPbFbta!aVa`a4a7a;a#a5a#a#a$a-a#a<aWa(a\a$a_a\bub*cucqbQa^a5a?a;a/bkbMbAa+a^b0bUb%bBbxb7bebeaYa]b5a]blcJb+b+b+a6a:b?b8ccb<bybGbXb9bGbybNb=b-",
"bVa_bdbibna_a_a}bda}bdbsbsblblbsbVbBbQb-cqb-bXbQbMbIa(aOaWa#a#b1bQa?a\bBbBbKa1a>aHa.aoaoa/b%b[cqc1cTcbb=bNa_a<a-babubIb)cbb;b}cbbNb:b%bIa|bPbcbAa/aWaIaSa?bnbnbnbBbBb\cGc8c5cTa-aralaMaMa;aUavaAaFajacaiaoaEa|bxbxb1b%cab:b;b:bWbta^aRazasavaUa^bkbka^a^a^bFb0b0b6b$a|a|bzbmbFb:b?bWbPbJbMb:b7bUa^aRbjb5cpckb*a-aWa<b2b\b9b*bKbBbna\bBbKa_a?bnblbda_bubna_a-aWa?babubna}a5bnb^cxccb9bNbia?a<a(bnbda<bdbnbabubsbKbta2bfbCbEbCaoaIbdbBbNb=cxcJcibna_a#a$a/a(a}bub)b9b)bKbdbBbXbXbQb-bXbubda<a/bnbGbnbub9b9b7b)b\cncxcub[bka!aDaJa`a2avasaAaxaWa+a$a$a/bxbBbBbNbIbnaWaMaEaIaMaZa$a(aHaIa2a+a+bkb5bFbfbva0aPajaoalaYbRbRa]aPa;bta,bgb3bebLczb=cccjb8bGbGb8cnb^b\bBbu",
"cbb;bBbnbdbaa5aZa?bububyb)b9bUbia(bnbKa/a<bUbnbybxa}b7bBa\a|a\aKaKaIaKasasaSa7a`bta`aAahafaiaEa5a$a<a}a/a-axasaFaKa3a(a#a\bkbda|bIb1bMb7bBa2akacadasaSa?b%b8b)b\bxbdblbNb9b-cbaOahaEa+bWb1bMbBbrbxa|a2aRaAaoahamaFaIaFa$bAbxa;aWaUa2aMatakamaoaFaXaWaMaIaRa!a;a;btbJbmaXaoaoanaNa8a.a;a>bkbca|bBa-aEbTbTcab,b;czcnbXbBb*bUbdbsb=cFcibubibVbxbGbubBbua/bBb2bNbya?a#aSaSa-a}bibabsbGbGbQblbVcicccbbXa?a(a-a$a$a$a(a=bobRbCa,b`cobOa|aUa(a}b2b^cncnb-bybia<a?a/babQb~b^b2b2b8bQbyb9cfb-a_bKbXbNbxbKbIbkb7bMbAb%b:cgb%bFb1aXaca8aXaDaxapakakaoakasaSa#a#aZaSa3aZaOaHaIaFaxahamasaBa5a2aOaIaUa^bxa:a&a6aYa6a]a]aPaPa9a]aPa6bHbmbjaLaPaYa,aJbFb-b=b2b~cnbGbVb^b=bVb)b\",
"bsbsbsa3bsb)bBa?a<a/a<bsbibGb2b8bya\a/a|a\a}bQb%b8b7bsb7chb[bMbIbsa?a2a8a+aAara2a1a.aUaDaoaoadabadadagahaiagagaoamamagaiapaIaEavaxaiadavaBaeauaNazatakaOa_bubububia-a(a$a3a(aKaOa4bFbIb0bMbIb1bIcub%bta+a#aUaNa2auaiabadagakajamaoakasa2a%aXaBamamapazasaoaoaiaiamavavajamajaiahajafadababadamaAaNbmbza&bkb]b<bQb1b}b7bVbBbKb8blbna}a<bnb2b<b2bdbabibGbQbGbVb-b-bXbNa_a?babsa}a$a-a$a(a/a(a/bybXbGa/a}bybya}bJa9a6bHa9a*bebRb!bRbga*aDaMa8aOaSa#a-a/a\a/a8a8a|aWaWa5a$a+aKaIa3aZaUaZa!aUaZaZa-a/aOaxaBaoajapatayaHaDaoama>b6a~a`bxa!aHaMa7aQaDaQa7a>a+asaraoaNaDaJaHauaRavagaiakaxasasaoamajamaHa0aPawawaYa]aEaGamaealavaHayaCaLaYa,aga4bda?a5a\blbBbybQbKbGbla-",
"aAasaBaxava$a$aWaOaIaSavaoapapaxaBaBaxaEavavaFaKaIaOaEavaOa2aSa#a2aRaEaHa&bmbza>bFbJbma`a4aNaQaUaDaua&a&a7aNa7a&aRaQaXaRaDauarahagananahayaQa)a~bwbba4aqadacaeacadababacadafaiaAaObUcAcmbMbMb*b*b1b}chb1bxbxbzbxa^a%a2aUaOa+btbtbxa|a`bPb0bta+a8aUaAaAapaoakamasavababafaraJaVauaNaXaDazazaEa&bPb.bPa7a.a2aHa2aOamavaZa|a_a5aOaBaOaZaOaOaxa#bda(aZaWaSaxaxaBasasaBaHa!a+bha&a>aVa1a`a&aNaBaxasapavasaBaFawbjceb3bRbDbRbpa0aPaYa]bHbDaQaCaUaHaPa:bobCbba[aXaVaXaRaHazasaraHa;bha;a1a4bWa~aBasaoaeaeababakapaoaraoaoanamaIb5bPbWbTb.b{b?ckcvb/bZb?b|b(bEbqbwbwbLa0auaza1b5a~aVaKaoaoaoamaoaiakaiaiaiamatakaiaiaiahaqaDaGaqaharanajaPa6atacababagabacagaeakaoakaoap",
"a!a1a4a2axaratasaxavataHaNazamaoatavaDaHaEaEaEaHaHaNa1btbLbLbJbta~btbZb(bJbLbEb{b.bZa~a.bqbjbqa=aVbjb{bCa[bbbLbLa&a.a:a>a0aPaGaNa=a[bfbbbfb/bZbbbqbEbwa~a!aNazazaMaEaIaOa4aXapaAaMa|bzb:cwcQc4cZchcmcqcNcwcwcwb,b0bPbUbJbzbIbWcacab*bUb6bUbMbMbIbkaXaOa8a%a$a>a7aDaEaya7bba:a9a7a:bwbEa>a.a1aXaXaVa7aAavaJaMaqanaranayaNaFaIaQaMaJaNaRaHazatamaraDaXa7a)a:a9a:bba~bwbLbZbCb&b>b&b&b`b#boaTaVa9a)boa=a=bDb+cSb_bHceb3cOcVcOb_cyb!a[a,a>a0aDaza)a[b+cCcEc3crceb_b!a{a=bwbEbFb?b(b]b]cpcgbPbzbtbmbta^aXaAamaJa2a>a&aXa>a~bmb{cPcCb>a{a{a=bYbobCcob`cocob?bLbjbqa0a.a%a7a:bZb{b{b(a)a~bzbwa.a8a~aRaDaJaVaPa)a6aLa,aLaLa,bva]bHbva6aCbeaTaJaDaJaQaTaDaDaCauauaEaMa&a2",
"b,a|bqb|bZbwa%a;bJb:b6bWb]cab$brbtbPb6bPcgb]b5b$ckcgb5a~bjb.b.b|b5bTb|ckb(b(cKc7c7c#cQcbcvcHcSb`bObobCbObOb#b?ckbSb&b4bDbOb(b(b|cmckb]cfcwcub\cnctcxcxcxchb,bra^bzbPbra+bcaUaEa>bta!bMcIczcUc%cNcucqcqc1cAb6bLbhbWcsb;cpcTc!c&cubUbUb}cbcMc!cXb=b[bka;bPbtb$a9aVa:bjbbbEbqa{a1a>bwb(b?cgb$btbtbtbPb]b]b|cab$b5bFbzbzb:cpcacqcNcNcmbWa>bbaXaNa2b%b[cfb<b[cFcXcwb%b6b*b:b]b6b]cgczcNcTcqcbcda>aJaTbpbObZbLbhbzbMb6b,ckc9c$c9c3cHbTa`a^a.a!btbWbsb<cscdb!cEcEb_bpbpb5b{b7cpcGctb8b<ccb=bVcnb<b*cpcqcab6bTbmaNaDbEbEa{bTb>cocEcrb{cPcQcYcUc6cQcscPcDcIc6cMchcbczcTc!c%c!cMc!cXcXcZcAb5a`bmbEbhaDawa.bea,bvbvbgbva]bvb3bva,a,bebgb3b3a,bDa7bmbZbTbzbtbWb?b;b%b1b*cWcG",
"c%cgbfbOb{clbmb0b%b1bMb1b%czc(c+c!b;bNb<chcwb=cqcTc1cZcqbzataXbtb$bha^b]c4c(c(c!c8cBc1cub*cqb;cIcIb}cbbXbQbXb<cxcUcUcIb,bVbXb\b^b9b-bGa\bKb8cccibKb<cncRcRcxcib9b2b)b2brb*cbbIa2aUamaMblbrbkbAb2b[b1bxcFcBb1b*b%b*cXcNcbb8b)cub)bia}bGb2b\cBcNcTcKckbFbzbra+aTbWbba0a`btcgcNcFchcucbbXcjcncjcxcRcXcBcmb7b<cucGctciccbsaFaIa/bncqctcRcda:a:bocjcib~b2bubGb=cBcjcjctccb\cncncMb<bBbubibsb2cFa?a1aJa5a2a<b-ctc1c1cJc1cJb:b|cQb=b-ccb-b2b8b2bQbQcxcMcMc5cRb\bJb]ctcBcBcBb9a/a<a<a(a3bda}a(bGb~cBcBctcbcucDbWbEbjbwbjb/b#b&cCbobYbdbdbdbsb2cnc5cMb~b\b8bKbNbGbGb2b9b9b-b8bVb^cccxbGb;cgb:bjbjamanbEbZa]beb3b3b_b3bvb3bvaYb4cvcvb#bob/cNcFcXc1cMcjcBcFb<baaSaWa5bdb8cj",
"bxbAbobCb/a{bkb:b%b7b7b;b[b<cLcLcNcubBcqcucub=bQb;b8b;b<b:azaHa.aWaOaEaBcuc6cFcqcRcWcxb=b=cucqcbcuc4cubGbGbybubycMczc4cWbXb8cxcBcBb^b~cBcBcib<b-b2bXb7b=bXchcccBc8b[bubsbNcnbcaRa4aAara4bIb:bUbIa<aUaAbMcpa^a}bna/bia-a-bnblb2bKbGbXb9b2bNbGa[bEbLcsb:b6a>bPcQcsb0b|cNcpb<b9cjcjcMcWbGbybsbQb<b^cib~b<cub=cub%bibVa<aXa~bmbzbQb)b2bNb6a1a0aNa;bBbKbXbibQbVbXb~b<cccicBcBb\b2bGbQb^bXbKbVbxaXa7aqaIaOaOaBbVcnctcccxcGcBb)b2bVb9b=ctcxb^b\bQa-a?bibGcBc1cMbNbybVcnb9bVa?a(a#a-a#a#aWaSaKaxaKaZa/bnb8cNcUckc0b{b#bobbbfbObObmbhbua}bibna}bdb-b9bubKb\cnbVbna/bub~b)bya(bibQb8b-bQa<bwckbObCbFcfc8cXb(bwbhbLcvcHcEb3bvb&b]cfccb9b~b=cmb-b}b\b<b^b%b%a^a|brbrbBb=b;bN",
"cLb~a:a7a&aXa|cXc1c!cLcFb\bIcbcjb;bBbXb;bAbBcjb)b;cLcqb\a~cwb5aVbka;a+aZbscZcTb\b9c1c4cRcMcXcTcLcTc!c%cbb2bybybncxczcbcjb-bBb2b8cjctcxcncWcRcMb<b%b-b%b9b1b)bXb<b7cXcxcicncxa~a%bhaNaHaDa;bkbIb:cfb;bMa#brb1bKbnbnbKbVbGbKa(bnbycnb~bNb-b9bXbwa{b5bEa^a^a~bmb?bJbEbwbJb,a^a+b-ccb~cxcMb=b8cqb\cnb^b<b)b2b)b)bzcpb[b*b,cgcab0bub=b)bsbZbhaVacaZb8bVcncccjccb~b<cncBcMcJcRb9byb8b8b)ctcRcja^a4aNaHa$baa_a+aSb8bQbKb2cRc%c%b-b2b^b9bGb-b2bGa_a/bnbybGbKbGbVcjbNa}byb2bGb9b8b^b^bVa?a_a#a3aZa(a?a+a?a^czcTbUb.cda0aTa)bba[aYasa(a\a}bsbubGbaa/bVcRcGb=ctb~b^b9bVccbNb8b\b=bVa?bab9bKbba:anbLcbb[bTb(bTclcqbMb;cNcXcwb?b/b<cNcubXbNbKb;b[cjcmbQbBchcpcpb:cpcgbQbKb1cm",
"bNcfbta>a+aza3bIb[cub[b)b=b7bGb\cub1bUb}cbb;b~cbb9bQbxa_aNcAb|a1bcbca\a$aMb[c(c4c8cTb[cfcMcZc!cXcXc8c)cXb^bQbVbQbla_blbubib9b-b^b=b~cGcRcWcWcBczcLcucqb\b=b-b=bMb)bUbia/b<ctbhbmb(bJa+aEa2aXaEaHaIa(a|aMa-bNb)b-b~b)ccb=b^cxb<b\cxb9b9b~b9b-clckbZbba`a>a!awaNa9a7a1a~b6b]bzaOa/a/aEaFaSa}bKbVb)b\chb)bNbKb[bsbVcBcFcubGbBbXb2bGbBbUb0a!aqara#a}blbnbKa<bGb8bna$bsb%cBcXcictcjccb~bVa\a(a%bta%a`a3a#a?a?aKblcJcWc5c1cGb8a?bXbdbnbubVb~b9b8bnbnb=baa#axaFa3a#a?bVb~b^cxcRcMb~bVb-bVb9bQbibdbxa|bcbka^braAa7bTa[bLb/cPbTa6amblbKa_b2bXb9bNbsbdb2b9b<b\bVb-cncRcGb=b~b9b8bGbnbVczb<a1aGalaHa2a7a9a{bObTb(cdbra.a}a^a<aOaZa#bVbQbBbubnbBbNbNb1b;cncFczcjbxa\cpcFb*bu",
"a^b%bJaraXaEaAa5a^bnbdblbkbnblbBbFb,bha`b[czcqcbbQbnbnbIb$a`bza2a\bra}a\a$asb%cNb*bsblb1b[b=cnczcLcZc!c%cXcGbnbabsb*cbccb}bsaKa(bGb8bGbGbKbabacFc(c(c(c4cFb\b*czcxbXb9bnb9b^a^aEckcKb6a&aRaDavaoaiababaKbcbMb~b-cncncjchb\cBcWcGb2bNa\byb8b=cDbba{a)a1a.a|a;bab8b9bVa-b$cgcwbka+a^a;a5a5a|bnbKb2b9bBb[b2bQb=cubGbUb)cmcncjb;bGa?a+a\b:a2alaEaoaFa$a(a-a/a3a5a$a-aWa#bKcmcccRcWcnb<b8bdbBbta|aUa8bAa?a$a#aWavbncWcza-aFaAaIa$a<bdbVccb=bNcccib^bVa<a_bnb=b<b9bnblb-cjb2bnbla(bNcjcncRcMctb)b<b[b}b%bUbta.bwbTbLb{cHcHb5a[aObxb9bVbnbsa_a3a-bQbQb<ctcibybabKb)b-b2bGbda<byccbXbsa8aTaGaQbtb<bNb7b%bBblbPcAckbha~a^a;a!aWa+bAbxb)cuchb;b1cFc5cTb%b8bVb%cccfb*bBb1bs",
"b1bxa`aRavaXa5aWa!blbcbBbVbQb8b2b?b|cob>bWbJbQb%bXb)chcFcYb,b|a.bub%b)b%bAaSapasaka#a_bdb9b)b^b2cxcWcRcWcqbQb*b[czczcTcubAa#a3asamaOaKaFaFaZa_bub-cLc8c8c(c*c%c(c*cTb-bQb)bVb6aXbLcDcDa[a~bPa>a;a!a!a;a|bxa!bBcJcFcib\b8b2b<b1a3a_b8b9bBbia}a%bmbCbja&a1aIb1b)b2b^cnb;b*b]cIcab,cqcTczcFcucTcxb\b;b\b=cbb=cGcGcJb~b<b~cibKblbBb7b*brbFaJadasaOaWaSa5a#aZa(a<a}b1bXa}a#blbVa\a(a?a}b;c5cxbPbxbqa9byb8bGbla}a3akavasapasaFaSa$aSaFaZbQb^cncxctcxa-a?bVbNb^b^a?a#aZaSaBaBaIaKaWa?a-bKctcMc1c5c1c1c1c8b[bWbhbOcdbqbLcDc0cka{a8a4bKbKbubububnbua_babKb~cGccccczb\a+a(bnbaa-a?baa3aya.a9aLaHb]c1ctb-b9b2b-blbMb]cUcIcQcmcfcTcMcqchb<bUb[b;cGcJcncJcLcnbUbsb7b*bUb1cfcf",
"cmb[btaUamaWa+a-a^a}a(a3a5a_bdbAbJb6b+bSbYa:bUb;cbb~cicGcgckcsbta^b8b*b9bUbBaMaOa/a(a_bubGbNcncMcGcRb[b8bsbxb=cbchczcmbUbxbAbxaOasaKaOaOa2aWaWaWa8a?bnbdbVcccFchcWc5b~bVb2a5cbbMa~bLc2cPbEbEbma^bIcmb;braXbca5b%c1c8cWcBb\b=aWa3bybdbBbKb2bna/aZa2b6bLaVa%b$cWc1cJcBbUbIa>a|bFbmbcchcRc5cFcqcJcGb}b\b=cnb}b)b\b9b<chb-b<b-b2b2b2b<cbb6a7anaMa;a$a3aZa(a(a(a3a3aWa5a3aWaxasaBbBcccbb=cxctbWbtb`bpa5cfcjb\bQbsaWapaBaWa-a$aZa#a/a?bdb2czb=bQbGa3blbyb2bNb8a}a3a(a$aOaFaWa5a$a%a8a$baa}a<bnb<cqcGcjcGcGcAb]a[bobwbLcdc7c9b(a8aXbQb-cjb~b^bNbNbQblbsb^b~cxcGb\aWa$bsbla_a(a-a(a-a4a4a=bSbTbjcccJcWcWcxbVbua_a&bFbZbLcqc4c5c5cTcJcLcmb;b}b~ccccbKb\czcnb~b*b;b7bIbQb}",
"cIcNbPa`a+a!a|bibcbrbsa}a/a?a?a?a+a+a*b+bYbObUb7b)bQb)ccb*b1cZb0bxbrbrbcbVb[b8b*b[b;b8b7cjczbXa/aSbdb<cqcLcub*b[b*cbcpb*bxbka+aXaIaOaIaOaWa4aWaSaWaRaWa8a?a_a;a5a-bBb2a\bla(a!bIa.bJa~bLb6bwbkb;cub*bUbUa!aWaOasaObNcBcJcqa#aSa-blbBbaa?bsbNbQbXchcFa&a&a|bhbKbabXb<cbb;cab.a`bzbJa|a+b7cmcXcMczcJcFcGcRcWcJcjb\b\b<b9b<b7bQb9b}b=cFcDa.a2aha8brbca|a;a$a5a/a}a\a\a/aOaFaSa(a\bsbKb1byb2cmb:bYboa|bda_b9b-bBbsbUb=b}b*bQbQb\c4c5cFb)a\a3aWa5a<b9ciccbQbBaKa5a+a-aWa+a4aRa4a;a;bha%a8aXa|bca^a4aSbibdbIbIbha7aXbhbZcQc0b{a1aHb)cRcub\b-cjbNa}bla-a}bXb)b=aWaSbdbnbybybGbyb-b=b)b}boa=bOa*bya_blb9b=ctcjb^bJa;a~bLbla\bUcqc4c1cTcFczcWcLchb<b;b)b\cFczb7bMbMb1b*b<",
"cfcua.bEb6aQa}bua?a?bBbca/a^b2b=b:bFbpb+bgbCb9b-b-b)b-b^chcBckb6b}bAb2b7bcaSa#a<bkbsb$b7a4aAataAaAaAa-babVb}b=cFcMczbMa^bxbra\braSaWaOaZaWaOaWa3a3a-a;bxbAa+aBaFaKapafapa$a#a%a+aAaMa^avaXa;b7cLbsa?a/a4aUaEaoaiadaKb*cma#asaOa(bnb2b-b-b=ctcGcJb~cja;aMata!a/a$a-blccc1cNcmb,bzbFbzbzbcbda|blcbcWcRcRb\b<cjctb~cbb=b)b%bKb1b8b<b;cmbma.b6a^aAa+bkbMb*bxa/a(a\bAbla<bybNbkbsa_bub)cgctb\cIb]bZa[brb;b8bUbBa4aObcb;cmcmcqb;bIbka;aKaBa2a+a_bMbsbub)b~b*a#a8a#a2a|a\a!a4a+a8a^a|bFbUbka+bIbMa+aXaMa2a2aXbka&a.a7bma~bzbEa1a;bcbVbnbGbGbubybVbla?bubdb9b2aSaFa}bubXbVctcxcxcncjchcFbPaDavaRaKa?a-bdbyb-ctcxcub%bUbMa_a<a?a^a;a|b=c1c4cFb[b1b}cmczb7b=b}b%bAbAb1cbcm",
"cabAa1bhbza2a(bra}bnbKbxa/a5a(a<a^a4bgb+b&bSbKbMblbBbybKb1a?aNaRa#aIavaBarapaoapasazazazaIa4a!a;aXaBakaiaiaoaAa^bIaWbxb*bxbWbQbIa+aMaMaZa+a/a^a/a!a2a;a#aFatavaEaBaOaIasavaSa!a|a%aUaXaRaOcFcqb[ccbMbsbua\a(aZaFaoakaKbdaIa5a?bBbGbGb8cjctb^ccb\b9cca;aJauanaIa#aWa/bBcqcjb=b%b)b0bIbAbxa#bsbra<bUbQbGb%cbchccbVbQbXcicnchb}b[b%cfbUa&bzcpbUa%aRbAbdbda^aZa3a#a_bkb}czcucbchbIa-bub}b2bna8a!aOahaoa<bla#aIaFaIazaIaMaRa2a$a8a2a|bra|a;aFavaBa4a|bdaWaIa2a;a%a}b1bka^a^a^a+a!a3aOa8a^a<a|a^aUazapaEaMa/a+a;b]b$bWb0bPbza7brb6babBbVbaa<a_bGb9bna(a3a-a%a/bGbybNb9b9bVb~ctb\b~cBcBb7a.apaAavaKbsbca-b;cWcJcnb~b[b}bxbrbkbcbUbMbIbUb1brb2cub}b}b;bBbNcmcLcqb}b[chcu",
"a!a1a>bFa7a%a4bMb7bUa}a(a^a(a3a3a`bma=bpa*aLaDazamaoanamanbha+ayavavaUa2aOaIazaEaUaUa2a|bxbrbca8asataFaEaIaHaAaHbcb*caczcab,bFbWbJbFa;a%a+a^a^a+aOaEa+a;a3aRaWa;brbxbkbFa;a<a!aWa`bhbFa`aMbMcXcTcBczcjb)bKbxbaa<a3aFamaobKczbXbubaa_a?a/b2cMcRcBcxb9bma1a(a8a3a(aSa+bub<cjcbb)b}chchb<b}b<b7bQb8b;bXbcbAbIa^bcbBcbb\b8bBbxbAb7bra^a2aXbta2a;bAa^a;bUbca+a/a$aFasaMa$bca|bnaSakafafaiaeaiaraDa&aDaDaqamaSa!a8a8a2a;a;a+a|b$cpb1bAbdaWaMaSaOaHaSa+a|a|b7b1bxbAbIbxb*a;a+a8a;a#a+a2aAaOaMa2a^aMavaRa8aXaNaMa%bka+a%a;bPb6a.bkb1bBbXbQb8b8b8bGbsbQbya\aXbabAb~ccb2b9b=b=cictcRcWcncxcUa%azaja3a_bca_a-bBcbczcqb)cbcmb)b<b:b*bQb1cmb1bAbnbAbIbUbrbrb}cfb}b2bBbAbMb*bk",
"aQa^bJb0a`bPa+a;bIa}bcbcbubdbdbibObYb3a6a*awalalaFaMaIa8a2aUa$a$a+a2a8aMaUa8a!aRa2bca|a+aWaEaUa5a%a;a^a.a4a2aUaFa!b1cwb]cab]cgcwcdb,bka%a+a|a^a|a\a!a(bUb6a^a(b7cpbFbma+aMaRaKaSa|b6cdbLaIa|bKcmcMc1cNb}b2bsa/a(a?a\a-aIa(b1a}aOaBa5a3aOava(bubVb=ctbFa>a4a!bkb%bXb;b1bBa+a(bAb}b\b)bKbIa_a(aSaFavaIaSaAaKa5a-a5aFaIapaOa$aZaBaAaJaRa%bmbmbPb:a|aOa(a\a/a(a+a5a$aKafabadafafagajamamaDaNa1a9a{aLaPa9a*a6aHa2a%a$a>a%brbrbka|a+aOa8a-a+bra|a;a(a+a|cNczb*b1bMbFb0b]bWa$a+bca^aFa$a%aRaRa!a2aAa+bMbFa2avarataUaXa4a!bzbWa^aMaHaZb1b=ccb~cBcxcibXbua!a+a;a;bca/a?bnbnbubyb)cJcRcxb=b,a;aXaQaZbAbubUb[b}bQa$a(bsb)chb1b*bQa<aWaBaOa3a$bua|a/a!a2aWaIaAasaFa!a$aHazaD",
"aMa^bPb,btbmaUapaMbaa^a?a\a8a8aWa9a[a6aLaYaYaHaJaNaRaQaJaVa1a.aUaEauaMaDa7a!a7a4aMaZa#a5a-a|bcbAbtbkbFb0bFbIa^a%aBaoapaBaSaIa2aXa3aRazaEaEaFaRaXaWasavaxaSaWaAaEavapaxaEa2a|a^a!a.b0b|a~avaZaKaOb;czchchb2bla?a5aOaFasamaiaoa#a|blbsb2bXbya#aOaFa$b*bca^aEataiavaFaOaAaoamagakavaxaoagacaqauaeabacacababababacagajahamapaiacacakama#a|bxb?ckbIaDaFaIaUaSaRaHazaoafaiamaoayayaHaDaDaDa=bfbfa*aQaCazazaHauaQaVaXa!a!a|b$a|a+bJb]b7bFbBbPbkbIbIbxbIa4a!bAbsbtbka%a$a7a;a^a!a2a.a+a;a+aUaxapavapaEaUavaEaUa8bha;a|bma.bmbIa&azaUaWa8a5a(a;a5a$a-bFb5bEa:aVauavaEa+a+a(a$a<bub8b^cjcGb*a-aVaRaVayaEaUaWasaoamadaeasasakagacacajacabaeadacababafadaeahaeabaiaiaeababam",
"a.a.a.bWb5bLb/bOa9aTa1aQaLa~a~a.bfbOb_crbYb{b{b/bobTb{b{cScPcobSbObpa[bbbbbba~a~amabagaeagaoakapapaFaAaIaOaIasaiafajaqayaLaJaTaPa0a[bCbObEbwbma`a`a8aXaIaFaUa+a;a^brbFbIbtb0b,bFa!a%bza;aOaoavaBapaKaAaFaFaAazaBasanaiafaeaka#bnbaa}babibsa\a/a#a5aKavasaua7azanajamaqaCaLaqaeamaeagaoaoazavaDaUaJaQa1aQaEazatarauaraJaNayanapasaJaRa.a>bqbwb#bEbfbfb4bCbDbpa=bfaNanauaJaQa.bqbwbqa9bgbfa=bpb+b_b&bDa=a[a9a:a>aJasasaSaIaxaFaFaOa8a(a+a2a^brbxa+asadacabafamaeabacaAa.aDa)b{b5bTbLbha1a2aRaHaMa2a%bFbFbmbtbJbha%a#aUa+bmaSaXapabababababaeacalaVa:a[a!aCapaAaHaMaOaIapafaiakaFa3a!bFbja6bpbga,a,a*a=a6beaGawajahacafawa6bvaYaqaCanauaqanawayayaQa&aPaNaJauazauaz",
"bSb&cocHcvcob>b`b?cQb?cacIczcgbrbzbJbTb?b5cdcwcsb6bjbEbObTbYb/b>b`clbDbfa)a{bwa~aGaPa0a9aPa9aTawaqaqalalanaraGa0a0aLaYa*a*bgbpbCa9a9bja[a`bTb5bWbTb(bPbWbmbzbWbJa;b:cdb]b]b:b?b]b6bmb$b0bmazagaoamacaua>bha`a8a1aMavanaDaQaJataraparasaEaAatananaDa7bbbjbbb/bYbCbgbobHbvbebva,aLaLa1a7aDa2aUa)a[bobobba:a7a0a)a[bba)a*a:bobObja*bbbbbCbob#b(b{cvcUcZcscQcwcQcQcKb%bFbxbAbPb0b,b(b.bJbCb&cVcrcEcScScob_crb`a=aPayayanaiajadacagaeabababababacadababababaeaYa*a0aGaya~bWbTa{a>a`a{a`bwbwb(b.bZbha~a%a!a&a.a~bmbmbha|a^bzbza&analararauayaqaqauaGaTaPa9a9aTaPa0a0aLagaeafacacaeagata&bPbYbDb+bDbpb!b+b_b3bvbebebvbva]aYa]aEaPa]a]a]aPaLaTa)a:a{bfbCbOa*a,bpbpbDbpa=",
"c9c7c&c&c(c*c*c!cFb\cbbKb9cxb~cjb<b;chchcbbVcWc1c5cccMcTcncmc5c5c1czcAbZaDa~bJbJbCa*bWb5bJbFb(cacDbZbTa0aGaGaYa*bOa=a9bTbYb.c0cscDcKc8cZcgc6c!c&c*c+c)c6b]aMasaOaza;bWb?ckbta^b$cpb|bPb(b0a`a>a`a>btbzb:b5ckcsb?a[bEb&bObObYbfb#bEbLbObYbqa[aTa[bYbTbLbba9a`a:a0aYbSbga*a,aLa6a6a1aJaFaMa7a&boa=a=b/cIcIcwb[chcqcwchcNcpcscIc6c6c#cZcUcIcmcXc8cBb-b^b~cBcjb2b8bVb^b^ccb9b*cFcFczcTczcRcMcGcLcFczcNcbbPb5cKbTa[bEa:a0bzb0bsbxbFbta%a8a1aDa6aYa=awataUa!bFbZbZb0bLb<cXcRcRcRbua(a#a&a&a7bzbma`a2bcbVchcucmcbcpb;b7bIb%b}b1b7bUbXb:b:b7b1b*b$bWcdcsb:bWbWb5b5bZcdcwb?b,b|b$bLbLbqbEb.bLbja&bfbYb4bga=bgaLaPaYaYbea]a[a[a]bRbRa]a]a]b(cDc!c4cpcbcfcIcFcUcDcsc0c9c$c$",
"b~b)cccjcLcuc8c+cWcqcnb8bub8b-bKb7b)b?b(b:bPb<cccicncxcib<b-b-b2b9cJc1b1aNaQbqbPa&bhb~cccJbQb}cucLcqcscQclb>bTb5bFa%aIa#bsbNbQchc1cFc4c8cTczctcFchb[cZcua7a8aJa>a!a1ata!bUczcuczczcicucBczcmcxcncncJcJcJctcBcMc8c!czcmczcTcXcjb=cfczb:b$cabJb:c6c6cZc!c)c8c6czb}b.a9aPaGa1aDaNa`bfbfa.a0a~aTayayb[b%bycGctb2b8bXbKbKbGbGa_bdb)cMb<cccjb^b=cicxbXbNbsbla5a(b9cjcxb=bVb2bNa}bna}bybGbQb8b^b2bXb<b-b~ctb^b-b2cGbjbqbza&b)b%bBbQb8cjc5c5cDcgbDbgbobCbyb8bGbXbVbGbybGb<b^b=b~cMcjb9cnb8aKataJa&aJaSbnbVbNbKbubaa_a_a?b=c(c5c*c%c1cxb<b=cib^b2b2bGb~b~b)b~b~b=b\cccMcccxcJcRcRc%cWcXc5cZcJcGc1c8c*c7cvb3bea,bvbva]a]bea:bebebebRa]a6b(cMb<cnb-bNbnbVbGbybGb%blbKb=cici",
"bQb8b;b;cuczccb<b8b;cccxbQb9b~b^b]bWbfa6bta~a(a_bUb;b9b\cbcncjcxcnb2b7b7bOboaPa{aXbtctb=b\bQbcbIbxb*b*cIc)c#cZcXcXcXcBcFcJctb9bsbsa?bBb%cbcRcucTc4cucmb[bWaQa:bja0bqbtaNb<b1bVb%b)b2cncxb=c8c8c%c5cRcWcMcncjctb~ctcJctcib~b~cncRcMcRcRcncncRcBcWc,cMcbcmcucxc5c%cXcjbhaAa2aUaraHawaYbea6bba]aRaNcjcbb8cGcMcRcjb~b^bKbibibGbQbnbXb1bNb<cjb=bVbia-bNb8bXb-bQbGbVcjcGcjb2bna$a3aWaWa?blbybGa/bGb-a$aSaOaZbQcxcJbFaVa^a^cccjbsbsbdbGbxbya|b$chcTcxcBcncGctcxcMcMb-bGbGbGbNb-b~bVbGb8a^aIaNa~btaQa$bybsbybda_a-a(a?a}a3a3bGbla#aWaSbubnbNbXbybnbGbKbXb=b^b)b8b2b)b<cjcMcWcGb~b~b=b=cnc1cWcJctbQcccTcUb_b`bea6bea,aLa6a]aLbebebHa,aGb,ccb=b-cnb^cicGb[b2bMbMbUbsbBbQbG",
"b*bcb0b7bka;bibAbxb;b\b}cRcJcjb^cNb6aTaTaRa4b)b7bBbKbubla_a\bQb}bBbKczbMbgcla)aPaza;b%b~czcJcbb8bQbGb7bMcac6c6cpcucFcXcxb\ciccbNbua(a#a3a#bKb%bBbka+a_a|b.b|b{cobEbja!a!c1c1c1cTcub[bla}a3cbc*c%c5c5cMcnb~b=b)b2b)b~cxcJcJcMcRcGcca}a#a5aKa(bGbKcGczcha}a+bIb%b-cfb1bPa%a4aQa4a.a1avarazaRaUaXbUcFb=ctcJcMb~cGcMcWcBctb\b8bVbXbVbVbQbBbub)bXbGbdblbGcBctcMcJbQb2b9b~bya5aOaKa#a(a(bdbGbBbia}b8b~bubdbabnbdb9a^aHaXa+a-bychb=b<b%bya/bla}bschcJcXccbsbub-bGb8b~b\bQa_bybla<a\a_aWaOaBbqbWb0aNblb2blbibsbna?bBa\aZa!a#aSblb~ctcicibQb-b-cccicncib)b8b\b\b)b=b^b~ctb%bNbMb7bQbBbNbQbKbsbNbKbXbsbsbGbLbEaGaGaLawajaFaMaSa0aPa]aLbAcqb^cjcJcWc8cWcTcZcJcqb*b;b7bUb1b7",
"b$cAcZcNcbchb[cqcXcFcjb<b2cGcRctcabma~bWbra|bna;a$a3a/a_a^a$a}a?b2bQb2b9bCb>a9a0aiaZbXbla-a/a}b7cjb)b*bBbwcAcKb:b%bQb%bQbua$bnb8b%b}bBbla-a#a+a(a3a#a;a^a[b.a9a0a>bJaXa.cXc(c4cGcGcWcWcubQa_b<cub<b8b8bBbab<cjcjctcxcGcRcWc5cWcBbya?b^ctb}b<cbbKbkcqb*bcbMb}cfcTcXb:cgbPa>b0cwb0aHaHaAaAaAaDaSaMaFavavaAaZbsbub}b<cic1c5cMchccbua-b9b)b<b)b8b\b}cjb^cJcGcictb^ctb<bna}babrb*bBbGb8b%bQbQb<bKbNb}cccJcMcja-aKa-aoafaObBa}a<aZa(bIb)b2bnbaa_b8cnb=bnbabybybaa3aWaZa(bBbua-bua<bibGaua^bjb?btaVcBcRccb-b<b%bQa<a\bBb%bnb;b%cic5c%c1cMcRcJcWcRcJcxccbNblbKb<b=ccb1a}a%a8bkbMbMbPbzbhbda^a/a+bib<cxc1c!b7a9a1aVauaoaxaua+aHasaMaVaZaBaoapaIaZb2cfcGb}b<czcTcFchchb%bc",
"cmb%b[cZcmbra;a/a^bAbVcmb8b9ctcjb<b7b[cbb%a\aOaBaFa$bBbsbQchb-a-bda?a3bcb4cCbLa:aMara-bsbGa-a/a5a#blbBa\a4a|cacDbXbub2bNa(a/bdb8b\bVbGbsbdbna_bXb7bNbxa;aLb?bLa:a7bma!a^b%bIb1b<b[b\cmcmcxb<bIcJcMcMcxcxctcRc1cMcRcMcJc1cMcBb~b^a\a(b*b7b}b;b7bkaSbccNc6cmcmb*cFb*bAb0bscab$a~btbcb,b:b$bPa>a+bca/a-a(a/a5aIaSa#blbQcGcWczbMb}cFczb;bMb*ctcWc1cBb8a?blb^cnctb~b)b;b}bXcucmcqbNa^a$a;bxa/bBcBb\bQb-b~ccbGblbna_apaEaHa4aWa5a#aSaFaFaZbybia<a/bNb<bBbNa3aWa?a#a#a#a-bsbabla<aKa$bAa.btbEbZbha>c5c(c%c(c%c5cjbncccBb1a?b)b2b2cBb-bsbBbXbXbVb8b-cxcJcWctcccGb%bKbca$a^brbrbIbIa^a!a8a!bKb)b)b2bsbBb<bWbPbTa.a7a&a.bzbTbha&a>a`a2aZa3a(a/bkbiaWaOa#bKb7cmc4cZcucpc4c4",
"bkbcaMaAaNa|a;a;a4aBaFa3b7ccbVbBb*bra/bcbMb*b)bIa}aKaxaOaSbkb1bublbnbnbybfbYb>b4aXaWa_a_bybibubBa-a(a/bsbXa}a;b,b1bxbybla_bGbia#a_a?bababubKb2bKa+a$a^bca.aVa2aVa1a>a2bUcqb7b7b;cucMcLcnbMbsa-cbcWcMcJcWcJctcxcWc5cRb^bna5aFaZbIb9b1b*cqbXbublbsbna/bcbxbMb[b%b*cqczcNcqbkaUaDa|ckcpcwcpbTa&chc5c8cnb}b;bQbIb~b;b;czcubBbMbMa5aZaSa<bca^bybaa-a\bKb%baa<bubXbBbnb)b=bKbIbXb}cgb[b[bIaSa\a(a}bNb=bXa?a?bNbNb9a/amaNa!a?a5aZa5a/baa_a(a#a?a#aIaWbQbBbubXa}bibnbibnbaa}bQbsa?bla|aSa7bzbqbwa!a~cnc8cRc5c5c5cTb=b=cbb9bBa^a$a3a_bia}a/a#a<a_bGbGbNb-cncnb\b%bua_bNbcbQb<b;b\cbb7bMbxbaa}a_brbubKbubXcqcqcda{a.bLb}cQcKcQcHclbobOc!c1cLcqcfb%bIbUb9b1cbcmb<b1bIa|a;a/",
"ajaraSbrb:cpbIbcbkbra+aWaOa!a?babGbBb9b*b7b\chchb<cucfbna+a$a$a|bybXb-cWbTa[b`b`a%a1bua_a(a_a#a\bababubsbQb}bIbXbXb2b^cnb)blbybVbnbGbaa-a?bKb8a?a-a/a;bxbTbqbha7a!a;a^b7b;b*bUaWaSaWa#a5aWaxaFaeaZb9cnctcGctb^b\b2bQbua(a8aOa$a/a<a}bibUcxb9b^cxb~b8a}bIbBcbb[b%b[cTczcFbUanafaXbPb:b]bmbha1bAb1bAa}a5aZa#a(a(bna$a4aAaAa#bsa?aFaiaoakaiaiakapavaIa$a-aZaKa$aZaZbubQb2cFcLcbb[cTb[cbcqcpbXblbXb<b-b9bNc1c(c8biasataya?a/a$a$a3a?bibabdbGb2bKbyblcjb-b=cxbNb9cncnb<b9b8bVb8cFbsaOa)csb{b{bma&bsb[b=cxcGchczcRczchchccb*bcaHara$b<b=b)b8b2bubna}a5a+bBbBbBbBb2b;cmchbKbAb\b*b*b%b%bGbybAbda?a<bncxcXcRb|a.aMaua3bGcdcpbObobjbOc!cLbKbla/a5a$a(bxbra2aWaRa8bxbIa4ap",
"a|bcbxbrbrbcbca|a\a;a-a4a4aWa_bdbnbUchbUbMb7bIbQb*bBbUbUbNbBbGcJcWb^b-bsbjb{cCcobwa~bGbKa<a?bGa}a/bBbnbya}a/bBbsbKb8bubsb-b)b2bybua-babGbibsa-aSaSa(bBa(bLb5bqa&a1a;bcb*chb\bxbBbsbabaa-a$a$bia/aFaoaAbnb\b=b~b\chbUbka$bibNb9bnbaa?babQc%cWb*bXb=b=bNcicnciccb}b[czcZb]a[aLaUaXbrbka|bPa~a&bIbrbnbNb1b-b)bUa-aKaBaBaOaWaFa3bxb6b1a\aSaAasaxaxasaxaZa?bia?aSa}bVbAbdbUb)bNb7bsa/b1bcbAb7b[b;cccMc5cWb=b-b2b)b7a$aJaza+bsbca-a?a5a3bda(bububaa/a$a\a}bib2b=b8bGbGb*b[b8bXb-b8a^aZbfb{c0b/bma.aBa_b7cjczb=b=cncucFchcccqb}bAa+apaFbNb^cccxcncicib}b)chcub\b)b)b;czb<bxbGbGbIbAb;b2b<b)b=b8bBbKa}babBb\b:aRa8bMa/a-bxbIa[a[a{b5cbcmchb;chb}b1bka\aRasaOaZaZa4bAbUbM",
"bUb0cbbIaUa3a/a?a;bsa\bxbubkblbubuccb<ccbka/bkb7b)bsb}cFcjcbb)bVbQb\bia-a[bLb>bSbhb0b=bVb2bubXb9bsa_a$a/bdbia?bnbdbKbVa}a<a/bibna<a(a#a<a(bab8b8a_aWa;a\b5bqa`bqbhbzbkcXcMb\b~cuccccb^ccb~b9b2cjb~bNa5apapaZa}bsa$a$bUb8chctb^b8b\b=bXbnb~cbcicjcBcnb=b=bVbNbcbAb1b*bYa{a*a=b,bFb,a^a8bka.aEa8bcb[cbb7bUb*b1b1bca-a%a5bIa|a$a|brbUbIb1b1a}aSa5a/a3aWa/a}a?a\a_a^bAczczbUb1cbcubIa^b%cqcNcTcubUb1cib^b9b8a}bna#agana4b:b:bKbNbKbQa\a}bda#a-a-a-a<a?baa_a-baa}a?a}baa/bdbXb2b=b7a^bTb/b5bEbFbmbGb2b-cxcjb<ccb\b9b2bxbBbUa_bKbsa+asasaWbsb8b-b~b^b^cncRcLcub9b9b[cbb=b}b<bnbda\bnb2a_b2cGcjb~bKbabQbQcua~anaFbUb)b8bIa}a`a&aDaNbxcbcjb7b2b7bNb*b0a|bka|bia|aSa-bAb}",
"brbkbMbAa|a\a?a|bNcbbka<a_a#a5a}bdbub1bUb7bGb7b2b)cfbIbnb%b*bBa/aWa/a_b<cka>bOa[a!b*b~b2bKbdaWasavaiaiahaiaoaxaSbaa<a?bubXbua<a/a_bGbBa}bubNbsbQb8b}b:cqbTa{a`a`bmb,b-cxcBcxcxb^b^cccccccncub\b=b=b=b^byaOacaiasaxbuccczctcxb~b^b-bGbKbBblbXb%b%bNa(a8brbUbUbra;a/aIamajaDa7a!bmbUbMbka-aXaAa^a^bcbAbnbMb%bMb1cfbMbrbybGbAbAbxbNbcbubrb1bka^bibsa\a/a#a/a#aWa#bsbKb7b<bXb*cqcAb%b1b1b7blbBbIb)blaSaSa$bQbubUaZafacblcmb*b8a}a3a3aOakamakakapapaSa_bdbdbsa?baa(a5a#a-a(a$bsb^b1bcbEbZbWaDb7cmcxb=bXb9bXb9b*cncub2bMbAbBbybVb8b8b;a;aHasaraBaUbsbXbXbXb%b-bMbBbMcuczcBcub~bua?bdbGbGbBb9b^b<bNbVbXbFaRaCawbub<ccb-b0b:bta7azazbra(a<bAbIb8b1bMcub)bkbcbxbAbrbBbsbn",
"bkbsbBbkbAa\a/brbBbIb%b8bIbBa_a^a}a_bkbMbUbAbUbQbMa<baa\aOaSa#a\a<aWaWbAcKbLa[aPa2bcbnbdaKaoamasaxaHaKaIaEasamaeaFa<blbXb2bKbna_baa-bdbXa?aSbyb^a?a3b1cUbwa{bJbZbmbIa;aOaKa/bib}cxctcjcib<cccGb=b<ccb^b-bXa/aKaBasaiasaZbBb9bla?bcbcbcbAbca\brbca8a|b1bUbAbIbNbkaDaDalaJaVbtbMbFchczbra4a!aIa2bIa3a5a#a/a|bca?bAchb}b%b}b;b;bMbIbxa^a\a^babBbIbibKb1bKb)b}b\bNbBbla#bBbKb9czcjb<b[b*bsbka(a3aKa$a/a#aOaFbrchaDaDana+bAa-aIaAaxaAaxaAaKaIavasapaoaBa-a-a?bnbya?bibybia_baa_bQbzbFbTbqa~a1bKcfb9b9bUb%chchcjcJb<b9b)bnbXbXbXb8bXb-b8bIa_a^a2aAamanaFa$blbnb8cccRcTb2bXb<cncBb7a?bacjcib)b<b~cxcjbUaGaGa6aPb=cibXb1bWcpa~a8aXaubdbna(a_b%bNbIbBbQb8cab}b7b[b;b7bxbs",
"cwb]cgb]b*chb:b0bxb7bIb*chb=bUb%bNbka;bkbKbAbIa|a}bxbsbAcbbAa}bsbsbIbBb1bza~a`a`aOarakapaAa#a+a;a;a+a\aWa5a$a3aWaKaKa-a_a-a#a-a?bna<a(a#a}a$a3a_a/a#bzb6bjbwbma&a!aVb,b$b,bEa2aRa\b-czb~b8b8cccmbXbsb)chb9bXb1bra?a3aKapagama#a|bcbkbxbUbPbta`bPbxa^bcb1a`bhbobea9aYa]bea9b?b;b1bMb1bIa+aRaXa4bxa5aZa4a4a4bkbcbIbUb%cfb:cfb*b%cwb[cwcLcqcqb;bIbab2b;bBblbUb7bna?a(aSaFaZa(bsbNbAbnb1bBbAbBb2bAbAa_a!bschcUbJaqaJa1azaeakavaxaBaIaFaFaBaUaOaOaWaZaIavaFaWa3a}bla}bibia5a3bdaZaUbhbLb5a7aJa2b;b\cub2bnbnbubNbQb<czcib=b*b*b*bKbsbQb1bybna\a$aWaAalahaoaIbrbNbGb8b9bubububub2b}b8bca+a8brbrbBbQbwa1aCaGaPa1cmccb[b}b|b,a.a!a.azbka_a$aOa$a^a<a}bBbBbMb[cTcbb*cfcqb}",
"aMaMaFaoamaxaSaSaWaWaOa8a5aWaRa2aFamamazaSaOaZa#aOaFaOaWaZaSa#aWaEaEaKaSa.a~bmbta`aUa;a>a^b6b(b5bma&brbcaHaRa8aMakaeaAa3a7aRaVaJa8a;a.bhbwb$bEbEbEbEaVbhaNaraDaUaDazaUa!a;a.aXaNapaiaOaIaiadaiaBakaeavaFaIaBaKaOaOaBaBaFa4a|a|a2a4a4aXa4a:a:aFazauaVaoamaCazaPa6aLawa7aCaia4a\bBb%bnaFaUa1a;a|a2aWaZa4aWaOa8a8a4a$a_a<bcbnbdbAb7bIa^a8asahapaMa;a%a8a1aVaEauapasagababacaiaoapavasavaKaWaOaOaOa5a#aBaiaIaIaoaya1a[a>a.aGaHa.aXbhbPbPbFbmbca>a%a.a0aPaNaJaMaXaXa&a&a~a.a!a.bmb#clcvcvaManaoavaAbabQbUbza;aRaHaOaZa?a/aSaMaSa(bIbra+aOavadabadajapatamagaeababaiaoagaoasakababacabaeagafahalalaqaCaCalajama;a}b:b:bFazaDa;bJa`a3a+a(a#aSaxaFazaOaSaSaOa?a|a$a+a|a#",
"agaoapapapaoapataUa;a>a%a+bxb0b.bFa4aMaDaQaQaNaQaNa7aVaNaJa1a&a&a:a`bqbEb{b.bEa~bbbEbYbZb/b#b4cocVcEb_b!ceceb`bDbbbObYb#b`cecEcrcrcrc2b`cHc2cHb{bLbwb#csb5aPaQaVa)a.aVaNa1bmbma&aRaHarajanauanarauaEa!a7aDaqalanaDaJarahaiaoafacabagawaPbebvaPawaLaLajajaLauaMaPa2a&a{a>a1anagaiadaiaDa1a+a%aWaoagapaIa;braUaIaoaiabababacaeaiafamaAaPa0a:a)a&bjbjbLbja~bEbja~a>a7aNazazakaeababababababacacababaeamamasaJa>aQa7b4b&cEb+b!b+b&b&b{cvcQcvcHb{cecCb!cebRbgb>b&b>bSbYb`b`cCcCcCb&cob/bYbjbja7aDanafagahapasahafahanaDaQaHaqajajahahamaoanatawa.a>aXa)bwbwa:aTa9a1ananamajarauauayazawaTaLaqaCaGaLaLaPaLaLaqaganaGa6aLaCa&bzb6a`akaiamasaxaxavanaxapafacababaeacabad",
"aMa+a^a%a;bha|a~bzcgb]b,b0b6cNczcKcNcpb(b5cdcwcDcdb?cdb.bTbEb5bZb5b|cQcvcHcHcHb#bobOb|clcvclb>clcocScCbDaPaPa*b4b`bYb`b{b{b{cHc0cScPc)c3c!c,c$cKcKc7cQcDcwcwcwcDckcpcKcwcAcpcscgckcKckb,b(b(b(b?b|b5b?cYcZb5bFbPb$b(a.aJaDaVa7awaVaMaLauaGaGaLaLaCaGaCa]asala7bLckcsbCb#bCa:a)a{a>a)bwa:bTbObEa~bmbma~bta|a!a7a.a1aHa7a&a7a.a{a:a)bbbpa=cvb`bYb/b{b|b{b{cscDcKcgcDb|bLbba1aDarazaJaNaDaDaNa&bhbmbLbEb5bFcbcMcwb7b>b>c3cVcocEb>cococCc9cvcVcecVb!b_bHb3b+b{cHcwcTcsb5b#b`cvcPclbLbJbWb#bYbObCbba)a&a1aQaQaQa7a`btb|bWbTa`a.a:a~a>a&a7bmbTbEbmbja>a9a~a{a)a1a:a7aqaDa>a:a)a7a9a)a,bba*a0aGaCaGa]bHa,bvbga]aqawaCa=ceb3b3bSa`b?b0a~a7a`a&a>a&a.a.aVaHaNa7a7aVa~bmbt",
"cHcvb{bqa2a%a<bBbUcmcpb7bxbIcbb*b\cucmb8a-a;bUchbUbAb*cbcucLcBcJcWcTc5cxb)b-b=b=cccjcjccb^b\cnb9bXb=b:bFb4bDa9aCbjcNc6cAcaczcNcqb7b$cqb~caczc&c*cfb*bAbAb0b$b%b:b7blbMb[bIbca;a|bMbrbzcab]b]cacwcmcwcbb}cbb}b^b^cicWcAa2a)a9a`bja[bObHbOa.a^a^aOa2a.a&bxb1a}a^bib?cwb|clb/b(cDb|b(b.b:b]ckb,cbcbcmcmb)b\b~b2b^b^b}cbcmbXbxbUcocobpa=a)a)a>bPb$bWbscbcRcBb=b<ctcRcMcJb6bmbqa7auaJaNaTa|bhbrb1b[czcTcFb*bXbQa-aWa5b<b^bubGb9ctcWcFcnb-cncBcHb`b!bgbpaLaGa*bJbPcXcXcMcnb2bQbVbQa?bibib;cuchcmcpcAcgcNcAcfb6bUb;cuczchbAb7b*czb}cqb}b[czc6c+c!cUcqb;b;cIczcqbTbLbLa.bFbta1aqaXbPcbcwcgbWbPa~bbbfa,bvb5cDcscYcQcNc7csb3cCcHc2b,cpcIcFcpcfcIcNcab1b,b$b%b,b7b[cAcpcdcs",
"cNb.b.bWa;a^aoaOaIaHa$bdbub=cmcFczbubQcbbBbybBb%cXcnb)bKbubsbub-cBcJcBctcncnb=b<cBcnb=cjctb^b-b~b=cicccnc3cEb4a6b%cFb\b=b*b7bVb%b;b%b}cFb%bIbUczc&c!c1cwcucfb%b1czcib\cmbUbnbsbsa_bAa+bUcabxchcFbub<b[bKbsbBb)b~b~cnczbUbZclb5bZbma1bnbkbubUbUb2ccb~b^b<bVa}bablbibua_a}bia_b^ctccbVbGbGa/a/bGbGbdb~b8a}a(bdcib9b^cnb^cxcBcxcJbKawaGazaDbub<cGc5c1cMb~b=bsaBaSbGcccGbKa;bja&aqa!bjb.b]bFbXbBbibQbNb9b=cncfcbccccb8bNbnbncnb=bXbnb)b2bQbGbGb9cmcUbqbobOaPa.a>bIbIbubsb1b[bBb[blbBcib~cfb}b%bVcUcIc0c7cZcFctctccchcxcMb}b<b*a<a\bGbVb*cncub%cjc%c!c8cWcXcRbta%bmaQaTa[bpa=b<cbb-b9bybKb2b[cfb6bxbMb1b8b2cjcucjb8b=cxb-b)b[cnb2bXb2b8bybBbnbsbsa$bibybibububGb9b~cn",
"cFc!cTb1a+bNaEa8aWaRbdb1bia(a?bAchbUbBbUb1b*b%b-chb[cib~bxa_b}b}b9cBcJcWcMc1c1cJcBcxcMcRcGcRcRcxb=bXb=b9bocCclbYa!bIbKb2ccb<b[b2bUbVb$cqcAb:b6bMbKb*cab9b<cnczcRcqcub<chbQb1bKa<a}b<b[bBbFb6b7b[cccbcub\ccchchb[cmcxb*a+a:b|cQa[aUa+bybnbnbUb~cGb-b=cGctbGbub~ccb~b=b-b9cccna-bubGbia(a<bVb^bGbibyb}chcqcfb;cucjcMcnb-b9bybnbGcba>atapa2bia5cicGctcJcjb9bycccBcta<a3bMb,a[a.a0aJa7ckcgb(bIcqb}bXb)cbb}cGcFcqb[b}bBbubsbub7bQa\aSbQb~ctcjb9cjcMb-bLclb#aLbCcobta.a;cqcFbnbsb*c!c+c%ciccb<cAc#c0cdcocHcwcscuc&c5cTchcNc!czcjb*bQbIbka#a2a#b;b;b7cbb:bybub;b5a~b?a[a*a[bgaYbrb)bQbsb)cnb\bKbXb<b\b}a\a5a_b7b8b9b<b9bNa-a#bBbKbub=b<b9bXbQblbybQbya+babKbVbNbBbXb~b=",
"cxbVb%cmchb%aMa%a4a+bUbNb%bnblcub%b%b*b1cmcfb%bubBb*cmcncbb7b1bUa<bNb~cjcncGcMcxcxc1cWcxcccBctb~b^b-cGcxa&bZbTb(brb%b=b\bKbXbVbVbNbNbBbIb7cbb7bMbBbBb1chb8b)b9bXbrcmcmbnb9b[b2b8bVbibUb;cIcwb%cfbAa}bnbQb}cccqbBaKaEa(blarbhb6aQaZbna}baa-a(aWbabibKb9cncRc1cBcjcMc1c1cMctbXbsa/bubsa<a(a-a(bQa\aBaFa+chcfb*cxcqb=cGbVbNbKbnbscNbha7aHa+bnaZaZb=cjb^ctctb=bQbya#bGb9b;a|a9bba{bCayb|cKcgb)cTcFb=cbb<b)bKbca#a+brbNbaa}bUbraZa$b;cccjb=bQa_a3a<bVa~b5b+bvbRcCcTcNczbAb2bQbBbabXb}cFb9cqb[c9c,c$cvbRbbckb{bVb=b[b=brbxbcbrbca_a%bcbAbkbIbAb0bra+bdbKcxcucnbqb.cka[clb5bba)a\cmb=cjcbb<b9bQbXb-b9cJcTchbsblb*chcqb=cucubla#bnb1b8b[b-cccBcGcJcib~cccjcbchb=bGb8b\cB",
"bXccb}cFc1cza|a;aMbIb[bnbla/bncNcBcbcub*cbb[cccfczcucccicLc%c1bMa(a\cccRctb~cxcBcxcGcGcccicjcjb\b9b~cxcxcecEb4a*a;a<a;a}a?a_a}a}a(a}bBbKa!a;blbKbNb8b[bGb;b)b8b2b2cMcGcxcLcmb;b1bIa-a|a<bcb$bUb*bVb2cjcxb}bGa$aZa-blb9bNaDa&bba[bkb:b8bKa?aSa$b9babnaWa_b~cRc1c1cWcBb)a#aBaKa/aKaWbnbXb2bsaKaIa_bdbib;chcFcGcnb^bKa_b\bGbubGa-aEa7aTa!a+blaZaBaKaKaSaxakaoasaiaka#b<cqbUbCbqa0a1aubFcmb]b6bXbdbIbNbBblaZa/bnbBa$a#aSa}b\cha?b8cnbGbubua#a3a#a(bNa!aYb3a]a]cwcXczb}bAa3a}b)ccbxa4bib\cqcub{c2c0cvbba{bFbJb7bQbcaSbka|bxcbb1b7b[bda|a^a+bcb*c4cqb8bdchcfbNbLb|bLa:b.b5bLa)bab}cjchcncbb-bQb2b<b8ctcWcGcJb<b1cjcRcxctcncicGcMcxctcGcMcMcxcncJcMcxb)bNbBbAb\bra(baa_",
"aSa}bQchcFcUbIa8asbUcbbQa$bub2cbczcJcTchbMa5blbnb%b%bXcjb}bub7bKbsb2ctcRcMctcjctb~ccb=b^b)bnbub8b8bVb9b=cCb+b_b+a>b6b8bybybGbQbsbibda}a\bBb%b1bXb;chcmbXbubububsa}cfcIb[chcqchb1bxbIbNbNbKb}bQb9czcib2bia-a#bdbNbXb9b%bna9bEcPa0aHbIbXbsa(bNb)bQbya#bua<a5aOaFaZa?a#aZbdaOa}bNb9bybubibsa<bGbdbyb)b)cqcbbsa$a3aKa5bnbdbua_b2a/aWaQaVbFbPcza?aBakaxbyb8babibaa-a(bab\cma|b#b#azacaJb0bWbEa\bMbNbUbBbBa(aZbabQb<b\cmb\a}a5a}b<bGbGb-bXa(a3a_a3a?a<aUaDaqahbrb]bMbAa;a;b=bVb)b8cicGbsbQa<a#b?bJb#c0c)b`b:bWbyb)bxa$a8b[bMa#aZbccmbUbTc#b$a;bca_b1bBaKaKa%a8bLc7b>b>cscdb(a.bUcmcGcFcjcbcnctcjctb=cfcbcJcWcWcncxcncBctb)b\cccnctcBcMctb=blbQbybQb8b8b7bybyb[czblbna;",
"a_bsbKbsa|b%a>bta4bcbVbXbna\b2ctb;cuczb;a#aKaKaxbibua?aZaWaOa(a5bdbnb2cjcxcMcMcBcnb=bGa5aFaKa-b2bVbGbVcZc9cebHcybjbZb2bGbXbKbGbVbGbka$aZa5a3a5a(a?a\bsb8bIbKb7b~b8bsbBbUb*cFcXcIcbb%bUcBcNbUbub1b2bMa?a}bGbXbQbVb2bXb1a\aLcDcPboaUaSa-a_a/babybGbVbabGa}a}a_a$aSaxa3a#a-bubNa/aFa?bBbia_cccBb=b8b2b9a}a3bdbQbXb2b8bVbGbVb9b9b2a^asarbtbtbhb$b*a-bybGa(b=cicjcBcWb~cBcga8bLbjaXaDaRa^bxb:b;bVbAbcbib*bVbya-aBaAa#byb=bBa}b2a}aSa5a_bGcicxcMccb=b8bCa)alaubUb1bIb*cQcdbAbAbBbUctcjbna<aOapa7cKcDbLb6bxbAbKb*b;bWa~aMaXa+a_a|a_blblcpcwbUbca(aZaZa\bBbxa;b;b?b?clbObZb/bmaDa-b}b<cmcJcxcuc1cTcMcGctcFb<cncJcJcRcBcicxcJccb9b~cib2a$a<bXb9a_bibybub<cJcjb)b\bMbKb1bI",
"a/a?a3aWa5a(a&a.aMa4b*bGa?aoa<c4bQbna}a?bubub)b<bQa5aOaUaWa(bkaOaIaAasaKa\b-b^b~cxcncnbya#bGbaa}b9ctcjb7aYa*bDa]a1a%bybXbNbVbNbKbybubua_a}bua}a_a_b1b[b9bQbQbVb8b7bQbsbUb}cab*b$b*b*bnb7b%cfb}bKbnbVb<b)b2bKbQb8b8b-b}bnaTbLb/b#a2aZaOaWaoaoavasa?b<bubda_a#aWbubNcjcxctcBcRb^baavaWbGb9bNa#bdb-b<b2aZaKaZa$bKbVbXb)cib9bQb9bca#aMaza$b1cab:bUaxa-cGb=b8cbb;b~cub-b2b7bIbTa9aoauaOa|aZa-bIbBbdbabda(bnbQbKbGbsa?a#a_bBa<aKbNb^a?aKaObGb\b^ccbQb9a,a)aJawa_brbLb.cSc9cCbRa]bObTbja#bnb}bXbFb,a[bEcdbLa^bIcRbXcdbWbubNb}bBa<a;a;aOa+aMa-bka/a<a|bAa-aRaObscbctb.a>bwbwbwa&bdb;b9cicBcRcLcxcMcJcuczcJcJb<b2bNcccMcncbcmcMcncxb^bNbybGbQbubGbsbGb~bVa/a?bib9b=cucTb*",
"b*bIa?bUb%a8a7a%aHaHbVa}a$aSaka$a}a3bib\cnctb}cBb1a(a4a8a$a5a+bna5aSaWa$aIaBaKa3a_a\a$aZa5bXbnbGbGb8bMa;aPaLa0aLaIa|bsbkbKbKbKbKb8b)b2bKa?aWaWa#a(a-bka|a\a?a3aSa%brbra^a+bmbma^a+a;bMbnb[cIb;bUbdbkbUb<b9b2bQbKb9b8cubua)a`b/b#a4aWa#a$a#a5a_bia5a(aWaOaZa}aSaSa-a-b2b=baa}bnbGa\a?a(blbNbublblbBbGbabybnaSa3a-bibVa}b-cjb9bka;aUazaUbBb;bUbNblasa}cFcxcqb7babBa(bKb\a?anaMalanaua%bIa;aZa(a(aSaFaKaZb%cjb)b8bna\bnb2bVa(bsb~cjbBa}a(aWaSa?babsazauazaha|b,b.b#bHa6bRb>b&bRa&b(b}czb^bVbPb6a0bbbZb.bGbQb\cub)a/b9c1b2b*b;bubAb[b2bIcmchb}cbb;a\a}b%b<b)b)chbma>bLbCa`a&bIb)bsbnbnblbNbQbNbQbVb[cccucjb~cncccjcGcucjcBcxcjb~b9b9b9b2bQb^cWctb)b-czcjbBa|a4a#a;a;",
"bxbibKbUb1a^azaEaraoa|a/aSaOaFapa-a}a#a$aZa(bAa_a8aWa#a3aWa#a(a<a/a(bda\a+aZaFaIaBa$a_bnbnbla$babnbiaRaRa!a[a>a1aSb$b9b<bKbna\bia<a-a_a$a(a(a-a-a\a_a-a$a3aOaSa<a^a!a!a8aRaMaUa;bsbsa;a2aWbIb7b;b%bIbBbNb*b*b-b)b~cicAcfbZa[bOb`b7bla(a\a_bibnbsa-aSaKaZaKasa3a}a<a?a(blbNbybibnbabaa}bia(a-a\a<aZa-bsa}a\a}bQa/aBaIaKa$a$a\bAa|a>a7a8a\a?bIcjcqbsaWbAchcmchcRcGctcnb<blagaEa2azajaFa%b7bUbAb)b2bNa?a<a}blbubBbda(aKavaKaOaZa-bKcib8b9bBa/a3a-bybba0boaPb0bUa:bEb/a]beb>bOb4bIb1cFc8cAb1bzb(b(bEa+btcabTa(bna?a+b}cbbkaOb1cBcTcxcib~chb-cjbQa5a}bybNbKbXb~b[b]a`bLbba.aQbia-a$a$bib8b8b1bAbcbAb*b=b<cncccncBcxcBctctctccbQcjb=bGbdb9b~b)bda!a4a2a;bBbraWa|brblbG",
"bNbxbsbIbIa2a7bma.aua^bla(aWa#aOaIa#a(a#aWaKaEaWa|a/a(a5aZaSa\aZaWa#a/a#a(a$aWaFaxaFbdcbchbsa/aUaAa+b:bWa%aVaRa2aHb%cncxcxcnb~ccchb8bla}bdbubsa_a$a$bsbubia}a-a5a8aWa4aHaRaMa+bWbca^aKaSaWa+b[cab[bUbubMb1b%b*b%b}b}b$a+bEbLbjaTcccGb<bybsbububsa(a(bda3aKaWaKaBapapasaxaKa?bda#a?a?a-a(a$a#aFaIa}bna5aSa3bQb2bab9a<aSa-b^bVbza^bqa7aUb%cucqb%byb%a_a#a#a-cuc8cMcccjccctbmbFb?a7amaBapaOa_bMcFcbbGchb<bKblbnbubBbaa3aFaxaBaWbybBbubya3a$blbubabBbjaGa[aPbJcfb7brb]b}b5a1aGaUbxbUbIc!cNbBb:b[ckcwcHb4bEbWa<bBcucubKbab)b9a<b*cbbubNb<cjcRcFbXb*cFb<b2ctb2a#a$b:a2bZbTbLa7a3bxbdbnbXbXb2b~cFcFcTcccqb-bQbdbabnb=ctb~b=b-b8byb-b^b~b)bQaWaIa.a`a%a4a1aUaXa$a^bcbIbI",
"bxa_a<a^bUa8a`csb0aNa#a|a/a\a\a<aZa(a$a#bdbna?a(a}b%b8bMa3a$bGbna}a#a/bdbNbuaZaOa3a/aIa#b1bUa+bkb[b[b1bIa!aHanaMasaeaIbibVb=b)b9b9b-cccccbb%bubUb[b2bIbMbIbIbAa|a|bAb*a|aMaua4bAbxb1b7a#a^aWa8bFbrbta^a+a+a|bIbxbGbMa`bhb.bTb.bTb9ctcqb)bIaXava#bsbVbKbNbBbsbnbsa?aWa_a(aSaKa-baa?a(bda_a<aZaKaWa<bKbNbGbXb\cxc5ctbuctcJcjbNbwcda>a.aEb*cXcmb;bNbkaSaOaOaAaBa$byb8ctcGb2a|bma>aPaIajavakakasaxaZbBbGbsa}a5aSaSa(bnb8b8a-aKa-a(aIa5a?bia?aZaKaxaEbbbbaGa0a|bWb<bQb7bIbJa&bxa^b1cfb7cabmbmbraOa;bPbYb(b.b]cabXbMbrbla}bXcLcMcxcicjcBccchb<cBcLb=cbcxb~b}bybmb$a~a`bTbTbFa>a3a4a#a_bBb;cub9b9b}b~b<b2bsbybsa_a/aOaWaXaSaMaRa?a$aZa}bGbdaFaMa+a.a!a^bha^a8a4aUaUa+bk",
"bka_a#aOaMbhcDcDbFaMa$a+aOaWaSaBaoaiaiavaOa$a-bsbVbBa}a}a-bnb8bIbaa/a#a(brbdaOakaZa}bda3aFblb1b*bxaFavavaQa.a>a>a2alagaiakasaxasakakaAaSa(a}a-a/bna\aOaEaFaSaKaSa2aKa8a2aXaMamaFaWa/bdaKagakagagaeacakaIa$a$aSaOavaxaJbmbEbjb#b{btbta9a[b_bRa6bta<a\bKb2b=b<bMbUbXbnbybBb;bMbsbua<a(a(a}a}bBb-cbbGaOaZaWaKaFaBaWa_a_a?bia#aSbbb?b|bwaoaRbdbaa-aZaKaWa3aSa5aSaxakaFa?aKaka7a&aPa.bwbEaVaPa1a1aRa!aZaAaJa&a1aDaraBaOaZaOaFaFaBaIaxasa<bsa?a8a2a^bPb4bSb&a=aNaoasaBaUa!bPbrbJcQcgbPa|bJchb[bAa4aBaAaoaoaFaKaOaMaIaEaoaKa<a-a\a}a\byaOaxaEaxaOaSa$bsblaFaAaUa4a`a7a`bba`a0bhb%b0babubrbkaSaBavamajamapaoagaiaEaRaAaEaHaHayauaralaeababacaiapaMa;bMbMbxa^a!a^btbJa^a%",
"aHaHaVaRaMa!a&b5a~a.bmbzbtbPbzbmaXaUa!aRaoahafaeafaiakamaoakaoaMaEaRaMayaNaNaVa&aVaCagacagasapakalaya*a9a=bCbpbpa)aYa:aTayahahahajaoamahagafagaeadacabagaiabagajanananananamagacabadamagahahagajaratatataranamaoaqaJaJa&bTbmbYb#b{cPb&a,aCbea6aGa5a(aSa5a5a-aKaWaIapaoakasaxakasasasaoakakaAaAaFaKaWaKaOaOaFa!a4aXaUaMaUa2a7a.a7a>aQaNaDaiahafahamasaraoauazanaoaiadaoaNa9a.aLbebHbHbRb!b+bRbvbea,a`bSbSb+bga,bqa~a1a;bkbFbjbpboclclb(b?b]cdckb{b4bpb3bDaTalarakagasananaraNazanagafaeamasataranapavauazaDauavavamafaiacababafaeahahafaeacadagajajanauaMaJaMa9a)bba{a[a)aoazaoavaXa%a7a)a!ahagaeacaFaNaraAaHakagahaganaoaqanalarayayaoagakasa1a%a>aTaDaEataoaQaV",
"a0a0a[bwb`b>cycObZbfa1a8bwbha~bha>bmbJa>bha>a7a%btbJbta>a>a`bbbjbob/ckb.cpcdb,b?cDb.bxbFbIbhbcbWcPc$c9c3c3c3cVc3cSbSbTbba:a[btbTbWb,b$bMbxbxbIbAa>a2a7a1aJaJaTaTaJaNaQaVa0a&a1aJaDaJaQaQa0a0aVaQaTa>a[a:a)a[bfbob4bCb4cSb>a=aDayaGbqcHb&aYbvbObCbma%bma|a&a7apaiaoaoazaHaxapasaBasaoasaIaNavaPa)bobqb&cocEcrcrcEcrcCcHc0cKbEaLbCb`b4bCb4bwaGaNa:bEb#b&bObYbObEbja{a:a:a>bTbObHbvbeb+bRa]a]bebebRbebebYbfb/b{b/bfa>a{bmb?b#bYb+b_ceb_b`coc0c0c9c2cOcEcycVb/b/b5bLbFb]b5bTbqbba[a[a:a)a9a9a7a0a0a9a*bwbCbfa[bba:a[a:a0aTa.a:a[a{bqbwbEbEbqa>a0a1aNaGaVa7a>a>b5b5bEbTb(b>b`b&a*aPaPaGaCaGaNaCayayayanalajagabababababadalanahayaJaJaTa)a9a0aJaQaVaGaDayaPaTa:bCb#bC",
"b6b?b:cIc2b`crcCcPclcdcackcdcdcdbJbha>a7a.a.bWcNcQcscYc7c0cHc0cHckcwcjcxctcJcxb=b1bKb*chcna\a/bNb[caclcPcEcec2c$cYcwckcmb5csb:a;bdb<cxcicjctcicGc(c4bJa[a:a.bbbba:bjbjbwb(b?b.bTbLbwbobYb/bYbObTb/b{bObob/clclcPc2c2c9c$c$cHcib)b0b*b,cscacUcTcNcMcgcgcgbZbWbfa9a[b#bLbCbja`a.bFbwbma+a!a^bza[bob3ceb!a*bpcrcHcCcCcHcScoclcvcHc$c)c$c9c0ckckcAb]b,b6bLb|clcvckbqa`bba9a.b|bFbea]bebebvbRa]bvbvcrb/clckb}cAcNcIcfcAcmbPa1a^bFbAbUb9b~b7b1cbchcncBcwb,a>bFb[chcicxcncncqb2bWb:b%b[b:b%b]b7bJbIbLb(bZb5b/b#b`cob{bYbYbCbCbfb{ckb|cQcgcacYcUcQcIb:bzbFb6b,cpcXcZcNcab0b?csclcvcvcDcsbZbwa~bhbJb.a{a0a)a)a)aTayauaRaRa*bYb&b&a`bmb5b|csbZbobYbObObTbTbLbjbCbOb&b`b(b5",
"cqcFcXcLc5cNbXcWc!c&c5c4c&cZc#c!cwaXaVa!a&a7a|cwcIc)c)c)clcsctb<ccctb-cnb=b8b*b)cqbNb)b7bAa<a.bhbkb[cTc1cmcbcgc6b:bMcNcTcZbPaSaIa$blbyb\ctcib-bGchcFb;a$a>bma`bjb5b(cab|cXcXcfchcmcbcgcgcNcTcFb[cab$a|bxb[cbbBbdb\cncib9bda}b~cMcRctcBcJcxb~b)cjcxcxcqcjcccMcPcvbpb_cEb!bWb(b(b?cNcpcccmb}b8cFc1cXc5cUcgczc8cJcMcBcnctcccJcFcBcbcLcnb-b-cxcib2bla5bub~cjccb<czcNbEbqa;cAc*cRcRcqb5b1cGcRcLcNb?cdcucGcMcicJb2b)b^cxc8cTcucFblb=cGcxctcRcMcnbGcicxb^b~cMcGb^cicjcibVb^b~b)b8cxcGcMcMc5cMcBcGcGctb=b^b9b8bQcDcsb{bfboa,a0bwcpcgb[b*b7b1b%b7b;b;b:b1bUbIb7bAbrbMb1b7b1bMb7bIbNbIb8b[cbcFcFcFcZc%b?aQbobqbYbCa9a)bUb[b}b%bAbsbXb}czcpb7czcqcucFcXcMcTc4cTcqcmcbcmcucb",
"b9chcBb=bka<aZa/a\bQbXb8cbcmb:cgc6cAa>bFb$a~a(a}bAbrcAc&cXcqcncib~cccccRcBccbVbabyb)b;bkatbkb$b,b7cZc!c!cbbUb?b]b?ckcJcFcnb~b\b2bGbNb9b^cccMcxbububGbxa+bhbFa.a.b6caczcubububabnbubIb8a}a?babaa?a5a3aOaSa-a(a<aWasasa3bybNa3aOaObacBc%cBb%cncFcxczcibQbBbNbQbrbraYa*a)a,bBcbcFa+cbc4c5c8c1ctc1c(c5c5cWb2bybabQbVbBa\a#aWaSaIaFaSbdb^cGb-bVbGbibaa<a$bab-b<b^cbb)bbbwbkcaccb2b9cccib^cmcxcGcRctb}b^cibNbQa-a(bVcxa_aSa(a(bGbyb8cicMc5cMcBccbKbsb^cRc8c8c%c1b)bnbQb8b8cncnbdb)bKbAcncWc1b^b8bKbybubyb8b^b=bXbGbcaUaLaPalbFcmb[b1b%b[b;b]b[b[b*bUbIb7b1cgb;b6b1b:b7b[b,bMbIbIbUb1b;b0brbIbIbIb7bJbhbEbYb/bbaVa.a;bib-cnctctcjb\bna?a/bucjcjbNbnb8chcnccb;axaKa/bVb\",
"c1cwbXbKcuchcLcub;bVchb:b2bsb$b]cwb?a`bma+aRa/a-a-aZb2b<bXchcub\chcubQbsbVb^cjb~bIbcaHata`a7bIbFa;brbxbIa|a|bFb(bPbPcjc8c%c5cJb=b9bda5aOasaoaKa-a3a5a+a|cdb6a.a;bMbMa|b:czb<bIbBbra\bcbca4aWbxcqcTcLczb7bBbnbca/a/a-aOaWaZa?a?a\a$aKa?b\cFccb[c5cLcqcba<a_bIbybBa)aPaVaVa?bnbQa(a$b%cBc!c1c5czb7bnbxbubQbGbXb^b2bGblbabda}bdbaa?a<a(aZaFaSa_b8bIbnb;b\b~ctcBcXbVaNaEapa\cjb^b^b<cjcjcxcxcicqcib~cxcib8b^b2bXb9b^ccb^cncjctcRb8b^b~cicxb<bQb2bAa-bVcccccccxcGczctcmbXbia-bnbXb7bdaIaOa(bGbXbGbGb2b=bua_bsbsb~b:aRbebRaPa7b7b1b*bUbMbUb*b*bUb1bUb*b*b1b1b;b1b1b0bUbBbAbMb*bIb1b}cfb:b%b;b[b%cmcpa>bbbObTaCazbzbUa3a5a5a<bBb^bNa}bnbKa$a5bBbQbGb\b)b-b~b}czb1bIbcb1",
"bAbIaOa/bAb;b2bVbia\bIb1bQbNb%b0cwa7bJbta;bxb8ccb9bGbQa_bub9b%bQcJcbcBb\blbQcicBcbbrbzb6cKcYcIb,bJa>bWbTbJb6b]b,cdbWa;a^bXa\a?a}a}a(a\a(aSaWaIaWa}byblaOcgbWa2aUa\bIb6bAb,bWbAbcbnbibUcFcgbUa|b[bUcaczcTcIczchbUbka(aOa#a-a?a\bBbdbda5a3bibsbcbAcmb[chcqb8bUbza>a9a{aVa7bubnbubBa_aIapaZb}cmb7bQbBb7b)b2bUa?bdb9cncnb^b~b-b=b-b-b)b-b^cGcRcMb^b9cabMb7b;bUbUcba;amaoaMaIa(cjcJctctb~cjctb;b-b~cjb~cGctcGb<b2b)b^cnb^b^b2b-cnbQa_a-a5bdbubabnbXb)bUa/bKb}cjb}cqb7bUaSa4aSaKbnchb<bua$aSblbGb2b<b2b)bGa5a-a<bscaa7bvb!bqa]b=b;b;b%b7b;bUbUb;b[cfb*b%bBbkbUbIbIbMbMbUb1b7b1cpb;b;b6b*b%b,b:b0b,b:aEbLb5b5a9a;cNcRcLctb}bybsb)cBczcqbXcbbsb<b}bIbBbXb9bGb)c5c%c5c8cm",
"bcbWb8cFcBb%ccctcjbXa^a\bVb7b<b%b0a%a7b5a|cFcxb~b<cnchbXbsbaa#a^cAb]bMbrcbchb[b[cNc7c&c&c&c+c&cIcDb0b]c6cZcZc&cacpb6aXazaIa/b=cxcxbGa$a\a}b8ccb9a}a5a(aKaUa^a!a.a_b%cbchbMb7b;b1baa\bub;b<b7bIbrbBb*b7b7bxbrbAb[b1bxbUb7bNbKbKbNbkbsbKbxa#aKaFaWaOa$bUcbcqbIbLbLa&a&aRa+cub%bUb;b}b*a5apapaOa$bAcab[cMcAbAa<a5aKaZbBcicncMc1c1c1c5cWcRcRcib~cjcWcWcqbrbcbtbhbha1aOanaBa+a$cccMcjccb^b^cib-bVb8b<b8bGbNb9bVbyb8b~b=cnb=b=ctb^b8bNbGa$a$a}bubdbyb;b}chcfchczczbMa-a}a-bGb;bQbscmcTb;b}bybUbNa}a5a-a(a}bybubnbVb[a#aCaYbHbeb-cfb}chcab*bUbUb7b;cbb*b%bIbcbxb7bUb0bUb0b1b1b7b%b,b%bxb;b[cab]b1a^bLbba9a[a`a&b}c(c%c8cRcxcBcfbNcFcLb<ccbVcncMcbb8b*bQb-bBb9cxcGcGcqbX",
"c4cFbMb7bMa}b<b~b-b^cTcTcpb6czcwcacka`aVavbybVa$a<chbKbyaSaZaObcb]b]chbMbAb0bJcKcZcKc6c*c)c#c)c6cwb]bMa8a5a/bsb2cqcTcIb]a8ava_bVccbVbKbVb-b<b8b9a}bibla+b6bPa`a%bIb*b7bAbsa-a5bKb)b%b1b[b;b[cmcub}bBbAb6bda^bAb<cucFcGcjcccFchbXbNbua?a_a5aFaxaAasasasaObrbAb7bxa%a.a^a+a3aUa}cfcfb;a?a#aOaIa5bMb[bAbrbkbibka#a$a(a#a_bBbAa_b1b<bNbra-a5a$a|a\a+bsb1b7bMb%chb:a`a4aEaSa^a5a_b9bVbKblbyb^cfa?bla}bKb<b<b-b-cbbua\bNa}blbNbXb2bVbGbXbXbKb%b)b7bla/a?bIcbchcZcub;b=bNb9b}b~b<b<chb%bKbsbnb1bVa^a#a(aSa(bxbAbnbubGbuawbRcrb3b6b7b*cfb2bIbUb1bMb*b7bXb%bNb7b1b1b7bMbMbMb1b*b%bUb1bMbUbIbUb:cAbsa^b(b|bCa0a7aJb;cZcFcqb%bubVb7bAbBb1b[b)bna}b<cMc8cTcbbVbxa(a$a5b%cBcM",
"bubabubnbaa-bub[b2bub8a_a/b*b*b[ckb0a9a&aAa;bVa_a$aKa3a(a-a?bua\a_bAbkbVb:bNbkaZa#bUbUbzbcb*cfbka|b2bxaFaoaEaWaIa?cqcLbIb;bAbyb9bdcccxcxbubib9b~bybia;bkbWbJbmata#b%cucqchcbb*b[cfcfcub;b1b*b:b*b7b=chcbb[bKbda}aFa(bnb<cFbXbra?aIavapakakavasapasasakaIbxbrbcbra2a!aNa4bca^aAbrb7brbibrb}b;bBbna/a|a;a;a/a|bsa/a?bububabubVb1bBbra|bibAb1b1bna\bka|a?bnb1cfcmbcaDaDa#bxa\a$aWa\blb%bKbicnb}bIbrbAbUb2b[bUbsbQbBbia\a_brbcbAbQa_a<a$a_a|aZaOaKa$a+aWaWaOa8bUc8c4cncucRcMcfbVa;aIaKaFataZbdbBbnbybla<a#a(a?a/a.a%bebvbva]b:b}b;cbb[b%b7bIb[b*b7b1b*cbb:b1b7bMa#a|b%b7b0bMbrbrbUb;b7b1bca|b7cbb?a~bwbCa)aJbcbIbsbsblbKb[bXbAbIb\b}b7b)a}aSa2bxbBbrbIb8brbubAa?bVb*",
"bsb7b8b7b8a^a;bIb1bca-a-b2b%b;b1cKckbqb|bza^a}bKb=b^b}chb=a}bnb<b9bxa$aWa?bUbUbna^a$aIapamaKa^a^a(a(bychb;bGa<a}a-a+bdb<cFcXc8b2a-b)ccccb2bnbnbGb\cqa^bzb6bWa^aoaAbUb[b$b%a/a(bibMbrbMb7b[b\b*b%bXbUb%bKb;b8bBa;a-a_bibla+a2aSaIaxakakaoasasapaxasavaIa/bPb:bIbca1a+a8a^bMbkaKaKa-a|a3aWbAa^a3a\bda}a(a5a-a+bnbaa^a_a\a\a/aKaxaBaKaZaZaWa/brbKa5aOaWa5a<brbrb6a^aDa>a#bxb1aOaIa3a/bAbKbnb}cFb)b)b}b[b%b[cFczcib[a(aIaOaIa5a/a_a#a\bibVb;b)bkbsbQbUa+aOaIaIata#b[cib~a|a#apasaOaRaZa5a5a/a^bub*b;bMbia\aRaIa;bjbba]aGbea]b*cfb}cfb:b%b:b%b;b%b%b;b:b*bUbUbIbxb%b}b7bUbIb1bMbMbUb:b[bxbrcqb[cmcwbwbYb&bmaCa5a;bub*cub[bXb}cub%a\a?a+aSa(bsb7b[bUchczcTc1cRcTb*aWaM",
"bca5a5a/blbAcfb7bQb;b1bkbsbca-b1b5bWb/cHa^a%bQb2baa\a<aRbMcbb9b9bka}bibua-a(a?aOaOa5a+a#a#a\bka<brbrbcbGbBb[b[bUbxa;aOa8bdbIa<a/b<b9b-b~cJb~b9b^bkbMa^b$b:b,b6a2amaWb7bNbsa\a3aZbrbQbcbAbKbUbua3a2aSa?bAa_a|a|bca|a+a-a-a+bca-aWa#a#aSaIaFaFaKaWa/aWa3aSa^bra^bcbPcda;a;brbkbxa$aFa;bkbca/a#aOaOa3a$bsbxbaa-bub8bka#a#baaFavaoasaSa+a_a\a3aKaoaiakaBa+a_a|a^a;a$ara^a#a|b2bNa+a+aWaXaIaObkb;chb}b*cbcmcmb:bcaKaFaSbubua-a<a#axaxaEaFa$a+a\a<a|a|a/a;a/a!aSaFapaoaWa8aFava5bAbnbca^bIbBa/aOaZa}chcubIbfbCa]aCa6a]a]bva]aYa8b*czcmb*b<b7b%b7b[b%b*b*b*brb%b1bUb}bAb1b[b%b7b*b7bIbUb1b;czcwcFcUcQbEb#bYa`ayaiaoaFa5a$a_bBb%b*chccb*bQb7b9cTc1cFczb=b%bNbub2b*a$a3a$",
"bBb1bUbsa;a+aKa3aSa5a/a^a_a|bxbca~bPbEb(a`aJa-cicjbAbzbMbUbAbca\byb9baa/a#aBasasasaEa5bAa$a5bNbBbca/bca?a<brb7cgb}bra|a^b1b%a-bVcncjcnccb9baa(bUa+a(a&bJbWbPb,bta!aHbMbIbsbdbca/bsb%bQbGa|blb9b1b%bVbdbGa^b1b[a|a$aBaIa\bBbGb7b<bVbUbubua<aZaWa$a/a?a+aOa2a;bPa;bhbJa2ataZa3a8aWaWbrbua?aBapaxasapaBaOa2aSaxapa5bBb7a_a?a}a(bcbIbUbBbXa\aBakasaOa5aZaSaiabagagadaeakaKb7cxcMbUa\a%aUazatayaNaEaIaAaOa8a;a8aUaKaSbnbubnbKbAa(aMaBasavaMaMaAaEaWa;a^a+a-a/a#aZaWavaobIb%a^bBbXb7b<b[b1a|aKaWa2a3a_bIb)bea[bHa]a]a6aCaqaralaJaVbMb[b1b[b;bsb%cbcbbNa#bIb<b*b[b;b1bUb[b;b;b7b;b*b:b*bJbcbJbIbWcZcDa&bLb5a>aJazaAa8bca^a8aWaIaBaIbsccczc1cbbBbUb<cFcha/aWaOa$aZbdbNb9",
"bAbBb%b[bKbAa|a4aKaIaSa#a|bkbIa;btb,bLbZa|ayava/b)cxb}b1cbb2bubia/a#aWa-a\a?a-a$aSaOaWa/a3aBaSa-a3bna-aMaxaAaAaOa?bIa^bIbMczc4czcXcGcJctbXbsbsbua#aEaNbzcacab:bta^aRbKcfbIbib%bGa}a}a?a/a|a|a_bkb-cjcnbnaOa#brbdbrbla\a5a#a\bdb1bVbUbBbXb7b8bsa!a#bca|a+aUavaAavaVbma%atbMb}chb[bXbNbMa;a3a+aWaWaOaAasapasaBaFaxaFbabububUb<b}b:bnbBbkaOa+bubBbMb0a|aHa%a!aRaMaXaxasafaIa>a2a1aJa)bJbja)a1aQa1a&bha.a7aNaHaXaRaRa8a7aMaoakaeakaIaWaZaWaIavasaAaAatasaIaWaOaFaKaOavaFa5bsb1b<bNbya;a|bIbrbra+a+a!a3bnbEbbbeaPa]awa6a]aVaGaqaJaEb6cbb%bUbXb<ccb*aOaAaXb[cmb7bMb%b%b%b;b<b;cfb;b:b%a|bkbAbca>b]b5a{a>bEa~a)aEarasasaFaKaOa4a;a8aSa(a\b7b=ccbMbxb1a_aAaKa2aMaFa$a/a?",
"a-a?blbUb<bQb%b9b7b8a|a#aIavaxaIaRa>bZcva>ataAaxaKbsb;bNbca<a5aSaWa_a/aZa-a}bsbibubiaKaFaZaZaUa/a+bubKbGbcaWa4a8a2a4bka\bxb*b[b%bxbUbaa(a\aOaOasaJa4a>bzcpcNcQcpbJa8a}b*b)bubnbVbAa?a-a}bkbIbXb9bMbUb1bAa\a|bMbUbsbBbra|aSaKa2a|a\a4aWa$a$a+a+a-a%aWamababaiava8bFb6b6a7a3bka?bnbNb1bia_bua<a?a\a+aOaBaxaxasaAakaiasa3baa(a#aOaBaiaiamaoava$a%a5a%bhbqbLb5bjaOaEaXaNaXalabaoamaga1a;aVaJaHayaHazaDa`aXaVa.bca!a%a.a1auauavaAaxasaya2a7aDaDaDawaNa9a0aYaTaTawanavavagavaSa$aSa+a}a`a>a>a7a6a{a*a,a*a6a,bHaLawajagauaraganaLalafaBaIaIa?b<b;bAa4a;bkaUa#bcbrbAbIb[b[b}b,cucpb:b7bAbAbIbLb5b{a{aNa&a1a`bmbEa&aDararagacasaxaoaAaFasaAaFa$a$bUa?aUa+a/a3a+a<a;aZa8a;",
"adafaiakagaiakaAaSaWazatatagamaAaQa|bPb,b$a>aFaoagagaiaeacababababaoasaFaIaOaWaKaBaKavapapaIaFaKaFakapaxaWbnbsbsaSaKaIaoakapasaBaoacagamaeagaVbFb0b.b]ckbzbzbFa`bFa`aRa%a+a^a+a8aXa2a+aMaBaSa5a/aZaIbubybUbka<apakasaoaiaoakaoaxaJa>bJbLbZbqa9bqa:a[bzbta;bza^b0b:b]bEa9ajadamaoagaeabaiapaxapaiacadaeacadafadafagadabababacacaoa2a^b0a\a4a^bma>bwb/cvb#bja{bbbTb#bYbja:aQauazauajajamamamapaoamadababaiaiaoavazaJaVa.bha[bwbEbJbLbLb4bSbga*a=bSbDb>b_b`bSbDa[a[a:a0ayayalalaJaCaPaPa=b!b_cycVcOcOcVcVcOcyb+b!bRa]a6beaYawawawalaeadabakaramaqaDaNanakaoaoamaoapasaBaMaEaEavamabagaoaqaHa0a0a0a9bfbTbOb/clb#a{a9aVaNayahahaoaoacabafakakapakaiaiaiaoakakakagaeai",
"araoahamaLaLa0a9aNaVb$b0bJa`a>bwbZclckcDcwb?bta7aHaHaUazanaxaDayasamanapatayaBarayayaNaNazatavaAaIaAaMaOaSaOavasavapaoaoamagafaoauaJa%a`bwb5b.b?b|bWbWb?b:b?cab6bhbEbma~bhb]ckb,bta`bFbha>a2aEazaoaiababafaeahama1b6b|b{a:bqbTbqbEbZbTbTbObObpcCcocScvbjakafabapbfbYcobSayaqa9bba*a[a9aTaNaGayaqauayaDaDaQaQa7a1aVaNaJa1aQayavbMcqb:cbcwczcXcZcLcQcscUcQcgcdb(b?cQcYckbTbTbqbOb|cdbZbzbha>a;a.a2aRazauaXaNbmb5cdclbTb5bTckckcab]bCclcyceceb+b+b+b+b!bDbDb!bpbpb+b!b!boa*b&b>b`bDa=b+cVcycOcOcOcOcycOcOcycOb_b_cOcOcyb_b3bRbea=a,awaCaPaYaCaLaYaCaCaCawaGaLaCaGaGaCa9a=b&bOaGaMa2a`a!aQa7a9bLbEbja)a1bHbYcCb`bTbLbha)aMaEaNaJaramaraqaoahagaharatatajanauaDaHauay",
"a>aVa:cKc$cSc$cPb]b:cpb]czc1c&c#cQcQcQcDcpcgcgchcpbWa%a%a.a>a7aQa8a>a`a%a>a|a`bFbzbtbmbJbhbMcicncfb*b}b;cfcbb*bAbVb%b*b[cAb,bWb]cAcKcAcscscDckb.b5bWa`bha.a.btcAcdcdb(bmbJcdb]b6bPbWbTb?cscDcsbTa!aUaIaxbWb0bJb,b?cKcZc7cDcKcFcYcZcUcUcUcgcwc&c#clclbDbDbDb!bpcOcVcEcPcHb|b.cPcocvc0cDclbJb(ckcpcvb{b/b/bCb#b5b?bLaTa1btbJaJaAb[cbcqcucqcjb2bXb\bQbub2b)cucBcucWc,c*c1cpczb7b*cBcLcbb[cbchcmcab]b6b0bta.aHa2a1a;bhbtb:cIcMbBa\b7cpcwb?b(bLbEbYbYb`bYbob(b|cDcKcKcQckcgcAcNcXcucgbNcKcHbgaCa6a]beb3bvbva,bvcEcrcScSc3c9cHb`b#b{clb4a,a*a=aLa=a[a=a9a*bTclcQcYckcscUcUcwcNczchcxctcGb~cLbNbsb2bIb2b*bKcmb*a^bkb7bAbQb~cnb=b7bVb8b[bUbUb,bPb0cacpcab0b|b6aTbha>a`a{",
"a>a1cDcZc7b?cFcmb}bBbKb2b=b<cbb2b%b[cmb}b9bybVb\czczbka^bcbhaAaMa`bta2bcb}cpczbMbFb%bxbIb1bcaWbBbQbUa\aWaWaZa#a3a5a#a(babQb;cmcfb:b7cGcTcXc&c5c6cXcgb%cqcXbxaFbMcwc6c&c&cZcab*b}cAcTcwcZc7cZcYcdaHaBaxaKb;cIcGcxcMcXcFcbbQbVbBbnbNbsa?bububGbdbda/b1cCcSc)c+c3c2cJcFc1c5c5cRbVbGcBb}bXbNbiblbybKb=cLc)c(c#cIcwb|b,a1aya~bmaDaIbAb2b;cbb2a\a5a$a(a#aOaOaZaSa5a\buczcqbUb%bXbQbsbub2b=cictcjccbXbGa_a?b$btaUaRaIaoa\cmcibUa}aKaIaFaIaIa3a5bna3aAaOa#baa#aObdbaa/bnb)b%a?a-bNcnb[b8bia/bca|a!a9a:bWckcwb(bwa|bIb$bUbub-c%cUcdc&clb5bLa6aMaCazbIc(c&cIcdc1c%c1c1cBcib=b^b8cjcib=b)b9ctcjcxczczb;b;bQbKbQblb9czcub)b2bnbybQbGb~cRcGcib9b2bVb9b)b=b2cqchcNc#b]a7a&bhbh",
"aDbzcwb5bMbubnbBbsblbGbnbnbQbGbKbGbub2b2b<b8bab8cqc1cAb*b:b:a;aEaQa>aOa^brbMcucBb$brb[b*b%bsa#b7bIa\a;a;bcbMb%bUbla<a_bcbxb*b:b*b0a\a_cIcJcxbxa|a+bkb7b1cIcNcIcXcbb*b}chcNcbb7bdbsb1b]c6b|b(b|b?axakapaxbsb\b7a}a?b1bya_bGbybua(a(a(a3a$a<bdbVb)bQbubGb6cvcka(a#a$bsbXb2b7a$aEapa(bQb*cfb*bUb<czcmb]b1cwcNbUb0cIb7a;aEa!a>a%axaSaWaZa$a\bla$a#a-a3aIa5a5bdb1a<bcbnbUb*b}ccb<b~cqcGcxcMcJcibXbVbXb9bQbWa+aDaHaHaoa-aZb)chb8b;b8bdaWa/a+a;bacbcqbKa-a(aWaAaoasaOa#b1b%cqcqchbkbxbAbyb8b<bkbca#a;a^b*b]b*bIa;a#aWaZa<bMbra^bocvcHb#a.aVa^a|a;aMb2cnctctb)b2bQb8bGa?a_bKbya_a(bNb-b8bXbGb:cLc4chb9bQb9cfblaZbnb}cZc8b}baa3a3bKbKbya_aSaSa(a}bya}a|aOaOaObXcMbzaRa!a;",
"azbIbMb$bcbxbXb;bab1cbb8bGbKbybsbda(bibKb2blbybubQb~cqcmchcfcpa.a2aUaAbIb%b*b%b*bsbca\bkbAa/a-b7bxbAbIbxbMb7b*b}cfbMb*b;bra;blbAbIb%b7cjc!cTcbb[cucub[b;bUb:b*b*b1bAb:bUb[cIbubab*b%cDcZcvclb|bLa2amakaoaKbBbAa?bUcucmcub\bBbXb9bVbKb<b)bVbibybKchb~b%bQa$a_a\a/a/a\b;b=bUa\b:bxbrb]b<b:cucucLc%c!cUczc*c+c)c*c!cFb%bhbha^a%aIa/a/aZaWaSaSaZa3a#baa}a-a_a#aZa<a<aKaKaObXcxcFcJc%c8cGb;bib)b)cccjb)b9b,a|amasaoaSb%aWavaWa$bKbVbkb8cub[b)bUbAbra(a$a$a-a\bkbnblcfchbBb1b*cLb;czcNbkbkczcTcabzbGa<a|a3a#a#a5bsbia-aZa/bua3aRa!a|b[b7a+bPb6bkaHa(a?bGbnbQb9cicib~b2a?a$a<bBbla#a$a(aOa-a2aMaIaUa/bdbla_b%bBa4bAc!czb}czc5cubKbubsbaa5bla#aWa?bQb<b)a?aEaWbra`aNaqaq",
"a5b}cab]b%bra\bub2b\b)b-bVbGa_bya<a<bibnbNa?a_bnbNb)cfczcmcabPbtbzbma>b:b;cmczcqb[b%bxbIbubAbUb7b7b%b[b*b1bMbIb6b6cbcgcub$a|bUbIbcbxbIbxcMc1c6c5cXc4c!cXcqb1bAb[b,bxbUbAbIb1bsbdcwcQclclb|b#bCbfa&aVasaoaWb)b}a_a$a$bKbKbybibsbUa_a<a(a\a3aWaSaSa(a-bnb*bBa<bBbIbKa}bubNb\cFczcFb7bAbxa#aXa+b]cZc#cZcTcfcwcNc!chcba_b:bPbza`aFaIaKaZaKaAaFa3a-a}a-a(a(aZaKakagafaiakasa<cMc5cWcxb~cib8bGbyb~ccb)bXchcaa7aEavaIbcchb;bsbua-bkbxbAbabub\bXbub2cfb[bra/a$aZbubnbsbnbBbMbsbubna\a\bucpbWa1b5cDb/bmaQa$a!aHa!bUbMbra-aIaSa5a5a$a(a}bVbUaZbWb,bza2bXb9bXb8b-b)bQb\b9b}b8aSasaFa\b)bAb1bna-bMbra+aSaSaIa-ara1bzaKaMa#aIcbcFcMc!c5c1cGctb1a/bdaOa-bIb8b*cbb)bIa#a0aTa=a6",
"bub2b%b*bTb(cfchcbbNbVbBb2bVb<bNa3bGbKbVbVbnbna}byb2b\c5cgbUb6bFa~a2a^b$cpcIcNcIcqbIbxbrbIbra^bIb6bMcfc4cTcabWbrbMbUcacbbUbxbIb7b]b$bAbcb7cwcmcmcqb[c6c4czcTcUcIb[b*b7bUbIbrb%bIb#bbb#b#b4bCbbaPa9bqaBacaeaWbaa}bsa-aSa5bBbya-a/a\bXb-byaWaFa3a?a3a5bubcbnb:b9b;b<chb2brbabKbBb9b\b8b:cucUcAbPbta&bhb]bPbrbUaZa#a|aObhbWbta!asaWa$a_a\a/a3aWaZa5a-a/a(a(a-a$aZavaxaZaIaxa(b9b~b9bGbNcccjcjb~cJcRcxb^bZa~aDaraBbAbiaWaZbKbub\bsaOasaAbNb*a^a5a/bAb7b2bNa\bcblbrbrbUbIbsa-a$aSaSaIa|a4b0b|b{cvb5cdbIbcb[b,cqb%a\a\a}a#bca_a-a|bnbub;aWaQa.a7aJbsa/a5a-bablaZaKaIaxaZbabsbia|a-a$bnb*a?bIcIcqbXb*cubmbJchbXb<bXbBa(a$bIb8chcBcXcBcBcJcMchbBa/bubAbMbXb*b<b%bFaoaYaY",
"a5b\baa/bmbWb)b1b)bNbBb8ccbKb9b-b2bXb<bybibXb9b~b~bXb8ciczb)bza8bta7btbPcacwcfb7b%b0bIbka+aAa;bUb6b7cFb]a|b$b]bca~bmb]cab6b1bxbUb1bIbMbIbBbxbAbMbAbAcacgbxbUcpcqcNcqb}b$bBbsbxa8a0b/b{b/clbHaQaGbjbOa8anaiakaKbabnbdaIaIaOa-blbaa/babVbybGbda$a3aWa5blbcbGcbcTcLb}bnbGa}blbybXb-cbbla(bBbIbMblbkbrb0a;a}bMbib7cbb0a+a|a%bzbhaKa#babna}a$a5a(a(a-a<a/a#a/bia$a3aZaBaSa3aKaxa$cicXcGcBchb1bIa?bGb<cRcGaQa>bTa7a+bMa<aOaFaSbGbGcbb*bUa$a\bxa|bnb1b;b)cccmbVa;aEasa/blbKb<bQa<a^bca#aRa^b6cKcdb/b|cvcsb(b,cab7a\aSa3aKaWa_a5a}bUbKbub0a2aGa,bfaYa4a$aKaOa(bsb1a5a4aMasahaoaAaAaOa\bAb<bca^bKbNbUcIcqb\cjczb~b9b8bQbaaSa!bKb-bXb)cucFb2bKbBcbc4cFb;a$a#a_bucubtaDa,aP",
"a(cub9bGbMb;cAb5bychctbVbQb8a(a$bdbKcccnb;bKb^cnb\b~b\b2b}bIa1a8bJa.bqb.b.cscgcgb6b$bUb%b[bIbkbMb:b%b$cpcab$b]cgb:b$bWcgb1cabIa;a$a^a/a;a2a!bIbPb6bta!bJcmb,bkbUcNcTb}b%b;bBa~a>b#b`b{beaNaLaGaPa9a{aUalaIa(a(bub2bBb\bBa(aIaWaZaWaKakaoaxaIaKaWaOa3a5bla-a$a-a(a#a3a3aBaWa$a_bna}a(aZaOaOaxaObdb*b*blaOaAaKbBb%bra^a^a2a!bmaZaoa5a-bkbrbibsbaa<a<baa$aFa3a}byb)a_aZaOavaxaoavbdcbccasabacakaOa-bcbxa1arb#csbma.a5a-bna$bibua$b*chb}bKa<b)b%a/bQb}bacbcNcga;amaObQa/bsbGb%bAb;cucQcpcabFbmbTcdb?ckcKb[b1bna#a3aBa#a_a|a$a8aOa}czcAbzaYa6beaYa;b;b=b9bVbMaObcb;b6bca?bxbMa\a$a-bQcLchbUa$axaZaFaBa#cmcBcqb9b;ccb[bNa#aSa?a/a-aSaFa3b<cub~cbcTcTcma$aIa<bXbtaya*aL",
"ava<b9b<cbcpcQcQcucfb9b9b<bVbrcpcTcgcncJb=b<b;bNb-cWcib9cmbUa1a>a&a1aPa[a&bbbhbFbAa|a^a|bMbUb1brbcbMbka2bkb}cwcpcFcgbAbIbAbka\bIbBbxbxbxbWb$cgcab]b$bPcmb:b6b*b0bkbFb1b%btbPcHc2bZaYawaJaPaJaTaTa9a%a>aga#a(axaObscjcRctb)bQbsbXbKbubia_aOaIaEaFa8aRa$a/baaOaBaBaKaWa<a#a#aSavaOaSaSa5babNa_a3a-bibBbra5aZaZbdaWbkb1bAa%a+bma5bdb*bQbIbAbBa}a#a(aZaWa(bIbBbnb%b[b\a_aSaFaFaBaxasa/b8bla-a?bQb\b)a`b$bZaCa7bWbJaJa?a5a3aWa_b<cMcucbb[bXbUa?cjcubIb8b[cqcMcTcqb*bAbda-babNbaaWbkaWa3a<bIcfb*b:cfbxb[b}a?a/baaOaKa}b*b*b1a<a+bIbsbNb6bJbva]bea,aBbrb2bVbQa<a$bcbAb7cmcFcNcNczccb9bVb-bVa;a#bkb%b[b<b<b%a^bGb;cqcjczb[bGaWapapa3blb=cGb8bKb8b)b-cub<cbb<bNb[a~aPaYaY",
"avadaiaObnb=cZcUcucfb2b\b2bQchcFcucucbcjb%cnczcbcicJb)b2cbbcbLbwbtbta7a!aQaQaybJbIbzbca+a+bcbMbIbMa|bka+aOa^bxcbcqb[a+ava+bAb0bFbAbza|a|bFb$cAb]bWa~aRbmb;cbb1bxbWb7bta%a>a{a{aYaPa1a:a6aNaPaQa~bjbLbJa)aAa;a-aFa(chb2cubXbGbVbsbQbBb8bQcbbyaZaKa;aXaAarapaWaZa5aOaBapaiaiaoaFa3a(bnbKbUbQbaa/a5a#a\a?aWaKa(bra|brb[a|a%a`bWa^b1b)b8b1bQb%bUbKbrbka\blbua\bXbNbKbXb2bBa}a?a$aFapaca(c!c(c5chcjb-bWcAbEaLa&bzbJa&aOa/a(bnbda}a}b*b=cFcTb%a}bUcJcia(aIa5aWa\a5aBaIa5bda\bNbUa\bxa?aWa2a+a\bBbMbAbxaWbGbBa/a\aSa\b1bib;bIa?bsb1cTb9a7aJa,a6a6bvavanaWcbbXbubAbdbBbibcbVcLb%cbcxcbbBb7bVb*bIbca8bxb;b%cjcxb9bGa}a/b8cccuccb<b\cccxb<bBb;b-b9bda_bibXcicucbb~bma`bqbj",
"a;a8aSaHaoaIbXchbXchb9b=b9ctcMcBbQa$a-bXb7chbBb)cjcjb\bQa^aFa9bWb,b0a!bEbbbba[a>btbWb,b]a\bxb:b]cAcmb$b1b*cucFb*bMb0bMb$cbb0bMbUb6b7cAcAb]bzbWb0bqb5a>a!a;a!a!a|bPa~apadala)boa[a]a)a:a0a{bqa~a`a:a1a1a>avataOaoakaKaAaOa5a_cibQaZasasa?cqcXb;b1b0bFa>a`aEasapaoasa2bhaXaIapajamaoaoavaFa5a5a3aKaSa#a/aOaIaObrbsbcbMbJa^bhbha/b1cTcRcTccbBbNb*b;b*b*cbb}b\b;bsbNbIbIb)b)bKbxbya}a(aZbkb:bQa?a?a/bmb:bLbebIbTbtbhaKaka/bdbybUbca#aWbcbIbkbca-a}bda3a3aAaiaoaoaBaOaOaSaOaWa+a\a4bUb<bxa|bKb1bMb%bxa-blbKbAbuccb}b\bQb8b=bNb9bAa}byaWaoalaGa,b4beaJaFa4cfcLcIb}bsbxbNbBbUcjcqcqb-bVb$c!cXcUcLcmcfcbb)bQb~czb~byaWaWaSa$bybKbKbXbGb9b2bVbGbBbKbNbNb1b;b}b}b;bzaUa!aD",
"btb0b]a4a#aKa3bsb-b9cib2b9cJcRccb[cGb}b\ctcxcicBb9ctctb^cpbqb0bZcacUbWb0bhaMa2aNa+bAb1bMbca%bcbrbrbUbUbxa|a;aWaZa-bFbIb0cab$b$b*b6a;aMa+a2aRaAasaya7a#ahasa5btbta.aDamamalaVa)aNayalajaeapasaNaMa.a>bbb#bWa`brbxa^a;a5aEasaIbibdbsb1bUblbJcabMcFcIcmb]bJbUcab7bUb$b:cab6b$b6bJbha2aFaoakakaoatasapaIaOaFamasaWa+a;bcbmbzbta~aXara\a/a^b8cucNcFczcqczcbcfcbb;cub)b2bUb}cLczb2bIbIbVa+aSaFaOa<aSaKaBa+cAa{avaZa#a|b6bzaAaMa<b%bkblbAbKbua5aWaIaKaWa$a?b8b%a|a$aXaKaKa#a5aFaoakaKaIapaoaoaKa<aSa/aOaZbsb*b)b1babQbXbBb2b*cTcWbNaQaNa=a,b3b!beaYaVaCaza;bkcbcLc4cLb;cjb*b2b7b}bKb%cqcLcub}b)b9ciczccb)bKa\bub%b}b9bGbkbNbia3bdbybabQbNa(aKava?b;bybQb8b=cjcBb7a+bka+",
"b6bma`bhbtaHasaKa?a?bVb-bGbubua/bxb<cqbKc5c*c5cWcMctctb-bzbJbtb(cacIcDa~arajanataragapaEa8a+aSaxaiagapaoagadaiasapapaOa8bka!aFapahahahafaeadaeafaeabababababaiakagafahajagafagakaDa4a%a&a&a.a[bbbOb/b{clb0b.b}b[b7b7b1b[b%bMb*cub}b}b;bQcgbWa;b,cUc(cZb~b;cqcLchb:b,bha^b$cwcabFbsb0bMb0b]b$bha`a;aJaMaIaMaXaVaVa1a+a~bWbWb0bJaJauanaObAbsb<b:cucucNcmchcub[b}chcuchbnaWaBakahalaOa%aOa3a#brbXb%bUbAbwbEaMaRa?aBaDbJa%aJaMaIaFavaxaKa#aOaFakafadakakaBaOaQa:bvbea9bea)a)a7aNaCaCaPaYaPaPaLaGaQaVaIaOaKaAa2bla;arapasazaKa+a$a*b&b_b+b+bRbea]bvaPawaYaEayaZaSa$a<a#aOapaoaiakaFaWa-a?a|a+a3bda/aWaSaSa-a_a}babKb9b8b9bXbya$a^a+a|bdchcXcJb[a-a/a_bKbBbubaaRaMbxbQ",
"b7b:b0a|a|a%aMasamaoanaraoapaHaIaEaMaSa;a?a|a(a-a$aKaOakahbFcdb|cgb]cDb|csclbJa{a>a)a7aQaHaHaEasaAazaraoamaoajagaeaeadahababafahalataHaJaHatatayanajajamafadagafagasayauataNaXa%bzcUcscgcscwc0b{cCcScDb{cgb:a|bIb$cabUb%bcb1b7bkbxbcbQb*b}cIb,bhaOaOaZbibNb7b%cbcwcaa4a%aUbrcmcpb<b7b7bUb:bWb1b0b0bFbFbFbPcscsc7c$cscUb|cgcpb7b6bcauakasasaoaxaIaEa8a/aIaSaOaOa(aIakadafalarayayaoasakakaIa<a?baa+bcbwb4bEbwa#aSbhcKcDbLa7a9aJauarahalalafacadadagalawaYa]a]a]b!cycececrcCcrbea]aPbeaLa,a]bvbeaYaYaGaCaCa=bRaYaLanahacaia6b3b3b_b!b3b3bHb_bRa]bRb_b!bva,ahaCa,a,aPawaqaGaCawaYaYaGbeb3bRaGalafahagakajahadababafagaganayaralagababadakakaeajapaoaiagahaNaJa1b8b=",
"chcIc6cZbWb0bJa`bbbZa)a9bqbZb.a0a.a7aJaQaNa&a1aNaGa~a[a7a9a`b|b/bTcdcDbZb(cDcsbLbLb|b.bwa7bza.a>btb(bma`a8a1aRaXa>a1aQaQauauaDatatayaoaoaAaFanasaMaRaQaUaHauaDaDavaEaMaMaNa>a%a%b0cgcUcQb5clcdbZbzbFcuc)cLcucfcmcwb]bFbPbPbJbTbtbtbmbza`a^bUcacgbQb[bAbibxb6cbcZc#bWbJb]a&a`b|cDcDb|b(b5btb0a+bIbhcgb|cKbWbzbFb(cdcsckb]cpbPbIa^aMaRaya7bPa7a.a.azauauatanaraQa1a7a.a[bjb#bCa&aQaEazaNa>aXawagababaoa2a.bbbEa`a7bEb5cDcKb#bjbqa]a7aPa{bba&a7a|a%a0a0a6aYaLaLbva,a]bvbvbvbvb!bRa]a,a]beb4bvbRbvb3b+ceb_cyb3b3a,a,a,a,aqaGb!b3bvb!cyb_cyb3b3cCcCcrcrb!cecybpb3b+bDbCbCa:a{aPaPbebRbvbRbHb+b!bRbOb4cDb.b1b]b}b*bIa;bEb{cocrbpa*a*a=a*aPaLaVa[a{a)a[bea=bebRbfbfa;b7",
"cwc0ckcdb|b5b?cdcDcQcQcdb|ckckcscDcKcpcmcAchcmcmczcMc!cNcFcXcZcIb,b]cpcwcacabPbhbLbma>a`a2a.bhbma8bMbFa;a+a|a.a+a;a>b]cpbJb:a~a!a7a%aRaSa?chb8a<bcbQbAb;b:a.a!a4a!a>a!a!a%bUbAa|b6b;cDckbbaYaVbzb;a$a}b;b,cacpcab:cpcpcpcQcZc7cYcpcwcAcAchcmb;b2b%b}b}ccb<b}bXb8cmcucLc8cNbmb|c0cda)a{bqbma~aUa8bBa^bhbUa;cAczbrb,cqb:b6bJb6bFbtbJb$bLbzbLb.btbtbka;brbAbtbkbJb$bWbFbJbmb$bFa-a|bIa(aUa-a~a|a;bsb1b:b[cmb}bNbxa(a1a&aNaNa+bcbUb}b7a^bMbUbAbUbBbIbcbrcdcAb5bwbHbwa]a]a]a]a,a]a]bRbKbka6a]b3ceb>c2cpb/b(b?b(b5b#b{cscQb|a]aPa,bHb3bvb3cocHcTcUcXctcucub:c1c6czcGb=bQbVb=b=cubJa>bqb.clbwa>a{a]bEbEb7b6cjchcGctcxcJcIcAc#c7cQc7b_b!b+b!bDb!bCa[bCb5ceb_bgb_cycEb]b]",
"bXb=b*b1b*bUb}b<ccczcLb1b=cLc1chcbcbb;b<bVa_bdbXb9b)ctcGcjbUbVb8b)b~cBcqcJcWczb7aRauaJaVbkb6b*b[b<b*brbxbUb%b:bIbda!aZaWa|b}czcwczb;b}b[b1bIbAa/a/b2cIb}b:b7bUb%czb}b)b;b=b%b%a_a<bMcpcwcvclb{b{bUaZa|bxb?b0b,b]ckcpcAcwcpcabIb$cab0bIb:bcbab)cbccb2b=czcBcGb;a\bubIcBctcGc1c4c(c)cNcIb;bIa<a^a;bAbta;a8b7c!c5cmb1b7cLcucXc4c1b[cXcmb7cbcZc#c4cqbBa?a}bib-cib~ctcncbb-b8bNblb=b~b=ccb^cccFcicLcFb\bKbKbXcjcMc5c5bJbLa;aNaxbicLcjcGc5cWctcxctctb-b)bQa$a#bibub2czcfb%b}cqb<b8cfctb1bGbUb1bEbvb6bTb6b;b*bBbUbNb7bQbIb%bUakadaraPa0bFcfcictb~cuctcictctcWcqb=cJcnbVbybNbyb-cJcGc5cWchcXc8cucMb}b)a<a(bna\a(bQb\b-b9bQbrcfb1a?b%csbob+b_b3a=bZcpcFcRcQbTa=bpbEcDb~bG",
"bababNbVbXb8bda_czc8cJbVa(bib=b*bBa(a?bKbKa?a3a$a}a-aWa5a?a_b)b-b8b8b%bGbKb2b9b=b(bba:a:bmbWaOaZb<cqcucqcLcZcqcmb7bAbka|blbcbnbUb)b2b[cmczczcqcbcpb%b:bJb1b;b[cjbXbQb1bua}babsb*czchbIbrcdcQc$c9bEaPa+b1b$b,b,b$bWbWb:b,b%bUbJa+bFcwb}b1b*brbuchc1c!cTcucTc4cZcIbNbrb[cBcqb}cLcRcNc5c6c6c4cpcub}b7b%bFaQb2c1c%c!chaZbsb8cnb\bKbncbb)bQbQb<cGccbVbBbXbUaZa(bKbnbablbGbxa}bBbubXbNbBbKbsbKbXbXblbBb)b)cbb;b-b\cncTbza2a%aDapbNb1bUbyb8bXa/blbQb<b^cGcnb2bNbXbQbNbKb2b2b<b}ctc1c5cGcfb}b;b%bGb8b%a}bAb1bAbGb1bUbVb*bXbaa8aiaeagaHbhbPbLb7b;cfbUbGb7bGbia\bBbGb<b-b8bXbQb<b8b*cccTc4cmb}cqcXcNcbbUb8b*bVa<a-a^cbczcbb<bNb$bhb%b*cbbFalaCa=a*cpb;bsbGb9b,bjbqb^ccb9by",
"chb<bGbyb)b~cBcnbXbybNbnbBbBbya_brbla?bQb)bGa/aKa3a<a<aZaIa(a?bNb\b\bQbua}a(a(a\b(cdbhaya4b}cfb[bMb%cbb*b7bMbrb%b;b7bQbBa}bsbVb1bAbkbAbna4a|b%a;a^bMbrb*b*b7bsa/aSaKaSa(bnb<cicibUbFa^a~bIbPb{b#b#bCbmbPb6b$b]b]btb]b$bFbcbmbxbWcab,b7a|bIb1b*b[b[b*bVb*cbb%b*chb:b1bAbQb7b%b;chcpcqcQc!c*cub}bBa8bzbta1a\b}bUbXchbua}babybXb<cccxcMcJctb~bNblb2b%bKbnbNa_a<bua?a<a\bdbBbsa_a?a_a/a$a/a<aZaOa/bdbBb<b}bXb[bubdbVb,bhbka;aWbubdbsbBbXbBbna}a\a?bBbKb;cbb8bVbXb<bVbVb;b8blbxa?bkbkbnbxbub8b1b2b%b7bAbia-a\bia?a-baa/a5bhb6aVana)a:bebfbTckcucuccb-bya$a$a/a}biblbGbybua}a/a$a?bVcqc5c1cAbIa-a\a<a+a$bsb)bsa5bMcBczcmcba7bLczcncha$aCa*a6a6bBb%b2bBa/blbKbGbnbVb-b~",
"cnchb9bBb=b)bybibQb\b<bsbubsbabia<aWa(bsbybVb<bXbBbGb7b%bQbKbBa_blbsbNb=ccbVbXb%bxaXa4aQa$bUb1b7b%bxbxbrb1b*b1bBb0bAbNb}bAbrbcbcb*b*bMb7b<b[bUbIbcbxb1bMbkblbrb1bMblb1b}cbb%a+a$a`bFbJbkb5bTbjaCa&b?b,b:b?b:b6b]b]b6a|bxbrbta#bcbxa\a;bMbdbkbcbcbxbIbxa\bGb}b<bIb7b7bkbsbIb*cfb}b*b1bha|cIbtaMaHa!bwbzaDaKbAbGb-b-b9bBbGa}bab8b^b\b<b8b=czctb1bUbUbBb8bca}bsbKbXbBa_a(a(a5a?bubnbQbGbXb2bQa}a_bGbra}bnb)b\ccb\b7b$bAbMa#aSbBbNbnbNb<chb*b%b^cjb^b9bQb%bybKbBbibsb1bUbNbkb2b}b}cub7bIbnbIbUbybkbkbubAbBbia?bBbUbXb=cubJbzasalaVa9b#bSbecPcQc#cFb*baa5a\bla<a}a-a(a$bsbBbKb7bBbrbdbcaXa$bAb:b*bBbka;aFa/chcab(a|bta}aIa8cgbAa8bobgbDb!beaPbUb~b2b2b)b8bBbdbubGbybB",
"b=cccnbBbnbKbGbubGbKcucub=b2bibsbGbGb8bGa#aZaZa}bVbub<b~b9bKb\b-bKbnbsbUbVb=cJc8bAaMaRa`a;bkbra\bxbcbca|bdb)b1b[b[b1b%b;b<bca?b1cmcIbGb)b;b%b%bFa^a^a#a2a5aWbcb2cub}b1a+aWa!a8bIbMbIb]a2a9aVa9bqb6bWb6bJbtb:b$bWbUbFa^a;bla+a+aUaWa8a8bcbkbrbra\a|b1cbchcub[b}bIbybubsbBbrb%brbca+a2a>a.bFcAb|bWbZbtbJaJaUbIb7b8bBbGbNbsbsbGbBbQb8ccb)bNb8chcmcbb8cccxczcnb9bubQbNb\b-bXbla?a/a?b}b<b9b8b-bNbVb2b\bubsbKbyb=cxcMcDbtbka2asa/bra\a^bAchcbcncxcFb~bdbBb%b2b8bVbNb2cncBcccicGcxczb;bca^a;a|a+aSaWblb[b\b8b7bNb<b%b7bMbca>btaRauazaVb{b`a]clb/b/b,bUa-baa_a}babaa}bdb9b2bNb9b1a?a(a#a?bda8aWa<cqcmb}cAcpb:a<aLaJaCaLaGaVbtbFbha`bDa=bgb3b3bgb7b-bubGbVb9b8bQbybybubu",
"b)cnb^b8b<b2b%bQb8b2b)b8bybybQblbVb<b-b<cjb-a_bnb8b8bybybXbnbybQb9a/a(bnbya\a#a\a%a;a0bba%a.a/a$aWaKaFaxaoaKaKa?b%cjb*bQcqcfbla+bccqb}b8bcaWa3aIaSbAb;bua/bIb9ctcMcGczcmb%bBbka^a?cmb$bta0aNa&bJbza%a4a!aUbka|a;a#a#aRa8a5aOa2bkbla|a%a+a;a;bca;a/bIb%cmcub)b1b8b<bQb2bsa+a;a^b,b5bJckbEbwb|cKclcAa:a&a1aOcuccb-bNb2bNbdbubVbQb2b<b;bVbBbXbKa}bsbKbQb~b\b2b1b8bMbKbQb<b\chczbQa-a\bUbQbUbQb)b)b8bQbVbsbububda?a}bqa7aDayagbrcLcbb[b}b}bNb;cmcGcMcmb)b9b%b=bXb8b)bXbnb\cjcubMa4aRaFa$bkbubkblbsb)cjctcncicibGa\a+bcbca~bma7bhaQala6bza`a1a]aWaFaOa(a#bdbna(a(bQbUbsbia\a(a?bibnbubAb1cbcmbrcbb,a>bfbobfbfaPaPaLaqa6aPaNa.blcmb~a!aPbpbpceciccb^b8bibna/a}bAb*b^b)",
"bQbKbibXb<bNbGbBbubsa?a}bubsbVb9bXb<cbcbcub9bKb2bQa\b2b<b)a}a#a?b2cjcMcJcib<bKb7a[b(a0a*b?aTa}bQb%bKbNbsbAbkbGa}a\bBbQblbAb[cIcfbrbrblb1bka5aFa_b\cncTb=bAbNa_bKb~b}b%b7cncFcLcfbAbca>b|b5aTava;bkbrbra+aRa;bIb0bMa|a^aOaxa2bsa^a8a|brbUb%cmcmbQbBbxbsbMb1bUb1b*bIbAbAbkb,cgcdb5bZclclb#bEbLb{c0cKa:aXaDa-b;b)bBbVbKb2b8bdbubsbybyb8bNbnbyb)b9bQbGbsa\bab9b\b9b~bXbXchcFcucnb*b1b7bsblbQb)b-bla?a}b8b<cMcxb=bnbXb6a>aNayavaAa#b8b9ctcnb)b)b}ctcxcncjb9bKbQb=b9b1bKaWa$a<a<a4a8a|bib1cXcbb2bQbsa-bibubQbBbub2b%cjcFcqbcaRaNbza~azaraMbha-aFaFaZa#a5a5a(a\bBbAa+a/a\a\a\bnb1b;b;bMbAbFbmbmbea6a,aCajaqbCb&b4bva,bHboa,bfaTbBcjb]a:a6aGa)cdcib8byb2b)b;bGbQbXb9bGbs",
"a5aOa-aZaKaSa3a$a?blbia?a#a#a5a_bna_a<a-bna}b-b~b-bBbna-a#a/blbQa$a<a\bubGb8bBa_bbbYbba=aOahasaKaZbBcucxb[bGa?a}a_a$aSa?bibAcbcgb7b7chcacbbIbBb2bsa3aMaIa-a-babaa<bsbub)cncGcXcubWa>bLa[a`aya;bAbha4aUaUaAaHa;brb:bUbrbAbMbBb*bXbxbka;aEapapaKa\bxa/aMaOa-bkbcbkbkbka^aOaxa2aTa]bCbva~a]a.bZclb(bhaJa2aHbQbKb<bKbla/bKccb~b%a_a}bIa/bda\a/babubKb2bNbKa_a(aOaKa-a-blblbdbda}bKcbchbBbaa/a+a5aSbXbBa$a\a\a\byb9b=bJbJb?a)aXayahaoa-b2bMbQb<brbXb\b}b2bVbka3bxbUbUbKb[b2a$avaBa\b1b*bdaUa4aWa+bia/a$a\a/a}bNb-cBczb:b7b,a8aDa9aMa2aHaIavasaMaRa!a5a\bBbua}a^a}a#a#a;a!aAazaQa~bma>a.a~a~a&a,a,bebeaLawa,awauaDaYa]bea6aCaYbOb4b3bHbeaGa>bxbQbXb8bGbGb8b8b8b8bBa$a-",
"b<b2bubsbda#a?a?bnbnbVbubybua?a?a<a-a(a-a<a5byb)b9bnbQbKbVb~cbbsa(a#a$a5a3aWa1bhaTa=a~a9aDaraNaJayanakaObaa}aWaIaKaFaxavaSa$a^a^a|bkbxa;bnbAa/aoakaSa?aSbNcncib-bVbkbibAb-cbcfbUaHamanaEaUa;a+asazaMaRaOaAaiadabavaBaIaOa$aWa#a$a8aMaAaoataAaBaMaFapaoaFa+bkbBbra^a8a3aHarapauaMaRamaiaMbwbZbZa&aza%a!aMb*bKbnb-b;b*bub7bXbXb8b=b<b2bubna?a$a_a}babdbXb<bQbybua}babda<aZaZaWa?b1b<b2chbQbNb<ccbXa\a5a-aZa/aSaIaOaVa>bFa[aJaQa7aqahaEavataSaZaIaOaZa-a/a+a\bAa<a;a+a\a\bAbAaOaIaKaxaiavaIbkbua}brbIbKbra+a_bkbGa|asagamava9b]a~aNamahaoasavazaHa^bca^a+aSaxaFaxaAavaoataUaVa1a7a%a1a1aQaQaTa0a=a=a,a]bfa*awa,bHaPafaya,a*bHbeaYaYbea,a.b0bybQbXb2b<b\bGbKbNb)b^b~",
"b7bybibab9b^bBbabia}a-a<bKbVbGbBbia#a5a(aZa-a3a3a$aSa5a\bda\bubia?bdbNb2bra!cScrb&bObOb`bZbbbpb&bCa6aNaqagadabavasakamaiaoagaoasaoagaiasaBaFaEaEaxaraoaFaZa#a?bdbsa?aOaBaEaFaXaAa;bJb]cgb6b,b6b]bxbta+a-a2a$aXaOavapamaoavaBaMazaIa8a!a!btbtaUavapaoapaiaeasaSa2a%bra^atamakaoapaoakamaiavasaraFa!a~a4ava(bKbsbdbdbXchbQbsbQbBbubya_a-a\b8ccbVbnbGb8bQbubGbybBbBbKa<aZa<a}a/aSa#a?aSaKaWa/babub%bsa?blb2bNbia7a>aJaTaQayaDaqahalaCaTawalamafabagahaoavasatayayataDaragaiaAasaoaoaEa8a4a+a%a!aOa+a8a/a!aIapasaxaHaHajaeaxbLcdbTbja9aCauaJanahanafadadadaiapaxazaHaRa!aUaNaNaAamamapasaJaDaTaTayalawa*a)aqahafaYaPalalalalalawalahawaCaka;bKa\a#bnbGbXbna#bnb%b2bX",
"asavapaxaWaZaSaFaEaKaIaBavaIaFaRaEaMa[bEbFa{aXaNaoaUaMaKaFapavaMa8a^a5aOaPbCcrbSbObba[a|bqbLbDa[a[a*a;a>a&a&a.a`aWa3aXaIaEaRaFaxapavamaoaxaRa`bzbEa`a2aDafadabababababababaeaeaBb,b6czcZc6c6cTcFcFcfcbb6bMbkbUa|a4bcbkbFb,bPb6b6bxbcbrbMbsbna;a+a<aUaAasapavagaparaHazatamapaxaAapaEaMaAaHa2aHasa8a8aMapaoaoavamadacaiakasaxavaxapapaxaAasaOa#aOaFavapaoavapaiakaoapaNa2aMaMataiagaoapaoamaiakaoapaoaFaBaCa0a=a*bfa:a{b(bLbba!aCalayauaJa2aUaUaHayayayayaJaUa1aXa1aRaJaDanaNa|bmbhbzbtb6bza!aMazatauazaHaNa%aDaDa%a7ajaUb5bfa0bLb&b/bObObba:a)a9a8a`bqbTcdcKb{b{bZbjbob/bwa{a`aNazanamaoanauaDaJasaraHaHavaiabagaQaVayawaLaTajaca1a`aBajaoaiaiafacabaiakaoazaIav",
"aHaHa>a.a1a2aNaNa&a~b(bEa>bha:bEbZb(cocHcHclb#bZbqbbbja)a)bZbOb&b`bYb&cobHb&bHbob/bObtaQaPbwb&b&a6a[bbbobCbSb4b4bTb(b5b?bFaPaQaNaYa{bfa[a:bjbhbLbTbLbLbEbta.aUaRaHaDaEaxaIaIaMaOa^a|btcZc*c*c+c!c6cXcZcfb%chcNb%bAb7b:b;cbb7b]cIb:bBbAb%b%b:b*bAbraWaOaUaNa%a8aHayaHayaHaMaMaUaIaXa!a.a7a+a^a.a!a!a.bJa!aTa.aTaJayanaQaXaJa.a.a.a1aVa)bja>aVarasaQa!aQaRaQa8a7a`a~bqbwbjbqa~a:a`bFbmbja>aNaQayayaNaJa6bbboa=bfa[bgbobjb#bEbCb>b&ayahaybzbZbZb#bqa{bqbEbqbwbjbEbLbObwbja{a:a9a~btbWb0bTb6b.b{b.bZbZbJb5b.b|b5a~bFbTb(a7aVbha1a.bLb`clc0cHcvcvb|b(bYclcHcvb5bZcrcCcococlb{b>b{b4bRbCbHa>a]a7bbaRauaDa7a9a,a,aYa7anaLa*bHbHbvb!bRa,awa9bta>a8aMaDaNaMaXaQa7a9a&a:aV",
"b:a!bba`a`a~b$b:cab,b:cmc6cAcacpb,cwcMczb:cachcqcNcQcNc#cvbOa*a[bfbYb&clb{cscKcQcDcYcIbUbPbWcdcYcsbZclcvc2cHb>b{b/bObobDcocCcoclcDclb$bWbAb1a}bBb7b~cbcbcqcab6b0bTb(bFa%bda#a^bPbha.aMbWb,cgc#c)cZcAb}cab]cZcZc7cUcmb,b]cpc6c6cwb[cmcNczcZcTcFcFcha|a#aUa%a^aQayaXa`a.a%a>a`a~a1a1aVaQa.a)a`btcdbWbzb?cgcwb|bPbtbha|bzb$b6b]cAcUcwb?a>a{bwbbbJbWb:cpb[b;cucIcmcpcgcacab;cgcgcAcpcgcpcAczb|b|bba[bjbLbzbJbFbUb:b]cmcwcmb[bYcHc9c)cHbYa[a:aYa*a*a[a*a0aTa0bbb|ckbqa*a[a[b{b{bJbha.a;bFbha.bCbLbEbZb/bTcdcscacacpcUc7cIa{aQbTbEbhb.cKckcAcIcpczcTcZc4cqcXc&c(c8cNcpcpb5b)b}cTc6cHb{bvbebTbHa~a0alaXa]bDa]a,b!bHa6aYa,bHb3bRb3b+b_b3bebRa`b.b:bPbPa|bhb:cgcpb,cgcLcF",
"cfcNbOa)aQbtbXb*b8bGa}a(bQb=b=bXb9cxcWcWcJcRcubVb9b8b*cmcaaxa7aJa8aOapaScTc5cXcTctb\cMcjb;b7bNbQcxcLb~b2bybBb*cmcBczcLb%bAb:bBb%b^cicxb)a_a<bda}a3bnbVccctcGcxcGcucMb%bia_bub1a+a7aya2b0b1a;aRbxcqb1bUcNcKa|bFbWbWb:cga|bcb1b*bMbAbUb)b2b<cFcmcqbMb0cabMa7ayaua`b$b6cFcFcgbWbtckcNcNcFczcMcNcFcucbb*b}czczb[chchb~b^bdaxa3a^bnb[chcTcwa`aya&b1b7b2bybAa\bKcucnbKbKcccncMcTczczcba}a<babybAa;bLbEb=cfb2bXbubNbQb2b^ccb%bxcob#bFb?cub<b$b,b:b]cgcacdb]b5cac4c%c8c%c4cMc%c,c%c1c&cBb*b%cbcjb;bMbxa^bPb$b,bJbka^bkb%cqcXbPaybwbZbza~ccbaa<bcaKaIa$bNb7a/bnbVa|babdbGb)bVbsb%bya(b$cpb/b>clbHa>aPbjb.b3bHbSb4bvbHbRcrceb3b+crcobRb4b{cdcmcmcuczczczcxcjbQa5aObabsb=cc",
"a_bBb5a:aJaDbnbQbXb*bGbVb8b1chbNbQb<chb9cbb=bBbQb\b9b7bKbta.a1a7aOapaoaea3cuchcucMcfb8bQb\b9b9b\chcXcub\bBbnbxb;c1b=b<cFb)b=b}c1c(czbVbXbVbQbKbnbubKbua\bBbXb2cuc1cub~b8cxb~a+ava8a%a8bhbIb6bxa#aRaUaJb0caa4bcbxa+bMbIa^bBb7bKbsbab}cxb9b<b\bUbIb6b$b$a~a%bJcmc4cMb}cxczcJcTcLb=b%bUbNa|a#a_b[cmb7ccb;b<bAbkbVb;bUbta{bTbPb5bBbsa5bcb5bma)aNaUbMbsb1b1b2b1bKb2b9b-chchcfb7b:bQb*b;b)bBa;aDa>bbaPbXb*bubBbIa|a2a+b[c4cqbnbCbeaFa8bda\b7b-bBbIb*czc5c6cWcNcJcNcmcJczbMbXb2cjcGb8b7b^b%b9bKbsbna}bibUb1b[cqcqbUa}bdbAcqb0aHa:a.a^bhbIbIbibVbcaZaFa?a8a8bVb)bBbub<cjb;bibsb<b;bybbbbcob4bha.bUb~cTcMbTb#b#b.cfcwcvbCbHbSbFbJb;bVbUb}cucBcmbVbsb}b2bXbxa+btbFbIbUbXbB",
"ccb2bba:ayana}cbcjcccbcccmcqcncFcjb9bKb8bKbdb=cxcGctcmbUa[b.a>aDa2a+a^aOapb%czcbb}cMcLchb)b}b<cucLcLcFchb)bubKbuchccbsb1b}b2b%b=chcncicjcGcJcJb~bKbubGbnbnbGbVb)bUcuchb=cMcxa\asaXbtbca+a4a%a;b$b[bxa-bcb$bWcgcwb6bBb*cXcFb*bVa?b[cLcncbb<ciczbAb0bza.a&a!bMbQa/a3bab7b[bAa|bKbUb2b%chcmcub)a^a+bKb-b}cjchblbKcmckb0bOclb,bWblbub[b}bma2aracavbAcbczb}cbcjczcxcFcMchbXb1bxbAb)chcjczcga^awa9aVaNbAbIbMbUb0b6bMbmbcbUcfb]bxbha^a/brbrbrbMbIbra;a^b:czbIbUa+a\a^a8a+bybubia|a\bKb1b7bNb%cqcJctcBcBcJctcucxchcmb[bxa|a^b]a^aNa1a;a!bAbMbUbKb[bxa5aObaa}bnbVbxa}bsa$bBbrbNb8bNb1cob`b>boaCaXb1b7bIbnbPb,b6bxbycub#cscDc0c5cpbAbUbKb8cfb;b%bQbnbKcbb<bJb6bLbZbIbxbdbV",
"b1b[b.a1alaUa4a+brbrbAa^bBbKa\a?bIcbcxcMcjb%b<cccxbQa|a$a7bma~a.bca+a#a+aKaSczc1cFcXb}a\bcb%b~czcRc4c8cXcubVbubna}a}a#a<bAbQbKbKb9cucBcncib<b=cncxb^bVb)bVbNbBa/bNa}a(a/bQctb6a+a^bmbkaXaIaAaBaEa!a^aRaHa|b$b1b1b:b%b2cbczczb;b%cWb~bKb8b<cichb;bqaVaQawaHaraFa+a\bub8b*bNa;a;cbchbxa$a^bAbNb9b8b1bnbKbBbubNa_b%czcIb<bAbsb*cmbKbGb7b:btagaiaOa+a}a-bUbabBb7bia/bsb%czcJb<cccjb)b2cbb$aUaPa0a2a7b1b*b[b;b]b6b0b$bxa;a-b;cab}cfb;cab;cwb:cgc6cUcbb*bUbWb7b1b0bMa;b1b;bXb-b9b%b=czcbb;bNbra4aOa4a|cxc5cWcJcucxc4cLb}bUb$a%araMa8aQb2cfbUbUbNbca\a/bKbka-bKbMa3a|b7b1bkb1bXbAcmcsbTbfawaqaQaUaUa^bzbPbWb}b%a^aZbob{b#a]a-a;bxbAbkbubub2bQbKbGbib^cJcBb}bIbsb8cqb9bs",
"bcbMb%atadataxaMa#a+bla^a2a4a\a5aIa(bQcqcccLcFb\b2bVbxbsbPa7aDa2b$bta|a^a5akaOchb*a\aOa\bQb*bVb)cBcNcxcLctcBb[a/a\bNb%cfb<biaIa5a?bUbBblbubBbKb}c1c%c8cRczb\brb*cubNb2b8b=bXa;aUbkbFa%a^axavaKa$aHarana;bBb:b\b)b}b)b^cccccmb<cjb\bybGb8b)b8bPa`a6a6a9a*b8b<bsbrbdbubXcnczcqbxbca|b*b;cbbUbBb8czccb)bXb7bQb%b;b*byb<cmcmczchb*bUa(a$bMbkajahazaMa8a/a$a^a-a-a(a8aFaIa$b*b~cLcJb<bKb9b5a>a[bfaVaubMb:b<bMbMbrbxcab*bIbrb0cIcpb;b7cbcqcNchcpcZcZcIczcIcubUbkb%b[chchb[b%bUb1cuczcfb1bUb[b;bNbkbrbMb|ckb;b1bMb%cbcIcmcfcqa+avahaNb0c1cIcbb<bkaKb8b*bUbia}blb%bUbAbMbubXb7b*bBbIb|b.bgaYa9b(b}bxbrbBbAb$cuczcmbBbScvb#bwbxbAb0b6b%b%b;bkbschctb~b)b1b[b~b\cncjb}b<bQ",
"bUb1bFauadaOa8aUa2a+a;a$a<brbBbxa?aWa$a^bsaZa3a}bKccc1b[bJbmbWaVbmb*bUbUblaOagagagaOa(a;a\bsbua_bIcicncFb}bQb1b;b;b)cucqbcaSaOapafakakaxaSaZa?bcbuchcTcJcxcRc5c*c+c8b-b2b2bab$bJb.b?cpb(bha%a|bFbWbJbAbxbAa8b)cGcxb;bubdbUchbsa/bGbVbya$a5a5aNbqb4b4bZbZcuczb=b%a}bda|b7b<cFcMcIcucbcbczcGcFcmb<bMb[b:chcqb[cGchb;bGb1cbb)bubub2cbbBb1a|anata1a1a/a;a!a$a/a|bcbxbna$aKa3bxa|a5a(a}b)b6bWa0a0a{aGbrb:b*b*b0b:b*b%bUbAbxa|bcbMa|a+aMa+bxb%cbb[cIcbbra$a;b*cLcqbNb*bIa?bIbBbkbKb1bca_bAb}czczchb$b,cscdcmcpcIcfb1b[cqchcNb7aEaraNcacmb[cmbda8aIb)cub9bsbIbycJchbNbVbaa\bnb7bAbca7a~bgbSb5cwcJcjb7b2bca\bkb;cIcZcvb.ckcNcAcucqcmchb%chcpcqb}b~cjcnb2bsbAb[cub;bAbKb8",
"b[b[bza7ataUa%a8a+a|a\a2aEaxaAaWa4a/aXazaoaFbNchbXcmcbb)b6b0b|a)a#b*b*b*b*bka$aMaZa/bca\bnbub<cucjcxb[bKbdbubXb[b<b;b;bca/bMa\aOaoasaKa#a+a#a#a#a5a$a}a/a/bnchcMc5c1cWbGbsa3a^bJbta%b|cQc#b{a^bPb,cpb]bma3aSaFbVcXc!czb9b8a#aSa\bna}a(a$a-a(a+a+a[bwbPaQbnb1cGcWcLcca|a/a2a4a|b*b7czcNcucMcNcTcTcMcTcub9b;cib7bQchcmb<b~b*bQbnbsb1b7b]btaUatbmbta^bca+a;a<aXaIaIaIa5a-aIaraxbkb%b)b8bJb6aPa)bLa0aUcqcucmb]b[bMbIb0b,bBbFb0bzbWb,brbxbAb%cab*b7b[bUbIa|cacqb7a\a|bUa+a#a$aWaKaIaOa5a\bxb%cbcmcgbUb?b|b]b]b$cwcwcacbb;cub*arana;cgb)bGa\bMbcaOa3bNcLb[bUb;cncubNbabcbka\a|a5aWa~b:b&bSa%bmb-cMc5cXctbBa^a2a2a.bWcpcwcNcNcUcXc1cTcqcFchchcuctb;b}ctb~b[b-b=b7a}blb7",
"b7cwbFa>bmaVa^bta+bkbAa#a2a#a_a^a+aWaMaWa-a#a8bcbMbUb7bXcBcbcNa`aSavaWbrb[b%b0b%b<b*cbb:czcUb*bAaSa$bBbVcbcqcbb^cfcmb<b1brbAa5a5aBaAavaFaSa3a5a3aSaFaWa(a-a}a}a-a\a}bKa\a}a$ata;bza!a%bPbza>a+b[cgbFbcbMbcaIaBara5b}cTcBbkaxa$a3a-a_bdbcbBb9b;b\b5a:a%a7a}a-a-bnb8b-b%b;b[a^a$a<bka-a|a\cbcFcucucucFcMczb}bBb%bUb1b;cbbUb2b1bBb%b*b%cga7a~a.a%bPbFbmbxaSaFa3a_bna<a+aSaOa#a4a8bkbBbNb]b]bja>bObja2bmbsbcbIb%bca#a;brb1b;b:b,bJcpbBa;a8a$a-a;a(b%b%a}a+b*b1bBbQb)cbb[a_a#a$aWaKaZa/a/bca^bra+aXa!bWcIcIcAcsb?b$ckcbcac1cwarajbrcAcncbb)cub<blbda(cmb[a;b$bIb}chbsbkbUbUb;b\b%bWbWbobpbka`bna?blbyb<b8b1bIbxa|a.a!a%bxbUb%cmcNcFcuctcBcqcub%bIb2b1chb;bKbUbBbQb%b-",
"b*b7a`bZbWcka!a!bxbIb1a_a+a_bBbIb1bdbAbIbUbAbubsb1b;cqb;cLcqb,aRbkbIcbb:bra+aUa4a|bWbWbWa^aAasasasaKa$a|bGb*ccczcqcmbMa+a$a<bkbxaWaIaFaIaSaSa3a(a(a3a#a}bya}aSaKaKapakaoaka3aWa!bJcabzaDakaha#cbbMbAbra+a$a3aIamaiaSb[bIajapaIa3blb=cxcxcucbcichb]a&aFaRava_a\bubQbub9cJcFb*bAbUbrbca!aOa!a<bcbAb[cuczb=cfb[b[cmcmcfcbbKbUb*b)b7b*b*b0a!b?cDbPaXa+a|bkbcbda|bibUbUbBbcblbQb=b7bIbab%cAcgbTbbbwb#btaDaBaIaAaIaHaEapapaSaSa^b%cgcuchcwb[b*a/a5a/bQbyb;b7bQb<bna/bQbXb7biaWa5a_bub8bra?a}bkbna/aZaIaXb$cwcDcIcKb?b(bFa>bUb1alaLa!b?cTb<b%b[b-bXbNa#aZa?aWaWaUbdbnbAbBbXbUcucTcTcAbtaTaJa2aOaZbya}a-bKb%cbchb*bBbcbAbma.aXa4a&a.bucfcxcncib\b$b}bMbxb%b*b*bAbNb8b[b=",
"b[bcaVa`bPbJa+aRbdb1braWaXa2baa/a|b7b%cucLchbka+bubKbnbka/a2aiakakaBaOazavaAaEaMaEaHasapaza!bAa|aWaBaxakakaoapbcb[a#a}bNbAbBbFbIa$aOaOaZa3aZaZa#a5aZa$a#aIasasaBaAaWaSaFapaBaIaIa.b]cAcpb,a%aHbMczb*bUbMbkbca$aOaBavaIaFbMbMa\b7b%bIb8b}cxcMchcbb$a`aKa8aWapa5bka/b)cFcLcqchcbcmb*bAb1bIbAb*b;bcbrbkbIbub1cbb1b1cbchcfcbb[b<b}b;b9b*a|a`b?b.bPa~a8a;bra|a$a4a3a#a^b%cccbczcXb}baa<bNb%bIaXaVaDbJb0bxa2aBaHaMa8a\aMaIaSa^bkbsbsbUbraZa(aZa5aZaSaxavaZa#a(bybBb2b;b;a;a-a_a?a\a\a$a-bcbka|a\a|a;aSaUaXa`bPb5b,b|cdb(bWbxazajaLarbFcub}bUbBbkb*chb<brbsb*a}a#bsb;bBbia?bab*bVbxcab:a`aNaZaZava4a?a}a+b%b~b}b<b[b~ccb7b1b6bUbIb6bxbxa^bBbBb1b%bNbrbMb*cmcqcBcbb)b*b\",
"a8aMbtbta`a+bFa%bcbca+a$a;a+aOaIasa5a$a5a#aAagafaeaeaeaiaDaDa1aXaSaIaMa8a4aRaRaRaRaUa!a\bxbAbsa+aFaFaIaMaBaxapaAbsb[b[b7b*b,b:b0a|a;a#aWa5aWa5a3aUaxa2a|a8aUaMa$bkbka^a<a!a2a2a%a+bFbPcpcIb$aSaZcucLchb8bNbAbxbsbka4avasbccbbVbka}bybKbdb)cjcxctcga;a%aua5a}bda$a#bxb*ccb1b%b9bIbVb*b<b[bUb1b[cfbVbBbrbAbxbxbsb%b[b*b7bNbAbBb7b%a_aXaJa&aVaNbFbmbka^a<a+a\a?a+aKaxaWa_a3a/aIaiagakagagaiaGbDa,a6b0b$bxbkbIb1bUbAbAa;aSaIaZbka<aIaOaOaWaOaOa$a_a\a+a-bcbya\brbUbUbybMb*bda<a|a?a3aFaEaOa+a;a;a+bJbFa|a`a8a7a%aXazaAaMauaqaLaqaea5bcb%b2b}a|bAb%b7b*b7bNb%a?a\b7a_bsa}a}bnb}cFcAbPa[a:aEaXbcbkbia|a-b1cqb}b7bKb*b}cqcbb}b*cbb}cfbUbsbka^bcbrb;cbcuchb*bubNbAb1b}bk",
"aya!bWbWb0b:b$bmbkbIbIa|a|a$aOaUasacacabacagamakamapaNaTa[bbbhaJaMaXa+bhaUaMaUa4a!bcbAa|a;aIaIaSa#a+bha|a^a&a3aRa#bIb6b:cwcpcmcKcabka/a2a3a/bkbka?aWaZbMb1b0bKbIbUb%b0a^bma4a&a>bmbma|bma;a!aSaSb7cfcFczcncncbb*b*b7bAa+aFaWa?a<a$a(a(a8aWblbKb^bWbhb(a0aOb2b1b2bQb7bQa}aZa?bUbIb2bXbBa-a3aBavasaZbaa3aIaIaIa#aOavasaoa#a<aWaBaoaAaEa{bWa`bPb.bzblbxbnblbAa_a+aOaKagabacababafaiamapa6a*a=aPa0alaNbtb$b(bWbzbtbhbUbFa?aXa3aIaKa-a\bBbububVb7b1b;b)b7ctb\bXbGb<b~b%a(a|brbAbcbAbAbha`bha.a&aXaUaIa5aWaoabababababababalaNauanadasa%a;cccqbya(aZa#a4a2a3a}bXa_blbKbBbBbAbsbsb7cga%bbb/a!aGblb%bKbBb2b1bAa$a\bBbXb9bUbubia5aZavapaWa?a^aSaFaWaKaSaFapamaOa!aWaOaIaE",
"ata8bma`a|bWa`a`a^a.a|a2aMaxaoahaiaiajaoasaAazaEaDaNboboceb`bfbfa9aJaJaNa2a4aXaMaXa|a^a4a!a^a|bFbPb6bmbmbPbJbza>aOavaEaHaSaMaWa#a!a;azaIaSaXaSaAaxasaxaOa8a4aSa3aOasa;a^a!a`bhbWbPb,cpcabUaRaFa#aZb<cFczctb7a/axakavaFaOaWa2a-a^a_bAbQbsb2b7bubibca^b&c9a[alasaMaKaOapavaoafaiakasaiadababacababababababababababaeacakaoadababaealaMa{a~a`b.bPa>aUa!a+a%a7aJaEaqahamakamaoaraBaIaMaEb3b_boa6aYaCauauazaDaJaVa>bWb0bFbUbha$a8aFaIaWa-blbIbNb0b*b1bUbUa/avasaoavaEaxamafajananatataDayayaqaoacacahalafahalanahaCaJalalaEalaCaPaGa)aMaHa<a?bka;aZaWa$a|a_bcbAbkbcb%bXbAbubUbKbUb]bJcvb`a:aLajamasaAaOapaoatamahaoasapagacabacababababababababababagacaiaoakadababai",
"a&btbWbta.bqbEb#b/bjbOb/bobbbYbCaVauazaEaNaVa)a&a[a*b+b+b+cVcVcrceb+bpa=a0a:a&aDaiabafaiadaiakapavaMaKasaEaIaAasaiaeaiadaiasavaFa1a+a.bJbZb|ckbZbmaVaXa!a%a|bmbtbWbzcscYa|a+a8a$a|bka|bcbxa;apaSaFaFaOaBaiadafagaeakaIaZa5aOaFaZa$a(a3aKaOaSa#aOa`bhb4cob>aPaCaPaGaGaLa6aPaCaqanalayaLaCaYbfawaqamapatayayataJaDaTaDayaMayayataza1a>bTb5bObfb#b#bwbjbebCbgbHbSbga~a9aDaJaDaXa.a`a^a!a,b`b_b!b#bObCb&bCa*a*a=a9aPaxagakapaoavapaeababaoaBaKaFasaMa-aOaTa>bjaTa0bEbba:aTbwb.cdb|b{bba[a:bba)a:bObja:a=a:bbbbaPaDauaMa7aQaza0a.a:a9aQauaeabasaXaUavaEaUa9aVa7aQaHaUa|a$a3a5aOaKa(aXbObYbObSbCa[a0aTaLaPa,bva,aYaqalahanaGaLaPaCauaramarauaqaDaDaPaVaGaNa1aDauauaMaQ",
"bOb#cvclb(b(bWckc6c#cQc6cIcpcDb,b6bzbFbPb0b0b?b,bZb.b&b/cSc3c$cEb>bDbgbSa=a6a:aVbfa9aPaLanaqanahaeafadajaqauawa:a0aJaqataPaNaJaUa!a!bJbFa~bzb&cob>boa7a`a`a`b6b5bmb5cDcDbWbta|a%a8ayamajakaeababahamafahamazayaHaQaJaratatamamamajahahamarazalaEa:bZbwbEb/b>boa9bgbpbga]a*a,a]bva,a,bea6aVaPa6a:a6a:a[bbbqbLb4b4bSbobHa=bDbDbObCb(a:bYb#b/b#b/b{cscZc0csb(ckcFcpb]b$b$b$b$b.b?cgb:cpckb?b(b#b#clcocob4a=boa=a)a)aDanajaraDauaqauanajajarazayauanalahawaJaTaGararaya7bJbZbwb5ckb$b5b5b/csckb|bObbbObZbob/b|a0a&bjbqbPckb|bbbwb5cdb5bwa>a~a8a&a`a.a>aXa!bhb0a;a7a&aVazaraHaJaUauaGbHb/b>b4b&bSbCbobHbHa,a]bvbebebvbvbeaYaLaPbvbva,a9a)a[bjbCbLbObOb4bva:a,a*bfbOb|",
"c)c&c#c6cTc1cFb%b9cjb9b\ciccbVbNb*cjcMcqcuchczcmcFczcMcpb[cqcwcbb[b)cgcaa:a)bLbLb>b+b4cCcCb>b&b4a{a9bqaJaGaJaGbbb`b4bwckc0cHcgcacfctc1c5cXcuczc!c*b(bFb]cgbPbUb[bMb7cmcUc!cUcgcgb6cUcAb]bJa^a8a!aMaHaUa2a%bFbmbha>a`a%a>a>a>a>a&a.a~bFbhbqbJa.a`cdb?b.bLbqbjbba:a)aPaYaYaYaPaYa,aPa6a0a,bObjaYa)bjb(cIcUcFczcmcucIcAcPcHcYc7c#c&c#cYcNcUcmcTcMcub*czctctcjb^b9bXb%b;cucub;b1cIcTc4cNc!c!cLcLc1cXcZcwcDckb{bEbEb(a`aVa!bLcvb{b`b`bSa=a7aGatarauaDaNa%btb:cDcdbWbWb*czc1c5cTcqcNc6c#b/a)b5bqbfa;b$b}cwczcNcAckb]bJbtbxbxbMb)cFcWcTcucqcLcuczczcub)bXbXb~ccb;b}cqcMcFb:bMbFa;a>a`bEb#b#bYb#bTbmbHbOb3b3a,a]aYa]a,aGaPaPaYbebebwbTbvb]cYcYcUb}cgcpb[cdcpcPcscKc7c&c+",
"b:b}cmchb}cmccb<bNbua(a#bKchczb)bQbKb8bxbUb;b%b7b%bAb<b[a}a_bNb8b~cmbnb;b?bJbbbObCbYcpb]b:bIcacacXcabqclcsb{cpb0bIa/aWa$bNbNbub=chb=b-b<b-cBb~b=b<bAb0b$bma>a+bUcgbMbIbybkbQbra\a(b7cmb,b%cmcbb%bMbBbMbUb2bNbUbVbMbXb}b}b\cfcjcfcfcTc!c!c!c5c5c6cLcLcXc1cXc5cTc1cPbja)bfaVaEawa]bfaYa)aYa,aTaQa2ctb-b8cbb\b2bibNbNbQa}babnbyb2bBbVb}cxcGctb~b%b\b9b8bNa?bub~chb)b8b;bBbQbibdb2b;b}bAbdbBbsa/bdb<cjccccb9b,cIbZbZb|a[b;czcqb:b]b(cKc&b{b/cabPb0bFbBbIbQa\bMbQbAb[b=ccb8b=ctcWb%bAbEa7aNa>bwa)aBa|bnbGbQb-cBb^bua}cxc8cMc8c8cnctb~b-b)cibGbVbVbibya-a}bdbubGb~c1c%c5c1c5cWcGczcWc!cMc1c*c(c8c%cNcpb+b3bRbvbea]a6beaLaLaYbva]bvbucqczcccGczbKbnb1b1bAbaa<a\blbKb2b<",
"brbMcucLcLbNa#a$bGbIbKbVbAa_b8czcub%bUbua/a}a-aSaZbdbubsbsbNbQa?a?a?a3b*cNcfbLbTa~bhcnb9bda?bda_babsbJcAc#cKcjchczcJcucqcGcBb=bybBbnbybGbsbNb2b^b%aRa;bFcpbFaFaXa}bcbrbIbPcwcwbza-a8a^bUb<czczcjcmcncjb=cccncxcxcJcMcMcGb~cjcccccncWc8c5c1c%c%cRczczcJcGb2b*cLcTcvcobSbHaPa0aMazaLaTa]aYbea*a1a7b=b~b8bXcbcqb=bNbKbQbNbBa<a(a<blbibdb9czcXcibVa5a}bubGbXccbKbKb}chccbUa\bsa(a(aOaKaSa<a(a<a-bnbda-a?a$a\chcXbLa`bJa`bKcibsa?bdbsbrbUbMcpcuczcub8cucqcnchcmcBb*bBblbybBbBb2b7b1b0a^aVaqaQbha7a#bnbybaa?a(a?a}bGbya-a(a<a?a(a(a<a#a_bybub)cjb-b9cjctb=b8bXbQbyb)cnb<b\cicRcxcRc8c%cWc%c8b-bscicTb}b/bHa]bva,a]aCaLaYa]a]a6bea]aWb0cjb8b}chchcmbMb%b%bBbaa?a_a}bibu",
"b7bAa|b*b1b8b;bybub[chcmcMbQbsb*b7bra+aWa-a$a\bIbnbBbBbQa^a+bVbca<bKb;bAbsb2aQa1a%a+a|bGbKb^b\b7bia/blbBb}cFcXcub;b%b[b2bQbXb^b-bybnbubda/a}a-bcb1a8a~b0cab|a\a\a^a$aXa\bPb:b6bWb7bUbxbxcFc(c%cTcWc8c(c(c1b}b2bQbQbua/bdb8cictcXcXcibMbna|b1b[b%b6bMbMbBbMbsbsa|a^bBbha&a2araiaIa#aEaDazaDaqavb1b[b%b[cncucqcFcMcXcFb}b9b7b*bKbNb7b8bMbnb9b8b8brbdbyb2b}cLcubAbQb<bUbsa(a(aZa3a?a_bdbGbxa}a?bMbMbna#bUbUa}bBbJaVaXa8a+babKb2b[b[bXbdbdbMb;b*cBcmcjb%b%bNbVb<chb;bNbBbAbca(a(bkb1aRataDa1a`a`b2b<bKbla\a}babna-aWaWa3a3bGb=b=b2bKb%b<b~cBczcuchb;b~b}b)bVb;b*bQbVb7bnbxa_brbnbsb<bIbubublbdbia^brbEa~aCaGarajaza8aLaPaValauaua-b2cmb)cccucFc1cLcMcLcmb}b%b*b[b[b;",
"bxbMbNb%b}b[b)cuchcub)b)bKb;cnb}bia#a|bsbUb7bybBbaa/bsbQbybGb8b7bKb*b~cqa5a$aUafafa8bsa(aWaWa(bub2b9bBa<brb1b1chbGa?a_a<a_aZa-a?bsb2bKbaa(bdbnbAaMaAa.b6bPbca4a|b;b$a|aWbhb0b$b6cpckcpcgb1a/b%b1b)cfcmcmcuchb~bBa}bVcfcLc5cRcub=bsa-a3bdb0bta;a^bPbMbIbra;bcbUczcJcMbzaRauazauaMa8aXaNaUa+aDaSaBaKavasasaxbIcbb%b%cbb}cfcFccb)bGbKb;b)bXb<b<cncxcxb~cjb-bubQb8b)bIa-aWbsbUb;b)b)b)bBb1b;b}bUbBbIbGb)b^cJb;aIaZanagaobubda(aOa3a}bubQa}a}bnbNb2b;bXbua}a(aZaKa5a}a$bna_a$a3a/a|a%a1a>bja>aNa;cJcGcjb\bXbQb2bBa|bBb2bsbGb)cBcXcWccbAb8cucNcBcqb1bxa/bcbAbQbyb8bsa/a}bcbkbNbAbca+a4aZa$bsbBblbNccc%cZbIaRauasaMaEa7a^aVaEanaMa!aSaFaBaFavasa\cbccbUb<cucLc4czbUb*bs",
"cfcIcqcab)cFcqb7a/bxb7cccqcnb}cbb\b1b1b)b[bAa#aWaKaWbna/b8czcub%b}b;b)bQbBb1a1anaraMa4a3a?a5a5a3a3a\b%bKa2aObsbNbybsa_a#baa$a$a<baa}bGbna?a/a_b1a4asa!a~b]a7a+bhbna|bMb6bcbJbJbPb$b:cgb]bxa|bGcMchccb*b*b[chcGc4cWcXcWc4cXb\b%blaSaZa+a|bmbha;a;a&a`bUcbcNb[bcbxbIb9bWaUa0a{a:bEbzb?b.bZa`a7aZaSaWaKa4bxa\aWaEa$bkbBcmcFcfbUb}cucqb[b}cbchcuczcBb%blb9cfcib;b8b[cbb%bBbIcMb}bAbca#aZa#bdbVcfcuchcbb;b1bQbcbsbtaNaRaQa/a$a5a5a-a5aWa3bsbKa?aWa}bXa}baa}a<a\aZa3a$a?a}babNbAa5aHbhbFbwbqbTa>bJc1c8c5c8c(c%c4b;cLcTbGa?bQbBbNb2bKbQbNb7bQbxb1c1c!c4cqbAbkbkbAbsbUbibNb8b%b1a|a>a+a+a}b1bMbnbKbQbkbcb,b*a1bebhbqbLb.b.bTa[a)aVa7aUaIaEaWbxbkaZaSa^bnbKb[czb=cpcqcfcz",
"a!bka|a%aXa#a+a^bubla#a^bMb1b1cmb[bua|a}bib7b=b8b<a?a5a(a/blb<bQa\a/bub;b%bIbCa0aJaTbya(a-a<a/bsa/a$aSa<a\aMa5a}a}bnbla_bibGbababBa}bla}bBbIbka-ahaVbJa!a>a4b,cpb]b:b,cmcQcackcgcab$cab]bIb%bKbycjb=b)b2b%b8b-b-cBb[bNb8aZaOa$a#a$bdbzbka+btbPbUbFbma|a^bUb$b%b]cbcqcUb,a&a.btcgcgcgcsb(bZa[b*cucbcmb[bUbrbkbubKb*b<cgbIbtbxaHaEaZa?a|a;a3a+aSaZa-a(a5aWbubBb1b~cfb)bua/bibBb*cfb[b[a/a4a(a_bxb%b1a-a4bAb7b1b0a!a:a0aZa^a}a\a?a}a?a<aZa$a/aKaSa?a\bibnbia_a\bia/bnbibububrbAa!a~cdb|bZa>aHa%b8b\cqchcJcTczcTczb~bubNbaa3aWbca|bkbBb7cbcmb*b1cbcpczcTcTcmb1b7bAbcbMbIbkb:b6b,b6bJbca+a$bkbUcjb}babIcqa`a&a1bzb:cwbTcdclclbjb5cMb[b}cIb[bUb7b;b%b[b[b1bAb1a;a+aKaS",
"aoagaeamamasaKaSa4a^a\aRa$a8a+a<blb1b*b;b%bNb[cqbIb}b*bMbdbBb*b7bXbKcxc%cZcjbLaTaDaNbabna<a\a+a(baa\bnbAbVbXa}bcbXb;ccb<b2bnb7b)b;b=b7bBa_cbcfa$amaAa>b.b0a%bFcAcacacAcgcwcpb]b$bFbMb*b%b1bUbXaZa/b*b8b=b8b1bsbdbGbaa-a5a-a(bdbKa;b1b*b7b:b:b]cab]b,b:bFbmbzbMb*cucTcpbWa`aRasa5bkb:bTbqbEbwb*b1bKa}a\a?a5aOa5a5aIaOaEaBa>bha^aIaoaiagaiapasaxaBaAaSa$aOa#a<a$a(bdb2b7bKb;b;b8cIcnb~cub;b%bubIb1b2b1bVcGc4cXb6aNaJa1a8a|bubla?a\a_bablbBbKb%bIbib<bGb*b;bGa_b7b~b<b\b%bBa^b[bta2b(b|b?bLa7aNbMcfb\cbb<cbb7b[cucncbb-b-a}apaIbcb;cmcbb[b6b,bIb0cacNcwb}b}cqcFcgcgcqb]a^bxbUbFbUbxb7b7bBbxa;a<b1cccbb*a&a1aEaEaKa\b6b0b>b4bjcdchbBa}a|a(a(aOaOa+a;a5axaza$a|bcaIao",
"a+a#a4aSa$aXa3aSaIa#a#aSaZa$bMa}a<bAbda?bUb2bBbkbBbrbNb1b%b%b7cXcXcFbVbQbsbAb(a)a7a7a\bAbkblbAa/a-bnbybnbia?a/a#babQbabibQbUbybdbabUb)b[b7b*b6bhaza.bJbJbta%aIa8a?bna%aXbcczcpcbb}cmb]b7bBbAbBbQaBasaKbsb^b<b=ccb2bubBb2b9bycJcnbUb1bMb1b6b}bUb1b}cgcpcpb}b]bWbkbrb:cDb5a7a~bUaOa;b$bjbLbba:bQb)b8bVbQbVbxbsa}a8asaKa3a$a+a$bIbAbna\a#aFasaIa#a$aZaZa#a}a5a#a-bXbBa5bnbIbKb)bUa|bya}a|bub[bQbKb;cRczb\b~bMbBbWa;a1a&aZbsa}bsbxbka-bla_babla_a/a$a/bubya}b)b%bua}bib%b-b9b[bIbIa;bzb]b?bEa~a7buchbQcmb=bBbMb[cnchcnbXccb<bIaSara$cbcwczczcNcNczcIczcNczcwcgb]cfcucgbxbzbIb:bhbrb:b:b:bxbAb%bFbkbMb%b}bmaQa\b*aSa3b0a|a=a:aQb(b-b)b1bBbAbQbsa$a4aFaIaKaMaIaSbAbxbc",
"a}blbsbxbAa/a#aXaWa3aWa}a_a-a#a/bIbKb*b[b-cjb;b1bsb7cbcfb=b7bKbIb<b*babnbxbMa[aTa!a`b)bKbQb=b8b7bua?a5a5a-a$a(a$a#blbGbla_a\blbubla/blb2b%b1b$b6aDb,cUbTa#aAbkbkcRcTcha+a;czcmb[b%cfb[b;b[b<b1b%b)bya3akasa(bnbnb<ctcqctb~cic1cxb[b%bMa;a^a|bka^bzbzbMbUb]bIbhbmbzbUb#a:aCa>b%brbIa|a`bza7aVa+bBb8b2bKb1b2bxbAbBbkbybVbAbda\a/a}bsbnbsa_bia5a-a}a-a5a(a-a\a(a3a?a_bsbyb}b}b;cqb*a/bAb2b}cqczb8bkb7chb}b<bubKbFbwa1a7bBbVbGb2b1bXbAa?a<a$aWa5a$a(a(a}bnbNbsa/a\bdbaa(blb7bXb7b%bJbJbJbTb#bEa{bXcTcqb)b;bXbMb%cbb^b*bVbKb2czb9bcavaRa|btbPbMb[b*b6b7b:cab,b]cgcIcbbcb$bMbUb7bta4bAbIb*cpczb7a^bIb1bUb7a7aua?b7b<b2b$bka`a1aAa$brbVb*bBbQbQb1b7bAa<a;bAbIa^a+a$bcb1",
"bBa}bBa/a\a%a<bKbxbybKbra\a5aOa/bsbAbXcfb;cmcqczb[cqbIa3bdbMbIa$aBaBaSbibAbMa9auaybPctb=bBa_aZaFaxaoaoaoasaoaoava$aWbnb;bAbAbnaZa#bcbdbkbnb[b$a%bqcscAcpcwa2aSaSbkb[cXc1cTczcqb1b;b[b%b%b;cfcbb1b;cnb;bdaKaeagaoa5b=c1cWcha-a3a$a;bkb%bUbxbra|a;a^bsa|bhbxbFb6b6b0a.awaPaMbzbub<b1bUbJa^a2aqa3a/a(blbIblbQbQb1b*b*bkbcbUbKa}bdblbubKbubsa(aZa#a<bsbGbybaa\a-a5a(a\bubyb8cuczchb}b[b%b}bua\bub)bGa#aSaWa_bBbaa+ayasaub)czb8bBa(a3aKavasaoaoaiaiapaWaZa-bBa(a/a/a(a?blbda^bxb*bFa^bFb(a[a9b1cIbXbybBb2b=b)b<b~czb^b2cjb\czcMc1cFb<a%aFazataAazaRaXbkb0bFbhbhbkbWb%b:cucfb[b7bkbrbcbFbIb1b%b[b1b~b)a\avayaJbrb%b}bKb$b6bha7aWa$bxa#a#bAbBa?bIb1b;b7baa}a|bAbrbcbcbU",
"b;bIa_bnb=bQbQb;b=b7bUb<b<b%bna8a5a\bUbNb7chcmccbQb<bQbBa(aIaSa5aWaBaZaSbIbkayanaEbkbra-aIaAavaAaEaKaIaOaSaIaAapava(baa}a_bGbUbKbNbIb;b1bsa\b:bFa|b:cYc#b$a>b1b;bAbsbQb[cqb*bBb<b[b;cmchb1b[cib[b;b<cqb*a}aWaFaoacabaBa#aSa3bsbUb:b[bxbcb1bIbca(a8a|bUbUbFbUb,b:a[aLa1alaBbQb%b}bIb%bJa7a!aDaObsa(aWa\bsa}a_bBbKb%b7b7cbb*b%b%bIbib*bIbra_bBbKb8b2b<b9bXbVbNbBbBbla_bububUb}cbcbb}bUb2bna;a$aOa-a+aSaMaIaIbAa&aQaMaubsbBaSaFakaoataBaOaOaKaIasakaiaZa_a-bdbdbdbsbXb%bXbsa+bkb7bhbzbtazatbnb9bXb)bKbQb^cnb)b<bGa?bUbUb8b7bXb7b2b8brbrbhbca>a8aHayaMaVbmbtbxbMb7cmb[bIb:cacbb;bIbWb7b%b6b1bBcbb<bsazaCaiambIb<b;b1b0b5a!a+a4aXbBbsa(a+bAa\a}bNbsb7b<bUb1b;b[cbbxa$",
"bIb8b*b7b8b)b1bnbIbIa+a2a$a}bNbxa-aSa2a2bcbAbIbBbGbAblbBbQbGbIbda-a_bnb;bIaSauanauatapavaFa3aWaSaWaWaSaWaZaOaSa#aFaKaKa3a$a3aZa<bdbubca#bkbcaXa8aRbtb?b?aIaFaOa5a/a\a/aSapaAaka(bVb;bVb8bUbdbibubVb%b~b8bAbka8aSaIaAapamaAaOaZaZaOaKaFaKa8bMb;bMbMa|a%a2a2a#a&aHaGbea:aca-ccb7cfbMb6a%aXa.aXaWa^a_a#aOaSbcbUb*bAbNb1bUb}b;b}b*cbcfcbb]b:b*cbb%bAa\b6bNa+a8a$bkbAa<aOaxaxaSbrb1bBbrbBbka|bGb*bKbia<a^a/bUb[a^ayaNaAamakasaEaWaRa2aHaUaWa4aUaWa#a;aMaxaAaKaOa$a}a}a}a}aZa}a_aZa2a>a.bhaHahaKb}bNbsa_a_bsbNb8bQb2b}cnbXbQb%b%bIbnbIbAbxbma^a%a2aHazavaAa2a%a<brbIa;a|brbzbPbxbUb0bUbtbxbFbra+a8aTaTa9aLajaXcFb[b?cpb,bma2a+a2a2bna$a$aWaWa_bAbKbQb1bKb[cub<b1b%cbcm",
"aOapahahagapaAaoayaQaNaTawalanahaiakamadaeapapaxavaIaKaSaOaKa5a3aSaFaoaWaqaDbbbqbCbjaDayaEa!a|bFbzbtbrbtbJb$a^a+aXarasaFa2aXa1aVaRa;a.a%a~bFbLbTbTbwa7a~azaeacabacabababacacacabafakaiababababaiaoasavavavaoakajajamamajagafabababababababafapakakaiaeaeahajararaqalahasaBaOa3blb*brataXbPa|aOaFaRaWaUaEapaoaFaRaKaWa(bkblbcbcbca$aIapamaoaparazaHavaQayawaqaqanaiacababaeafaoasasasavaxaxaKaWa5aZaSaoaAaIakauaJa:a{aQauaraXbEbFbTbEa.a>bFbmbha|a8asajapa8a%aAazaHa2a2a7a`bmbLb5b/bLa7anafaoaxa$bsbiaWasaFa#aKaOblbaa#a3a/a^bla\aXaDasaoamaharapaoajamamamamazatamapavaoababacadabadaeagaeadagayaQa1aRana%a-a~b0a^aoaXbza|a8a3aSaKa5aKaxavavaOaOaWa/blbUa}a<bsa(",
"akakanaEa7a%a.a!a:bJbfbYb&b&bEa9aMarananaoahaeacabadagahahajahanayaNa:a1a:bjbEbZbYb#bCbCb&b`b/b{cvcPcCcHcCcEcocob4bCbCbjb>bSbob&cobCb{bYbTb{b/b.b5bwbLb5a7ayazaEaNaJaEazaDaDaDaqajaialananajahalauaNa.bta`aVaVaDaJaTaQaqagaoa1a8a!a7a&a>a8aQadaeafamalaua9aTbCa]a1aqa1a7aFahafaoasaoa%bkbMbza3ataoakaxazaoamajamakacababababababaeasaRaRaJa%a`a.a1bma)bqb&bObLbjbwbja9a0aDaqahahatajajajahafacahamaoanapaDa!a{bqb/bYa)a9bCbTb{b{cocScCcScob&b+b`bSbobRbocEcCbHb4b`bSb/b/bCb{cobob{b{clbCa7ajacakaqanajanavanaoarazazaBaBaEaIaMaFaEazasaoaDa|aVaDaQbmbFbFbJbWa{a~bja.a0a0aVaVaCauaGaCaualaqayawaLaTa9aHapalaDaYaYapaRa;a|bUa.akakaoaoavataiafakakadababababababab",
"bca^bMb}czcIcwcfb[b]b6bUbUcpcAcqcUcgbFa~aQaHaDa.a:a:a.a9a>a4aQa%bhbWb,cpcub[cTc5clb/b&cocrcScCcvb>csc2b>bSa*aYbpb_cyb/bYcIcZcDcAcPcdckcKcYc6cUcUc%c#cYckb?b#bTbLbEbJb(b(bZb(bTbwa~a[a~a`a[bqbmbJb?cgcgc6cwb$b|ckcAb|b?b5bma7aMa+bhbtbtbmbFa1avanaLa:boa]aCa9aNawazazanbka>a&a&a>a8a!a4aHaAa;b%b7bMbta+a!aUaBaAaEaza4a^a;btbka|bkbsb0b]cgb]cacpcAcIcIcKcwcwcIcAcfcpcIcDa>a!aQazaza&a`aNaNaQa9a4a>a~a`a.b5b]b(ckckcsb|b5b.csckclb.crc3cSceb+bpb3b+bRb3b3bHbebDclcscKb?cscDcQcNcsb5b/bZb{bYb#bYbLbZb/bObbbEbwbbbzb0b,cackb:bPb,cgcpcAcab,bWa+aUa>aXaQa;bha`a8a!aQa7a>bEbma>a&a.a)bja]bSb3b3bvbebHb!bRbRbta2aPaNa]bjb#bOaRaza-bxbUb0bha~a;a1a2aMa2aXaAaUa+a%a~a>btbF",
};
