/* XPM */
static char *xpm[] = {
"320 180 256 2",
".. c None",
"ab c #000000",
"ac c #010101",
"ad c #030201",
"ae c #060401",
"af c #0a0703",
"ag c #0d0c07",
"ah c #11100a",
"ai c #120a05",
"aj c #14130d",
"ak c #15100a",
"al c #181710",
"am c #1b0d05",
"an c #1c150e",
"ao c #1c1a14",
"ap c #211911",
"aq c #211e17",
"ar c #231209",
"as c #24221a",
"at c #261c14",
"au c #27241c",
"av c #28160d",
"aw c #29261e",
"ax c #2a2017",
"ay c #2d2921",
"az c #2e180e",
"aA c #2f231a",
"aB c #322d24",
"aC c #331b11",
"aD c #353127",
"aE c #362015",
"aF c #37261b",
"aG c #38342a",
"aH c #3b1c10",
"aI c #3b372d",
"aJ c #3c2a1f",
"aK c #3d2317",
"aL c #3d392f",
"aM c #3f2d22",
"aN c #403c32",
"aO c #41362b",
"aP c #422012",
"aQ c #42271a",
"aR c #433024",
"aS c #444036",
"aT c #463428",
"aU c #463b30",
"aV c #474338",
"aW c #482316",
"aX c #482b1e",
"aY c #493e33",
"aZ c #49463b",
"a0 c #4a382b",
"a1 c #4b3023",
"a2 c #4b483d",
"a3 c #4c2819",
"a4 c #4e3325",
"a5 c #4e4237",
"a6 c #4e4a3e",
"a7 c #4f3c2f",
"a8 c #50483c",
"a9 c #513527",
"a! c #514c41",
"a# c #522515",
"a$ c #522d1e",
"a% c #534f43",
"a& c #543829",
"a( c #544033",
"a) c #562919",
"a* c #563021",
"a+ c #563b2c",
"a, c #564638",
"a- c #564c40",
"a. c #565145",
"a/ c #585448",
"a: c #5a3323",
"a; c #5a3e30",
"a< c #5b2c1b",
"a= c #5b3828",
"a> c #5b4133",
"a? c #5b4a3c",
"a[ c #5b5145",
"a\ c #5b564a",
"a] c #5e4435",
"a^ c #5e594c",
"a_ c #5f2e1c",
"a` c #5f3c2b",
"a{ c #603624",
"a| c #605649",
"a} c #614636",
"a~ c #614f41",
"ba c #623d2d",
"bb c #625b4e",
"bc c #633927",
"bd c #634839",
"be c #65402f",
"bf c #66321e",
"bg c #665446",
"bh c #665f51",
"bi c #674232",
"bj c #674a3a",
"bk c #693c29",
"bl c #6a3421",
"bm c #6a4533",
"bn c #6a4d3c",
"bo c #6a6255",
"bp c #6c4f3e",
"bq c #6d3926",
"br c #6d3f2d",
"bs c #6d4735",
"bt c #6d6557",
"bu c #6e5747",
"bv c #6f5241",
"bw c #6f685a",
"bx c #704937",
"by c #713621",
"bz c #71422f",
"bA c #723c28",
"bB c #725a4a",
"bC c #726a5b",
"bD c #734c39",
"bE c #744431",
"bF c #746d5e",
"bG c #763e2a",
"bH c #764835",
"bI c #764e3c",
"bJ c #765341",
"bK c #765e4e",
"bL c #773923",
"bM c #776f60",
"bN c #79412c",
"bO c #7a4631",
"bP c #7a4b38",
"bQ c #7a503f",
"bR c #7a5644",
"bS c #7a6251",
"bT c #7a7263",
"bU c #7b3b25",
"bV c #7c7667",
"bW c #7d503a",
"bX c #7e3d27",
"bY c #7e432d",
"bZ c #7e5b48",
"b0 c #7f4933",
"b1 c #7f5442",
"b2 c #7f6756",
"b3 c #807565",
"b4 c #814d38",
"b5 c #81533c",
"b6 c #817b6c",
"b7 c #824731",
"b8 c #825745",
"b9 c #825f4c",
"b! c #834027",
"b# c #854933",
"b$ c #85503b",
"b% c #856c5b",
"b& c #86563f",
"b( c #867969",
"b) c #874b35",
"b* c #875c49",
"b+ c #876350",
"b, c #877f6f",
"b- c #88422a",
"b. c #887261",
"b/ c #895441",
"b: c #8a4f3a",
"b; c #8a543b",
"b< c #8a5b43",
"b= c #8b462c",
"b> c #8c4931",
"b? c #8c4e34",
"b[ c #8c6855",
"b\ c #8c8473",
"b] c #8d5844",
"b^ c #8d604c",
"b_ c #8e523c",
"b` c #8e7665",
"b{ c #8f462c",
"b| c #8f573e",
"b} c #904b33",
"b~ c #905f46",
"ca c #908878",
"cb c #915136",
"cc c #92634d",
"cd c #926e5a",
"ce c #93482d",
"cf c #93563f",
"cg c #935c47",
"ch c #937a68",
"ci c #948c7c",
"cj c #954e34",
"ck c #955539",
"cl c #956650",
"cm c #965b41",
"cn c #97735e",
"co c #984b30",
"cp c #985941",
"cq c #985f47",
"cr c #987f6c",
"cs c #995236",
"ct c #9a8573",
"cu c #9a907f",
"cv c #9b583b",
"cw c #9b6850",
"cx c #9c5c44",
"cy c #9c6249",
"cz c #9d4f33",
"cA c #9d7661",
"cB c #9f553b",
"cC c #9f5b3d",
"cD c #9f6d56",
"cE c #9f8977",
"cF c #9f9584",
"cG c #a05f47",
"cH c #a25334",
"cI c #a2654c",
"cJ c #a27a65",
"cK c #a3583d",
"cL c #a35e40",
"cM c #a49b8a",
"cN c #a56345",
"cO c #a65636",
"cP c #a6715a",
"cQ c #a75b3f",
"cR c #a76950",
"cS c #a95f43",
"cT c #a97d66",
"cU c #aa5938",
"cV c #ab6748",
"cW c #ab755e",
"cX c #ab8c78",
"cY c #aca391",
"cZ c #ad5d3c",
"c0 c #ad6e4f",
"c1 c #af6447",
"c2 c #af816a",
"c3 c #b19783",
"c4 c #b27355",
"c5 c #b3623d",
"c6 c #b3a090",
"c7 c #b56847",
"c8 c #b6ab9a",
"c9 c #b9856e",
"c! c #ba6d4b",
"c# c #ba785c",
"c$ c #bd9179",
"c% c #c1744f",
"c& c #c39b84",
"c( c #c6a48e",
"c) c #c97d58",
"c* c #c9b3a1",
"c+ c #cf8865",
"c, c #d0baab",
"c- c #d7c8b8",
"c. c None",
"b(bTb2bFa|btbFbVb3a|a^bob3b\cib3bTb6bMbwa.bhaZauafahanaubba.aBauaqaNa^bFbtbha6a6a\bha/a6a5aUaMaAaLaZaOaAayaUa5a8aOaOa!a2bFa|aDaJa6a%a8a|b%bwb.b2b2b%a~a7a,bBcFc6cYcMcubwbwbMcFc8cMbMbTa2a5aNaSaSaYaNaLaGaGaBaNa2a%a!aBaDaBaqayauawayaIaGayaBaDaDaNaVaZaNaNaLaDaGaLaIaGauayaBaDaGaBaGaSaBaDa2a8aYa2aUaSa8boa[a2aVaZa\bbbFbtbhbbbhaVa!bhbwbFbwbob2bTb3cub3b3b6bwbta~a|b(bCa[bMcFcFcucYcMcab,cFb\cicib,b,b,aVaqawauaoaoayaIaSaSaLa-bbbbaSaNaSa!a6aGaSaSaDaBaZaNaLa2aZa\a^bCbob6cucibVbVb6b,bMbVbFbhbCbbasahahasayasaBaIaNaVa%aLaBawaoayaDaGaNa2a!a.bhbwbVbhaZa\boa%aZaVaSaGaIa!a^bhbobCbCbobbbTbVbVbobhboa^bobFa-aVaYa5a|a|bFbta|a|a[bobtbtbhbob(bMbobtbMa,a!bha[a5",
"cycgcgb/b]b8bQb*b^ccbWclcEc&cXcJcnclbKbdb9bQazaKbEccccclclb^b^b*bJbxbsbRa~aJa2aqagafaCa~b]cDcDclbibJb*clcDclcDccclb*bmbabib8b[b1bxcdclcdcwcWcDclcwcccgb*cAbQbmb1bDbIbsbxbIbDbJb*b^cwcPcla?aUaNayaGaGayasa7a,a8aMaFa~b*bZb*b^clcca~a&bDb^b9bnaNaSa%aZaGaNbgb.b2a,aBaGchb2a~a~bRb`cJcdbKbvbSb2bSb%b`chchchctcTctb`b%bKa%bha~a-a[a8a-bbbubhchb.crchchctcrb.bSbKbScncAcdb[bRb[b9bKa?a5a,a~a?a?a~a,bgbSbBa?bBbKa~ahacacacaka8b*b^b]b*b^b^b9b+b9bRbvbjbga,a,aUa?a?a(a0a>a]a>a7aDataUa5a7aMaFaTaMaBaOa8a-a!a-a[a-a8a%a2aVaZa5aIaGaGaBasaBaNaZa!aDayawaqaGaNa6bbbbaVaDawawaxaBaDaxaBa2bwbba\a~bgbPb8b+b9b+b[b[cdb[b+ccccb1b1b]b^b/b*b]b^b/b/cgclcycRb]b]b]cgcgcIbQbcbkbr",
"baa{a{brbrbza{bka=a:a{ccc*c-c,c#cxcfb#bYcGcxcfcfcpb)b_cfcbcfb$b4b$b$b/b4b8bkbbaVaDaha*b8b$bqbrbEbHbzbxbzbrbzb1cgb^b]clcDclcdclb+b^b8bQbQb1b8b]b1bQbQbmbDbia=bmbQbQbQb1bPb8b/b8b1bIbxa&a;a>a4aTa0aBayaAayaUaUaFaMaTaRaJa1a=bsbQbHbEb<b$b0b]cga!a,bwa^a8a5b[b5bvb9bvbpbda}bDb9cTcTcTcPcdbZbBa}a}a?bvb%b`chcXb`crcXctcEctc3c3c3c3ctchbCbSc6b2b(b2b\ctcEchb`b(b`b`bKbScdcncnb9bRbua}bdbdbnbJbZbRbJbBbJbjbnbdb9cnasadahaeaEbucgb4bIbHbpbia=bmbIbmbsb9b8b8bKbpbja]a1bpb1bHb&b~bQbEbcbQb|b|b/bObPbPbvbRbvbjbibpbja}bvbja?a(a~a,a5aYaVa8aYaGaDaNa[a^a%aVayayaDaIaqasauaGa,a~bvb%bKbuaqafafacaHb*cfcxb]b_b]cycPcwb]b/b4bAbcbqbGb0b0b#b4bOb0b0b#b#b7b|cfb_bObGbrbqbEb0bNb0",
"bEb]cPbHbzbPbHbrblbPcfcfcvcScjb_cbckb_b#bEbkbOb$b4bNbOb0b)b:b4b0bsa{brbQcwb/aNb3b,a%a:bmb0b/b0b4b4b0b4b4bQb8bIb[ccb8bZcdbSb%chbSbRbJb2cnbdbda}bvbvbsbebvbsbRbIbebsbxbmbabmbjbia`a4a4a9a1a&a>aTaJaBaBaRaUaTaRa+a>a=babPbQb0bPb|cmcfcmb4bEcqcPa(a,bwa^bba?b~cwbJbIbpbJbpbnbWb[c4cWb[bJbpa>a,a(bjbpbmbBb+a>a7a?a~b2cEb`b2crcXc3cEchaDa~ctb`b(b2bMb2a~a,a,bCbga(a5bgbga?bBbva7a(aRa0aOaJa0a]bda}a;a>a]bJbmbRccclaUa[bha6a;bKb0b5b5bWbWbPb8bxa}a;bkb8bHbWb1bxb$cDcqcyb&b0b&bWbGb~cmcmcpcxcNcpcwb;a+a7a}a;a+a+aRa0bnbva?a9ayaYaVaVaNa6aSaVa6a!aYa|bCbSa%a|aVaGaIa5a?a[bnbdbdbBb1bZayacacacaHbvb/b$cfcycqcfcqb$baa<bqbGb7b)bYbNb:cfcfb)b:cfb)bObNb7cfb_b)b4b7b:cfb)b0b:",
"b0bEbPbHbqbEbrbkb_cGcfb:b#b)ckcpcbb)b0bGa#bcb4bNbNb$b:b:b$b7b_cpb5bAa*bmbIbDb(b,bTa^a=bmb:cfcqcqcqb/b/ccclcdb+b+b.b2bTc8c6b\ctb%bJb+b2b%bBa,bjbub`a~bjbma+bea+aXaQaTa&a&a4a9bebmbibaa4a+a:bIbvaWapaqaAaOaFaJa=bibrbIb:cgcfcfb_cqcxcyb_b:cIcRa0a[boaZaAa,b~b<ccb~b&b<ccbIa}aXa7a7aRaJa0a7a0a0a+a~bvbpbua+aFaLa(a~b`bBbpb%b%bSbCbSaAaNaYa5a-a,a,aOaDaOaGaOaOaYaRaUa0a,bpa0aMaUa7a,a7aTaTa(a,a4a0aRa+bnb8b^cccwaYa,bha2a>bZb/bPcmcmb;b_b~bObmbabcbxbPbPbObWb|b|cmcmb|b|b;b|cxcqcxcmb|b|ckcqcyb|bpa>awawaRaGaRaYa7a7a7a}a,a7a8a5a5a5a~a5aSaNaMa|b2b.chcrb,b.bKbtb2bSbSbpbcbmbxbxaxataLaDa1bdb4b$cfcRcRcxb]b7bAbPcxcGcxb_b_cfcIcxb}cpcpb)b:b_b_b#b)b:b_cxcxcGcIcScgb_",
"b4b$b/b$bPbAbGb/b7b:b_b?b:b?b;bYbfbOb)cbb7b7bNb)cfcpckcxcxcqckcfb|b$bea:a+babVbVa\aNbcbQcycIcwcPcPb^b]cJcnb1bdbvb(cac8cMctb.b2b2bdb`b`chb\a,bja~b2a~a7aRaEaJa&bjbsbsbma9aJaAaXa>babea`bsbkbPb8bcaFaAaEaTa9a;bzbmbrbxbEb$cmcfcfcmb$b$b$b|b|b]a(aUauaqaza~b*bcb<b^b~b<b~b~cDcybRa+aAaxasapaBaOa+a,a+bda}a(aDaDaRaGbgb%bgbpa5a7a,a7aVaiaBa8aYaqawaDayaUaIaya7a5aTa?a(aTaYaRaMaUa>a>a]a0aTa7a]a]bva]bmbRclcqccccaTa8bwaGa=b9b&bra{bIbPb$b;b_b|ckcmcmbOb0bHbcb|b|b0b;cIcNcmcycfb?cmcGcqb$bPbcbAccclb&aRaraYaFaBaVa4bKb9bZcDcnclb+bna(bvbga~aYa0bwcnctc3cXb2b`ctcrb.bSb[cdbibab1bxaoasa6aIaWb+cfbYb$b;ckcIcIcpcfb#cbcfcIcpb7b7bGbAbfbzb:b)b_bNa_bqbGb7cxb:b7b_cpb)b)bY",
"cpb#bEbEbNb$b:b#b#bNb#b)b4bYbNb7b)b?b?b>b)b#b0bYbqbEb:b:b?cmcfb:bPbPbrbxbsa=bbbob,b\brbRcyc9c9cWcJcPclb^b[bjbjbSb\c6c6c8b,b\bubdbdbjbucub2a5aRa?bSa-aTa~bdaTaQaFbebebebma(a7a4a0a*bibHbkbQbzbmbsa;a9a1a+bsbea:a`b5cDb;cmcIckcmcycmb:cmcIc0cybgaTaDaBaxbdb8bzb~cJcyb~b;b|cwb|b~b&a,aRaIaAayaFayaJa7a,aMaMaBayaJaUbnbgbmb+bKa;aLaDaxagaUaGaqaIaBaBaBaya8aMa5a(a7a5a0aOa7a7a~a;a7a7a1a]a>a}a]a]b<b*b&b^cIcyc0cya0a-boaVa;b*b$b;b4b$bia*bOb/b$b#ckckb;b)b;b)b$b0bNb/cIcVcmb?b|b?cmcycmb;b4b4a{bHcycyb[a`awahagasa+bScnb^b*clcAcla~a+aCa~b%a?a0bub%cJchcJchcrcAchcEc2chbRa;bRb*b8awaGa^a!a:bRcpcbcfcqb_cfcfcfb_b#c1c!cIcpb_b_bNbGbzbOblbqa_bGbEbGb7bNbObObObfb7cpcpb}",
"cbcpcbcfcGb_b#cfcfb?cqb#b7b#b#b7b#b#bNbqb7b7b)b:bHbfbkbzbEbAbHbEbHbkbcbia;a*aZa-a^a%brb^cWcWc9cWcWcgb]bHbibib2crcub2btcXcacFcub2bgbpbgb2bTb`bFcabSa(a=bJb1b8bmbmbibxbPb5bvaXaJa>bsbQbmbca&a*bebxa=a*bxbPbHbHbEbsb;b$b:b_cGcIcNcGcIcGcGcRccbqaOaOaSa6aTa]b*bWbZc$cAb<b5b&cyb~cqcybna1aUaDaOaBayayaFaBataDaGaFaGaLa+a~b~cnb[beaDanafaqaDawataBaAaAayaFaGaBaBaOaTa7aUaTbpbZb9bia0a>bmb9bRbQbsbDb1b1b$b/cIcyc4cIaMaObba%a1bvb$bOb$b$b5bHb$b4b)b:b;b:b#b|ckcpb?b_cGcGcGcNcqb?b_b)b_cmb|b0b0b/b;bOb<b$b^bDa;a}a0aOaEa7ccb^b<b*bWb5bua;ava~b2bKbub`cnb[b+cdcXc2crcJcncncEbKa4a>bRbQaOaYa!a%bab1ckcxb_bYb0b0bYb)cGcCcfcBc1c1cRcKcGcpbPb4bOb#b:cfb:cfcfb_b#b:cpb7bfa{bYb7",
"b)b7b)bNbAb)b/bNb:b|b0bGb7b0b)b?b0bAbqbzb)b_cfcpbOb4b:b4brbcbebiblbHb]bEa&aKaGaDaDa6brb*cPcWcPcIcWccb/b/bHbHbScrb`b9b2b`b,cEcub(bBbvbRa;a1a?a=a;bxbQbibea&a=b$b<bPbPbHbQbJa$aFaMa*bibHb5bmbcbHbHbHbWb/b4bEbHbPbEb:cfcfcfb;b_b?cycRcCb|cmb4bWa7bub6a^aJa,bQbWbWc2cTcDbObWb~cyb~cmbZa=aYaRaDaDaTaYa7a(a7a,a5aUaZapaAaYbeb9cda`asajaAaIayayayawayayaBaDaBaBaBaDaMa0bga+a]bpbJbnbmbJbQb1b5b*b<b&bPb<cfcqcNcIcWcIaUamawaDaFa]b4b4bHbPbibcbrbHbGb$b#cmb|b:b|b_b#b|cxcqcxcycNcxcpckb$bObkbEbPb$b?cmcyb;b&b$b<ccaJaFbzb[c0c4clcDb<b<bpa>a(bgbgbBb9crc2b<a`b[cJcAcTcAcdb`chbBa4a7bda;aYb6bwa\a$bDb$b:b_b;b#b#b#b:b#b#b)bYb_cBcBcfcRcGb*clcRcgcBcGcxcfb>b)b_b)bGblbrbqb)b:",
"cfb?bObNbYb#b)bYbEbqb4b4bqbqbObAbfbOcjcGcCcxb_b:b?cmcIcmbma3bcbmbPbPbea=a1aQaoaGbbbhbkb^cRc#cDb^cPb/b/b/cAb*b[b8cncdchcXbSbSb`b`bQa]bEbIbPb/cqcIcwb4a1aQaMaFaXbibxbWbmbkbmbIa+aQaQaJb0clcqcxbPb4bWbPb/b/bPbrb0b$ckcyc4cScqcpcpcfcxcycfb|b_cma,a>bTcibgbuclb|cgcqcwcRbDbEb&b<bPbHbZa=aGaMaBaMa0a,bna>bpa}a5a,a5aDaTa5bvb9a~a(aDayaOaGaBaFaGayaMaOaUaMaOa7a,a7aMa5a}a]a;bvb*bIbQb*bQb&b]b<b$b/b;cqcxcxcycycDb~aYaBa2a2aFaAbqb<cpcmcfb|b_b;b0b_cmcxcmckb~b$b#cqcycxcycmcycmb)b|cfb|b*bzbzb^cgb_cgcqcqb]cqcwb1bEcgcwc0c4cIcqb<b<bja]a,a?aVaSaMbgcDcJc2clbJb+b9cnchchcdbSaTaTa>a1aSbwbMbwa&bJcfb)b$b|cfb?b0bYb0b:b#bYb#b)cfcscBcxccb/bWb&cRcKb:b#b7bGa_a{bYb_cGcxcpb}",
"cpb?b_b7b)cxb_b?b_cIcpb_b7bYb0b|cfb)cScbb)bNbrbPb)cybPbfbrbHa`a{bia=a$bia4aHaLa-bba\a$bQc2c9cWcwcDb/b/b/cWclcDb[cPclb*b+bQbQcdb`clb^b/bPcpcIcgb]b4b5bia=a4a1a3a=bia*a1a=bOcgbHbHbEbDb$cfcfb|b$bObObPb]b4blb5cfcfb]bqa$a3bkbIcfcycNcNcpb_cyb;aTaRa2bFa[a0bibxbOb5b~b~bWbDb~b~bWbWbJa=aOaRaDaRa(bnbna>a7a0aUaRaOaOa~a}aUaRaMa,a?a?a,aYaOayaOaOaOa8a,a,a?a,bpbva,a7aTa0bJbIb8b5bIbRb1bHb4b&b/b|cfcmcqb|b5cccwb&a5bbbta^aLanaCaTb4b;b_b_b|b_b;b$b|b|b]b0b5bPb/cqcwb]b*b/cqcyb/b$bPb]b8a$bibnbxb8b/b/cycgb/b4bOb]cqcqcqcycIcyb*bIbja+a~aUaVaZaOaNbpb[b+bJb+b+b+cdcnb%b2a>aRaFaXa]aSa[btbba=bjb|cqb]b$b:b0b$b:b#b#cqb$bObObNbGbAb4b:b7brbOcbcxcGcxcbcfcpb#b0b7bNbzbfb4",
"bAbqb)b)bXcfcpb}bqbqbNb]bYbNbNb7cGcIcpb?bqblb4b:b)b_cgb:b4b0baa{a4a9bxb8bia`bVb\a.aSaRa&cGcWcgb:b/b4b/b]b^b/b/cDcwb/b/b/bPbEbQb/cgcGcgb:b]b]cRcIbEbrb4b]cycmcGcGb4b:b$b0cGcGcIcIb:b$cpcfcgb:b)cgcmb:b0b4b?cyb&a)apamahahamanaHa9bxbHbzb<cqb4a(a|a!a\a-aAarbdcyb~clcDb<bDb;ccb<b5b&bWbna>a(a(a>a]bpbIbna7aFaIbnbgbua+aRaDaTaUaOaMa8a?aDaMaMa,bgbgbvbubRbRbZbRa]bjbJbJb5b*b~cgbRa4babQb4b]cfcmcycxcqcgb|cDclb5aUa|bbbbaSaDayauaXbnb4b4b4b0bsa=a4bibHbQb8brbab*b^b4bPb^clb^b^b8a>a:aRaza]bna]bnb8bIbQbxa;a&a=beb1b&b/cgb8b<bja4aGaYaIaGaGaGaLaOaUaMaFbua~aEa,bga?a(aYa0aTaRaMavaLbhb,bVbgaRbNccb]b/b:b:b_b:b0bNbEb1b/b0b4b_b4b7bNbGbqb4b:bGbYb0cfcScxb>b#b0b0b0b)b)",
"bNb0b7bGbAbfbAbGbAblbqbGbGbqbfa_bAb)b4ccb[bQbPbEbscdcAb%b`b+chb[bKbub.chb(bCbhbtbtbbaVanama&b8b/b]b/bsa*aQaQa*babibibPbPcgcxb]b/b#b/b1bzbiaKaPa+bibkaQaKa$bsb4b0bPa{a{a*a*aWaXaPaKaPa{bka*a*bEbfbzbAb:b|bHbcaxaFaSa-aSaLaBatapanaianaCaMaQa4a|bhbtbta%awavaGbDb5bsbmbsbma`bmbmbRbWbDa7aEaRaTa?a0a;bja?a4auapaJa~bpbjbga]a(a5aIakataBaAaGa}a?a(aMapaAa}a]a7aEatawa4a9a0aKaRa&aYaMa7a,a&a4a4a`a9a1aXa9a&a4aFaJa.a%bwbFbha!aIaVaUa7bzbWbPb5bnaXaMaUa&a4aBarakaBbDbia;a>bja4aJaAaFaAaAaOaAaAa0a(a>a7aUaRaOaOa0a>a(a0a7a0a,aMaoasauaSaZaBaDayaDaDaGaAaGaIaBawasaqawayayauataDaUaIaya2bFcabBaJa<bPb$b|b_cfcfb)a{a3aWaWa<bzbYb#cmbYb7b)cfb}cpcfb_bNbObqbca{a_bHbqblbza_",
"arazaTbdbobgbtbBbKbtbgaMa5bgbhb2bBaTaYa[btbVbMa^bhbTbtbta6aIaNbCbVbCb6b\cFbFbobCbobba\awakagakananapananapaAayaxatataAaJayazananaxatanapayaqanakapaDaOanahajataqaOaOaOaFawapaBaIaOaOaAaFayauaBaOaOaBaxaxayaOa.bhbVb,b,cFb\bwa^aZaIayapasawaNa/aSaSaLaGaDawahafahalanahagaeafagahahajalaoalagaeagahajajajaoaualagaeafagagahajaqanaBasajaoasalaoasasaoaqalajawayaDaSa2a6a.aSasaqaBaSaSaGaVaIaualafaeaeaeagalasa!aSa.a\bha/a^bba2aDaBawauapanauayaBaBaBaDa2a%aGaqanalakahagagagahafafagaeahagahakaoaqaqaDaDaBayaqaoauawaBawawasawaBauayaBayaDayaqaBaGaBayasaoasasaoajalaLa!aVa2bMbba^b\cubwa]a0a1aXa1a9a1aXa~ctcab`bBbgbpbubpa+aKaXa&a1aEazapamaiaiakaiamapaCavaiap",
"bwa%a2aZaIa\bwb6b,cacub,bFb6b,cab\b,cab6bTcicMcabhbMbbaNaSa\a%a^bbbbbobbb,bVbhbwbbaVa2a^a^a!aSaGaDaGbCbta\bFbTbCbha!aZaNa!aNaSa2aZaLa!a^btboa/aVaIaNa/a/bhbobFb6b,b\cicibFa6aZa2bFb,b6b6b6bVb,bMbVbwa2aSayaDaIaNaSbwbobhbFbVbTbFbwa2aVa6aNaDaLaZa2aSaDayasaDayalalawaGaBauayaBaDaVaLayaLaSaDauaoalajasayaDaqauaqaoajajasaoasaBaBaBa%a6a2a!aNaIaIaNaNaVaZbha^a.a!a.aSaIaBaGaBaDaoaBa.a^bobha/aGayawauasawawaBa6a%aLaDa!aVaZa6aDaGa6a.a2aSaSa!aZa2btbFbtbba^bhaLaBaqasawayalajauawaBaBawaDaIaIa6boa/a\a^a/a6bobba.a%a!bbbwa.ayauaBaDa!aSaGaNaLaSa/a^aLaSaNaGaBaBayayaIbwbha!a/b6b,bFbMcicFcYcYa2awaBaNbMbVbVbVbVbMbwb,cacibVb6bTbwbMbwaGaGaGaNa!aZaGaLaSa6a6aVa8a[",
"bTbhaZaIaSbhbCb3b(bMbTboa\a\bbbVcacMb,btbba8aGa^a|aUaTa,bub`b\b(cFcFcib,bTa2a8a|a|btbBbob(cib,bVb6cab\cibTa^a5bha~a[bhbha-aYaSaGa5a8a5aZa8a2a/bTb\bTbhb\cib6b3b3b3bTb3bTb,ctb%btbgbba|a|bSa,aNa5aYaBaJaDa5a5a7a?bga~bBbKbKa(a/a/a2bob6bobha\aGaBaDa8btbCbobhbba.aNaVa\a\a[a!a.bba[aZaGaGa^a^a.a[a6a8aVaNaIaBaqaBaIaGaIaGawasawawaqaqawauaoasayayalahaqauaDayaGaIbha%aDaBaBaNaNaIasaZa!aSaGaLaZa2a!aVaVa2aLaBasaNaGaNa6a2btbwbFbCboa.bobTcibVb,cubVbCbhbhbta\a/aZaGaDasauawayaZa6a2aNaDayaBa^bCbVbMbCbTboa[aUaZa8a2aSa!a\aIaIaNayaGaIaVa\bwbta.bhbMbhbhbMa^aSaNaBa!b,cabCaIaBa\bobbbCcacibMcFcib\bbbCb\cucubTbwb,cFcacacicMcMcub,bVcMcucib\bVbtbta^a-bhbFboa2a2bh",
"aRavaraAaJa0aQaTbzbIbibibJb2b1bJbRbJbQbIbsbma0aEa9bRb^cwcgcIb[bEbhbhbFa^aRa7b8bDbpb[cdcPcdcnb+bZb9b[bga9a]a}bxbQbQbHbxbQbJbRbpbjbkb*clb*bZbsa]aMaVb\b,bbaFaTbzb1b<b&b&b/cGcIcwb|bcbWb|c0ccbHbdbjbsbIbRb8b&clcDb$cqcDb;cmcRcqbBa7aGbobCaVbKcrb[b9a(a7a>a,a?a7a~bhbSa5bubBa?a?a5a(a~bvbub2a|a5a,a~a~bba(aUa>a~a?aTaDaSaNaBaJa(a+a7aGaAaxaDa7aOaAaDa(a(a]a7a0a?ataqauaGa(a~bQbIa>a9ayanaqawasaya6bhboa6aSaDaxayayaAaNaVa^bFbVcabtbha.aYaUa-bhb6cab\bMa5aGaAaOaUa?bBbBbgb2bBa?a,a-aIaGaoaeafaRb%cAb~b*b8b&cDcPcDclclbnbpb2bSa~b2crcEcJcrcAcXcXb`bubbbBbKbgbBcncAbwaOa^b,bMa2aqaUbKbgbubdbpb%bBa}bJbRbJbIbZb[b2b.cEcab`cFcXcEb.crcrbKbKb`chcTc6c3cib\cMcFb,a!aXa4a$aW",
"cfb:bzblbNbObYb/b0bEcgb$bPb0bkbPbPb0bQbEbQbPbQb$b]b]bPbEbNb0cgb]bFbCb6bTb5cAcIcbb&bWb5bWbxcdbIa=bzb&b$bzbEbOb4b4b;cgb4bEb4b/b:b|cpcqb|cfb4b:cycyaYaYa\aNa&bsbzbHbibsbDbmbcbDcgb~b$bOcRcma`a$a{bDbsa:a:bibHbEa=a*bcbDbEbPbNb4bDb+a.a/a^aUclcAb[bIcncnb2bpbpbjaMazaFaMaOaTaFaMaFaMaJaJaAaxaTaMaJaRaRaTa5a~a?a7a]bSaGapajafa*bQb/b/a}a&bmbva]a;a9a=a}a>babRcDb*b^cccnb8a;bJcWcIb_b$cgb/b$b$bQbra>avaoauagafa&bubxbmaTa0a7aTaTaOaRaTbxb1b]bza=a1aPa+bPbHbibkbHb4b]bPbmbsbzb8b]b&cda$ajaoaIaybab+cqb~cgcqcycgb4cqb^b4a]a&a-bbbua?bBbSbBa~buctc3bJaUaYa+bKb~cwcIcyb[a`aVb\bwa/aAbbbBbja&a1aMaXa1a9bca:a*bebsbsbxbmbrcdb1b/bQbQa{bibEbEbHbEbkbEb_cPc9c#bbbob\b6b]b/b>cj",
"cbcbcscxcGb}cfcpcRb)bQa_bHbEbYcgcNcIcyb)b4b0b/b/b]b]b/b4b#bGbIb+b\bCb\b3b~b~cLcvckcxcycybRbnbsb9b&bOb5b;cmcmcmcmcIcRcqcIckcycNcNcxcNcmb;bPbcbIbDa-a|bbbFb[bxbqbHbGb;cLcjb0bNbca$bqbWb|a_bOb~b0b0b$b?b)b;cxb)bOb;bObObOb0bEbObWb8b,bTbha8bxbQbQbmbQcncJbZa+bvbSbpbgbva(a(a(a?b2bSb%bua]bua?a~a?a~bgbBa?bgbubgbZbvaLaUaIaqa:bpb4b1bxbsbQbsbzbHb]b]b1bHbQbQbabIc#cRcRc0cycgcIcGcGcqb/b_cpcpcpcpbva3aBaoaqaga7a>bEbPbcbkbebzbHbqbEbPb0b:b:cfcfcfb/bObEbObNb$b_cfcfb?cfcpcIckb_b)clbqayaVaNaBa&bdcgcycwb]cgcDcIcDcDcqb[bza>bvbJbJbdbga,a?bubhcdb[a,a?a~bob<cdb&bIbnbdaLbhbFbwa[bhcha~a~bda;a>bna]a*a=bcbibSctbZa1a*a:a$a$a3a=bqbrbrbEa;b2bZbnbPbEbNcga7a,b6b6bNcgcKcK",
"cfb#b)b7b:b7b_cmcGb:bIaHbYb]b)cfcgb:b_cfcIcxcfb)b:b:b:b_bPbGa7a]bTb6cabhb|cqcLcVcNcCb|b4bJbRcycDcmcmb;cmb|b;cfb;b|cmb4b~cNb|cyckbrbEbGb&b5bra&a+a\a6aVasbEb&b#bXcscCcScZb?b#bra_aQaHa:bkbqb$bYbybOb#ckb?bGbNb?ckb$b4b$bObOb;bIbibobtbba[brb*b4bPa=bDcncAbRb[cdcdcAbubBbBbRbRcncEcTctbububSb`bKa?bda?bnb%b2b2cnbRa5aVa2aIa:b*b/b/b$bPbHbIb$b$b]cgcqcgcgcDbPb]c#cWcRcRcPcRcqb/bQb1b]b/b/b:b/bPa(a?a/a!aBawaIaFbQb*bHbcb4b/brbkb4b7bPbNbEbNbzbkbHbzbkbrbcbzb:b:b_cbcbcfcscxcfb}b8a{awaIaBaua1a?cycwb^bHb^b8cDcIclb~b+bmaTa&aRaTaFaRa?a(aUaRbKb%boa~a8a|a~bScncdbga+bbbwbVbTa!bwb.a-bga~bgb`cFctbgb%cEcMb%bSb%a;bGb1bOb0bzbcbzbzbkbkbabcbebab/cgb:b$bSb(cacibHbrbUb7",
"b7cfb)bAb0b7b_cfcfcfb)bYb0b0bEbPcfcfcgcfb_b)b:cgb}cfcfb_bObla[a~bbcicibCcqcycvcscGcGb;b~bWbWb;cIcbcyc4c4c0cxb:cmb4b)b#cycIckb|b#ckb|bra:a=baa}a~bFa!aDaBblb<c1cHcvckb:bAa_bka_bEbAbfbkbka)bccjcvb>b?cjcvckcvb|bAbAbPbOb0bObrbmcdcaa.bga-bHb1b]b]bsbDcccTbZccbRb9cJcnbZbZb+cJctcdbjbKb9b[c2chb9bSbKbgbBbScdcAb+b9aYaYaVaNa$bnb4b0bQb/bibzbHbQbPb4bQbrb$clb8bzclcgb]bEa:a*bibibHbQb/cxcgcfb1bra7a,a/aZa!a2aSayaJa(bxbDbPb/b/b4b}cGcGb>b_cpcgb7brb$bPbGb0bObYb7b_b:b_b_cpcfcfb_bia*ayaIaZayaGaxbiccclb<b1bDcccwb[bsa7a0aTaJaBaFaMa!bnbSbFb2b3b(b`chbMb(b\bMbZbRb2a}aNbobMbtaZbocMboa1a(bCc8c,c,cYc,c,cMa7a9bjbjbabkbkbrbrbEb0b0brbqb)b:bPbEbkbkbzbEbgchb,cubQbrcfcj",
"b?cxcfbAb:cpb:b?b_cpb7bAb)b:b/bAbkbrb7b)b:b_b_cgb#b:bEblbzbOb`b2bTb,bCa5cqcmcbcsb?b)b$b;b|b;b|cmcmcGcycIc0cxcycxcmb_b:cycbb|c0c4c)c7b~b0aEbgb2a,bCbCa^aLbqbWcvcCb7b>b7b7bObOb?b?b?ckbObfbNbNb>cscScjc5c7c7cNb#bAb;bYbObOb4bObDbDbTa.aUaUbebRbEbQbHbPbZbmb*b1bIb[cdcAb%bjclcdcwcdcdb[cdcAcJcdb[b+b%b%bjbncAcdbpbmaDaOaGasa3bxb)b#b$bYb$b4bEbQb4b/b*bPbPb]bpbabibxbIbsbibxbQbQcgcIcxcfb:b7bEb8bZbpb6b,bbaSa5aAaEbda+a1brb8b/bNbOb4b)b_b:b#bibcbOb/bkbkb0b4b)b:b)b#b)b#b7b7b$b7bia:aqa!bhaGbvbpb1clcwb]bxb8bRb8bDbJa>a>a>a>aUa5a!a5bBb.bobua5aUa5a|bob,cMcib,b2bSa?a^bCa/bbaZcMc-boa5aRbBcMc6cicab\cabBbdb1bQbzbrbcbEb4bEbObObEb7cfb0b7b#b)b0bNb0bOa]bSbtbVbsbrb_b>",
"b#bYcpcpcbcfb)b7cpcxcbcfcfb7b#b_b?b)cfcpb_b:cpb#b:b$b4b$b0bNbScdaIa!a,aOcyckb?cbcycRcIcmcmcqcycmcmb|cmb_cmcNcycmb4bNbYcRcIcCb?cIcVc0cIcfaRaMa^aSa%bba.aNa<bzb!cbbYbNbGbYbka_b>b?b7b#bObqb=cLcZcOcvb-b#bLb?b?ckcvckb)b7b|b;bGa=aXaBa/aVaGa:bQcqb/bQbQbebsbWb+cdcTcncTb+bpcDcDcAb~b+cAcAbZcdbjbDb[b9bSb+b2ccbZbRbIaOaGaVawa*bDb#b/b7bEb#b4b$b/b_cgcGb_cgb]b*beb1bIb1b*ccb]bQb^cRcGcgcGccb]b/b)bua4btcub\boa5a5a{bQb1bcbabIb7bObEbOb7b:b_cjb/bYa;aPbaa=bAbPb#b)b0b7b7b:b:b_cfb:biaPaDaZaVaGa(a>bxbIcwcwclcca>bZb`bva9a4b+bva0aRbob2chbuaUaUaUa8aYa[bobMcacMb(a|bTa,a%bVbba!aSbwcaa[bga>a5a>a~a&a;a;a1a*bQb1bia*bkbra=a)a{bEbObOb_b:b_b)blbEbObOb_cpbgbga!bwa4aXa{bc",
"b7b:b?cfb?cbb$a_b0b0b:b:b4bNb#cfb?cbcfb7b#bOb7b7b_b$b)b/b4b/cgbPbwbwbBbbcmcmb:b#cfcycRcNcGcvcmcycGcmckcRcqbYbqb|b#b;ckcbcGcIcCcycCcNc0cIb3bMb3bhaSaGaSaIbfb&cSczcjb}b!ckb}cbcscHb#bLbqbNbGbYb!b}cbcsckb7b!cvcbb?ckckcbcvb?b0b&bzaIaGaYaYa:bQb]bObxbrbzb1b~cwcAccb[b~cncda}bJb8ccb+cwb[bsbvbvbZb[b2a>bRb+bZbxbJa;aBaLaSaya*bQb:b:b)b)b:b:bHbHb4b$b1b4brb8bxa=b]b*b8b1b/b/b/cgcIcGcqcDcRcqb_bYbuaXaIbtboa6a(a>bHbQbxa{babEb4bObYb:b:bYb7b:b#bNbia:bqbPb:b:b_b}cfb_b7b4cjcGcxb)a>azaua!aNaBa;bucPcccccDb[b5a}bdbDbIbda4a;a;b2a~bSb.b.bBbba~bgbCbSbha~bhbTa[bdbub%a?aVbhbFaZaZb6c,bTb2a~a>a7aFaFaMa(a;a1a*bsb/b#bEbEbQcwcqcfb/b#b:b_ckckb4bGbOb0bOb$a7b.cucaa}a+aWa:",
"bNcfbNbAb)b_cbcfbYbYbObqcbcfcfb?b7b7bYb0b7b)b4bObqbEb$b/b]cgb1bEbgcFcaaVb0b|cGcCb|cmcNcxckcqckcmcNcNb4b$b;b|cNcycmb?cNc0cGcxcRcNcGcyc0cmb+c3c8cFb3bCbha.brbOb?b!b7bYa<bYb}cjb#bXbLbOb-b?bfa_bGbqa*a$blbOcbcCcCcHc5c5cmbYbGb0b&bkaVa6aNaDa*bRb$b4bqbQb]b/cwbWbxa`b+b[bIbsa`babjbxb*cdbRbDbjbmb+bZbna}bjbZclbQbJbeayawaBaBa:bIb4bqa{bsb7b$b4b:cpcpb]b4bQbQbibab/b^cgcgb/bQb1b/cgcfcpcGb]b:b:b_bja;a!a^a^aDbda;bkbQbPb:b7b4b7b7bPb7bEbqbqbka{a:a{bEb:cpcxcBcga_azaCazaXaPaXa3a*a;aPaoaVa/aDbsb9c0cybxcncnbsa+a}bsb[cha>aXbBcrb`b.ctb.bua|bob.b(b2boboa|bha|a,b2bhbBbtbVa\aSa/bTc*b,cubgbdbga~a]a9a;bQbzbcbPcpcfb:b#cwb/brbqbYb:b)b)b7b$b?b7bNb0b:b:a,bubbbFa]a9b4bN",
"b#b#cfbYbNbOb#b_b)cbb:b#b!cxcpb?b_b_b7b#b:b7b$b/bzbrb4b5b4b1b1b1bMbCboa5bzb~cvcpcxcmcCcmcbb_b?b;cmckb$bYb;cmcNcCcqckb;b:cbcRcNcCcqcvc0cRb<b|cWb~bta^a6aSa3a:a{a#aWaWa_a)a_bYb!b7b!bXbLb?cscjbYbyaHa:bqbzb-cvcvcecbcNckb?b0bGbaa$aSa.a!aNaHa+bkbzbxa:b&b&bQbHbaa:a9a3a&a&a=a;bsbia+a+bebdbZb9clclbpbpbja}bibJbia]a!aVayaBa*bIbPb/bQbQb$bQbPbPbHbQbxbibPb1bHbxb*bsb/b^b/b/b]b^cwcgb*b]b/b]b]b]bua1a.bha!aSa=bpbzbrbPbGbPb7bzblblbHbEbAbaa{blbEbra{byb/cfb7a=a$atanagagaeadadafa1a1akaqawawa;bgcDcPcDcwcdb1cTb`clb[bvbpaTbdb2b2b%bSb2btb2bTchctb\b.b(b2a.b3b.a~a~a(a.cabFa.a!a\bha[bgbBboa]a(a]a>babxbcbNb$b#b0bNbAbza_bkbkb)cfb)b7b7b#b:b_b?b:cfcpbjbKbta!bxbDb)b:",
"b7b7b:b_b:b0b?cfb0bAb7b#bqbAbYcfckcfcfb)cpcGcqb_b_b]cycyb4b4b1bIb,boa\a^a4a:cqcRcNcxcmckckcfb?b;cbb_cmcbb:b|cmcxcIcqb4b0bPbqbqb~cVcNcIcRb|b?c#cwa,bbbbboa$a`b>b>bYbLa_a<bqbfbycvcUcHcscsb>b!bXb=bkaPa_bcbYb0bObNa{bkbqbNbGbqbia=a|bwbhbta4a+a`a*brbsbsbebrbxb4b4bQbka;a:a+a9babea}a+aRaCaMaJaEa0bxbna9aTa1a&bJbJboboa%aBbmb+b1a:b4cccGcxcycgb]b/bQbWcqcyb^babRbQb8cdcDcdb+b8bKbRbvbvbvbJbIbIbva;a.a.a%aSaXbdbHbra=a:a=a:bababGb4bYbObEbqa=a{a_bzb)b:baa*a9a;bja}a>a7aJatakaka1aJajasalasa7aMaXa]bPcAcDcccccdcAcDcdb[bgaCanakama-b%b.bCb.c3c3c3cEb3bBbCbtbwbga|a5aVa.a.bhaVaIaOa[b2a~a?a?bda7a=bababca<brb7b0b0bGaXaHblbzbAbAbNbNbAbqbNbOb7b#b:b_a]bgb,a/babibqbG",
"bra3bzb4bzbra_bEb0bNbNbNa>araeava<bPbIaWaHa&bza{a4aPaPa`babca9aEaVa^b\bMa[a0bpbnbPb<b~b~b&bPbrb~cmcIc0cmbkbPcmcRc0cmcwbEa~a,aJaJbkccc0c0cyb4bDbiaYbtcucFbSaJa)a<a*a<a$a3bqbObka)a<a<a_bAa{a#aWaWavaiaraHa:a_a9aHa*a&aEazavaAaJbhb,cicib,a(a>a1aXaEaMaJaFavaMbkbsaXaFa+a]bibpbZbZa]aMaJaBaUaDaAapaFaMaMaFaCaMaTaRa.bobhaGaxaTaJaEbabdbPb8bIbia9aXa1aQa;bsaJaiaiaBbda;a5a7a1aTa9a7a0a>a(a+a7aFaqaGa\a^bha^aRaRbca=a9aXaEaAaKaXbEb4bzbEbrbka$bca=a{bkbrbkbEb1bPb8bQbma>aRa0aOaBataBaVaNaNayaDapadadamataJaJaFaTaEataEaRaxafajaoaoaqaGaYa(bFb%b.b2bSboa-a|a|a5aBaYaSaVbobhbha.aZaJaLbga,bjb%bRbja]a;a=a9a$a=bEb$b_b]b$bGbkbrbNbObPbza*a{a{bkbHbPbzbcaRa|b,bVbBbebPa_",
"a5a0aVa,aDaYaIaNaOaOaJaOaUa,a/aNaBasaxaxaGaBaqalaoaDaLaGawayaLaBaIaZa|bVbFa^aLaBaNaDayaBayaGaDaDaAaYa?a-aVaLaMaBaRa8bhbBa\bCcib6aZaGaMaMaRaFaGa~bwbwa.bFbMa!aLaBa%bhbha\aUaVa|aZaIaGaSaZaUaGaOaLaIaVaLawayaFaBaIawaUaVa!bba/a6a^btboa.a.boa-aLayaNaIaIa%a/aBaGaNaNaSaUaUaOaDaMaYa.a\bta^bobobba%auayaGaIaBaqayaDa!a/boa^aLaqaqaqaqagadafadagajaoalaoahaoauaNayajahakajajajajajahajaoaqaqauaDa\bobMbMbCa/aNayaoahaqawayayaAatavapapamapaxataxaAayanakakananavaTa0aTa0a[bba[aVa2aIaNaSaSaVauauajagafagaeafafagafagahahahajaqaqalaqahahagagaoalagahakajagakalaoaqaGa\bFbMbCa\aZaDaGaBaqataxaAaAatauaBaBananamakaranavapavaraFaKaMaEaCaFaCaxavaranaBa2bhaVa8bMbba-aO",
"cFcabwaZa%bobCbVb,b,b6bMbwbobwbMb6a\a8boboa%aVaNaBaIaBaIaNaDa2aUaNaZa5a!a!a.a^a6a2aGaDaGaSaSa2a/a\aLaDaGa!aVaSaVaVaYaVa2bbbobbbbbbbha%aSa!bbbFbVbTbobhbha/bba/a%bobha6a!a.bwbtbTb6cabMa6b,bCbCbFbbbhboa[a2a2a!aVaLaSaBaNa\bhbhbhbtbhbtbwa^bhbhbha%aSa-a/a^a2a!a/a\a.a6aZa8a!a.a^a^a/aSaVaZaSaLaDaBaBaIaNa.aVaDaDayaBaDaZaVa!a6aNaNaLaNaIaLaIaSaBayaSaIaLaLaLaNaLaBayayawaGaSaSaSaSaSa/bFbwbwa\aZa!a6a/a^bCbwa^a\a%aVaZa%a\a.aSaIaZa%aVaNaSaSa!a2a!a^a^bhbobba/a.a6bha!aLaZa\bCa6aBaDaIaSa6a6aNaNaBaBayawaIaDayayaBaDaDaLaGaBauawauaqaoalajalaqaoaqawaVbhbobhaZa.a%a.bbbobVb,b6bFbVbwa/a^a^bwbha%a!a!aDasawayaDa%a2ayawasaqaoasataDaBaIaIaGaGaNbbbhbbaUaBaDbhbTcu",
"cabVbFbba\bTbCboa!bCbCbtbwbTbVbTbwbba2aSaLaGaSa2aVaVaSawawaDa/a[aVa5a.a8a|bob3b\a[aBa7a-a-a5a8a,a?a~a?a(aRaRaDaAaYbMbMbKbbbobua~b,b(bTa,bhbta|bbbFcabMbVb\b\b,b,bFb(bFbFbCbobobwbFcab\bCa|bha\a2a\a6aGaLaBauawaBaZa^a.a2a|bhbwbba6a.aSa[a^a%a2a5a!aIawaBaDaUaVaNa^bFbMbtbha/boa!aZa!a/bTbMbCbVb6bTbobtbtbFbCa^a\a\btbCa^a.a6aIaBa6aVaZaSaZaSaNa!a\a.aZa6a.a!aVa\boaZaGaZa\a!a!a.a\a!aSaLa.aVaIayayaLaSaSaIaNa!boboa%aLaBaLa2aBaybbbwbha/a!a%a.a2aNaDaNa.bobtbFbMbbbhbta2aSa6a6aSaNaIaDawaBa!bCa!aZa%a6aZa%a/a%a/a/a^a%a.a/a.a\bba\a\a%a%a!aSaVaNa/btbFbVbVaZaNa6bba/aSaLa6bocicYcub6bwb\cucYcFcFb\btaVbba!a2aBaDa!bCboa\a8a5a5bbbSbTbha8a\bobba2aVbFbTbCbob6cacF",
"cab\b%a~bdcrchcdb%bKbKbBa-bobCb6bTa\aUaLbDbRbRb[b^b1b]bPbHbHb1bQb4b1b/cgcgb]cgcqcfb;b/b]bab1b:b/b*bHbEb8b/b_bHb4b$b/b8bzbQbRbIbia=bsb4b1b]b1b9a=bqcPc4cIb<clc0c#cWcyb]b]b4clb5bEb4cgcyb|bOb4bzbQa,a8ayaoaAa5bjbda}a(a0a1a(bdb+b9bRbpbsb+cdb+bvbja}bBb9b+bjbKbSbKa~a?bubSbga,a7a,bga[bBbMb2bobua|a|bgbFbga-a?bFb(b3boa.aUaBaZa5aOa|a5a!bba|bobbbhbtbgbBbga5aRaDaGaSaSaBaoa0bga;a~bBbBa5aUaJaYbga~a~bKa[a5a8aYaGaBaSaYaNaLaNaNa!aIawaGa~bbbga,a7bga[a0aUaOaOa8bJbBbZbIa~a,a5a8a]bgbSbBbpbnaYa7a-a(aVaUa2a2aVaSa8aZaSaVaVaSaSa6aSbwbobtboa6aIaGaNaIaDaGaDaBayaxa/a6a6a6aSaIaSaSa-a\bTbbbMbTa[a\bbbobba-bwb.bFa>a7a~bJbBbRb9b*bQbvbpbxbQbjbDbZb+ccb^b8b*a-aYa(bocdbj",
"cAc3cJb[b^b^b1bQb/b1b/b/cfb_aAaAaNaGaiaJcQcKcKcBcQcBcbcGc1c1cpb>b7b:b)bGbObNb0b4b$b0a9aXaMa0aJaMaJaAa4a0a`a;babDb4bWbja3bvchcncncdcEc9cAbRbRbmbIc7c#c!c1ckcfb]b)bJbeb5b4bWb4b4b4bOb4cpckb:b_cecSaMaEaDaqbJb`b]b$b]cgcccccDcDcyclcwcDcwcPb[bQa`a=bebjbQbmbsb9b9b9aTaRa}bpbpa}a~bdbKbSbpbub2bZa~a?bpbBb.b2bRbBb+bKbgbubBbKa7bBa~a,a-aMaBaOa(a~bpbvbvb9cWc9cPb1a[ataqasaoaob$cDb^bQb*b8bQb[b8bKcDclcIcPcnb[b[cTchb%b%chb`a>aGaOaSa[a5aYa9a(bnbda9a0a9a~bKa~a(aJbibmbPbPbQbkbda]a7a7a=bjbia;a`bxbxbnb%bSbBbjbjbpb8bRbna]a5a5a?a7aJaBa8aZaSayaFbgb[bZbdbdb1b+b2a(aYaZa[a|bwb2b3b2b6bwbMa[bRb2b*cJcnb+b2bpb(c,c,a\a]bjbdbda(bdbDbxaOaJawaxaJa(b9cAcqcgcgcfcDb^cDcDcccl",
"b*b8a>a=a;bdbaa;bPbIbEbPcfcGa7a?boa\a(a(cjcQcpbYb7cpcBcGcScGcScQcBcjb0bAbaa$aKaRaTaKaRa9a9a4aRaQaRa1a9a>baa;a:bebsbHa9aQbnbja}bjbBb[c&cXbJchcAa+b&b]bPb$cqb_a+aXa,a(a+a7a&a]bEbHbcbabEbkb7cmcscLa(bKb\bobvbRb$b&bWb&cDc9cWcRcIcRcDcRcwcPcDb<b*b^bIb*ccclcDccb[cnb[b+bRb+cdcnb9bdbdbScdcnbZcdcAcAb`b[cXcDcdcAb+bpa7a|bjb`bSa&aUaFaOa0a,bpb*cTcTcPccbJb&clcDcwbga0a!a/a5aYclb1cxcGcgcGcRcGcRcGcRcGcgb/cwcTcTcJcncdbKb%b%bnbBa7aFaUa(aRaRaRbIbpbia;bIcnb[b*bHbPb4bEbkbHb:b:b0b$bQbxbzb1bOb$b$b0b)b]b:b)bOb4b/b)b$b4bPbPbIbJb*bQa?amaxaGaoacaPbSb1bma(a(bBb.cFb%aOaYboctc6cFc6b(b2c6c*crcWc2c&c2b9bJbSbgbgbwa8a5a?a?aYaUaRaIaYaBawayaDaUa]bgbda(bja~bdbdbzcXc(c)b/b*",
"b*bQbabxbHb1b1b/bPb/b/bOcpcxa0a>bVbwa?a0b}cKcxcBcpcScGcGcGcBcGcsb>b#a{a*a*a=a9a4a9a`bWbWb5bHbea:a9a:bPbPbDbca:bQbma`aWa+baa=a`a4a=bnbjbjaJa0bpa>a]a9aQbdb&b4aTaJbebpa0aTa4a}b;b4bObOb4b0cjcCcKcsa0bBbVaVbIbZb|cqcqb~cwcDb~b|cqcNc0cNbzb5bWb4cgcwcNcRb;cRcPc9c#c2cDcJcPcwb^b^bKa`bib[cnb[cJcTc2cdbRbJcJb<cdcwb2a}a(a,a}b`a]a+a(a7bgbdbDb+clcwc0cPclb&bWbZcwb5buaTbbbTbwa5cgb^cIcRcGcxcIcGcBcIcGcxb*bQbPb1b8bjbdbda?bgbZbKbKaTaJaOa?aRa0a7bnbibOb$b4b/clb]bYb/b_b#b0bGbObEbkbcbNb/b:b#cfcfcpcBb_cjcjcBcfbYb7b:b_cjb$bOb$b4bQb1bSaXasauagacaQbpa;baa(a>aYaTa,a|a8aTaDa-a5bocMa5aMbwc3c3c9c2cha>aUaUa,a-aYaTa5a5a5aTaUaOaNaYaOaUaUaUa(a~bda]aYaRaUa(a7a?cJc2c#cga;bd",
"b1bibcbQbPbqbEbAb7b:b4bPb/b:aRaRa^bwa?a9b>cjb}cBcjcfcCcxcBcpb>b}b:bUbia{a*bsbPbrbOb&cmcfb4bObrbsbcbab7b|b$bfa:bea9aHa<bIbsa{a+a&a`bIbJbaa0aFaMa+a]aXaFa7bmbmaTaRa+a}a7aTa1a;bYb|cHcscscjcscsb}cvaMaRa[aNbebZckcmcycmcgb|cmcyb;b$b4b0b?b~b?b;cVcVc0c0cycNc0cDcmcycPcWcDb&clcwb[b&bIb[cDcJccb9clcAcdbZb^b9cTb&a;aMa7a?bpb[b^b5bja+a+bdbvbIbIbWb~b~cNc4c#cDb~bRbgaJbhbwboa,cccgcRcIb4b/cfcpb_b_cBcfb]cfb$b/b1bmbpa(a7a(bDb9bua9aMa7a0aRaTa,a9a+brbabNb$b/brblbHb7bYbzbHbHbQbYb]bYb#bPbrblbOcBcscBcjcfb}bqbAb}b7b#bYb>b)cfcfb_b:bda1aLa^a.awaQbgbda]a(aTaBa8a,a5a5aUaTbtb\cEc6b%a5a7a-a~bKchctbua-a,aYa(a-a?a>a?bga>a?a]aYaUaYaNaOaOa(a7a7a7aUaTaYa7a>b%cXbIa]a7a;bp",
"bIa$a:bQbYb:bHbAb#b/b$bYb_cGa0avaBaData4b}cjb>cjcjcpcjb:b}b_b?b:cbb7b$b;a<b|cIcpb_cxcgb_b4bAbHb4bHbzbNb|bca<bcbHbka{a{bzbka:a+a4a`a]bea=bda4a&a`bda`a9a&aTaMaRa0aJaAaKa0bea=bGb0cUc5cUcOcOcUcUcUaTa7aSaIa`b1cpb?b$b|cqcqb|b?bOb;cNcVc!c0c7cVcVcNcVcVc0c0c)c4cwcyccbWb<ccccb~b&b^bRbeb+b^cTccb8cdcccdccb&bRbDbRa&a0a?bRcAccbra}a]a&bjbdbaa`bZcmcwc0c4c4c4cJb<bBa~cab\a-a0b^b]cIcGcBcQcgaPb:cIcxcBcgb_bQbrbmbebua+a9bdbibsa>a;aMaTaJaRaTaTa9bgbubgb+b`b%b+bRb9b*b*bPbPb}cIcQc1c!cKbAbEbqbEb}cscfbXbAbqbNb#cjcBcjcfcBcjcjcob]b7a?a1aSbhbha/a(bnbja>a(a(aJa5a~a~a,a(a(a7aYa5a[a5a5a~a~a-a>a[bba?a,a,a?a(a?a(bBa,a5a(aOaOa5aUaYaUaTa0aUa0aMb(bua0a(a(bJcdbBa;a;a]bibi",
"bPbrbEb8b:b/b7bObGbPb/b#b:b_a]aFaNaSa7a;b}cBcBb}b-cxcpb-cfcfcQcxcKcsbXcmblbqcVcGcxcNcpb:cmb:b;b|b_b_b#cbcfb7blbEbrbla:blbEbGbma*aQa4aMaQa>a9a`bmbia=bsbxa`a9bzb1bsa`a$bIb)b#cbcsc5c5cOcUcOcUcUcUaRaJawaua=bJcvcCcmcmb:cqcycLc0cVc7cCcCcvcVc7c%cZcVc7cVcvb?cycVb|bPbPb&b<ccb~b&clbIa`cDcDcAcDcnb~bDbsbRb9bWbxbpa=a(a?bIb[b&bma&aRaFaxaXa}bWbIcmcybJa*a`bJb&b5bSa]b,caa-aTclcgcScGcBcQcGb7a*bxcKcQcGcGbOb/bQbEbda:babia;aQaXbdbibaa4a9a>a>a;a>bpbKchb`cJcAcgb/b/b4b#bNb#bYcocKcKcKcBcjb:b!bzbqb7b_cBcpbYbXb}b_b{coczcBcscBb_b_a7aAa^boa\btbKbgbsbea>a>aYa>a,a,a~a~a~bdbda]a-aUaTbgboa]a-a]aUaYa(a(a>bga(aYbga7aOaUaYaUaYaUaRaYa]a?aUaDaFbgbKaTa+bpcnb*bmbsbQbsbEb1",
"bIbaa:babGb4b/b:b7bYb/cgcjcGa>bda\a2a,a1cjczb_b!b>b_cxcBcpcxcscbcQcQb!cpbfa)cScGcSc1cGcCcIcvb?cGcvcjcbcbb}ckbYbYbGbqbYb7bAbybHbqa1aQaJaMaMaJaJaFaFaJbkb5cmcmcqcVa>a3a*a`b7cbczcHczcUcZcHcocOczcHaTaRa^aNa3bncQcScvcvcmc0cRcLcVc0cVckcNcvckcbcNc7cVb?ckckbOb0cCc4c4cRb5b<b&b<cwcwbJaQb^cJb~cccwcPcwcccDcycwb~bZbea+bub5clccb5a;a1aFaBaRa;b5b~b~b~bEb<cyc0cCcCb[a$aSbhaGaMcgcgcKcGcQcBcGcKbrbPcBcGcQcQb)cpcfcjbebia:bxbQa{bsbibaa9aXaRbaa+a&a&a>buccb*bGbAbObqbObEbGbGbNbYcjcBcjcjb}cjczcBcjcscscQcjcjcjcfcBcob}czcBb}cjcfcgcgaYaMbtb6bFa!bgbdbia>a;a;bdbja~a>bgbubKa~bjbKbua5bgbBa[bKb%a,a?bua>bpbvb[a~a7a5a7a,a7aMaLa7a5aOaMa0a~a0a7aYa,b%aRbnb9bQbIb1bQb/bPbHbz",
"bzbrbqbEbPb7b7b$b:b/cjcpcpcSa>aYaZaVaFaxb}b>b}cpcBcBcxcsb}cxcBcpcUcQcsb}bfa_cLcScGcSc1cVc1cScQcQcKcecjcCcOczcscvcsb{cjcCcvcjb?bNbea<a4a1aMaEaEaxaEaQa$aXa:a:a:a$a:a=bqbGb7b>cHcZcZcOcUcUcUcHcocHaMaRa%aBa9bdcvcCcCcvcfcyc0c4c!c4c5c5c!c%c%c!c5cNcNcNcCcCckb$cNb|bHbEbWbPbIbWbDbDa7azbIcnb~b<bWbWbWb<ccb<b&b&b*bxa>bdb<cwclbEa1a+a+a]bja>a{bDa{bDb;cyc#c4cVcCbva$aIaIaAaMclcxb_cKcBcBcBcQc1cBcjcBcfcjcjcscfb}bkbrbHbrb_cpb1bGbabebabeb1bHbabibcbibGb/bra)bHbNbGbEbYb_b>b)b#bYb7b7b!bYb#b7bXcjcBcscocBb}b!b}cBcBczcfb}b7b)b*bxaUaGbCcaa^aSa~a>bIbQbxbxbpbxbjbpbpbBbIbubQb8bSbKbubnb`ctb+bIbxbKbQbQbdbQbga;a7a,b2a?a0aMaTaTaRaTa,a0a7a>aOaxa7a(bIbJbdbebPb]b/b:b/b:",
"b:b7bGb7b:b7brbOb:b_cpcfcScRa5a(a2aSaRaJb>b}b}cjcscBcscBcpcBcBcscBcHb=b}b)blcocScoczcKcScZc1c5c1c5cQcocecHcececocscob{cjcHczb?b=b=bYb?bYa`a$aXaXa*a*a:a{bcbca{a:bEb4b7b#b=b7cecUcUcUcUcUcHczczcHaRa(a.aDa}bJcpckckcmcycNcIcNcLc0c)c%c7c%c%c0c!c!c5cvc7c!c#ckb0cyb$b]clb0bmbsbebJb<b*bxb8cwcwcDb~b~b&bibxbPbDbWbia`bpb;ccbWbca4a&bmbvclbDaXa&a*a`b0b&cVcNcLcCa]beaZaSaBaAbHb^cBcBcKcBcKcQcScBcBcKcBcBb}cBcBb}bObAb)b7bqbEbAbEbrbrbrbEbrbrbkbkbqbEb-b}b/bla_b4cjb_cjcjb}b}cjcBcjb}b}cjcscocsb=b=b}cececzcBcHczcQczcjcfb]b]bBa]aGa%cicMbVaya(a>b/b/b8b1bIbjbQbRb1bIbHb1b/b]bKb*b8b1cdb^bQb4b$b4bPbEbHb*b*bxa(a>chb9a]a7a7aUaRaOa7a(a?a>aMaYa>a?bmbRb*b8b:b/b:b_cfb_",
"cfcfb:b:cfcfb}b:cjcfcjcBcgb#aMa8bFbwbba0b#b-bGblbXb)cscBcscjczczcoczb!cjceb{cecob=b-b!b!bUb!cocKcUcOczczcocHcOcUcOcHcococOcOcUcOcococHcsbYbybcbAbGbGb0bOa:aWa3baa$aHaPbrcCb!cocscOcUcUcOcUcUcHcOa,b%bhbbbva]b?cCcNcvcmcmcvcycCcCcZc!cLcLc5c!c!cLb=cNc0c!cVb?bNcmcRcycfc0clb4bsbsbWb<bsbxbDa$a=bsb;cDb<bzb|cwbDa{a`bsb&bzbaa*a`bIa`baclbIbsbebea=bcb<b|b;cbcNbZbIa/a!aGaqaHbvcIcKcQcBcBcQcKczcKcBcscsbYb7b7bYbNb:b4bNb7b#cjb_b)b7bYbYbEbqblbrbGbNbHblbYb7cjb}b#bYbAbqblbGcocBcHczcob}b>b{bUb}cHczczcHcBb{b>b-bXb>b)b)a+a+bga?aBa^cucMb6aGaDaJa{b8b8bHbrbibPb1bQb4b4b/cfcfb/bHbQb/bQb7bPb#bEbEbibEbibEbsbaa4a9a;bSbRa]a(a(a7a7a+a>a(a1aRaUbebnbQbxbEb1b:b_cpcBb:b7",
"cfb>cfcfcjb_cGcGcpb_cfcKcla#aya^cub,boaJbra_aza$bXb)b>b}cscscBczcococ5cZcUcOcba_a#a<a3aHaCaHa<aWbfbNbLa_a<a#b!cUc5c5cZb{cOcUczb=b!b=b=b!b>b?b}cbcsb}bza<aWa:a#a:b:b7a:aPblb)cHcHcoczcHcHcHcob7b#aTbMbCbFbvbvcgbzbObEcvc0c0c7c7c!c0cvcLckcNc%c%cVcbckcCcLcmcNb4b)cmcycRcmcqb|bzb5bIbka{b5b|b~b<b<b;b~b?b;bPbra{a`babebiaWa*a=bea`bDa`bmbmaJaEaCaFaCaCaXa$bsa*aRa0a^bwa2ayaFaJbcbHbQb:b)b7b)b)b:b:b/bNbmb8b*bQbHbrb$bHbcbrbEa:a_bEb4bGbrbkbAbGb4bNa:bab#bNb7bXbXb-b>b}b}cjb}b-bLbfa<bfbUb#ceceb>b!a<bGczcKcBcscfb}bIbia?a7aDaUaqa!b\cMcFbTa%aNaFaObibib1b/b]bQb]b^bPbEbPbzbib1b/b]bQbObPbIbQbQaHaCaramavavavaCaKa1a7a1a+bda>a1bebxbQbPbHbEb4b$b]b_b_cfcgbXa3a:bOcg",
"aCavaCaKaXaPaWaXaWaPaWaWataCbobbbtbwbhaAazazaHaCaHaKaHaHaPaWaWaWaKaCaPaWaPaPazamavataFaMaYaDaxaBaGaGa0a7aOaRaJaFaWa$a3a3aRaXaTa0a,a0aDaBaxaxaEaCaCavaiavazaEaAaravaEaEazamanaFaEaCaraEazapapataBa5bba.aLa0aAaQaFaJaEaQaQaXaXaQaXaFaraAaxaFaJa=bebJbZbvbJbDcdb%bBbga?bSbtbub2bBbKbJbBbRbja>a>a?a0aJa0bdbda,aOatayaJaTaOaJaDaBaFauaBaFayaGaSaNaBayaOaBataqaAaBaIaZa\bMbMbba2aBaoaoaiaoanajakatataxauayayaAanakarataAaFaLaUaGaSaUaBaTa,a?a5aMaJaFaMaJaFaxanaCaparavaFaFaFaJa0a]aYa5aUapaiaiazaQaAamamamanatavaEaxaxaxataDaGaBaBaga2cacucubFbFbVbhaSauaDaRaGaAaBaTa~a5a5aVaSaSaYa5aUbga8ayaxaAaJaAaAaDa5bobTboayanaiaiaiatasataxatavazaEazazavaraCaCaEaCavaramanazaC",
"ahakahakakahajajalajajajajaya[btcucaboasalagahajajalaoaoaoasalajalaoaoauayayayaSa.a^a^bta-aBa5bobtbta[a|bTbTbwbta!ayapaDaVaBaBaDaBaZaVaVaIaDaBasawalapaIaBaDaOaVaUa8a[a-aNayaLaZaZaLaBayaBaDaGaIaGa!bCbtbbaVaBawayaIa2ayaoaqaoaoaoaqayaIaVaNaVa^a.btbha6aIbtbTbba6aLaDaLa!bhbwb,aNasaqaZbCboa6aNaNa%bha6aIaBa6bta\a^aSaZayaDaZaNaGaBaBaDaDaVa6a^b\bobbbTboa\btbtbtbobhbhbTbVboa\bba\a2aSauaqaDayaBaBaqauaGaIaLaSa!a%boa.a2bobtb(bwa|a%bhbFbFboa!aIaLaGaGaNbba^a!a.bobhbhbTcucMcFcibMa^aBajafafacaeahajalahajajaBaVbhbwbta.asawbMcMcYc*cub6bwcibTbwbobba%a2a/a\aZa^a^a.a/aZaNaIawa2a\bbbhbMa.bVb\a.bocFcac8cMbVaSaLa!cMaZalajaqawaqalaqaqaoaoaoaoasaqaoajagagagaf",
"aZa8a6a%a\a!a!a!a%a.a/aVaBa2aSaBa^bMaVaLayaGaLaUa8a[a[a[a|bbbha[a-a-a8a^btbFbtbhbTbMb,cMcubFbFbTb\c8cMbMboa5aYbMbbaVbhbTa8aUa8a.a|a-a%bbbtbbbFb6bMbta|btbCb3bobCbtbCbTbSboa^a|a6a8a|bba8a/btbta%a5a-a.b3bta-a[a5aOaDaGaYa8a^a^a8aLaNaSaGa.bFbobCbMb3b,b(b6bha^bhbTbVbta^a!aNaBa%bwbbayaNa!bCb,cab6bCa.a6aZa%bhbTbFbFbha%aVaLaVa%aLa8bbbobMb\cib\b,b\bhbFbTaVaNbwa^bMbMbba-bha[a\bVb6bFbFbwbba!aGaIayaya\bCb6b6bFbVbCbobhbTa^bhb6b\b\b6cib,b,b\b6bVbobhbFbTb6cibVb6bwb6bTbCbMb,cFc8cFcibMaNasalasaBaBaBawaBaLauaBa!bFbTbta/aSaqbocMc8cYcibwa!a!aNaDa\a^ayayaubba^a!ayaDaSaGaIaVa!a2aIaGaSa%a%cicaa.bba2aNa!a/a.bVbVb6b\aLagalaoaoaoaSbhbobhbobobbbtbbbha^a.aSaLaN",
"a8a6a|bhbha~a~bubKbKbKbva]a~b*b+b8b*bIbQbvbRb^ccb/b*bxbQbHbQcgcwb+bIa~a>a/bwbCbCb3bTbBbJcWcTc0cmb5cDcDbRbmbZc4c9cTb~b2b9b2b9b+chcAbRbubvbubBbBbubobKa!bbb,b3a^a%aRaMb_cgb1bka=bebmbxcqcgb:b$b/b:bHbHbababOb1b}cfcxcpb)b$cgcgcgb]b_b;bJbra?bwbbbCb3b3bKa~bZa+a+a`bibxb5b<bRbsbibsbRbRbpa=a+a3a`bZbKa9a9a+a}a]bsbjbKb[bSbSb2b2bVbMbTbbbda?a}bubvbpbjbnbdbBbga~bvbub2bBbjbvbEbDbdbjbvbdbjb8bQb*b1bHbibIa~a7a5bob6bVboa8aJaRaXa4a(bgbScrb%b`bSbub%crb.b2bubBbubBctcXcEcrcEcFcFcEb3crcXcEcFcEbtayaoaBaIaybechcAcrcdb2b%bScrcEcAb%bnbja|boa/awaDaOaTaJaDbba/aDawahaybbboa!aBa\boaVa%bVcMcFcicibba2bbbVaZa8boboa[a|a?cachb6cub`bKbubvbvbnbSbSb2bSb.b%bSbob2bSbgbKa?a5a^",
"aGaBbnbjccb*b8ccbia4b8b*b/b/cRcPcGb/bPb/a>avbfb8b7b#brbcbXcxbYbNa3aCb:b/aFaxaSbhbgbdc!cLc5c)c%c)c%c!c5cCc0c+c%cVc%c%cNb?b&bcbcbzb;cLcqcycVc9c+c#c4cVb&b5a[bCbhaLazbHcpb>cecScSczbNblblbkbYb#cfbUb}b}bYb7bqbAbGb7b_bXbAbOb-b:b>bXb#b#cbcbbja>a6bbb3a^a#b|cZczb=cscjcjbGblbqa_a_bLbNbNbfblbLbfbybLbUbXbXbUbUbUb-b=b>b}b-b!bObOaIa-boanblbOb}b)b#b_cbcfbYb/cqcfb:b7b/b1b$cwcGb:b7blbNb/b_b)bPblbqbGb#cfcda{agafawaDa0aRbzb/b]b_cfb)bxa:aKa1aWaQaXa&a*a{a+a*a;bababHbsbxbjbDb[b+b[b[b1bzb[b+a/a^bVcucuaDbWc9c9c$cRcDcDb]bNb]cjcjcqb4a,aFaFa7b[b*bJb9b[bjbFa,a5a>cdcrcAcJcJb+aLajacaja%aNa5bbbab*b*b^b8bIclb^b1bDbPb1bAcycRb}cpcBcfcjb>cpcpcxcGcxcfb)b:bObYcfb~bEawa%",
"adaya]a>a&a;babIa7ava;a9a;bia*bEaXa=bAb$b/bGblb:cxbYa_bHcBcBcscsb)b7b}cfaMaMbha6avbjcCcZc!c!cUc5c7c7c!c%c0cscbcLb<bAaWa*cbcVc0cCcCc)c#c+c+c4c0c)c!c7cNcCbMb(b6bha3a&bXbGb=czcQcZcBcBcjb_bNbfbqa<b>b>bYblbzbrbYbNb0bqbUb_b?b!b>b#bYb7bUb)bja>aVa/bFaYbLbYbXcobAa_a)bybUb!b{b{bUbNbLblbyb!cBb-b=b=b!ceb7bybXb{b}b=b=cjcecocGb>ahaxapakbPbfcBcGcscpcBcvcGb}cpcfb}cxcWcqcqb/cPcxbQbAbcbrcGb:bqa_brbrbGbOa4aFa6aGaDawa1bKbcbabfbrcfcpb#bAbrbqbabcbfbzb$bPa$babzbHbrbIcAblbdaXa9a]a>bjbxbncTcTa0b3c-c,cia/bJbja}b[cJc(c$cAc9cJcRcIb<bObRbZb+cAcda`aBaFa+a>bvbib8b[clclbQb8b^b5bja1acacaoadb$cqcfb_cScCcfb7bqbfbfa{bYbAb>b>b{cjcKcQcCcvcCcscGcGcycWcGb)cRcGcNcNb+a$acae",
"awataWbjbHbla:a)baa)aWbibAb#b/bGa*a3bqbPbPbGa{a{b:cRbLb)c1c1cBcKcQcKcQcsaRa~cFbFa$bWcbcsb=c5cUc7c!c%c5cvb?b?b)bybYb7cUc5b?b!b=cNcVcvb=bOb?cbbNbYcCc7c+c+b+b2b6a^a3bmb}cjczcBczcBcBcBczczcQcob4blbLb_b}bUbybNb}cbczcscKcBcBcBcjcjcjcbb_b>cucEboa^buaObybybLb-cocecocecob{b!b!bUbXb!b-b-b-b{b-b=b-b!b-b-b!bXb-bXb-b-b}b=cocLb>btcua8apcpb)b}cGcBcNc1c1cNcsb?cpb)bGcxcpcfb:cxcSb_b#cgb:b]b4bqbqbrbqaQaCaNbTb,cab\a.bDb+b#b$b_cyb?cxb_bNbka{brbzbHb]cqb_b<bzb4b$b<cTcDbEccb/bWbPb1b8cDc9c$c#cuc3cFcYcMbVb+bDaAa,a(b3aYaOa[a~bncTc2cDb5clc2c+b`a3aQbKcpcxb4bOb:cGb^bEbDbia`bea;bBaSaDayaDb1b4b!cGc7cZcvcbb?b#bNbLcbb=cjcKc5c!c7cZcVc!c0cVcRcIcfcqc4c0cIcScNcBbZa$aBaZ",
"a5aUbAbEb#b7b#b/b)bGbGbzb#b#b7bGbrbla*a)a$a*bPbYb{cRcpbycSc!cScob>b-cKcQaRa1bMbFbscwcUcZcscscOcec5cOc5c!c%cCb?b;coc5c7c7cHb?b?b!cbcvcUc5cjcsb?a#bYb?b#ckbuaRaLaSbmbIczceczcBcUcZcBcscBcBcjcjcfb}blb:b>csbGbXbLb#coceb}b!bAblblbAbYbYa:b^b\btbba%a|a0bfb!cob-b-b{b-b-b!bUbfbUb-ceb!b!b>bUbLbXbUb=b-bfbybfbXb{bXbyb-cocococLckbMcrbMaUcfcIcGbLbycgcBcSc7c7cxcBcIb}cscpb:b_c1cRcSc1c#c1clcWbea<a1a1a[a-bobwbhbMb6a|bIb+b$bGcbcpcGcbb4a_bqb1bra{b*c$b<c2cDbzcPcWcwb1b^cwc2cwc4cPc4cqbJb5clcPa~b,cMb\bFa%bpa0a7a5a7a,a5a7bga?b5ctc$c2b~bDbzb5bRbebPccb;cgb/b#b)b]cwb]b<b&b^b^bxbZa^bhaIaGbsbzcbcNcNcLcCckcbcbb7b7cbcecCcHcscSc0b=cNc0c)c#c%c)c#c4cIcxcLcxcfb7a=beaZbh",
"bta?bkbkbqbEblbrbNbNbAbGb:bYbYb:bXb:b:b:b#b:cxb}bAb_cxbXbLcIcSczcjb-cQc1bsaQa%btbjbJb=cCc5c5c5cOcscOceckcUc5cvc7c7cvb=b=cscscbb{b!bYbUcbcCcOc!c!cLb?b0bfbpbSbTa^bWb&czceb}ceczcQbYblb7b#b}b}bXb>b:blbUcxcoceb}b}coczbYbXb}b?b{cjczcob4b]a5a|b6boboa?bfbYcHcUcUb=b{b{b{b!b-b-cececob{byblbLb-b!b!b!b!bybybLb!bybfbUb>b-b!bqbGbTc6boaOb:cqb#b!b7b:cjcxcScSc1c7c4b=c1c!c0cScNcpb_cpcRcGbOcDb^bkapaUb,a8aNa!bbbMbwa\bab*b0bfbNb7b)b#bOb4b:b)bma*bRcTb]cca*a`c*c(cqbZb~cDccbrcDcwc2cvb<b<cnb&a.bob6bVayaDbKaMa+bub`b9b2cncTcJc0cDb~c0b+b<beb5b<bPbEb&b]b$b4bPb$b/b*bEa(a9bRb+bpa]bCboaGaocmcmcNcNc0c0cVcNckb|cbcvckcjcjb=b=b=cZcLb>cVc4c!c0c0c4c0cScGcKcBb_bUbIb8bbbV",
"cFa8aXaXa<bOb)bXblbqb:b#bza_aXa$aWbEb}b-bfbEb7b)bGbEcpcGbYbUcKcScKczcocKb]b8cib6bdbRcHc7c!c5c5c!cecvcLcsbUckckckcvcUcvb=cUc5c!c5c!c5cCb=b=b;cbckbYbNc5c5bubDbtbob4cmcBcob-b>cecjb}b!b}cjb?b!bYb>cKcBbLb>cKczb-cjcQc1cocBcBcococjcocjcpb#aRa5bhbMbFbgbYbXceceb-ceb{ceb-b!cocob-b!b-b{cecob{b-bLbLcebUb-cob!bUbXbLbUb-b-bUa{aPa8cFb,a-bOb&cxcfbXcfcscxcBcScZc7cIb!b#cLc!cLcLcNb4bNa3a3b4cPb^b0a[bFcFbtaOaLaSa/a^aVbeb+csb}ckcscGb?b?b:bGbNbDbrb+cJcWcWb&cgcRb~b1b5clbkccb[bHbEb;c2c$c4bga7bhbCbbbbaSa%a;aRbibZb2bubZbKbZbDcmc0c)cTcycwcCcIcRcyc9cTcbcIcycfb~b;b/cqbRbea0a?a0a~bCa/a.aVb$cycVcUcVc4c0c0b|cmcCcycbcbcvcUcCcZcZcCb-cbcNcVcRcNcRcxc#csckb}cCcSbuaKa2bF",
"b\a|a#bib!b}cBcBb4bfbqb:b}cpcjcfb}b}b_b)bqbla{brcpb}b)b:bGblbYbNbNbAbLb#cgb$b,a^bcclcOc!c5c5cZcOcvcOcZcZckb?cZc5cLc5c!c5c7cHbUb!bYb!bObNa{bca_a<b0b;cbcHb[cAb6bFcmcmcOcHcHczczczcBcob#b!b7b7cjcscBcKcxbfcecjcecececBcHcHcBczcKcHcBcockb!aFaJbbb\b,a~bfbfbUczb-b-b{b{b{b!b{ceb{coceceb{b{ceb-cebXb-b{b{cob{b!bXbUceb!b!bLa*bebtb\cFbCaMa7b]ccckcGcKcVc1c7cGb{cGb?b!cfcNcBb;b)b|b)b:cqcIcRcyclb+b[bCb(bhaVa-a^bha!bebRcLc0c%c!cCc7cvckbEb&bmbsbsclb<b<c2bOb&cDcwcWc$cccwclc2cDcwc0cdbEaxaDbbcabCa.a/a6aQa+a&bibja]cnbZbnbncNcTc4b5b|cwb|b~cIcIb&bWb5b&b/brb<b&cgb]b0b4b1b5a5a,bVa^bhaNbkb5cVcNcNc)b<cRcIcycyb?ckcLcvcNc5c%c0c%c7b{cCcvcNcVcWb)cscVc7c!c#b?a7aRaVb6",
"bCa-blbPbUbGb>b)bXb}b:b-b:b}b-b)cBb}cxb}brbObiaHbAbcbAbqb7cpb/a#b-b_czcBb]a#a\bbbkb~cHc5c5c5cCceb!b!ckb=ckcHcbckb7b=cCcOcbckckb=bObNbNbNbfb0b0bAbfb0cscCbnbZbVb3cqcycecHcKcjb-b}cscsb}b>b>b}b}cjcscBb:blcscGcBcBcjb}cBcscjcocscocjcjcjcebxa*bhb,b3a|bLcbcOczczczcoceb-bUb!b{cocHcecob{ceb-b{cocebUb-b{b-coczb{b{b-b{cecob4bPbobCb,bMaDa5bebxb7cpcscGc1cKcxcscQcKcxb!cxckb?b7b?cNcxb?b:b$b^cJb5bWbpbgbbaVaZaZa!aNa3bxb?b?b)cbbOb)b$b$bEb*cTcqb+bWbkbmbQbcb~cPcwcqb~bPc$c9cDcDcTc2bRa`a>bjaNbCb6bCbwbwbxbia;aWa1a]chcda&a}cycwcDbObkb~b&a*a_clb<b4b4b<cgcyccb&a:a`cgb~bHbPb2bucabCaVasb0b~cCc!cPcyb<cPc#c0cNcNcLcVc7cVcNcVcLcLcVcjc4c#c#cWcWcPcfcIc0c0c4c4cDbzaIbo",
"cubwa#b$bYbUb)b}a_brb-b:cjcjb:bGb!cxb)bXblbHa;azbXcGcfcBbYb)cob>b!b}b)b!a4aKa!aSa{b~cZcUc5c5c5c5cUcHcCcob?b!cbcsckcecbcUcbcCcCcCckcvc5c%cZckcCcvckb!b=cZbsbsbCbhbEb5cKcobNbGbAbEbYb#csb>b>cjckb>cBcLcIbNbNcIcScQcsb>b=cjcoczcoczcecsczcjb8bkbhbTbMa|aXaHbfb{b{czczcHcococeceb{cebXbfbUb{b-ceb{b-blbUb!b!b!b{ceczb{b-cocebOa{aIa!bha[bOb&b:b?cbcjcpcscBcGcScLcKc1cfbYb=cVc4c%b>cNcvckb$bYbZbRb4b$bsa$aFa|bFbMb,a8brb&cbbYbObNa:a3bcbkaQa]cwb+bxcnc2b~aCa9cPb~cycDcIc2cRcwcTcDc4cWcDcPcnbPaOb\cibMb6b6bJa{bObAbea&a+bna9bJb|bAb;cmbzbzb~brbrbIbrb&bPbzbzbPb;b$b)cIccb;aMa]a5bhbVbFa!auaJa1aKaQb~c2c)c#cWc0b^b0b?cNcLcHb?b!cCcHc7cVc)c+cWcRcWc4cDcRcRcgcsc0cWbPbwb6",
"b,cFaEa9b#b)b!b)cBb_blblb#b7bqa<blbPbYb:cxb_aQarbycIcpbfa_bYbraPaiaiafakapaLa2aGbfcwc%c!c5c!c5c!c5c!cUcHcbcUcCcHcbckcbcUcUcUcvcHcUc5c!c%cZcCb=ckckb!bLb?b<b+bTa6aCa9cjcBcfb:b7b_b_b>ckcpcscfcKcVc1c0cWb:a_cqc7c7cQcQcKcBcScZcZcQcUcZcZcZb+a*aVbhbTa|a{a{b!cececHcHcocHczczcococHczcoceb!b-b-cob{coczczb-bfbyb!b-b{b-bUb-bza*a\boa^a|cmb|bycscKcBcBcjcBcVc7cQcKcBcxb?b>cVc)c%cNcLcscLcLckbfbcb?cfb0bqa>b%cMcFchbhb0b<b:bNbcbkbaa*a*bza+aQa(a]babQb1b8bDbmb5b&bHbPbEb5bHcTbWbmb9b1clcJcTcPbhb\cabMaSa\bdaRb)b$bPbEbibebkb5bHbEb0b|b;b7b0b)b&b4bGb$bEbkb#cfbQa#b?cWcRb;a}a&aya.b6bTa^aGahajakaGb$c2c2c#cWcWcwcwcLcvcscHckb=cscvcvc7cRcpc9c#c#c0cRcIcScRb_cfcJa_aBa%",
"bTb,boata<brblblb>cfb}cBb$a#blb]cpbYb#b:bQa)amaCbqb/cjcjb:b)bnbia\a[aDaqayaSboa\a$a`b{c5cUcUcZcUcHcHcvc5cCcbb7cbcZc5cLcbcbcvcZc5c5cZc5c!c5cZc5c5c%c)c5cUbBa9aVaNaXa+bNb)b7b_cscKcxcCcScSc1cScxb_bcbzcyb/bNb:blb/cfcKcxcjb7blbfbNbqbyb7b)bRb9aSaoaDanaWa)b-c5c5cUcUcUcUc5cUcobybybybLcHczczcHcocecoczczczcococeb{bfa#a#a_bxa}a2bba%a%bAcgcKcBcQcBcQc7c1c!c%c1cHc7c%cQcvcvc!c1cScVc%c#c!c7c!c%cLcCcIb?bdbKb(cFb%bFb5bWb)b|b5bEa*a:a1aParava1bpbZbDbibibebZbPb<cWcqcIcwb5ccb9bDbma`a+a9aMa(a6aZaZa%aBaLaNaVa]bdbxb5cycwb<cqb~bEaJaEa{bDa9amamaAbfb*cVcNcIcpaJaEbzcwc)c4b<a{a5bobVbtbta^aBaGa1bucyc#c4c9c2c0clb/b7bGcHcOb{b{cOcUcHczcjcec7c)c4c1c4c7c1c1b/a#a;bpbobV",
"bVbTb6bba7a5aRaAaFaJaKaMaFaxamaxavarakarafadacadaeagakakafaiaybobobtaLajaoaDa-bha8aJaFaFaCaKaPaQaQaEaEaEaFaQa0aRa{bWa=aPa$a`aQaEbcbEbfbOckb?b0bkbNb0b5cwbSbSb\b\b\bbaRaxakananaparatazavararamafaiaiaiaiamaiaiakamavapamaiajanaxa%aDaDaBaGbTb\b(b,bCaOaFaWa$b!b=bLbfa_bLa_aHararaiarbybfa#aWaHaPazaPa#bfa_a_a_a#aPa&a4a0aRbbbha\bVbCa&a?bebabcbibmb*bQbIbea*a&bma;aHamaiaQaEavaAaEa4a9a1aXa&bpb[chb`b\cucEcucuctbKa?bdbubBb%a]a>a,a?a5a0aYaAanataFaAanataRaMaJaxaQaTaMarataxaAaxaxawasasalahawaVayasaqasaGaDaqajaMaRaMa7a[a,aGasaqaqaBakaoafadagaCa&bea*a0aMa:a]bEbEaJaKasaVa/a!bwbhbba2a7a(bWb*bxbzbsbeaQaEaWaQbfbqbGblbfbkbGbGa{a)a*a=bHbQbPbHbHbHa1a3aObob,cu",
"btbCbobobhbbbobha/bhaZawauayaoajahaganaoaoaoaqajajajahahananaBaBawasayaBaDaSa^bbb,btayauauaGaDaBaZbbbbaSaGaDaGaYaNaNaIauasasawaBaDapalalamala~btbta/a?bFa6a6aUbTcia\aLaGaLaZa.a6aIaIaNa%aGawasayasawaIaGaNaDaNaVaDaBayayaBaGaDaDaNaSaVaVa8a\bbbwbTb(bVbtaVauagahatataBawaDa.bbaYaLaDatayaAaxaEaJaAarataAaMaMaBaGa|bVbba/a/bhbtbocacubba\bhaSaSaIa!bCb\a\a2aIaGayasaqasauawayawawauaNa%a^bMbCbhbFb\bwa[a|aVa5a,bob\b\a|bwb3cab(b(b,bFbbaNaSaNaDasaDa2a2a2a2aLaDaIaNaIaSa2a2a6aLaDb3b3aBaSayaBaqaBasaoalaeafalajaoajahahaoaSawalahafahaqaoaqahajalaoaqaoaoaoayaSaBahahaoaoaIa6a%a%bob6cabbaGayaoahahalasayaBaDaBajahawaBauayaqawaBaDaDauaoajalaqaoaoayaNaDaSboa/bh",
"a!a!aZaSaSaLaIayayaLaLa2a!a^aVaqayaNaSaZaUaGaBauauaBayasayayaDa^bha-bha/aBaDa^a.aBaBalalalasaGayaDbFb,bTaVawawalalaBawaqauayaGbba%a~bTbbbtbTbCbtb3bTbFa6axa6a6a5btaYa6a/bha.bhcucFb3a.a|a.a6aSaSaSaGa%a!a2a%a/a!a-aSa5a2a8a8a8a8a-bhbtb\ctb,bCbwbhbCb(a|aVayaBa/bbbba~bhbubtb\b,b(b(b,cub3b3b\b,bobtbCb(b(b,chb\cMcub,cib\bbb(bta|cib,bhb3bTbhb3b6b\b,bCbVa%aqaoaoawaGaGasaBaZalafajaoaDa2a.aVaZaDaDaGaDayasaBaIaYa|bMb\ctb3a!aSaDawa8aSaqaqasayaqasasa%a!a6a-b6b,a[a/aNasaDaNbbb6bbayaSa/bba2aLaZaNaIaGasaBawasaoalauaya%a\a^a/a6aSaZaVaDawawaqajaDaNaLaBaDaIaZa%a/a\bhbobTcicMcYbTbVcubTa\a2aNaLa!bTbhbTb,b\btb,cia^aLaZa6a6a^boa.a6aZaIaIaLaGaGaGaNbbbta/aSa%",
"btbBbFbobBb,b3bbcacabMb,b,cibCbFa8aIaSaNaUbbbBbbb3b(btbBbTb(b(b.cucFb2b3a~a0bubta~a7a?a,a7a7aMaTa;a}bDbZb;b~b<b~b;b<b~cwb<b<b~b~b~cDb~b5clcJb<bWb<cdb+bJb5cJcdcccJcdcycwcwcPcwcTc$c#cwb<b<b&bnbDaGaBa2aNa]bpb^b&cqcwb]ccccb<b/cgcRc4cccwb^cccTcDcTcWcPb]cccPcTb|b|b~b;cDcwcyb~cPcPcDcWcPcTc9c9cTcnctcAcrcTcEbSbucActc2c2c+cWcTb[cXc6ctbKa,chcrctcJb+clbWbDbDbxbjauayauaqa4a4a4a4bnbKa;a+bebRb9cdbZb5bpb5bRb5bIbWb5bIbDbWbJbxbJbIbKb%b(bCbja]bjbdbjbJbpa}a}bna}b9b[b[bZbnbnbRa5a0a%aLa~b,b3bMb,b3cFcichb,b%b,b3bMbCbKa[b\b,b(b,b,bVboa/bobha.aZaGaoaBaGaGaDawa/cMb\bha6a\bba%bhbwbhaTaGa~bCbMbCbCbbbCbCbCa|a|b\cub\bwcucta[aUaOaUa-bwb3bFa[a[a-a[a~a|bobobKbCa~a8",
"cfcfcfcpcgcqb/b$cqcGcIcIcgcgcIcDbua5aUaUcfcGcpcpc7c#cVcRcVcVcycxb~b$b?cmcmb_b<b<b*bIb9ccbZb5bWbPckcycNcyb-cvckb!b=ckcUcCb!b!cUc5cUc5c5cLb|c4c$cJcwcTcwb&b<cAc2c&c+cwcVcvcscGcKcBcvb}b{cvc7c5cLckaqayakaca_bQb)cgcgb|b4bHbHbrb)b_ckcpc9c$clbab]ccb/b/c!c#c1cCcxckb#b_cbckcNcxcvcLcNc1b_cpcNcVc#c0bHbEa1bdbja4aFa(bxbscVcVcLc!c#c0cXb2b9crb`a?bubBcbcxcCcLbGbNbPbOa8bFbTaTcsc0cZcZc7c!b4b~b|cRc0c4c!c%c+c+c4cCb;b;b;b;cycIcwb&b<clcdcXcJcta4a4bebJbsbjb&b^bDb&bJb<b&cqb5bzbna`bua7aGaYcnchcJcJb3b.b2b.cTcDcwc9c2cnb[cncdcAcrcrbFcicicub6a6aUbKbta,aSbwaZasaBaIa/a^aGaxa,a~b8b[b]bWb]b^bDbIb8b8bDbva]a&aJbpcnb*bibibHb*b*bmbmbxbQb1cncdcRcDcRcIcRcGb*b0baa{bzb4b/b]",
"cgcfb:b/cpb_cBcsczcBcjcocfcxcGb}bgbKaOaUb)b#b-cbcjcjcscCcscjcbcbcCcCcpb!bzbNb8b*bDbWb8b<clccb;b0cPcWb<bEaPaHaPbEcCcscHcZcZcZcUc5cUcUb5bWbna,bna~crcrbna}bnchcrbKb5cDcvb7b?b)b)b}b}b>b}b}cUc5cmb7bhb\aZahbcb^cPc2b~b^b_b_c7c7cNcKcvcCcGc0c2bxbebIcfb_cQc1cScKcCcLcGc#cScscpcpcxcpcscGcNc#cVcLcvcjcKc1c4cybWbDbHb~c4c!cCcLcNcCcpcbcmckcNcVcRcmbPclc7cVcRcvb#b#bHbzaqa[a,a0c7cOcUcUcVcQcqb;b~cmcyb?b5b&ckcwb;cmcyc0cDcDcDbWbjbJbda`a]bna}a+bebJb9bRa[bhb9b2b9bJbjb+bZb5b~b~b[b&bBbna?a?bvbvb+bZbpbub5clcDcybIbka7a9a7aRbmb9b8bWbgbpbMc8b\aZaYa~a,a0a%a|bSbSb5bHb8b*a(a>a~a]bsb9brccclbEbrb4b]b0b1b$bva+a+bBb$bObHa{bcbkbqbrbrbca4aWa=a=bYb)czcKcKcKb}cBb_cgcgclb/cW",
"cTcTcAb+cwclcKcBb#b>b#b}cycIcGcGbgbBaYaUcjcbcjcjb=cCcOcOcLb=a:a<blb0b{cjbPa<bxbZaTa1a9bebmbjbjbJbDbib?cNcUcHb=b!cbcjcUcHcUc5c5c%c5ckb&b5a7aFaFaBaTa0a7a,a&bvbZcdc9clb?b)b)b_b}cfb}b>cbb}cvcOb5b0bwb\a/a6bOb]cIcycRb0b?ckc7c7cLc1c1c!c0cScPccbOb$ckckb?b?cxcbcGckckckcScBb:b_bOb4b?cpckcbckckb?b?cLcVc7c0cVc!c#cvcbb?b>cCcScVcHc!c!c%c!cSckcvcGcfcbcVcIcjcxcsbObEaoaBaMa,c1cOcjc7c)cCb&b~cmcwcmcwc0c4cnbOa1bpb9bnbWbJbna]a`bpbWbDa9bebvbmb&b[ccbsa~b%btbKbSbub9b+b[cdcwcdb<bJcAccbpbpbvb+b[bRbBbub9cAcnb[a~bSbTbga?bSb2b[b+bZcTbmaycMbhaSaVa|a-aOaDa-b9bIb#bYa=a*a+bvbBb+a~bBa]a?b1bIcfb_c!c4cWb:bga(aTaMa:bsbrbrblbEb}b>b$bNaXaXa&a4bqb$cjcBcBcQcocpcfcIcTc9ctcT",
"cXc3cdbibWcJcjcfcjcfcBcBcAc9clcgb%b.a|aUb}cjcscBcCckcjcNc5c5cOcCcecOcUcZb8bkaJaRaDaxaRaXaXaQa?a~bfcmc7cZcZcZb=b!b!cvcUcHcZcZc5c%c!c5b<bWa7aTa0a7aUaOaDaFaAayb&cJcdcnb~bOb#b_b>b#b7b#b=cbcUcvcLcka/bobha/bYcqcvcNcIcxcmcxb4cybYcbcVc!c#c#cgbzbzbPbObGb0b:cbcNcRcRcqcccycIcDbHb0b]cbb|bGb)b_b#bYb)b)b)b;bLbYcqcCckcVc%c0cVb7cNcNckcZc!cLcCcbckcxcCbGbAc4c1b=cxb/bqawaGaEa0cSc!c1cVcNckb5bxbzb&b|cmcycmb~bWb;cDbRa+bDcdb5bsa}a>bRbZbWbWb~bIbnb+cnbWbBbva,a5a?aTa&bgcccJbnbeb+a:a&bna?a&a,bnb9cnbBbma?bubhbKa[bba~a~bBbga~bvcnclcAbJaDa!a^aSaUa|a(a0a-a8a=bJb:cfbEbHb1bWbucdbhbtbCa5aXa>bHbkb=cxcScGb+b[bRbdbibnb0b/b_b7b>b}b_cjcfb:bPbrbrbzbGbGb:b-b#cfcfcGcWc9c8cE",
"a&cXc&cncJc2cycgcBcBcGcBcEc&cdb8bSb,bFaYbUb_b}bLbGbAbUcNc5cUceb{cHc5c5cZbeazalaoaJa0bEbHb0bqbEbcb-cLcOceb{b{csceb!bLb-cvcUcUb{cec5c5b;b0a`a0a0a0aUaTaDaOaMaBbZc3cTbvbea}b?cbb#b>b#bYb=cbcOc5cmbYa.bTcabtb!cmcbcjcNcGcNcNcmb0b?b;cLc4cVcNb/bOccbPbWbEb_cqb_bNb$b^b&b*b0cDclb&b<cgb$b|cIcmbYb|cVc!c0ckckcmcLcVc7c7cCcLc7cNc7c0c7cVcZc7cvcCcvcLb=cscLcBcScKcxb=a:braIaNa5aYcbcCcjcbckcka]aXa:b&b|b)b<b;b5b5b5b;b<bmbPclbRa`a}a;bDb9b<b&b<bDa1bjb<b5bBbRa7a,bua?a4bBcTa}a{bZb~bDa}a}a7aFaRaGbmb+b+b+a,a(bhbtbSbta(a\bgbSbBbncccAb[a}aNa6a%aSaOa|a>a7aLaMa$bpb}cvc1cQb0b:bZa=a,bBa[a7a`bvbHbeb#cIcQczczcjcscscpb)b)b7bYbNb_cjb}b:cjcpb:b#bNbOa=aPbfbEb#b#b>cpcfcfcdbS",
"b1b^c2c2cXcJcwb/b}b>cjcjb$cDc$cDa(bBboaSb-cxcsb-b7b?cecscHcOcsbUcoczcHc5b}byaKaRbqb$cscjb!b-ckb!b!cscOcocecscococzcZb{cjc7c5c7c7c5c5cCb!bka{a0aMaFaAaMa5aTaJa=b+a+a,a$bmb#b7b#b>b?b>b-b=cOcscNcsa~bFb3bbbYcqcvcecsc!c4cVb<bOblb;c0cSb;bOb4b0a{a{bzbkb#cfcRb)bxbPb^b&bZbRbZbZb9cJcIb$bNb0ckckcNcNcscLc7c!c7c7cmcvckcbcCcNcLc1cCcCcCc1bOblb=cbcLcCcBcScKcscfb#brbPaGa2a,a?ckcsckcjb)b0a4aXbzcDcmb#b~b|b5bPbHbDb5bmb5b<b5a9a&a}a}bvb<bRbDbJa9a+bRcla,a}bgbgbua,bjbgbpa9b;b<b5bWa}bna}a&aOa0a0a,a?a,aYaDbub.b%b%a~a,a,bgbvbJcDcwbJaWaGaSa^a%aSa[a+a>a(a~bnbvb$cqc!c%cpb=bma$aQa,aTaMbpbna:bDb:b/b_b4czczcKcob{cecsczcgbUbAbHblbqa:a3aKaXa$baaQaCb7b]cob>b}b#bXbNbEbE",
"cqcRcTcJc2cWcpcfb#b7cfb>b}b-bYcgaTa0aZaBbqbEcKcjcscecscecocHb#a_czcZc5cZb{b!b-cscHczcecBcecBc5cZc5c7c7cOb-cOcUcOb-cHcbbfbXcscOcUc5c5cOceb0bya`a:aMa1aRaJaFaJa&bsclb&brbObNbNb)b}cbb}b>b=cZcZc5cva^bKbbaNbyb|cNczckcvcLcbb7b;cLcScmb)bqb;cbb}ckb>ckb?cjckb;b&b[b*clc2b`bubSa~bRb+b;b?b7b)bObAbyb?cCcLcVc7c!c0cscCcLc!c7c7c7c7cCcvcjb-cmbLbNb7bNb#b}cvcsb>ckcfb$b0aDaZa~a,b?cCb?b{b4bNa`beb0cIcCcvb|b|b&bEbOb<bWbzbHb5bWbHbebsbDb5bnbDa`bma7aJa+bna`a&a~b%a|aYbjbBbWb&b<b5a+a&a1bnbZbWbna7a,a}aBaDa0a7a7bub9b[bBbua,a?bsbvclcwb*a{ataDaDayaUa8a;bjbda;bua]bibRc7c1cZczb_bUb0b#a0a~bjbgbzb1b)b#bjaPbXcRcUcOcocBcScZcxbXbXb_cjb>bza{b/b*b/b)a+aXblbEbqbqbUbYbHblbrb8",
"bYcwcTb*cWcDcpcRcIcgcBb_cjcGb_b:a0aMaNaVbXcmcOczcocOcjb=b!cbb!b{c5c5c!c5cHcOcHczcOczb=bXbycjczczcocsb-cecocecocUcNb!bfa<bLb!cHcOcOcZczcocbb=b7bYbObEbDa*aXa4bWcwb~bObkbcbqbzbybGb=b}czcHc5c5cVcsa?btbCa!a)bEcCcZcvcvcVcVcvb-b?cLcLcNcNcLb0bGbfbrbPblbXcxc5c7b&b$b5cccXbBa?bSb[bcbObNb7cbbYb?ckcvcNcsb!b?cCcKb!b?cZc!cLb?b>b>cUc1cLcVcvb=cjcVcKcCcQcKcbb}bYb7a{a{aNa%a,a5cbcNcscebObEbkbrb#b|cbckb;b;b0b;b;cmbObObWbWbebWb5brbzbDb;b;bebma>aFaRaTbnbeaTa0bga?bdbgbZa`a+a&bea}aFaTbva}bna(bnbvaLaAaQbvaRa,bva}bBbBa}bgbxb[cPcWb&bEa|bbaZayaEbgbEbza+a}cnbIbHbWc1cUcBb-bPbOcGcxb$bHa4a9b4bPbLb:b:blbYcGcUcQcpcpcfb_bXbXbybAbLbGb7b7b_cGc!c1cgb:bPbqbAbNbYb#bYbYb7bY",
"bYcgcDb8b_cgcBcKcRc7cxcocBcBbEb4a,a5a.a2bLcmb-b!bUcscLb-b=ceczczb-cHcUcHb!bUbLb!cjb!a_a<blb>b7byaPa)cHc5c5cUcsb!b!b!b!b!bLbLbLbNcHcOcZcUcscecscocbb=bEbkbcbmb0bqbza{aXaQa)b$b?b!b>b=cHcUc5c!cUc5a,bSbbaIbGb<cscCcCcNcOcNcVcscvcQcZc%c1cZcNcjb_b#b)b0cjcLc7c7c!c7cxcbb*b+b5ccbHbHa_b$ckb>b=cbb?bLbXb?b?cjckcbcOc!c7c7cScCcscjcLcOc7c5c1c5cjb}b!b=b-b!b>cvcBc1cmb0boa^aLaBb=cCcsceb0bNbia{bGb|cbb?b?b#bcb0cqb;b0bPb0b;b~b5bsa$bOcmcCb?bWbObjaFa4a+a&aTaAaxa0a(aRaVa`a4a`bmbDbsa0aEbpbna>a}a}bjaOaxaAa,a+a0a(a7bva}bnbRb8clcDcqb8a#a^bba!bMa0bgbHa#aRa,bZbSb7b_cQcQcbcscGckcxb>b$b]bsbmbIbkb#cjbNbLb-b}cKcZcBb}blbAb{b}b{b>a_a<bAbAbObNb:b7bYbYbXb:b>b>b}cjb}cfb}cz",
"b7bUbObGbrbEb#b}cQc1cBczb_b-babza[a[aNa%b#cfbLblbUbyczcUcHcOcOczbfb-c5c5cUcebUb!b?bLbfblbXcjczcebybyb!bybUb7csb{b-b#cecjbYbUbfblb{csc5c5b?bLbLbGb=b#b4bybqb&bfbAb;bAa3a$bGbOcHcQcHcOcOcUc5cHc5c5a7a~ayamb0b;b!cLc!csc5c!cmbLb-cCcLb{bzblbNb?bza#a3bacbcCcCcvb#bYb=cvcmb|cbbYa#bcbNbqb!ckb=cbcscjcscbcjb}b>b}cOcUcHcsb?b!b!b-cjcsc!c!cZcoczcscjb!bNbybqbyb>cbcIb|a.a^aGanb?ckcbb=bNbNbEbrb!cmb#bUb0b#b7cbb;bGa{bHb;cqcCb;bEbAa:a:aXa3a4a4a0aFapaBaFaMb5b<a}a}aRa0bja=bDbcbkbxbmaXa&a}a7aRa`bja}a&aTaJa+bpb[cTbBa>a;a+b5clcIcya]a4bCbwbMboa5aUa9aEaAaOa>bnb$b7cbcGb)bXczczbYcbbxbsa`bsbkbkb:bGblb:cQcBb-b#bfa_byb7bYb7b-b}czb>a_blbzblbrbQb7bPcjb}b-b-b>b-b-b-b}b-",
"b:bybEbkbxbaa$a=bXcBcQczbAbqbja$aub6bhbCb7cfb7bya=aPaPa&b-cZcUcUcobUcUc5cHb{bUa<bybGbObGb-cOb>b!b-cjcKceb!b#b-cecjcobybUcvb=coc!c)c!cUcUcsbLa<bAb=cbcvb=b?bGa#a{b!b7b#b)bGbNcecSc5cOcscOc5coc5cvbKcubMaDa$bmb?b=brbqb0b;bka_aPaXaQaHaEaEaQaWaHa+a1aza<bcbqbqa:a:a3a3aQaHaPa$aPa$a_a:blbAbybYb=b?b=b=bGbNb=b7b-b!byblblbXb}b{b}cscBb-bUbLbfa)aHavaraHa3aWa3a)a*bmbha2aGasbyb|csb}b|b7bYb$cHcVcUcUcCcbcbcvcZcVcvb=cNcNc4cCcCcVcmb#a<bebzbrclbeaOaJa4bWbWbxbmbDbpa`a3bvb)bNb0bWbObWa`a`bmbkb0b5b;b|cwcwclcla~a1ahagafahaXa]b8bDaMa-bba^bbbbb6bhaRaEapaFa;bvbra{cfcjcsb>b=b-bxcnb.b2b^b1a$aPaHaHaCaQbzbEbib*b]b]b/bEbPbQbrblbPbYbNb$biaWbqbxbQbGbqb7b)bXbXbGbXb}b}b{",
"a`aPaCa9baa=a4a9a{a:brbla9a*aMa-a-b,cab\biaWa#a{a4avazaAaWa{bybybWb5blbNbka*a+a+a9a=babebObrbzbrbrbra<a_bAbNb?b$bibma?a,a{bDbObAbqbAa#a:a{a{a3aQa3a:a)a=aXaHaKa1a3a3a$a3a$a*aXaKavaKazazaPaQa`b.cYc*cYbFaSatapatasapaeagataBaNaBaOa%btaYaoanagagamakadaeaeaeacagalalauauaualauayatamaiaiaraparararavavaravaravaramamavaQaEazazaraparakajanaxayaJaAataAaAapapapaNawaDa.aGaEaKa*a*a+bja$a;brbcbkbqa`aPaWbibAbqbka{bmbma}a4a$bea{a{bea$aQaXaMaKapamaxatahaiajapaAaDaKaRbEbEa{a=a:a:aQaKa3aQa`bmbDb5b~bRa,a,aLawa6a.a.aVaZajagakaVa6a6a\a.bbbMbTa-a.a^aGaEapaHa*bra_b-cxb:b7bJbIbia}a9aCataBa1a>a;aXaQa&bkbHb$b0a=aWaza1bibrbEbqbaa_a9aCavaEa:a*blbrbybNbEbGbla)aWaH",
"aqaBaDauasaNaNaLaDayayaBaBaNbbcicucFcYc*bwaDaGaBaYa^bwb3bCbha/axayaNaGbbbtb3b\cia/a.btboa[a%aFa.a,a/a|a-aYaUa8a[aVa8aVbha.a[a%aLawauasaqawaNa/a%aBaoalaoauaBayawayauawauawaGauaqawaGaNaLaGaGaLaNaVa6aZa6boa%aSaIaNaLaSaSaLaLa8aVaVa!aDaDaOa2aSaGaBawaBayaNa/aNaSaDawaNa2a.a[a8bba/a6aUaIaNaVaNaSaZaNaSa8aSayaVaNaDaBaNaIaNaGaDaIaLaSa%a\a/btb(cab\bbbwa^aIayaNa2a/a%aSa\a/aIayawasaNaZaNaDaDaNaNayawaDaDasaqasaya%a/a%btboa6aIayaDaSaDayasalalaBasawawaLaIaGaBaIaLa%a/a6aNayaladasaZa^a^a/a\bha/bbbhbwbwbFcacFcucYcubha!boaBaqbtboa%a\a\bwbhbCb,cYb6a/aBauauaDatatapakamapamafanauaya-cacub3a|bba!aoakakaiaiagahalajagafafagakanaqawaqanakaoanaoawayawaBaDaIaDaB",
"boa^bobtbobha!bobTbwbFbVb\cab,bTaNbwb,cMb,bCb\b6bhbVb3b\b\boaZaNaZaVaGaIaDasawaVa?a6a|bMbhbtbbbbbtb(b\b\b3cta^a-a%a%aVaZa,a.bobTbhaBaZa/a^bCa/a%b3a^a6a%a%a/bhbwb,b3bTbTbMbwbhboa^boa\bwb,bVbVb6bFbtbMb6bCaIaBalajaqaBaSaVa2a!aZa\boa.aZbba|a-a-bMbwaSaIa|bhaVaNaGaNaBasayaLaLa/a2a^bwbCa/aZaIaDaLbobtbtbMbbbCbbbha.bbbTbobTb6b,a^aGa^a/bta/bba.a.aVaIaVa/a.a%bbaNaLaNaVbtbobVbVboaZaVa.a^a/bbbVbwa!aVa%aDa2aSaIbFa.ayaGaVa!a6bhbVaNaBa.bFbFbwbha%aVaZa%b,bwa\a.aGa%a^bFbVbba%asahaVbbbTbwaZbVbVa/a/bMaZbMcabVb,b\ciboaqcacaa%bVbhaVbVa/bVciboa^btbVbobbbwbTbVa\bbaVaIa2a!a.a6aBaGasaya/bbbwa.aGaBaNaGaDaDaGaLaZa2a6aVaLaDawaLa\a^a/aZaNaGa2aZaZa!a/bbbwbbbbbwbF",
"cJcnb9b[crb[bBb9crcAb[b^bKbxbvbpa(a5a5a-bvb[cJc2cdcdbgbdbpbnb9bna7a~boa,a6aYauaBa^bCbtaLaybhbhb(b3bFbSbFbTbTbjbSb3b%bubBbha?aRaTa1bvbSchcrb%bSbubSb.bubKbKbSb2a?a~b2b`cdb.b%bKbKbobga7bScEctb`b%bCb2bKbCbpa}bvbpbnbJbnbpbnbdbJa]a0aRa[bba/bTb3b3bha,a0a7aTaRa9a]bja}bpb[b+bxbJccclb~b~b5b9cnc2cdbWbZbZb9b~b<bIbsa}a&bJbpbvbRb[b[b*bibrbmbmbcbmbibib<bZb+bvbjcrbSbTbga,a?a]bvb%cEcdb2b[b9bKb9b2bub9bBbJa+aAaBaVaZaVaSa(bdbvbRbBbpbnbncncnb.bZb3bCa,a?bFb(bMaYaVa\a[aVaBaDaYa5a>bmbRbJa}a4aYaYaxaOaTaFa0aAaEaTaJaYa~a7bZbJbJbDa`bja9a;bga,a%a^bTa.aUa[bvb`c3cXbSb.bTbCbCbtbTb\b\b3a6a6a.aNa\a[a7a?bBb.b.b`b%bSb2bSb2b.cnb2cdbBbjbKb+chb[cdb.bKb+b.cdb2bBbBb2b%b2b+",
"c+c+cWcIcRcWcRcRcRc4c#c#cPcwc#c#cTcAb%b,cAcXcAcwcPcJcPcJcRcpcxcRc4cVcDb;aUa,awauaDaua9bnbxa:bNb5cbb?cvcbceckcLcZb=cCcvckb/bObUcmc!c5cbb-bYbXcbckcgcIcWcGcKcjb#b=b-b:cjc1b}b}cscBcKcBcecjczcHcNb>a{a{a{bEcbcvcKcLcBcGcZcZcKc1cUcHcfbYa>bna?b%cicibpbvcNcQcjcNcHcOcUcOcUcOcUcZc5cUcOcOcOc5cvbybLb=cUcUcscvcscjcfb_b#b:b:b?b$b:ckcpcZc5c5c5cHcHcUcUcZcHcsc1cNc4c9cWbnbjbubucnbZb-b7b?cxc0cycCcGc0c4c1cLbHa_ana5a/a%a8aJcvc!c)c!c!c!cLcscCc5c!c%c!c%c+cVc#c#b~cwc0cWb<clcXc(c*c(c)b~c!c)c)c7b<bObea+a9a=baa=bsb5bRbRb^cnclcDcccccVc#c!c4cZcVc0cNcwcIc0c!c%c%c%c%c!c%c0b;bkb5cRcDaAaBaIaGaAa5b1b[bQb*cqcccpcIcIcIb]b]cqcccRcRcGcRcIcxc7c7cPcxb]b/cGb]b:cxcDcIcgclc#c#",
"cRcpb]b]cgb:b$b4bQcccDb*bQbabQccbBbobMbCcab(b%bobvbSb.bSclb*cGcxb/cDcDcAaRaObMb\a^aJcscLc5c5cecOcOcHcHcZc5cUcUc5c5cHcscsckb-bYbUcbb=bqbAcjb}b>b-bYb:cRb7bXb#cjcBcjcob_cGb!b#cecOc5cUc5cZcOczbUb?blbGb?b>b!b)cscsb?b!cScScKcocBc#c&c#c2c0bnb9cMcYcXcDcZcScKcscOcHcHcocococHcOcob=czcocscoczcOcUcOcoczb>b-bAbLb>b?b}ckb_bYb0b$b7bNb>b!cecHczcHcHczczcecCc#cvcLc#cDbua>bda~bBb2cLb=b>b?b?cbcKc!cNcBbraWaEaEaja2a%aSa-a(cvceczcOc!cNcZcNc!c!c%c%c%c)c%c+c+c+c+c4c+c)c+c)c+c(c4bzbDbxb?c0c%c0ckb~b5b+cdbRa+bRcnbDb%chbZb%bKb2bZcnc2c2c4c0clc#c4c0cNc0cVc0c7cNcZc7c)c+c+c+c)c)c%cCamagbVb6a(b`bcbca:a*bYbOb:b>b#bYbrbEbPbPb;cgb}cGcScScPcGb:cgcRcWcxcIcWcGcfcPcPcPcRcW",
"bQb]bsbsbQbIb/ccbQbab2b[b^bQbib^cibha\bbb3a5a,bgbgb.b.bRcwb$cpcjb:cqcXcTa,bTb(bTb`a7bfbqcocZcZcob=b=cHc5c5cZcjb-c!c5b#blbYb#b7bLckbXbNbYb=cjcscjb#bUbNb:bUb#b}cjcecKcjb!b=b>b{cUc7cUcUc5cZcUb{b=bqbzbAbcb?cbb4b7a`a:bGb;b7bLb)cpcRc9c+c!bZb&btbbb[b+cbcscscvczcHcHcUcOcHczcHcOczb-b-b=cscocecHcHb7bybyb7czcBcHcBcoczcjcjcscKcjcscLcsb{b{cUc5cHcHczcocecLb?b7bWb5bBb9bpbpa]b2b7b)b}b}b=b-cococzczcscOc4b?axaUa/a.a,a?c5cHcscHc5cZcUc7cZc5bWaWcec%bWa<bXc0c5cZc!c%c5c)c%c5bea3bea}a}bjbWc0cLc4c#c4c$c0b5cAbZa=bZbSbSb+cdb[b+b2cJcnccbZbpa}bvbxbPbWb;b;b5bWb?b|c5c%c)c)c%c5cHcCaGaAbbbbbbb(b[bIbzbkbqbEbGbObEb4bIbIbJbRb^b<b]b/cgclb:b4cgcGcqcfb4bPb$bQbAb4b_b#b:b/",
"bQbma;bna>a=babQbRb8b.bBbPbHbvbRbMb,a|bTcubVbub%b^cdcAcTcRb_cKczb>cscDcPcicYb,bwa1a4bqbfb=csb!cjcHcHcjb}b?bUbNbXcocOckbla#bkbGb#cUcOcBcscjcvczcockb>bGb7b}cpcOcBcocQcUcZcHczcBbLbycZc%cUczcobYa_bAbza3a:b;b5bObHa]a4aXa}b7cvcxcbb{cLcZcZclb<a%aGaPb9cLcbb:cpcQcQcHcZcOcHcHcZcOcob!bYcjcsb=b!b7b=cjb}cHcZceb=cocHcOcHcHceb-cHcHcOcIcpb-b-b{cob{b=b{b-ceb=bLb#b5b<b<b9b~cnbvbjblb4czcocecococococOcOc5c#c#a[a|a.bobga,cUcUcCcscZc!c%c!c!c5b?cbc5c%c!c5c5c5c5c!c!c%c5c!c!c5b~cwbWb~cwb~c4c4cNcwc0c0c4cyb<b&bZbWbSbZcdcdbpbvb9b+bSbnbRbSa?a4a7a}brclb|b;cwbDb|b~cmcVc%c%c)c!cvb?a?a|aGawataYcdb+bva9a*a>a3a$bcbQbdbaaOaOa(a?a?a,bib*b/b4babIbaa{bPbzbEbrbPb$bibxbdbi",
"b]b:bQbza=a+a=baa;b`cnb9bQbHbvb2bTb,cFcFbKb(b[cnb^cwcPb^cxcpczcBcKczb_cfb2cucacab2a0blbNbXcsceczb=b=b!bYb!b!b0a)a_b>b?bla_b)bUbLcsb{bYbla)bYcHczcjcob_bXb!b>cOc5cZcOb}bXbXcKcQb{bLcecZcoa{a3b0b4bza*a3a}bibebsbsa7aFaxaMbNb$cCcvcBcLbLcjb~b<a\b6a=bZcxcGb)cfcBcscBczcjb{cocscjcebGbYb_bAbfbUbXb-cscQcececKc1b7b=cecOcUcUb=b-cjcKb<cwcfb|cHcocecjb?bUa<bGbla{bOcDb^b<b^b^bIbWbybOcocscoceb{cececHczceckc+c8cXbTbTa|a?c5c5c5cUcHcscocOc5cUb5bLcbckcocscUc%c5c%c%c)c%c)c%c%b~bAb;cDc0cVc)c4c0cCbmb~cwcyb<bHc0cDa~a&a,bga0aBa0aYa0a?a~bjbpa0bBbja3bZbDbcb5b0b;b|cCcmc!c%c)c+cNblaUaVayaoaeawaRa}aMaTa;bxbxbxbda+bvbva0aMaRa7bxbJbcb8cAbza{bQbQbkbzbrbrbPb#cgbib8b/bQ",
"b$b0b0b$bia{a{b*cwbPbZb[b8bxbib[bKa~bpbSbIbxb1bPbzbxbEbQcfcGb>b}c!c5cKcpa7b(cib\bSbua<aHbfb)b{b-b-b!bUbXb#b=b=b}b}b=bza)a<bkbca)bqa_bLcbcQb=bLbAbybAb!bYb!cjcUcOcZcHczczb{ceczczcocHcvb!aAaia1a}bma9a4bna&a>bvbJbdaRa7a?bOb5cvcjcscScjcBb~cqa^bobsb+cGcxb_cfcpcGcHczcococecCb=bXcHc7c1cUcHcobGbfbycjcHcUcUc7cOcKcbb!b-cjcscjcecvb&c9cRcqcecHcOcHcHcHcbcWcwbra_bWbWb~cdbWbObGbGb7b}b}b=b=ceb{b!cocOcoc5c%b.b%a\a6aUaMcZc5cZcUcOcHcecLcZcscbcbcbcHcvcHcZcZb=cvcHcUc!c5cNcCc5c0cVcVcCb;ckcVcNb<b0b5bWbea9a]bZbeaBaMaDaRbua,a,a,a,a(a7aRbua9a&a4aMaTa*bmb0b~b|b)cCcNc!c%c%c)cCbfapaqaNbwa-a|bua~aDa0aXbda~aRaMa,bpa=a`a`a>a`bzbWa+a&bRbnb/b/cgcIbPbNb4bPb4bObrbHb/cg",
"cfb:bPb/bkbzbib+c(b[b`b.cEb%b[b[bPb1b:cpb]cgcfb]cgbNb:b)b)cfcBb}czczcfbLaOcucMb,bpbRb>bybyb>b{b{ceczb}b-cecscsb{bYbYa<a)bEa<a_b)b)bfblbfb!cbb{cHb)byblbNb!b-cHcOceb-b-b!bycjcHcZc%cUcsbyaQaEa&a;bmbea1a}bJbRbWb<b+bDa?a>brb<c1cBcOcOc5c5cfb~b,a^cnb+cfcfcxcIc0cKcBcHcHcHcOcscocBczczcHcocHcebLbfblb!cHcOcOcHcHczcscoczcsb{b}cjb{b7cRc4cjcecscUcOcZcZc5c7c!c7cLcsb)b#ckb?cbb>b#bYb)bYb>cbb=b=b-cecOcocbb|bgb2a6a2aJa9c5c5cZcUc5c5cUcecCcsb=bNcvcvcscsc5cUcbb?b=cbcZc5cvb?bNckckb?bDbObOb<b;ckbWbWb~bDb5cwbsbsa}a}a}a,a9a(b2b9a}b5b<bWbxa=aRa+a`a]bEb~bWb|b;b;cbckcZc5cbb?b;bWaxaJa.bFb3bSbCbgbba!a(bgaUaOa0a~a9a}baa}bmbJbibma}bdb8b8cpcqb:b:b_cfb/bYbPbPb_b:b_b_",
"b0b4bGbPb/bOa=a=cEb[b`b.cFb%b9chcWclcqcqcpcxcxcBb:b:b}cpcsb}cKcKczcBcpbLa8cucMcFbubnb=bybUb-ceb-czcoceb{b-cob{b!bYbXbLb)b}b-bNbLcjcOa{a)a#bAb-bXb>b-bybYb>b!b-b{b=bUbLbLcec5c5cZc5czcHcbbIbmbzbDbIbma{bDbWbxbDbDbvbDa?aTa{b5cBcsczcUc!c5cIcqcabFcrb`b_b>b4bNcGc0cOczc5cZcOczb?bLb!b>b!bLbfa<bybLczczczczcOcUczcsb{b}czcOcUcOczczcocscBb=bXbYb-b>cHcHcUcUcZcUcjcCcsb}cvcvb?b}cbb>bObGb#b#b}b#b=cbcOcHckcba~b%a^aZa?bjcOcUcZcUcUcob=cbcHcsckb?b!b?cvb?cbcsb?b?b!bYcLc5cNcLcCcvbObObNb~bYb?bDa:a4aQb5b~cCb~b;b<bJbma=bDbna$aMaRa:cccVcCbWb5a`bvbebsbzb&b|b;bOb<b?ckbWbNbWa:a{b5aFaOa^a^bBbua^a5aqa.a^a-bbaZa~bpa4a&bnb+bRb8bRbRb~b~b;cgb_cfb$b:cgb_b4b0b7cgcGcxb:b:",
"b4b0b4bObrbEbcbab1bDbmb8crb.b`cncncncncdcpcRb_b_cscpb#b:b>b#b}cjb}cKb$bGa[b(bha.a]a]b=b{b!b-b!ceczcococHb-b{cHb{b>b>b!bLcjcob?bLcsb{b!cBczczcbbya_bLcKb{blbya_bUcHczcocHczcObXbyczcUcHczcvb>bzbObEbWbWbrbDa$aFaJataFa4a;bNb4b=cbcHcUc!c%cIbYbTb(b.a,bGcwcTcWcQcKcHczcsceb=b!b$bfcsb!bfbybUb!b!bLbXcHcOceb{cococob!b=b-czcececsb-b-czcfbfa_a{b-cBcHcOcBcBb=b>csb=cjcCcHcvcscbb?b7bObAbYb#b#b)b_b7cHcOcUcHbScha/aSaTa&czcUcHcHc5c5c5cHb=cscHcvckcbcCcHcbbUb!b;ckcbc5cUcZcCcvb?bWb0cbcvcCb5a*bWbna1a`bJb<b;b~ckbJbDbebcbZbcaJa0b?b&b|b?a`aPaCbna`a`bDb<b&b5b|cmb;cCb<bWbJa`bxb~a,bua^a^b%b%aYa|aNauaNcicaa[bpbjbsbDbdbabpbJbab+cgb#b$b:b4bzbHbHb:b_cgb)b#b7b_b)b0b$",
"b0bObGbEb0bNb/b)bPbrbEclb*bsb/bxbQb]cgb^b/b8b$b$cpcxcpb_cjcjb>cfczcKbxaHaZb6a2a.bBbKbAbyb!bXb!b-b=bXcecHcob!b-bLbybYbLbyb-csb7bla<blb!b#b-cZcZcHcoczczcUceceb-bLbLbXb=b{b?bXaPazb-cjcocococHb?bya*a$a4aQbOb~bJa3avaQbYb?cbb7cocCc7c7c!c%cLb|b,bVa}b2c(c1cpc0cscBcsb-b-b=coceb-b-a<aPa#a)a_bfbfa#a_byb-ceb-b!b!b=ceczcOcHczczczcHcHcHb}bya)b:cococecocececzcscKcvcocQcZcZcBb}bNbNbxa<bEb4b)b)b}b}cjb?b7cva}bvbVboa?a7a<bLbUb!b!b!cbc5c5c5c5c5cUb?cZc5cZc5b;b!b?ckcCcNcCcCb~b?b;b?b?cvcDbWb0cwb<a=b5clc0c0cNb~b4b5cCb0b&bsa{b5bDbcaRaJaBataAa,bDbWb5b5bDb;cqcqcwcmb5b~b~b|ckcqbBc,cabhbSc(c6b`bwa-a[bTa[a[bpbebkbsbOb4bPbPccclb_b)bHbca#a*bOb$cfcjb_cgb_cfcfb7b7cf",
"b:b)b0b4cpcxb_b:b4bEb:b$bzbrbzbPbEbPbPbPbzbxb/b1b#b$cGb:cIcRcRc1b1bqa;aXa-bTbMb,b(bbbLcjcHczb}byaPaHbUb}cecob>bLa#a_b-b-bAa#aHa#bfbybLbUb!b=bLbLb!cscHcOcob{czcOb=b!bEa#a)bEb)bLbLcececocUczcob=bka#aPbibca{a_brb#b?b)bLb-bXczcUc7c!c%c5b?b<b6b\a~a&b#cycScBb-cjcHcZcOceb{cebXb!b-b-b-bfbfa_a#a#a#a_bybUcoczczcHcOcOcOcHczczcococzceb{cobXb{cUcZcHcOczcob-b=b=csb!b-czcQcScHcbcsbHbzb1bHbqb/cjcjbYbNb0bza~bBbTb,a5aAaCazaHa3a_bkbyb?cCc5c%c!c%c5c)c)c%b!aFamaiaraEaKaQa{bzb5clbOa&a}c0cCb<b<bWb[c0c0c0c%c4c0b=cyb<a*aEaEa(aRataMa7bga0aYa+bpa}a>bmb&cyc0b&bscmcNc!c!c!c!cVcNb(c*c8cia/a|a>bub\b(bMbTbha[bpbnbWb*b4b4bObAb4b4b#b0bOb$b)b:cpb)bNbGb:b:b7b_bYb0b7b)",
"aKaWaKaCaraCaKaCaHaXa1aWanafaeaparataHaJavavaCaEavararavaHaKaQaKaCaCaJaFcFcMb\cubVbba0aJa<bNa{aWaCatamaCa)a{a_bcaWaHaKa1azaEa$a&bia=aQaKavafaraEaHaPa#a)aPaHaHaHaWaHaramamavama3a3a#a)a#a)aWa$a*aPa3aQaPaHaHaHaCaCa3aXaPaCaEaEaKaPaPa<a_a(bBb\b\cMbSaFaRa_bcblbAb#b>bEa_aXaQblb$b#b!bHb$b&b1clcDbJbxbEbcbGbGbqbfbfbfa:a{bAbAbAblblbfa)bfa{aPa#a#a_a)a_a<aEa4bmb*bdaQaHaXbfbla{a:a`a`a1aParaKaEaCararaxaFaLaSaLa/a^aYaxatararaCazapaiamamaraza$a*a<a*aEaiamapanajafaiaiagamaiataxaxaAaJaxahagagajavaEaFaQaQa1aQaKamaialalagafafaiagaiakaDaRa4a(aRaQaTa4a&aTaQa9a&a9a3a3bca9aWbCcFbFb6b\a!aYaxa,bha5aLayawaFa?b8bka*a*a*a3a:a$aKavavaCaWa$a*aPa*a*a3a$a:a)a$aWaQaH",
"awaqalayaNaLaDaDayaNa2aVayaGa5boa\a[a/aSaVa^aSaVaSaSaZaLaIaSaDawasaGa\a^bFcFcMcacMcFb\b\bbauaqasaIaDasaqaoaBaUbha|a-a%bFbha%a8a^aZaDaSaGaBauaqasayaDaGawawayaBaBayawanauaYaUasasasaoaoasaBaBaDaLaBaBaLaLa6aYaGaYa/aIa.a[a2aGaVa-aLaUa%a2a-a8a5b,cYb(a5a|bTbwa?aVa?bTbMb3b3b\ctb,b3bFb3bMb3bBa.aOaAa-a8b3bhbha.atasaIaZbbb,b3cab\a-aZa%a/a\boboa\bhbFbha.a!a\aZaZaVa^a!aVayaBa2b,bTa%aBawauasauaLa/aVaDa.a!aZaGaGawauaGaGaDauayasauaBaqalahafafajalajahawasayaYaUayaqaoayaoapaqalajagaeahahaeagagahagahajajalalalaqaoasalajahaoaqayawahafagafafagafadabababacabacafaeaeaeahaya%bCa6a6a6aGayawawasa^b6bwaVaBasapalasaBaNawanaoaoagajaoawa!bwbbaNaSa%aSaDaoauayayay",
"a^aSaNaNaSaZaVaDawaIa%a%a!bwa.btbVb6cacibVbFbwbMb6b\cacicFcFbtbFb\b,b,a/aDa\cicubVbob6cub,aSaIa6aZaBayauayaSa\bCb,cicibTbMbTb\b,bTbFbCb(bTbta%aBaGaSa!aNa5a\bbbtbCbhbMb(b3bMbtbtb(b3bMbtb,cibFbCbwb3cab\bCbCbCbtbwboa/a[a!a-bFb3bCbha|bMb3b,cua|aUbTbha|bCcEcMb(bhaNaxaDaUbobMbKb3b3btbba5aVaIapaUbbbha|bhb,bwa[a^a%bhbbb3cucFb3bha^a^a-aBawaVaNaNa6a.boa!aOapayauasaIa/a.aSa|a!a2bMcMbVbba/bhbob,cib3bMb,b3bCa%bwaIbtbta^a/a6a8a6aZaDaOaGaDaGaZa%bhbbaZa8aNaUbba5aGaYa|a2aVa!aVaDayaBayauasayawaDayaIaOaNa2aZa6aSaNaSaLaVaZaIaGayaBaGaGaDaIaIaGaBaBasaqalajaoaoaoalalasaBa!aSaGaSaSaNaLayayaoajaBa%a/aLa^bwbMbCbVb\b6bobba6aVa\bhbobhbbaGaDaVaNaVaNbbbVbba/a/a2",
"bhbta^ayayaDbub.b2bobdbbb2b(b`b%cib.a-bFb3bhbnbBb.b%bpbKb`b+a0a]a~a]bpbjbpbja8a|a~bba5bob`bBbdbjbIb9b*bQbJb[cccDb^cDcrctcnchcXctb%b.b`b%b[cdcdb2chcrcicrbMbwbgbCcEcub(bKbSb.bBb[b.b%cdb%bZb%bSbubTbCbBbMb2bFb2b,cFc3b.bub%cdcncdcrchb`bSbSb`ctcXchbZcTctcJcAcPcAcncccdcdclcDcWcAcTc2c2cPcJcDb[b[bIcAcTcWccb~b^b<b*b1clb5bJbxa}a`aBarayaNaJa+bjbeaJaQbabJbHb5cqcRcPcDb<b0b~cgb:b|cgbOb*bRbPbWcwccbEb&b;b|b9a=a,a~a}bdbjb2c2c0cycmb&b0cwcDcdbxa+a0bcbebsbka1bpb[b2b[cXcJb8bKbvb2bva~bga-a-a?a5a8a5aYa-a!aZaUaSaFaOa8aYa[bhbha|bba[a.bbbwbwbwbha\a^bbbhbhbobobobCbobbbtcacub,b\c6cYb%bububBb.chb`chb(b\ctcMcFcrb\cEbMa~bgb3b(bMbSbFb2bBbgbnbpbKbTbKa-a[bSbMbhbhbobo",
"a8aGaNbbbSa?b7b]cBcGb_b:bQbPbIbja]bdbna~bnbebibDb/bPbEb5bWbHbWb^bvbJbZa}bmb9b2chb&b<cyb_bmaPaQa1bqb/cNb}bAbrbLcfc7c%c7cHcIcCcCcNcNc!cIcvcscvc7c%cRb4b<cnb~b;cCcRa?bjbwaVa`cdcvcsckcpbYb7cbckcqb;bZbZa>bdb5b1b+c9crbSbIb8cGcIb4b$b1b^bJb9b[bJbscncJb9cccDcpcycxcBcKcKcLcBcCcvcScOcvcBcLcmcRcRcRcIcqcqcRcVcxcNcRcScGcxcScGcLcSc1c%bKa&bwbVbsb8cbb!bGb$cbb>bXbUbXb7b!b!b>b=b!bUbLbXbGb#cbb?b#b4b#bGbYbGb7b>b?cIb;b]cmcmcNc+c+c7c7c!c%c7c7cZb<bkaWbjb#b;ckckb:b|c2cIcpc9c0cmcCc!c!c0cPcWcnc&c$cJcnbZa~avauahambZc4cRb+cna[a5a-a^bMbKa|a[bMb%a8a8ctcXb2aTaGaYbjbBb2b%cWc$c&cJctcEcEchcJc3cXb9bKbpbub9bpb9cncAb9b9b^cwa(a9a4aRa>bZb9bJb|cRcRcRcRcVc9c9c0cRc0c0cRcRc9c9",
"bbaOa.bbbKbeb_cxcQcScRcjbxbia]bda(a7a0a7a?a-a%a~bgbScAclcccycwb5a7aRbtbhaDbCc&b.cbcIc#cWcScVcGcxcNcGb?b!cpb:b4bYaPa3a_bca{a{bfbzb>cbb=b}cjcocZc7cxb7cycqbPb&cZc1a4bucMbTbmb5cBcBckcjbYb?cpcpcpcpb]bPbxbJb_b:bIbsbga~ccbQb/cgb/b_cfbYbcbQbQbmbibxbia`bmbQcpcIc1cBcQcScscBcScScQcQcBcjb?cmcScLcGcIcfcpcScBcvcxcxcVcRcGcvc0c7cGczcsbna}aNaSa3bxb{ceb{b-b-b!bGbybzbEa{a`bqbObAbNbGbAbOb$bPbka{a=b$bNbrbHbGbObfa<coc7c5c7c!c5cLb}b=cCcZcZcvckbsa`bebna`bca`a*bxbab4bWbOb4cLcLcfcfb$cqclb~cccdb[bRb8b+buaCacacavbdcLcVcwb4bpbda8a|a[aSa5aYaDaOaUa|bta?axa-a[a[a?aOa~bgbBbub.bKa0aVaOaDa,a~a[a5aNaxapa[a>bjbRbja;a]bdbjb9b2bnbKbSbZb8b&cmcIcLcNcycCcIb?b7b)b#b>b)b)b<c2",
"bTbCb,bobDa:czc!cxb-bEbGbia*aEa~a?aMbDb8bva4awawaqayaRa0bxa+cmcyb9a=aNaBaBa8bBbnbNb7b7bNbUb)b7b>bObNb=cGcScBckcjb/bla=a3aWbsbcbAbYb:czcKcScococscHcOc0cmb1b^cob{bBcEbTbhbxb&cLcscBcsb>b}cjcjb_b}b]cgbQcccfcIcTcJbKbBcDb8b]cgb/b#bzblbEbrblbrbEb$b]b$bQbaa$bebYbNb}ckcecSc7cUcUczcHcKcKcBcSc1c7cLc1cQczb{b{cBb)b7cxcGcKc0c1cKcBcKbBa}aBaNa3b8ceb=b{b{b>bXb0bAbabIa}a:a=babzbObrbzbHbPbNb$cSc7cCcLckb-cBcsb#b>czcZcZcHcscjb#b7cLcCb?bXbmbeayaFa0a(a4a7a(aCa0bpa>a]b4b5cqbGbDbsbsbJbPbxb1bQb^b8bGb/bpbBaVawara0cbcIcmbAbsbDaUa,aZaOaYaOaYaOaOa|a?a5bSb(bua[bubhbha?aLawawaDapaVaLawasaBaTa,a~chbCa~a>a(a(a0aTa(bpbda}bdb[cAcdccckcycLcvcVcNcCcNc1cCcjcbb7bUbka<becJ",
"bhbhbTa/bkbsb}b>bAbEbNb4bWbHa0a0bmbvcyc2cPb~a+a7ataEa*a`a`a:bPbzaRazatasaFaJa3a&b7b4b-cvcKcjb-cjcCb=bybXbGbybqb0bNb:cfb7b#b$b}cxb_byblbGb!b7bUbXb-czcIc4c0cCczcoa,a]aLaBa}b9b_b:b}cKczczcjcjb}b#b}b_b7cgcGcPcWcDb1cdcIb]cDcxcGb]b:b/cfb_cGcScGb_cqcqb]b]cgb_b/b7b)b_bObYbYb7b}cscocBcQcKc7cSb)b7b>cGcKcsb?cbcgb7cfcyc1cGcBcGcKcKbKaCaqaDaPb*ceb!b{ceb}b=b4bqa4a1a+a;bcbeb7b?b_b?bYb_bWa)cScCcBc1c!cococHc!c7cHcUb{b{b#bUb)bNbyb#ckcja>a;aOaDaFaNaMa5a,a7aRaOa7a7a=bmb<bkbdaQa$bRb$b$cIcmc#csb!b>aTa7a2aBavbpc!c!cNcCb5beaMayayaLaMaSa5aAaRboa5aJawaBaRaNaRa5a.asaqasaoaqatawaOaOawayawaqayaSa5a8asalawawaMa0a+bpa`a&a4a1a$b9cVcIcGckcVcVc1cCcQcKcBcsb>b7bGbqa{b[",
"btbbbba^bNb5cScKbEbGb7b)b:b0a]a1a4beb$b4cmb$bEb5b&b0b?b7bNbNbGbAa=a$a+bea4a*bXb?csceb{b=b=bXbXb=cocecececBcKb0a<bqbObGbNblbYb!b>b$blbLb:cfb:bYb!b!b7cjb}cocOcpbyaRaFaNaNa*ccc7cScBcBcUcKczceb)b-b7b_cjcxcGcfb/brbPcgb/b:b]b#cgb)b7b_b_b7b#b)cfb>b_cxcGb]cscGc1b}cjb{b:b:b$b]cfb_bUbYcecQc1c1cpcjcpcGcKcScNcxbWbHcgcgcpcbcScIcxcxa;a,aVasaPb+b{b!b{b{bYbYb:bGbebHbabebOb$cscCcBcLc7cLcbb)csckcecSc1b{cocUcQcob!czcKcBcscscScscsb>b/bqaRa0aOaOayayaOaUa0a,aAaDaUaUa9a]a1a1bsbDb;cgbsa:b$b4bPbAbAb?a;a]a^aVaPb+c)c7c0b7a&a;aMaMaqayaUaNaDaDaMbba;bua7aFaFaMaUa,bMa|aYaOaTaYa~a0a0a(a}bja~a7auasaoawaqalasaya>bja0aQa+a4a4a&a&a&bcbWcNcxcScNcKcScpcbb_b=b>b>bYb7bYb$",
"bbaYbbbhb7cycUc5cjb=b!cscLcsb=b?b?b-czcUczb{b{b=b-bLbyb-cHcHb>b!bYb7ccb<ckb=bUbUb{czb}b!bLb-b=b=cocHcob-bfbfblbfbNb0b#b#bYb#b-b!b#bNbfbGcGcGb-b=b>bXcocQcHcOcOczbda4a%aBa_cPc7c5cUcUcHczczceb>b}b#bNb)b:b)b/b]b/b^bQb/cqcGcGcWcob_cIb:b]b]b$b)b/cpb_c#cIcBczcfb{bXb}b:b-bGb_cBcRb/bPb7b_cBczcBcBb:b_cScNcPb:a:bxcccgb_cpcGcpb#cfa>aQa!aSaXcnb}bybUb7bNbGbGb4blb4bzbzb|b4ckcVc1c7c%c7c7c5c7c%c)c!c7c7c%cUcZcOb{b!bNbla<bOb#bYb7bNbxa{aRaTaOa7aUaFakaxaGaMaJaGa(a7a>a0aXa>bHb8b$bOa`a=a{bsbYb?b7bYa0a?aSaDaQbvc1c5cIb>a7aXa7a]a0aJaOa5a,a?a+a+bDbRbHb5bja=bjbvbTbBaOaTa;bnbZbsa9a4a&bDbRbsa7a(aqaqasaqaxaya9a]bma`bja=a&a1aXa&a:beb4b0b0b)b)b?b_cbb)b;b>cjb>b>b)b#",
"a8aZbCbwbOb;cUcUcjbXb!b}b}cjb-b!b-b}cHceb!ceb-b!bUbXbyb-cHcHb!bLbLbfbfbNb-cecoceceb-b-cHcOcob{bUa_bybUa_a{a:a$a$a:bcbGbObLbYb}b>b!b!bAb7cIb7bYbGb!cbczcUcZcZcUc5bja4aZaSbfcDc5c5cZc5cZcQb{b{b}cjb:b#b:b4bzb$b]cgcIcgb:b/b_cKc4cBcGcGb_cfbNbNb:b]cxcxc7cGcoczcjb{bXb)bXb_b:b-cKcQb]cqb[bEb)cfcpcjbObOcxcNcPcgb*bQbPb^cfcfb_b#b4b]a]aEaSaZa`b[cpbUbca:bObNb0b7bNb0bWbPb|ckc!cNc5c7c!cCckb?cSc7cbb7b!czczcoceczceb!b0b0b0bGbkbza9aCaHa&a7a0aJaOaTa,a0aAaTaMa1a&a9a&a;a9babsbibmbkbsbia*aXa4bNb0blbGa7a5a^a/aKbnc7c1cqbqaTaJaRaTbnbsbjbaa9a+bIbxb1baa*bDb&b;b<ccbRa&aTa]bmbRbWb&b;b<bAb<b<bka+bdaAaRaYaMayaAaXbZb~b<bzbWbrbkbzccbAbAb$cIa{a:bNb;cbcRcRcIc0cpcscjb_b>",
"bCbbbFbhbPbHceb{bybLbfa_bLbybfbLb}b>b!csb{czb-b!cUcUb!b!b!b-b-b{cocebUbLb-bUbXbXcococHczcocHcHczb{b{cjb=brbqa$a3aXaQa_b#b=b}cecebYblbycmb&a)a=a*bGb7cecKczcUcUcOa]a+aVaSa<b5cOcQcUc1cSczb{coczcob}b>b_b_b:cgcxb_b:cgcfb>b_cxczcfcfb7b0bOb7b#b)cfcScGczb}b{czcBb}b-cBcfb-b#b#cjcBb_b_b:b#b_b)cscGcGcGcfcxcycyclcycccgb:b|cfb)cgb$aTaAaDaNa*b1b)bLaJapa{bPcscvcjcvb)b|cVc4c%c%c!c!c!c)c!cCcocScbbUb=cbczcHc7c5c1cLcLckbrbqa`a{a4a1aTaRa4a0aTaRaTa,a(aRa1a7a;aQaJaJa3bibHbza;a1aXbmbmbHbDbzbLb?cHcOa~aXaVaSaCbZcNckcIcba7a1aOayaXbKcwcwb~b<b5b;b~b$b4b;cycGcycycwb&bWb5bkb5cmcycCcNcScScyb)bma4aCa&bva`aXa&bmb<b|cqbObOcfb?b}cGb>b)b7b?bEbfbAb|cvcGcIc4cWcWc4cjb7bL",
"bba-a\a.bHbqbybybyb!b>b!bXb!b#bybyb!b!b=c7c5cZcUcHcZcZcecHcUcUcZc5cZcUcOcOcOcHcUcHcob{b-cocOcOcOczb{b-cecKcjb:bGbGbEbUb!b!bybLb!b#bLb!ckczczcjcjcoceb{ceb!b-cocea~a9aGaSbfccc1cZcKcOcBcHb}b!cocob}b}b_cjb}cfcpb}b}cxc1c1cGcPcGb{cjcxcScRcGb:czcxcIcWcKb}b}cBb}b}cjcBcBcscBcpcBcBb#bUbGbYbUb:cBcBb7b?cbcfb4bAbsbrbzbPcqcmcvcxcgb4aUaJaLaVaWbab}b-a1aQbHb5cKc5cvcvc!c!c0bNa3a9c7c5cbckc7cNb>b7bGbGbNbYb?b!b)cgb)bNbza)bkbra*a4a;a=a1a+bibea>a1a(a7a4a4baa=bWbzbrbra1aQbxbsbabea9a9a1aXbcbWb?b?cHcQa0aCaSaDama}c1c7cRcLbDbea5aAaFa(bWb<b/cgb;cgcmb|b|b:b)b4cxcycGcfcCcyb)b;cmcmckcCckcjcscjb|cybWbOb<b5bcbrb)cmcmcxbGbYcbb>b7bYb?cbb?b>b_b?b7cpcBcKc0c#c0cScKb}b!b)",
"a[bhb6a!brbcbfbfa_a#b=b-b!byb{cOc1b-b-b-cHcOc5c5cUcHcUc5cUcUcOczczcUcHcHcUcUcUcUczcOcocecococecocOcOcHcUcOcHcUcUcHcHcUcOcUczb{b-b!b-b!bXb{czcUczcoczczcHcOcOcUcObnaQaLawa#b1cZcQcBczceczb-cocHczb}cob}b_cocBcScSc1b}cscKcKc1cQcKcjb>b>cpcDcPcgbPcGcRc1cjcBcjcBcBcOcQcQcQcscKcQcKcjb}bObNbGbYb}b#bObrbkbka1aXa*bDb$b/cfcIcScxb_b:a0a5a/aNa#bsb-b=bYbYb!cpcjb}b}cCb}b}cbcbbra#b7bYb>b?bYbYbAcmb>cbb:b7baa)aWa*bkbEbzbcbrbra:a:a}a$a4a&a1a&a0aQaRa+bibRb:b:b?cpcpcbbHb8cnbPbrbsbmbcaXaXa{bWbkblb>cCaTaCayaqaxa7cRc0cNcGb&b5bdaTa4a7bcbIb4b;bEbcbcbkb0bObObOb0bkbka{ckcxcLcvckb?b)cRcCcjcjb-b!bYb7b#b7b?b:b#b#b?cKcsb>cbcjb}cbcjcbcsb_b!bXb_cScScBcscBcKcKcKcjb=b7cf",
"a[a%bta^b%chbXbfa#aWbfbXb=b-b!cocZcUczceb-b!b{cHcZcOczcHcHcecob-b!b!cHcHcUcOcHczcoczcHcHcHcHcUcOcUcOcecoczcococHczb!a#aWblb-cob{ceczczcebXb!czcZcZcOczcobla<aWa#atataDaSa$bIc!c5cSceb=cjcoczcOcQcBczczcsczcSc5c1c1cHcBcBb{b-b#bGbGbAbAb)cccWcTcWcbb>b}cfcBcRb-b!cecQc1c7cQcBcBb}bAbAbGa_a:a{a=a$a;a=a&a]bWb*cdbIa<bIb#bOcgb:bea$aDaSaIaBaEa1bUbYcecjcsb=bGbybqbGb=b7b!bUcecCcbbUbEbNa`a*aKaQa{bEbzbEbkbkbPbza9aXaPa+bzbra9a:aFaxaxaxaTaTaJa0a5aMa{bPbaa)aHa4bNbObOb0bcbkbrbzbPa_a3a=bObHbcbzb)b?aAaYaSayapapaHbab;cyb&b5bWb<b+bzbzb&brbqbka{bcbEbObzcxcGcgb$bzbscCcCcScvcQcVc5cSc7c1cjcBcScOcsb}b>b-cbb}b>b}b>bYcBcKcKcQb-b>cBcscbb>b}cjcxb-b}cGcBcBcBcKczcscRcf",
"aGaLbFbVbtcucXc(c$cJb[cnc$cdbKb2b<clb#bGbGbUa_a_byb!bka_a*a3bDa$aCazaHa#a<a_bLbybya_bfbfa_a_bfbya)a#a#aPa)bfa#a#aWaHaHaPaWaWaHbfbLbXb!b=bLbfbfa)a#aPaHaHaiaiagaeaDbobobba9a4a:aWaEavavazaHa3a*a*a:a)a$a*bla:a)a#a*bka*a)aXaCaAatayaGaFaxavara*a&a1aXa:bvbja*a0bda>bvbIbJbJbxa+a+a[a>aRaYa,aRaDataxaAaxaxaxakagagafahaiakanaAawaLa6a^bba\a2auaFapaCaFa1a4aAaFaAazaEa0aAaxaJaEaCaKamapamaFanamaCaCaFaEaHaXaFaCakatataAayaAaBa!bbbwbwa\bCaNa2a.b,b,a~a~a6a.bba%a?bKbdbBbua0bna&bcbza9azaKaQaHaCaxamaBa!a!aIaBaoanaiapaJaAaFaJa7bjbuaTaFaXa+a>a$a=a9a=a$aQa9aRaFamaRbWb5b0bkb4b0b0bNbDbca3a`blbrbGbObEbka_bkbGbGbka$a:a3a*a*arara:bsbaa{bcbca,azaCbdb:bYbqbzblblbpa$",
"bVb,bVbtbCbVb\c8cYcibwbobFbMbTb(cacictcibCbMb,cYb3b3cab\b(btbMb3bha?a/aDaFatazavaiaiamamaiaramamarataJaJaMaBatasatasaFaBayaxaoahacagaianananapalanasaBaGa8a/a.a^bMbhaVaSaLasasaGaVaSaZaVa2ayakayaBaqasayayaBaBaoapawawaxaqapawaBaAaBaDaBaNaZaIaSaVaSa/b6b6btbTb3bhbCbha|b3bVbobTb,b6bVbVbVbba6aSaBaDa.bFa/aIa%aZawaBaBaBaLa^bVb6bCbobwbFbCa6a!a2aDayaVa2bbboa/a%a2a2a6a%bta%aIaGaGaLaDaBaGaNawauawawauawaLaVaNaIb6cMcibwbTb,b,b,b6a!bVbtbwbCa2a.a2bbb\bwbCbbbobbbha.a.aSbhaSajajagahajagagagagasaNbVb6bCbbayasahalalahalahalaoaLa2a/a%a%a6a%aLalajagagagafafajahababafajaoaoapawaBaDayaqaqaqagaeaqaBaNaLaIaVa!a-aZa!a!aSaZa2aSaNaVa\aLaLa!a/a!aLaIaDawawaDaIaNbb",
"cYcabTbobMa^a^bbbFb3bTbhbhbTb\ctb3bobFb3b%bCbMbCbMa.bgbtbKb(bCbCbtbTb(bha.a%a%a-a|a~bba,aIa!aYaZbbbta|bbbhbha.bobCbTbFa.a8a%a-a8a8a/a!a8a8a8a?a%a~bhbhbwbtb,b3a%a^b\bTbhbTb(b(b\b,b\b,b3b3boa\bhbta%a-a%a[a^bMa\bhaZa8bba|a6bha[a%a8aVaSaVbocacFcubFb.b3b3bwb3bCa|bha|a6bhbMbCbFbwbMbobhbbbhbwbCa8aYbhbCa.bha|boa\a2aGaDaNaNaVbbb,bFa8btcib\b3b3cacEb,bobMb,chb.bSbKb%chbwbSbVb3b(bTb2btb.b2bhbgaSaDayayauawayaDaZaNa2a/bFbVb6b,bta\b6cicabVaSaoa6aGaNbba\bbbTaSaDa.aVaLaVa%a6a%a!aVaDaLaBbha!bocFcFcYcMcYbCasaBasaqauawawayaLaSaDasauayaBaBaLa2a2a!aNa!aZayaBahaeaeaoaDa.a.a!a6aDaoapaSa^a/aVaLaNaSa.a^bhbbbhbwbMbVcacMcMbFaZaNaNaGaNaVaSaGa%a/aVa8a/a.bCcib\cY",
"bBbKb9b+b%b.cib\cab,btbhcdcEcXcAb+bIbJb[cTc0ccb1b~cqb~b&b0b<bSbScucubMb6b,bTb3b,cucFbub\bSbbbSbgcdcAbBb%b%b%bRbJbKbZb2bZbBbubua|a~btb%bSa?bSbtb.bCbSa-bocEbCa?a~bKa[bgctcEcEb3b%bua~bCbSb3cMc3c3c3ctcrcXctcXc3cXctcXcFc3cibKbTbFa^b3b6bhbbbtcdcdcRcfcgcmclcwb^b<b[b5bmbxbRbIb^b*b&b&b$b]b^b5b;cqcIcyb]b$cIcWcIcwb+bxalajananb;ccb:cwcRcybBb9bpb[cPc+cWcPccb*cDc2cwb|b*ccbIbQb^b[b^cdcgb/clb]bxbJa~avahaGaZaNaSa.aZaNaLaSbbcucibMbKbgbnbKb9bJbna+a-bhbhbTb%bKbgb2b2bubga,a?buaLa!a2a2aLaBaDcacab6cibtaIbhbba6aoaNbobMbobTbwa.aSaNaBaNaLaDa.bbbTbMbobFbbbMbwb(bta6aNalajaDaVa\a.aSa/a/a^bhbhbMb(b\b,cabCbtb3b\bobCboa|a[bbb3btbubTctcuctbMbSbbbKbba7aUaVaZa|a6aOaY",
"b-cscsb=blbqbjbZa~bBb+bxa:babkbHb#bYcbb>cLcGcxcbb>b}cfb}bYbNb5bDaLayaNbCcacFb,bhb+b%ckcmb[bZb&b4b-b}bYb7bNbYb?cIcfb)b0bNb;b;b2crbSbScAcAb[cXc2cJcyb~a`a4cFa?bEbPb?b?b;b|b*b5b5bPbebcbZbebJb2a]a]bsbDbDbxbxb+b+bWbDcncAcTc9c2cDcca,a,b6bwbhaSbAbGb!bLbLbNa_bLb!b-b!b!cocjcHcQcBb{b!bXbybLcoceczcUcsb!b-cjb>b!bPbOcbcxaGaNaFaxcBc0cSb>b)b?b_b?b7bNcGc0cGcVcTcca_bzbzbOb:b0bHbzbcbkbkbEbOb0b8bPbGb$bBbRbhbwa.aDbBbKb4cDcIcqbPbPbQbscqcwcfb?cmcbcgcqbWbra`bsbea`bebRcAc2c9cRcKcSc9c9cEa0ahaZa^aSbTcYbtapahakafajauaGaIa%a[a/aSaAayaBbBb2bba,a6aBapaBa!aRaOa,bubwb2bFbCaSaLaIa6a\bha\a.bbbua~a]a,a;a4aTa1a1a0aRa1a0aRa1a]bdbvbKbpbdbpa+a`bja;a+bjbJbZb+bsagacacacadaR",
"cjcscQcQc1cObYbLbla_b0bOb0b]bcbIcbcbcscBb0bGbYb_b_bXbYbNbNbqbGb0bva&ayaBb(bFbSbha_bOb|bya=a`baa=bfbka*aWcpcfckcbb:b:b)b0b:b7b*cAb1bWbPbPb#cmb|b?cbckbZb*bTa?cvcvcHcHczcHcZcHcHc7c5cvcvcvb|bOb<bsbebmb0b5bma1aRaRaQaXaXaQaQa1bcbebpaQaDa%a!aNbzbPcUcZcBb{byb!b!b-b{b{csceb>b!czczcOcUczcecoczcHcececOb}bLbAa_a*bea$a=a2bha5aRb>b?b#b!b7cjcScQb:b)b_cbb#b#cBcGbNbGbYcfc1c7cLcScyb?bNb)cGcKckcxcjb_b^cdbVb6a\aNcyc9csb-b_cxcpcCb;b$b4b;ckcIcNcLcmb_b|cmb5bzbPclb9cdcFc3cnctcTcPcwcJcrbdasb6bTa%aZa-akaOa,bKbBbha[aDaObbb.b%b2b%cnb+cJcTcrb2b2bBa|bbbSbBbgb2b.b2bKbubbaYaoaGa.a^aUbTbBa&b$b;bma3a4a}bHbWbPbzbrbca*a$a3aWaKaKaKaCaHaPa3a{a*a)bkbraKavazaRaDaSa2aua:cd",
"c1c1c7cKcQcBb}b-b:b!b_cfbOb/a=a$bWb1cmcybPbza$a{bkbka_a{b0bObOb$b]cgbgaAa^a^bCb%a&a3aKaXbDbRbma=bIcwcRb:cNc#c0cCcmckcLcNcRcxbYb#b_cqb~b&c#cRb)cmcbcpbZcXb`a~ckb{cscscscecHcscocOb=cecbb!bGbNbGb?ckcVcVcCb&bzbObEbHa{bea$aQaKa4a=bjbBboaYaNaIa]a]a)bzb{cecUcHcob=b-cOcZcHb!b-b-b-cococeb-bya#a#a<a_bXb-b!b>blb-b!b;b4aSbVa|aMcfcbbGbXbNbXb:bGa<bab7b#ckcscpcjcBcCcBcBc1cVcfb?cvcGcscpckcxcvcxcfb)b9b1a%a^a%a!cfcgcfb#b_cqcLcGcCcxcLcNcIbYcNc0cycGb$b|b;b;b]cTcGcycDb[b`c6c*cMc3crb%a&aLbTbha%a.awa&bBbub9crb`b.bub.a}a~bBbKa~bJbpb+c2cTcTb`bKa?bKbKb`chb%b`chcdb+bKa-ayaDa6a.bCcubZa`b4b;cqb7a:a$bzbrb4b;cmb_b4bAbHbObkbca{bcbAbqbAb7b0bAbfbcbAbEb9cnaSa^a/aya$bs",
"cQc!c1cBcjb}b>b>b)b:b#b|b0b4bDa*bYcmcpb>bma*b4b&b&b4cIcGcGcVcScGb:bNbda+a%btbBa|b[bJbRbRb8b+b8bIb8cAcSc0b?bXckcxcVcVcLcCb/bqbYb|cNcqcRc4b<b5b0b;ckb?bdcXbuaTcscCcHcjb=b?cOcCceb=cCcHcscscbcjcUcZckb!cNb=cbcVc%cLcCcbcCc7cLb?bncAcYb3cabFbobhbtb6a-aRbLcBcZcUcebXb=bLbyb-b{cecoczceceb{bUceceb!cscHcobLbLb-b=b{b{b_bNa6bha[aYbYcyb}b>b)cIb1bfb$bHbYb7b:cjcQcKcScscBcSckcscpcBcfb:b_b_cjcScRcQb4bAbRb+bbbba%bwb]cycxcfcfb_b:b_cbcpcLc7cNc0cVc4c0cmb5b;cgb|b7cmcKcGcmcIb+clctcrcEbKa7araLa2aZaSbbb,b[bJbnbRbBcdb2bva7a,a(bub`chcXcAcncTa(bScncJb%cnb%bZb%cdcAcrcAcdb2b2bFbba6aVa5b(b8bxbvbuclb$b?b#b7b#blbWb4b4b4bWbrbEbEbzbAbzb-b?bNbLbOb7bObObAbAbDb*a6a%aZayaWb8",
"cZc7cScKcscscsb=brbzbOb&bOb5bIbka{b*cqb;bcb5cqcIcmb0cxckb$bGbqb#b4b/chcrcMcYcYctcEb.bJb8bZbRb1cAcDb*b$b4b?cfb?ckcCcVc0cba{a3bOb;cLcScGckb:b?cNcNcpb#a0bga?aRcZc7cHcjcvckb!b?cUcHb?b-b!b=b=cOc5cHckcvbPa:a_b<cCb?b=cCbLb7c5cbcCcNb`b2bTb(b\bMbSb9cAbWcecjcZcOcIcIc9cWcHcOczcececzczbXcoczcHceb-bUbLb!b!b-b-b-cUcob)bUbobhaBaJbca)bEbEbAb/b8bHb7b:b}b>b)b7b)b:cBcKcpb}cpcvcScGcxb7bOb4cpcSc1c7b]a<bdb[b\bVa^a\biaXbAcccpb_b$b|cxcIcLcRc7c0c4c!cwb?cwcDb<bJa_bscxcGcGcvb]cgb%bia8aOalaLbFa.aLa^a>a,bBbaaAa(a~a7a7bgb`crcrcJcTc&c(c$cXcdcdctb[cXcXb+cnchcncncncXb2b[b2a?bha\aLaSb.b`byb-b$b#b4bOb7b7b_b)bAb4cmb?b:cybHbkbca*bAbGbLbGbUbYbYbNbNb:b0bYbabcaLa6ayagaWcq",
"b}c#c7c5cZc7c1czbrbEbzb<b~b0bPb<bEbmcVcRb;b|b&b|b~bHbrbPa3a$b:b_b/cWc8cMc3cucFb3bJbRb[b[b[b9bWclcnb8cNc#c7cQcyb?bfcmc7cNcmcmb)bYb7b7cmb>cCc0cScvcbb?a?a0a?a0cHc!c5cscbckcUcCbUbLcHcOc5cecec5c7cUc5c5cybybAc0c7c5c!c)ckbGcbcLcNcNb~cXbCaSa/a|bqbEcob=byblbybLceczczczczcecocecececococebLbybLb!b-bXb{b:b_cjb?coczbNbOa.boa8aOb|b)b/bPbPbQbNbHbqbrbGcfcpb}b_b}b#b>b_b7a)bzcGcSb/b7cfcIcpcpcfb:b/bGbZcnbwbFa/aNbicdc#cqb]b;b|cwb4b5cRc0c4c!c0c0b;b~cIcqb&b;bQbIcfcIcIcfb:cgcrcAbTcicFa/a6bba6aSa5aYbZbmbJcdc&c$bpcXcTcrb[chc(c(c2cXcTc2cXc2c(cXcTbua(bBbKb`cncrcrcnboa>ayaVaGagaFchbXbXb4b;ctbIbqb:bkblbEbkbkbPb0b4bHbcbka:b/b#bybLbybAbqbGbqbfb7b_bWbOaDaGawaBaPbs",
"cKc7c!c1c5c7cKb{b;b~brb~b<bWbHbma`a4a=a+a=a=b5ccb~b<brb&b&a{b#cfcfcqcFcucFcicra?a}bJbZb+clcnb^b8cdb*b?cycHcLc7c5cNckb?ckcvcCc1cCcbcCcLckckb?cvcLcqb#a,a?a?aMbLcvcZcOcscbc5cHbXb-cscOcUc5cOb=cCcsb7b)a}arbXcVc5c5c%c5c5cUcZc5cZcHb<b5a.a|bFbCb7bObXcjcZcob-b=cocUcKb{b-cocOcHcoczb-b-b-b-bLb{cob{bUbLcocQcpcjbyb-bObGaGbbbba5b$b4b]b0bHbrbkb4bObOb)b#cjcpcjcpb:bYb/b7a*a3a{bEbkbcb$cwcIcxcfb_cpb)clb*aVa6aNaDbscAcWc4b^b5b<b8b~cDcRcRcqb|cNcVcycmcmcNcycfcqb<b)b:b_cxb$cgcgcPb[b8cYbha.bVa.bhbha-bsbDclb&cTb<bSb+b+cdb9cnc$cXc2cdcncJc$c&c(c&cXcEbubub.chb.b%b2bSbSa~bta!a%aGaMbtb$b/bObGbWbPbObObAbzbAbGa`a3bfb5b$bqbEbEa_bDcjb-b>b!bAbAbYbNbNbAbcbcaya!a/a^a1bj",
"bXcGc%c!c7c7cUczb$bfbea=a:a=bPb&b<beb&ccc0cmb;b~b<bPbebDb0cycxb=a$cAcMbCbFb3b3bgbnbZb+cdcnb+b*cwcDb|b:bGcvcvb?b=b#ckcQc1cLcjb?b!cbcCcvcLcLcCcCckb;bqaYa-aUatcHc!cZcOcbb=czcHcZc5cUb-b=b!b!b=b?ckbObkaCaEaWb5cZcUcHcHcvb=cvcecscsb<bfaLaZbbbobObNb{cHc5c5cOcOczceb!byblb-cob-b-b!bXb!b{cebUb{b{b-cecoczcHczczceb{brbza%a\aIaBb~b1b4b*b/b*brbrbNbEbGbOb4bGbaa*bqbPb)b7b]bEb4b]b8bfa<bHcIcGcpcycyb:b*bmaNbhaIaha1b+bIcncAbIclcdcDb5b&b&b5cccNcycyb~cycycqcmb<bPbGb]cfcfb:b0b;b]b<b8bSbBbbboa/a|bhaIa_cDb~b0cncJc2cnb[b[c$crcTb%b2b5bBcnc3c$c3c3cXc2b2bvbKbBb2bKbSbua8aJa2aNa^a/a.a^a~bub*bQb$bOb$b)bYbYbqbqbzbNbAb:cgbqbkbra$a{bqbAbybAbGbGblbAbAbqbcbmbVbVbta/ayaF",
"baa*bGcpcOc1cZcOcob=bzbkbibxb5b<bWbPb5bxbxbrbsbmb5b&cwcyb4b;b7b7bmc3cYbhaUa8bha|a:b+cdcPcAcAcPcWcRb?b0bzcLcLcLcCcjcvcZc5cHcCcZc1c7cUcCcScLcZcNckb?b=a,a]a8aJbNb?b!b?cOcHcececeb=czcHcLcHb=cCcZc5cCcbb0bGbka<b!c5c5c!c!c5c!c!c5czbma=aDaLaGaDbqb0bUb!ceceb!byb{b-czcZcocHczb-b!b!b{b-cecob{bUbXbXbyb-b{b{cecob{b{bOa:aybta!aBbEbxa`a*bab1bObHbEbEbrbkbea:bkbzbzbNb0bObzbrb$bHb4b1bNb/cpcCcpcxcmcyb^b1aLa^a!aqaEa}b[cnbSbJclb+b~b&ccclccb~b<b~cwcwcqcqb<b;b&bPbebDb|cIccb&b<b<cJcwbSbgaDaVaNaNa2aLaQbZcDb0bOcnb<b<crcAcdcncra+a,a~bvcdcTcrbZcdcTctcrcrcnbua?a+bpbgaYaBa2bCa.a.bTbbbSaTaWa*b4b~b>b?b=b!bGbAbYb#b0bfbrbcbybYbzbfbybNb-b7bGbqbca{blbOa`a:bob,b\bba0aR",
"b$bAbzb4b)cbcBcNcGcxb?c0cVb?bWbxccclb&b&b&b<cJclcnbsb;bEbzb<ckcxcccPb\b\bTa|bTc3b+cdc2c9c9c9cWc4cRcxckcvcLc5cvcUcscCcHcHc5c!c7cZbUb#c5cVcLcscLcScCb=bSbSbFbgcLc5b=cscUc5c5cHcHcscHcscCb=blb?cUcHb?cbcocscLceb!b?cHc!cUcoceczcOcObDbeaDaBaSaNa$bkbXbXbXb!b!ceb!bLbfbybybUb-b-bUa#bfbXczcUcobUb{czceb{b-bUbXb{cHcebra<aqa2aVaoaKa>bnbpbmbDb1bHbcb^cqcpcpb)b7b_cBb:cscpcfcjb7b:cgblcCc4c7c!c#c7c4c7ccbHaya.boayaHbBb+cncnb[b9b9cPcDb~b<clb<b<cccwb~b~b<b[bRcdcnbKbpa;bKcXclbPb4b&b<b%bSbFa\aIaoajaqauaBb0b~b;bWa4a}bZb+b%bpa7aMa}a,a`b2cncnbScdcrcrb~ctbZbZbBbBbvbnaLaxa\b,bMa\bTbFbtb6cdbnbJbZcpb_b{b-bYbXbyb#bEa_bYb7bNbYbNbXb}cob>bXbqblbca{bybGbebJcub,bVb\b+bx",
"bEbkbcbzbma`bpb+bKctcAcAb*bxbrbkbJbWa>a&aAama1a+a$a1a3a*a<a:bqbGbHbEa-cuc*cMcEcFclb^b8b^clb]cfb?cxckcscHcHcCcUcHc5c7c7cUcZczbla<ama$cvcCcscCcZc!cmbLa,bBa2aYcUc)c%cUc5c5cOcZc5cHcUcUcCcHcvcsb?bLb?b!cHc5c5cHb?bLaHb?c5cUc5c5c5czbka`bhaZa.aSaFaRbra)a#a_bUcHc5cUcob-coczcecocHczcob{czc5c!c5cOcHc5cUcHcHceb-cecZcga_agajaqaqaeajawaubibZbibZbQb1cfcqcxb)b?cpcfcpcgb_cxcGb7b)c0cVc0cNbYcyc0cVcgbOa4aQaSa^aLaSa7a>bdb9cTcJbZcdb<b+cwcTc)c2c#c2c#c4b~cDcrb+ctb2a.bhbwbtchb2cnb+bKbpbhb3b6a!aLaNaDaIaIaNa:b5cDb&cnc2cXc2crcda7apbpb9a,bucAbSa}b<b2b+a,bZaVaMa,bSb2a4asaga6a^b6bwbbbTbha%boa\a8bbb?cfceb!ceb}b{csb}csb}b=bqa_bYb?b{cjcecjb!b7b7b!b7bGbib+cib6bhbCbpa9",
"ajaqaoanakagakapaFaAaBaxanaiagahafaeajajalalapalazaFaCaCaQaQazarazaFaDbFbMb3cFctc6cEbBa9aAaObBbubBa;a]a`a1a]a`a`a`a=bcbca+a]a-a,a~a,aQaFaXa$a*bkbja1a^cFbTa^a&aEa_bAbfbya<bOb?bOa&aHa3a{aQaHa3a`bGbzb!b?ckb?bWb!aWbcc5cLcCb=bOb~bKb2cibhbhbFa!aOaFaCaCaHaWa<a<a#a)a_bfbybybla#a_bybya#bfbUbyb{cGb_cfblbybGblbqbfa&aCaBa/a/a/a%aGaBaoalatataxakanaratapafaiaiamamaiakaiafafamamararamaiaiaiaiaiaiahaqaBa6aDaBauapaAaBa?a~a0a7a0a]bmbjbvbnbJbJa,aMawaUaOaFaBaOa-boa\bha/a%bba^aGaDa%a^aNa!aZaZaVaZa.a!aUaIbBcnb.b[b.b2bZbSaDaiapaOa0a}aDaiahauaOaDaBaBaNaZaZbhbFa^a2aGaNbhb6bTbwbTbFbobha-a2a6a~b%ccccb4bHb#b!bObfa=beaYaJa=bcbqbGbcbcbJbma*aWbEbPbjcdcibTbVa|asas",
"a\a\bobbaGaDayasaoahagahajawaNa.a.aZaZa!a6aBaDaSaZaGauaoasawasasaya/a^bwbobTbFbobFcucFcMbTb3b\b3bMbhaSa6bba\auaua2a/bwbhbhbVbFbhbbaSaSa.boa^bVcFc8cMcFcMcMbha6aBaoaqaqalaoasalalaoasaLaLa%a|a^a^a?a8aYa?bububhbhbga.a,bKb\ctcMcicacucFc8cucub\bCbMbta6aLawaNa6a!aYaOaDaxaBakaeaxaBaxapaoapasajagagahaoaoajaoaqaoasaNa!a^bba\bba6aZa\a2aSaVaSaIaDaGaDaLaNaDawaqalaqasasayasauasaqaqasaqaqauauajaoaqaBaSaBaDaBayawawanagafagagajalajahajajajahafalawaVboa\a6bbbwbCa^bbbCbVbTa^a\a^a!a^bbb,bMaLaZaSaNaIaDaoajagajaqajajaqajaqayaBayauaBa2a6aGaGaLaDaGayaIbhbhaZa|boa%bbb3cMcFcFbTbtb6cuc3cha!aualaBaIa!a/a!a.a.aSaua!bVcFcYcFb3bhbobFa^a\b6bTbMbCbMbFcub\cub6a|aZa!",
"a/aZbhaVa\b6bwa%aoafagajaGbhbVb(b\bTbha8a6a6bbb3b\bMbTbMbta/bTa/a.bTcFb6cMcucibCbCbKbCb\b,bMcucib\cib6b6b6cib6a/aVaSa^a\a2a2b3b\b6bTa%aLaGa!a%b6cYcubTa%a.a%a6a!aGaGa2aVaVaIaualajaLbhb(bFaVbhbMcabha6aUaIayaqa^bhbta.bhb\cYcYcub,b(cFcFcFc8cYcacEb,cab3a^bta[a8b6b3a^aZaSaNaVa6a!a2a.a^aLayaDauawa/bobwbobFbta.aNa\a/bhbobobhb\bTa^a.a/a^aSaIaZa\bta/bha^a.a6a^a\a2a.a\a/aSaVaSaNaBa2a!aVauaqaqapasaAaqapapasaxaoasaqaqawasauaAayaDaVaZa8a6aLbobha6bwb\bVaSaLbtbVa.a-a6a!aZaSaLasaya/bbaZa/btbhaNaDaqaoaoagalaqayaGa6bVbVbha\b,b,bVa%aDaIaVaVaqalaBaBaDayaIb,bbaBaZaVaUauaSaBaBaDboa/a/a!aBaGaSaDa2aVaVa!a/bta^bobwbtbta^a2a2aVaLa2aSaZa/bCa^bhbFb6b,cab\ctb\bo",
"cab,bVbobCboaJa0a]a]a?bgbobhbFcucMcMcucFcMbVbCbwb(cYctb3cXcYc&cEa}bKbJbDbKcEcEbScEcrbpbBbBa}b%crb`cEcTcEb.b2bKbSbubva7a0aTa7a|b3b\cYb,aVa0a~bga}a(a(a8a|aRaUaMaJaNa6a%aLaqasaqasaGaNa.btbTbta}bucncncdbvbJbea4a(bZcnb<b<bja=aOa?a%aDaOa?cEb2bbbMcucYb\bhbCbobBbBb3b%bTbobhbCb,a|a[a[a|a[a5aTa?a?a-bba^bta\a/chb2bSb2b.bKbha~aSa/bVbwb,bFa6aGbRb2bZbZb9b+bZbJb*cdb*cdb[ccbZb8bJbJbmbxb5b1b;cqcgcqcPcWcRcyc0cIb<bPa1a&a9a4bebsbnbjbvb[cncAcnclb[cnbubBaSa8bbaZaDaoayaBaNaNayaBaTa5a-aYa~a-aOaBaDaNa6aVaSa/a/auaoauaIaLaNa.bCa^bhb\cib6b,bwaBapauaDaDayaBaDaUaZctb(btaVa5a8bba|a8bCb\bCa|aYa!bwbTbMbhbhb.b,b`b,cEb.b2bBa?bua~a(a5aUaSa.a5a[a[a?btb,bCa(a,b(cEcucicu",
"b,a^aGaNasancBcNc!c)cPcxcycmcwb+cActcrbpbBb.bea9b;c9bZa;b~cycPb]bfcyc1cScGcRb]b0cccTcNcvcLcCc1cLcHcvc1cQcBcKcScScScScScScNc1cgbAa&bBcWcccLcLc1cCcQc!c#c)cycxcSc1bJa$aNauaGa!a^bbbha?a}bnbZb<b0b0cbckcOc5cQcKcBcjcjb=bObka:a=a&aCalapaMaFaMa4aFa7a~a[bCbbbnbKbIb1bJbdaRaMaFaRa+bKbIbia;a+a;babzbxb4b1bIbibabeb#b0cscBcjcfcQcSccbzayaoasawafaUcGc4c%c1c1cxbAbEb:b#cbb:b4b0b$b0b$b|b_b:cbcjcQc7c7c5cKcCcjcbc1cSb7b7b!cpc!c#c)c)c%cCcqb~b&b4b4b$b)cpcfb?b0bOa`a`bdbdaYaJaLaLbZcTc2cJcPcAc9c9c9cTcnb9bSa}bMcia/aNbjbgb*cdb^bJbJbRbsb+b~b&cAcwb.a0a7a|b~b9bZbvbubBbSb2b%bKcrctb`b(bubdb2bvbja~bnb2bpa>b8ccbZbIbebDccb]b;b&bOb4b$bObsbab9cdb1bIbPbQb*b1b;b4bJbIbhbSbMbF",
"bVawacagavaUc1c1cSc7c7c7cRcBcqcgb_cmb4b4b<b&c0cVcVcRcDb&b|cfb*blbzcwcWcxcqcRclb]cTc2cPcDc4cRcbb}cscvcBcsb}cBcvcjb?b>bNb7cvckb)b4cmcpcVc1cVcBc1cScScScVcKcCcGcZcScWbkbbbta/awa0bKb#bYbNb7cjb>coc1cSb-czcScBb}cjcbcbb>bma<bHbPbkbrbabmbEbxbrbDbxa=a,a5bbb,bubKbda&a9a7a?a,a(aTaQbBbsa*a1aXa9bdbRbpbPbEbrbEb)bNbqblbUbNb=b>b>b}cBc1a?amauaqafa?c4cRcQcQcpb>bGb4b?b?b}cCcKcvblb_cscVcSczb)b7b{b}cHcHb>b=bYbLbLb)b>b>b=b#cBcScCcKcxckb/b:cqcycycycRcxcCcpb?b)b_b_a}aXaDaBbBbScRcIcRcyb<cDc9c2c#c9c+c#cJbrbbbVbtaGa0a7cDccbEb&cycycmc0cwb7b<b+a,apaCb(b<bDa+a}a~a~a7a~cncXb2b`a[a,a(a>b2bnbsbZb9bDbWb^b0b0bsbib8bHbPbIbzbHcgcyb&b~cgb]bibebkbHcbb:b)bYb=b=b4bka}a]aSaG",
"b6aYabaoa0a7cZcKcBcKcScScycpb4b;cNc1cqbEa=a:cjcCcScsc4cScIb}a3bcbzbDb$bHb<b~b5b[cTcDcwcDcycPb7b#b?cxcjcscjb=cZc7cGb?b0b0b$b5a:bmb|b|b$b;b0bOb;b#cCcScLcvbOcgcyckcca{a6aZaNaNbsbIb>b>bXb>csczb}cBb:bXbXb#bqbfbAbEb#b)a`aHa$bcbrbzbNb7b7bNbkbQbjbaa]a+a-a-a5aTa0aRataBa?bba}a1aJaEaQa1a&bvb*b[cwb/bPbzbObEbAbNb7b7cjb=b=b#b!b)b}cjbvaQaVa2aOa5cQcKcob{cjcBb?b7b}cvcHczcBc!cScjcscBb>b-b-b>cjb}cecBcscecBcsb)bybla#bfbYb=bYbYbNbNbNb]b0brb$cmb|cqcbcbcfcfb>b0b0bsbebga?bxbJcNcyb|cbcmcIcPcWcAc2cJcDbRa$aDaSbhaDbba\bRcnbEbxb~cDc2b5bcbxb<cybKa+aGaMa7aXaRa}b3aRaAbtcJcJbKbga6a8a(a~bWclb~cca]aRb|ccbPbEb+bRbJbJbxbmbrbQcmcPbWbma=bjbRa&bebmb>cfb}b>b}ckb?b=cpcbbIa`",
"b(cibha%a~a7cscscOcZc7c5cScHb#b?b7b#b;bYb)ckcCcLb|bNbEbObNbYbeaPa1a&a=aXbHb[cAcJcXb~b~clcwcmcccwcmbNb?cfcycIcqb?bWbEbkb5bzb5bmbmbHbzbWbEbEbrb?b4cjcvcCckbWbIb0cmb^bkaNaSa\a/bHb8b}b}b>b-bAbUb0blbfbNb{cKcLcKcbcsc1cKb0bqa*a$a<bkb7b#bAa)a_b4brbca$a$b4bHbia{a`baa7aKbPbIbzbkaTazaEaTbabIb)b_bObAb0bObfbGb7b7b-b!b>b=b}cbb-b>b}cjbga~a/bVa[a0cxb}cBcOcHcUckb=b?cjczcKckb)cScxbXbLcGcjb=cjcBcKcecBcsceb>b!b-b>cZcZb{cjcLcscbcbbEbAb:cfbrbqb?cycxcmcvcbb?cmb|b:b+bea9bBcqcmcCcCcLcNcgb$b&b~b<b~bxbmbZcnbCbTa%aNbhaVaEa]brbzcycIcPb<b~b~b;cqb.a&a,bncnbDaRa(bha7aGaIa0a,bga(bda~a;a>b~cDb|c0a-a?bub%cpb_cmcfcbcIcScScIb:b&b/bWb^bZbpa]a9a*bnbyb$b>b-bNbYcvcBcbb!b0bq",
"boaOcMb,a|bbb=cvcHcUcHcscscjb?bYa_bOb$b#brbEbWbmaOapaeazbNbGbrblaKa>bKa1aPbKb<cJcncwb[ccb<bsbsbsa`a:bmb1cdbJbDbDbma`a:bebsbsa*bia{b~cIcmb5b0b0b)cscvcvckbzcwc0cCcwa<aBaIaDaLbkbxbXb>cscecscobYbYb}cfcQcHcZc7c7c5cKcocjb}bAb7b}b=b{csb-b!bLcjb#bGb#bYcfb?bEbObPbOb0bYb_b#b#b0bObHa*bkb0b$bEbAbma)bAb_cjb-b-cjb}b-cjb}b-b#b=b}b4a_aDboa/a2aMaUcjcBcZcZc5cZcZcQcscscZcZcIbUb?b_b7b7b-cjb}b}ckb=b#b7bLb7cocSc5c5c!c%cBbUbfbGbYb)bGbObNb0bYb;cxcLb|cbb|b?bxbrbea=bJbZb?cmcCcLcKcScmckcwb<b~cwb&b<cwcwb`b`bba2aYbSbvbDbsbab0b~clb5a{b[bvaQaJaOaOaSa(bub+a&aUaBaxaYa5a5aDaUaOaGa$bJbWb5cVc0cNc4cccDbWccb]b/b;cxcvc7c7c!cRcbcwb:bWccbIbib$b&b4bqbkbPcscbb)b#b0bGbfbNcbb}",
"a!aia.bVb,bTbYckcHcHcscsb?b7b?bYb?b)b4b4a=a*bibxbibibJbnbNbqbEbqbaa*bBb9bmbcb<ccbRb<b+b~bvbaa`a`a*bmbxbebDbZbWbZbWbmbWbxbIbma9a$a9a*bPbWbPbHbOb0b;cbcbcvcbcmcbb-b<aPayaZa!a|cfcxb>b>cjcjcOc5cKczbObfcjcQczcZcOczb{b}cKcBbybLcBcKczczcBcob!b>b#bYb}ckb7bYbzbkbEbAcpcjb)b)bObGbEa{a:bkb?cGb0bOb7b_b>cvcZcUcHczczcocjb}b=b}bOa_aAanahaNbTbwaTa7cQcScUcOcKcKcbb>cScjcocKcscjcBb{cBcBceb{bYbLbUb?csb>b>b}b>bUbLbXczcocOcQcsb}bNb)b7bNbObrbYb:bObNb*bza*bcb$cwb]b0cCckckcvcLcBcvcscvcscCckb~b|cwb~cycDa?a~a6aDa1bZcLb?b|b|b|b$ccbEa]bdbga,aLaSaYa,aMbja~aFaDaDaxayaUaRaAaBaAapaJa}a+a:bWb$cVc%c)c!b~a{a3bea$a`b0cgc7c7bDbcbOb;ckcmcScVc7cQcVcCbkbfbYb0bObqa*brbXb#b4bY",
"a[afaBaZb3a~cvcZczcocscecbcjcscjb0blb$b$b4b4bNb|b&bNb4b$bHbca:bPb&bHa0aAa1a9a4aXbIbJa`a;b~b9b5b5b~bWbDbxbmb5bWclb5b5bWbDbWbsa+aXa*beb5b5b5b5bEbHckcmckb?cvcLckb-bDaWa^bwa\a5cfb_bXb=b}cjcHcOc5cZcBb>cKczcjb}cHcQcBb{cocZc1cOcHcScZcQcoczb)b-b:bYb0b/b/bPbHbHb)b$b#b_b7bNbObAa*a9a3a:b>cpcScLcvckb:a_cocQcHczczcob-cecscjaJa+a/aVaLa/a%bba0a(cUc1cHcocscvcfbGb?cfb-cCcUc5cUcUcQb{b{cvcHcob)b!bUcbcscjcKcBcbbXbYbYbUb)cpb-bYcfcvcvcvcvcScCcbcbcRcmb4bOb)b|b)b|cCcvcxckcbckckcbb?cbcvcCcCcqcRcwcDcTbha?btaNa1bvbza)bOcwb;b$bPb&bRbcbBbZa,a7bpbdbzb&a}aQaJa8aBataFaUaJaFauakaPbZc0cma{a:b?c0c#cbblb;cVcVbHbkaWa:bEbrb7ckcmcbckcbcvcvb:bYb#cbckcbbAbNb}cbb}cscjcsbJbS",
"btaAaNaVaRaDcscscoczb!bUcbcjcsceb0bNbObOcbcbb)b|b4b4bObObHbOa`a:b|cgb9a:a=bnbma{b5bxa=a`beb&cycyb+a#aQa+bDbZbWb<b5bWbea`b5bxa&aza$a`bWb&b~b<bzbWcmcmcvcCb?ckcsb=bWbDbFbVcFbgb7bYcBcQcZczcHcOc5cZb#blczceb>bUblb}cKcKcHcQcUcZc%c7c!c7czcjbObNbEbHbia]a]bpbIbRb_b_bYb4b4bOb4bGbkbzb$b0cLcSc7c!cScsb}b-b}cBcHcecHcOczczcOcZb8bRbwa\aZaNa%a%a7bdczcKcKcKcCckcbcxb?b>b>b>cecHcZcUcjb-b!b?cHcBcKcvcCcjcQcKcUcZcKb}bAb7bNbYbYb)b)b#b-b?cjb>b}cLcNcsckb?cjckb)b7b4b)b)b?bHbObObNbAbAbOb4bNb?cVcVckcmcmc0chbSbha2a1bpb0bObqb5b|b|b;b;bWbxa}a4bDbJa`a=bzb5b&bJbna?bja(bga0a?bna7a?bxbDckcqbObWbka*bAb&cVcCb;bYcmb_b?cmcCcbbGb;ckbYbzbkbkbkbEbEbNbNbXb?cBcsczcscUcUcZc5b[bJ",
"a,aJbtbhaOaBbyb?cHcOcsczb{cecbb{b=cbb0bqbGb4b0b0b7b?cmb)b#b;bObAb)cpcmb0bzbPb5brb;bOb4b;b0cNb~bqaKaTbsbDbDa9bmbmbsb9bmbebea=avaFa{bIbWb5b<b5bxb&bObOczcHcZcHcQcObDb*b,bTbTa(b:b_cOcQcUcZcHcHcsb!b!cmcScjczczczcjcecKczcKcBcScQcoczcQcecsb4bqa>a9aJaAaFanazaFb0b$b:b_bObNbca:blbOcvcjcKcVc5c5cScsb=cbbYbGbyb-cUcHczcecUcZcgb&b6a2aLa!a^a^a}a}cQcKcOcKcLcvcjcCczcjczcQcHcococzcOczcjb-cZcHcUcZcBcHcQcKcUcZcBcjbqbAbAbqb7b?b:bNb=ckcBcscbb>cjcCcHcOcsb}bqbzcwcgbHbca)bzbYb?b$bNbrbkb0b|cvcNc4c0cVckb+b9aZaIaza]bObfa3a:bcbWb|b;b~b;bsbWbna`a4a+a+bjbjbma]bpa0bua&a(a>a0aEa(b5b&b;cNcNcba>aCbrbPb|bNb0b:cvcLb#b;bNb?b;bOckcLcRcCb]b0a{bkbGb7b-b7b!b7b-b}ckckb}b{cDcw",
"aOaxa!aVaSaNava:cZc5c7c5czcsckb-cbcecscsbYb>bLb?b?b!cbcsckb}ckb?baa$a3bma)bka>ama#bRbia&aFaEaCaTbxb<bHbWa=a4bea`a9a&bmbsbma`a1a4a$bIb;b$bOb5cmckb;bUb=b#cocscHcHbDcAbVb6b\a?bEbla_bAcOc1cOceb-cscWc9cSb{cjb{bybGcjb{b=cjcQcHcjcBcZcHb}b>aRarapaAaJaMa0aEaJaMaWaQb#cgb#b$b5bqbfbrb}cBcUcUcscBcBcCcBcscScjcbb!b=cHcOczcOczb?cCb%bBaVa!bobbbua7bXcvcKcOcScQcBcHcBczcHcOczcecjcsb?a)b!cCcQczcocQcKczcCcjb=cjb0bAbWb^b$b_ckcNb|b0bUb)cjcscCb{bXb#cecBcscsbWbEbxa$azamaCbabca*azaraQaXa1aXaXa1bcb<cmcVb2cdbba2aFayaHaXa_bra`a=bkbsb4b0b&b0bPb<a}bxbjbnbRbma9a;a;a9a`bRb<bza&a+a&a&a{bxbOb;bWb5b5brckcNcVcLckb7bkbcbOb4bYbYbEbrbzbzbAbzb0bzb!b_b>b}b7b!b$b0b_cpb0bYb#cq",
"a~a~a.a6aNaIaQaHcecQb{cebYbya_bfb7b}cocKc5cCczcQcZcOcHcOcQczb:bfa=a;a]baa+a1aJaFaLayaDaBa(bgbzb<b&bAbcb&bsbka+aXbebmckcmb;b?bOb<bca{bAbEb0bNcbcvcHcecbcvbGbycjcCbsb+bwbFcYaNazaRamaCa_b#csb=cscjb_b_czcKcHcBczcocUcOcUcUczczcZcKczcKbcaWaEaJaJataxaAaRbdbdaRapataPa`b1b/bDa*blb0cocBcUcOczc1czcKcOcOc5c5c!c!cOcUc5cUcocOcHcZc!c%bubnbTb6btaTb!cfcOcBcKcvb?b?czcScUc1cBcsczcHcLcvb=cbb}b?bYbNbLb#cbckb>cbcqcqcIc4cVc0cxb_cbb_b7b)b}b>cscscOcBczcOcmb-bea$a3aWa{bAbla_a:a<a$a$a$aKaJa(a(aMaEaRa=bsa,a~a^bha^aDafaia*brb0bEbWbkaQa&a$a4a`a&aRavaCaJa;bjbebWb9bmb5b&cqb~cLcRb~bma`a`bWb~b5a3aFaEa:bDb7b?b$b)b|b|cvcmcNc0b:b4cbb_ckcpb#b:bYb7b7b#bObAb4b)bYb#b0bqa{br",
"bCb3bTbCbta%aIapaHa<bka#azarafamararavaHaWa$bfbAbYbyaPaPa_bla9arakaiafavavata9a1aJaJa?aMa=a4arazaEamazaXbrbOa$aPbkbObfa_a:aPaCaXbAbNbAbka9aQa_bkbNb7blbNb?b?bHbEaUb3b,b\bVb6b6b,bta8a0a0a:a$a&a&a1aJaWaPa3a$a#a*a#bfa:a)aWa:a*a<a)a$a9a=aYaRaIaYa8aGaAaya5aDawauaBaBa;a]aUapaFaRa{a:a{a#bqbcblbNb?bYbYbGbqbfa<a#bLbAbAblbkbqbAbra7bKbha.a-aMaQaWaQaHaQaPaCara3a:bAbAbzbfbka{bcbca*a:aFaCavaxaKaKaravavavaraCa3bibia*aFaKaFazaCaKa:a:a<a{bAbrbcbca&a9a1a]bxbRcJcTcDcWb~bxbaa*aFaJa7a?a|a?aYaFaxanawaUa8a|b3b\a\aZaMaxbEbia4aKaXa+aAapagafagaiafafafaharaJa0aQa9a1a{bea`bca+a1aQaRaFazapamanaiafaiaiaraCa9a=a3aPaQa$a:bcbaa3a$a$a3aEaHavaramaiamamamararaKaHaHaxaC",
"cFcMcucYcacabMa^aLaIawajaqayaBaBawasaoahajajaqaqanaoaqayaBaBaBaVaNaDayasaoagafafahahahajanasawayasanajagafakapamahamalaDaVa6b3b,cub\b`bTcub3bCaYapahafaganaBa6bVb6b,cMcFb\cFcYc*cYcubVa6aDaBaDa%a\a%aSaIa%boaZa!a.a\a/aNa%a/aLaLaGawaVbbbhb,cMcMc8b(b3cicYcicucMcFcYb,a/cMb\cabCa|a/a/a!aSaSaSaNaOa%a!auaOaNaNaBaLaLaDaIaVaLaZbha^bobTboa.aVaNaLaNaBasaLaVawalajaqaDaBaBaIauahalaDa!a%a\a%aSaZaYaNaDaIayayaBaqakajalaqasaqaIasajalalaqaGa[a/bobobobbb3bTb\bCbba-bMbFa^btb3b\cib,bMb3bhaVaGa.aVaVbobCb\b3b(bCa/bba6aqahagafaoaBaNaIaNa6a.a^aSaGaBaqaqajalajahagagagafagagasaNaDasagagajaoaqaGawaqaqasajagagajaqaoalalajakagagakalatayaDaBayauaqaoaoanalanajaoawbb",
"cMcMcFb,cMcub,btaSaNa8a^bwb6b6bVbMbba-aZaYa!a6aSaVbhb\a~aNaVa%aZa2aLayaIaIaIawawasawayaDaGaVaZaNaIaIaIa!a/aSaZaSaZa6aZa.bocucMb(bha.aZaVa/a/a%a.aNaDaGaLaDayasawaSbVbVcicFb6cacFb\b\b,b3bwa!a!a.a^bVcacicab(cab,b6b6bwa!aSaDaIaBauaqasayaDaSa2a!a[a^a^a^a|bMb(b6bha.a|b\a|b3b,bwbhbbbobwbTbhaLaDaGaBaNbbbtb6bwa!aSaDaqayauauayaIa6a2a!a!a^a6a.a2a6a.a!bwa^aZa8a.a8aVa5a8aUaOa/a|a[a8a|a[a2a-a[aYaGa[a8bob(b,b,bCa.a^bobwbwb\boa5aLbob6bFa%aLaVbhbobhb6cFbCbba.bbaUaBbbb6cub,b6cicab6btbhaxaZa-a\a^a.bwbFbFbhb,b,bTaZa6a6aZa%bhb6a[bTb\b6btaZa!a2a!a/aZaLaVa8aNaDayauasaqasauaBaGayaDaLaLaDaDaIaNaSaNaBaIaIaGaNaDaBaBa5aZaNaVa8aZa2a|a|a\a|a|a-a-a8aVaYa8a5aUa^bM",
"b9cJcYchb(ctcDcAc0c4b`cAbFcEc3b%b%bZbRcccdb[cJcTcJcAbSbSb%b2bBa+a;a;a0a7aBa^bba\a/a!aSaVaSbhbgbBa,a7aYa5bbbhb+b[b+bRbZb5bjbRb2crb9a;bDbRb<bZb9b9bvb9b[cAcncncDb[b<b^b9b[cAb*bIbRclcTcTcXb[bZcAbSb+b+b[cXcncJcXc2cAcdb2bua-aLa7a0a1a;a7aRaDaya2a^bba[boboa?a~a0aRa&aRaFa~aOatataBa~aYaJaAa>a(bpb2crbKb2cXcrcdbJa]bmbRb+b+bBa>a^a!a.aNaNaNaUaBa9bJbIbWbibabsb^bZbsb[b+b+cdc$c9c2cncdbQbxb[b^b[cJcdbZb9bKa&a\bTcucib[b%cwb+b^cdcdcdb[cdcdcdcdcdcdbZb9b9bgbva7a~bKb%b+b+b[b[b[b[b[b+b+bDbJb+bJa}bvbpbua]a0a(btbSchb%bSbKbubgbub2bgbga~a7aYa5bubgbda~bnbubua,a(bBbha?a~a?aVaGaGaGayaxaOa[a>bKb%b.b.b.cdb2bvbSbubCbtaUbub%chcrb.b.chb.b.ctcEcTcXcEctcdcdcDb[cAcWclb1b^",
"bsbRchb3a(cEcJb&cCc0c0cLb5b5bmbxc$cwcLc4cmb$cpcfcRcmcwcPc4cPcycyc4c4cRcIa>a4a^bFb6bTbTbwbVbVcmc#c)c#c4cVcycfb;b)cbcCcKcjbHa_byb0cscvc5c5cQcHcVcHbqbGbObYbObGb0b)b|b)b0b#b?b?b#b7bGbyb}b}b)b_bObNb)cgcpcpcscjcxcxcBc7cWc4cRc#c)c!c#c)cna<a!a^b,cabSbKcWcyckcRc5c%c+c%c4cCb|b:b;b$b&c$c*c(c4c#c!cNcqcmb?b|ckbYcLcLckb?c7c#c)cRbRbKb`bBbKbSbEcWc4cSc0b?cLcNb|b0cLcRcVc7cRcxcIcqcmb_cyb7b_cqcNc4c0cGcVc7cDbkayaSa5aOcfcGcsb}b-b#cxb#bGbEbzbEa`a3babxbibebsbIb+b8bJbIbRbJbJb[bRbab1b8cdb*bjb[bSbvbRb9b1bQbIbZb^cJclb+a]a1aRaJaAaJa;bna?a(a>bKcnctclbJb8b^bZbmbab1bQbrbja;a5aAaeaoanakb|b]cbckcmcycJbDb5b~b5bRbsb<bRb[bWb[c#c2cPb5a`bRcJcwbPbIb+b1bZb%b9b9cJcXc3c$c2b[",
"cwb*a}beb+c2clb<cbcqcCcCb4bNckcNc7cCbOblbNbOb7b:b_b)b)b?cxcGcGcycRcxcKcScdaWaDaSbMb,bha6a?b%cCckb}b}cjbXbyb7b}cscbcbb7bXa_a<a{a#aWa3a3a)bYbYbqbAbka{brbDbNb$b?ckbWbEb4b4b4b0bEbEbrbObUb-b}cjcscBcjcBcBcKcQcKcvcsb=cjcKcQcocob-b}cKcBa;bpbFbFb(cucmb|cvb!bGb|b7cCc)c)c+c%c7cCc4c0b;cqc&cXbXcIcqcbb|b?b?b;cLcNc%c%cVcNb?b|cCcVb~b0c#c0cwcWcNcRcIcmb|b|bYb|ckcmckcxcxcbb|b)cmcqcvcmb4bObEa{bNbOb0b0cNcIbma*aoa8a|aNbqcwcQcecocsceceb)b?b/bEbPbObsbma,a7aOa5a,a0a(a?a(a(aYa0a7a,bda(a5a7a?a(bIbJb8cDcwcIb*b&cccDcDcqbsa9a4a1bmb*b*bIa?aTaObgbBbSbBa4bkbWb4bEb#cxb?b#b&b$a0aEahasauanbYcxcBb-b=b>b0bNbda`aMa9bPbPb<b~b>cNc0cvb4b#bQbHclcDcfb|b<ccc2cAb+bZcJb^b^cnc2cr",
"bQbHbQbWb5cAcqb;b0bGb#b0b?cNcNb?b?b?bYb)b0b#bObza_a*bAbrb)b_b)b)cpcpcKcBb*aHaIa2a8bTbRbmb]b;bYbLb7b#bDa*b?cscscjckb}bYa<b=b)b7b-b0bybAbzbqbAbzbNbzbGcLcCa_a)ceb}b{csczczb?b=b?b#bAblbyb-bXb=cecUcUcHcococUcOcBb{b}cvczcecsb-b}cob#b#a>bga^a!aGa[cNb~b!cvcZcVc5cVcZc5cvcvcvb|b?cmcmb|b:cycnclb|cqcVc#cVcVcmb;cbcqc%cNcNcVb&b~a3a:b5b5aHaHbkb5b?cqcyckcLc#c4cVcIbGb|cmb#b?b?b?b5bNbGb;b;b?bWbOa{bEb?cLcPcyanaMa!aLbia=b-b>cjb{byb#b)bGb#b0b)cgbDbiaTaJaGaTaUaOaTa?aMaraMa8a,a0aQbdbrbPb$b0cbcpcpcCcpckcLckckcRcyb)bea]a&a`b)cyclbGbda`aMaObvbvbebmbYb;ckb>blb?cscjcbcGa?a7bobVbMaNblcqcCbUb=cjcecjcLcbbma*bebab#b;b0bGbLb?bYbUclcwb4b5b/b;b|b]cwcPb^cDcPb&cgb|b&b<",
"brb9b<b&b9c$cwbObYbYb?b#b=b=b|cbb0b~cyb;bAbEbkbEb4bOb0b4b7b$cbcbc1cGcScKbQaHalaja#b+b}cRcIcbckb=b?b>b;b7b=cscHcKb)a_a<a)bla#blblb-b-cHcsa_a_a_bGb{czceb!b=bLblbUb=b!ceb{b{cscbb=bfbUczb-b=ceczcHczbXcoczcOcHb=cKcUczb!b-czcocecscGcRcRb;bbbhaZa!c0b;cbb?b?b?b?cVcNc!bkbfb0bObNb~bEbrb$cIcTcJbHbWbOcPcyb~cwb|bma3cmcycVcNb5b&a`a3bibka*beb)cIcVcqb0b5b?b?cqb#a{a:bLcDc!cVcyckb?b|ckcRcRb|cPcmcycNcNcVcycRapapaBatbJa;byb:coczb}b}cjcsb)b7b$b;bQbzaTaMaJaya7a5aTbga5aBaTa?aUaRaKa}b#b#cjcbcbb7bkbebrbzcHcQcQcOb;bNbebabOb<cKcVcNb?b;cIb1bDb&bOb7b)cjcecscsb{cjcKcKcfb_chcrc8cYb\a.a1a1b>cjb-cjcjb{cscKbWbfa:bPb}b?b?cbbGbAb~b]b*ccbEbzbQbPb9b+b1bEb1cPc2b^b5b5cwbW",
"a:bRccb4b[c(cIb:b?b}b#b=ckcbb=ckb0bGb~b0bEb;b_cgcIb_cfcfb|b|b_cfcxb}cGcsbQa#aLawazbsb!b=b}b}cjb}bYbyblb?cjbXb!b}b=b!b7b-bUb>cbb!b-b!bLbXcscScoczcob!cHcsb-b{bUb!cecoczcocecob{b=bfb=cHcebXbybybXbUb{czcecocob{cecoczcocecocob{cKcHczckcIbTbwa.aZb0bNb!cbb0b?cCckcbcvcqb)a<bzb~b;bca{bDb~bEb&bkbzb<bkbzb&b5b5bmbma9a&bWbWbcbeb~b&bWbra{b5ccb<c0c0ckcyb|bOckc0cNcbbfb&cNcIcNcCcxckb0b?bsbcbEbEb;b$b$bEbzb&amapaVaDbzcwb>b!b-cjbYbXb=cbckcsb_b7cyb4a;a1aAaAaTaMa7a?a~a,aFaRaTaFaHa;bzbNb}csckb}bDbcbLckcOcOcpbLa_bzb>cCcQcscmbLbrbEb|b$b#cwcyb#b=b?cjcKcKb{b}ceczcScGb}bZb%b\cubVa!a~aRb-b_cocKcsczb=cbbEbrbfbOcjcsb7bUbWbPcgb$bIbxa`bacXb8bDbDb4b8clcccwb|b4b5b8b8",
"bmbmb~b~cNcbcbcvcsb?cZc0cscbb?b?b?cbbNcmc4cpb$bOb0b$b)b_cpcGcfb:cfcfcjcjbRaHaIaSa{bIb>b-b{b-b?bUa_b4b-b-bYbLbyb!csb=bUbLb!byblblbyblbXb{b-b!b{b!a)a<a_bXa#bUcob{czcococzcob-cecocOb{cob{cecocebUb-cob{b!b!b!bXb!cecOcHczczcOczcHcUcOb)b)b,bTa.a-bAbWcbcvckb?b;ckb5bNcVc%c0cvb0b5b~bza{bea$a&a$beb~bEb~cWbDa{b5bWbvaEaQbjaQa`bDbxbcbrbzbQcPb~b;b#bObOa:a{b0cmb;bNbOa{bYb$cvcNcmckb0b0bAbEb0b;b0b0bNbNa=a*aiaoaYbha$a`cjb-b=b{b}cececscbcbbYb4cqb0bea:a+a9aQa7a;a9a&a4a:bmb4b5a3becbb>b?b=b}cscOcQcOcOcOcOcvb=b7cbb{cSb|a_cqbzbfb~cwbfa*bIcmb#bNbfb!cbczczcocococScScCbRb9bTb6cYb6b.a~bNb)czcHb_bla3a:a4aHa4a9bNbAb=b?b&b<cAb*bRcdbEbkcrbZbqbHb]b]b:bGb0b$bHbcbWcc",
"bPb&c#c0cKcBcsb{cbb}cNc5ckb?bNcbcbcsb?bYcNcxb_b_cfb)cbcxcpb)ckcxcjcbcHcQb<bfbtbVa>a&b{ceb-b-b?b!bYbLceb>b=b=b-b!b!bYb=b!b!bLbfbXbXceb{cococebXbUbUcjb-bybfbUcHceceb{b{cob{cZcOcOczb-cHcOcoceb{b-byblb=bUb{cecocob{b=b{b=czczcOcHcocob?b#a/bMbta,bWa_bLb?cVc%ckcvckbGbkbrb?b|b5cmb<b5bmbebxbkbWa{a`a9bsbWbWbxa{bsbea{a=bna`a=ccbsbcbebzbHbzb0bzbrbrbmbkbkbObOb0b0bEb4bfbEbrbcbfbHcbcLb|b7bGb0b&blbzb0bDbkanbTbFaBbfbHcococzcocob=b=cjb#bGblbzbPbra=a*aMaXaXa+a4a;bQbPbPbcbqb;bcbAcscjcscjcjcbbla{cHcLb{cscocUcvb}b?b7bPbEbOb~b4b$bPbka4aQaWbab$b4cscBczczcocjczcQcvcsbnb+cucYcYb3a.bhb~bWcecKb4bya$a1bma:aXaQa{bEb#b#b#b)crc3b[cXcdb8b[b1bNbNb_b_b?b=clb0b4b$b4b0",
"b?cxcScCcKcBb>b}bYbUb?bzbAbNbAbGb!cbckbAcbcxcxcxcCcpcScScpb:cscBcBcoczcob1bsa^b,boa+bNb#cjcobYbUbXbUb-cbczcecocob=b-b=bybUb-cocebUbUb{ceb!bycocob!bUb!a#bUbXbXbLb-b-b-b=b{cHc5c5c5cUc5czcoczcHcHb}bUaKarbfb#b-b{cHcHcoczceczczcHcecocbbYaYcMcia7bEbkbNbLbea{bcb|cNcNa=aPa{bxb5b0bmbzb<cTb5b5cmcmbsbkbebDbWb5brbEb5a$a`a=a3a=b5bHbrbWb;b$b)cyb~b#bma*a#bsckb|b?b0cbc0b0blbzbkbAbNb)cmcbb)bYbNbza<a9a=bmbmaBa[a5aqbycfczcocecoceb{b=b=b7bUbGbYbEa<a*a=a$a&a1a&a4a1a<bxbra:bAbObAbqcscCcsb=cocscscBcBcKczcscHcObza#bxbQa=a*a*a*aQa$a3a3aXaCanaiavaFa{brczcBcocHcBcsb?b)bjb2bCcucub3cub\b.b%b?bGbcbca:a$a:baa`a$a{bEbAbEbOb$b*b8bKchc6crc(cEb/b]c2cAcjb}cbb>cfckbPbO",
"b#ckcxcscBcScQcKb)b?b)b=bYb!cLcbbNbOcvb?cbcIc$cIcfcpcpcsb:b7cscsc1cQcHcOb<bka2a2aOaRa{a:bLcbcbb!a)bUb=bLbfa#a)bzbfbfcecHb!bUcob{b!bLb{b!bLbLbfb!b{b{b=bfbyb!b{b{ceb=b=b{cecoceb{cocZceb{b!b{cob!b7b#b=b>b{cjb!bLczcob!b{b-csczcUcHb{bNbNb\c8b\bub?b0b7bLa)bkb!cCckcka3a&a{bmbkbEbsa{a`bea:bHb;ckb5bObzbAbzbzb0bWbebkbsa*bEb&b|b|b&bfbOb~cNb?brbzbEbzbkbzckcmb0bGbAbqb#b)cscCcLcbb?cmcLb?bObYb4bqbPbza=a`aGa8a!aGblb$czczcoczb{b-b-b{b=b{b{b=b)bXbrbqbzbNa9a3a$a=bGbEbAbqbUb?cscjcscsbXbLcjcQcCb}bXb#cjcscjb}a$bIbRb9bxbsbrbxbWb4bxa=babxa+aKaFaEaFaMaWa*cecLcOcHcpb>a+b2boa[a.bCcYcMc3bgbca#bEb;bsaWaUa,a]a;a&a&a{bPbWbPbNbGbib8c(b.c3c-c*c-c3cAbYb=b=ceb}b}cbb>",
"cpbLbNcpcNcBbPblaHaCbfb0cLcvb?bYcbb=cbcpb0blbkb^c0cRcScjcfb>b=cBcBcOcUcZb~a_bFbVa%aBaiama#bYb?cebNbfb!cvcbb!b!b>cocececeb{ceb!byb=bUbXb-czczcoceb{bXb-b-bla_b!b!ceb{b-b{czczcobXb-ceb{ceb{b!bYb)b9a1aCa&b=b=c5c5cOcHcecocob{cUcOczcob)bya.bFa,a/bObWb!b?b?b=bWbkbNbOcbcVb~bNb;cCb~b0bAbEbca:b5b5ckcmc#b~bYb;b|b4bzb5bzbkbrbzb0b|b<b4bzbWckb|b0bAbkbzbyb;cCcbcvcbckcbcbcbckb>ckb?cvcCb?b=b0bybObAb?cbb<bPbhbba%aLblb|cHczcoceceb-b-czceb{b-b-b!b!bUbXb7bYbqbkbNbNb{cjcjb{b!b=coczceb=b!b!b=b-b-b=b)b-cscHcvb>aHa9a4aQaFaMaKa4a*a`a&a&a=bibsbxbWbIbDa`a]a;a)bxc5cZcQcKa&a&bhb(bwb3bhaLbebRb0bNb)b?bda`a[a[a5a7a(a4bnbZbsbxb]b0bObEbQb8cnc6c-cXc9b_b}b-b=b}b-b}cBc1",
"cscsb}cNcwbfapadacacaCa4bNb?cecscscscbb:cfb:b_cpcpb_cBcxcKc1c1cZcQcQbla_bearaqa%bhaNawaqara3b-b=bka)aPa<cecHcHcebXb!bLbUb{b!b=cocjb!b!b=bUbybUb{cococHcHceb{cHcHcOczb!a)bfcecOczczb-bycocUcHckbXa4a$aKa0bybOb!bXbXb!bra<bfa_a*aPaCaCaCaxaNaVaYa,b|cLcNcCcmbYbkbzbGbWb?bOa+azamaCa)bWckckb?bWbObWbWb0b|cyb|b0cvcvcvb;bYb;bWbra{bHclb<bkb5bza#bfb<cCckcmb7cvcNcNc)c0cCb#b0bca_bfbOcCcLcQcLcBcsbObNb)b?bDbnbbaVaSaNa<b&czceceb{b-b{ceb{ceceb!bUb{b}coczb}b!bzbNcecBcOcocococececocob>bXbfbUcocob7a#blbkbqbAbYb$a4aCavaiafaiajaiajapataAaWa&bebabmbaaTaEaza0a,a4bYcNcCb}bSaQbbb\cicaa?axa=bib0b#b?cyb9bvbjbda>a;a&a4a=bja;b[ccbPbYbYb7bXb7b#cxcfb}cob>cjcBb}b-cBcBb}",
"bAbAbaa3amanalahaqayayajaWa{a_a_blbGbra_blbrbka<a$a3a$a$aKaHaCaHaHavafaraUa|aVaVa!a/bobba5a0a`bea}bKa-aUa7a5aMaFaOaJa~a7axaEa1aQaEa4a(a,a?a~a0azamamarararazazaPaHavamaeaiarazazazaHaramazazavaraAaxalajakaiakaeaeafafahajagalaoasasaVa^aVa|a,a%bWbxbmb5a$b&cwcNa>aEaAavasaBaDayapaEa:bra4aHaKaKa3bpa{bsbzbAbma{a*a{a1aQaraAanamaTa+a3a3aQaEaWa$aXaHaKaCaWa3aQaQaHaKaTaTaAaxaxaxaKaTa3bjbPbza=a*a`a4atakaGaVasasarata_a_a<a_blbfa*aHaWa{aMaCaHa+a*a#aKazaEazazaCaHaKa4a>a]a4a1aXaJaEamaCaPaWa*aWaKaEaPaQaCaKaCa0a~a,a-a[a\a5a8aLaAaOaRa0a,bda7bdaYaYaNaLaYaOaJaJa(bScab(bobbcYcYcFbba;a+bdcJchcXb2bgcdb9bRbsa`bab9b[b+b[ccb*bzbkbza{aXaHazaCbcbcbkbHbxa)aPbcbXbN",
"aeaeacaeajaBaNaGauaGaBasajagafafaeafafacaeaoasayayalafafafadagalalajasaIaSbob6b,bCbVbbbbbCa!aDaNa6a/aVaLaIaVa6aSa2a.a.btbtbFbCa%cua^aLaZa^aLawawawawayaGawanalahajalawaGauajaeaoaxaBaLaqaqaVayaZa2aDayayayayaGaBa6aIaSa6a6a6a[aYa%aVaDaOaGa[a5aVaYaGaBaLanaDa-aGasaBayaBaVa[a.a.a,a/bbbgaZaGayaqaoajalaqawalahalawapapayayaDauaoahadacafagagafafagalaoayaDaIaGaDaIaNaNaBa!aLaVa/a!aGasaoalaqayasaqauaqaSa6aIawaIaBalagaeacacafadafagaqa.aBa%bVa2a\bha^a/a%aNayauayawaZaZa2aSauawaNbwaVaDaIaVa^bba^aLaBawaoaoaua^btbha6aZa/bhbMbTa6a2bbbtbha^a6aSbhcucFcucucubMa%a6bbbwbTcubtbCb(bhbCa^a8bhb\b6b\cMcicFb\bwa|a[bbb(b,bCbob,bFbob3bta[aSa5aDaqahahagaiahaeagagafag",
"asalajagaua\bhaSayaDaNaVa2aSaSaLaIaLaLaBaua!a/bha^aSaBaGaLaNaNaBayayawaNaSaIaGaVaGayaoaqbha%aDawaGa2a.aGauaIaLaNaNa/a%aLaZaBauaDbFbwbhbhboa|a^a^bha[a\a8aVaZaSaGaBaBaSa\a2a\aSaBaDaVbCbbb,b,a/a2a^bha^a^a!a2a8a/bhbhbFa%a\bha%a^bhbhbwbta[aSaVaOa6aVaUaIaNaGaGaGa%a.bhbFbTb6bVboa.bobobha^bta6aLaLayayaBaDaDaVaVaSayaGa6aSaBaIaLasaoaqauaVayalaGaIaSaNaUaVaSaVa%a2aGayaGaDaIaGaIaGaGaVa%bhaVa2aZa.bCbCbTa^bwbMbbaVaGaqalajasanasaUa7aybobVbba/btbMbCb(cicicicicub6a-asaqakagayasahaGbhb6b6b3cab(cMb,boa/btb,a2aLa6aBaoaqa8bob,bCbCa,aBaOa!aDaBaGa2aSbhbTbFbVbTbbaZbCbTcab3aZanayaGaLaSa6a!bobhbhb\cFb\bFbFbCbFb\b\b3a8aGaOa8a!aVa6a\boa[a5a6a[a8asaoaqayaBawaoao",
"aIayaMaBaRb(chbga(a,bubSbSb2b2b%b%b2bpbKa}a7a,a?bdbtbSbtb3bta^aVa!a%a|a5bgb%b2b%b.bSbga?bgbgbgbga,a~b%b2bScEcXcAcncnb+cnb2bnbhb\chbKbHbWbHbDbWbmaUa[bwbobVbMbCbhbta[a8aOa8b\b(bMb%cicub(crcEbTb.cFc8cEb(bMb`ctcEb(b`b[b*cwclchchcTcXcTcXcJcAcnb9b<cdcPcDcwcJcTc2cWcTcTc9cTb+b&cncDb^b&b5b[cdcwcdcnb&bha?aYbbbBbBbJbJbnbpaOaJaZaSapaVbgbbbKbua~bgbua?bua}bvbZb+cdb2bubga~bua-a,a8a-a|bbbtb.bCb.chb.bSb(bobgbtbBbob2a-a!a8a8a[bBbKa}bdbgbubtbwa.aGaLa!bTb.b(b.b`ctcEcFchb%b.b2b%b%b%bga/a\aVawa6aSaVaBaDaObtbSbSbdbRbDa~a]a?a[bhb.b^b[b~b&b*bRbRbJb9bma?bja,a7bSbua7a~b3bMa~bubSb.b,bKbocrcdb[cDcAcDcwcTb<bKa?bSb\bubCbVa-a%aZaxayaFaRa>a>bxbIbxbRbxbebdbBa!aBapay",
"akaBbRbJbibdcwb4a1aXbxbDb&b<bDbmbsbxbDbIbebRbna1a1a;bnbnbKbKcncncJcwccbIbmbRbWbIbibpb5b<bWbmb<bJb&b8b5cwcwb4cmcqc4c4c%c#c0cNcwcyb?cwc0cVcNcCb?b#bIbDa8a|b\cabVbwa4cdcRcfcgcPc9c4cRcRcpcqcfcpcRcIc#c#c#c4c4cfcfcIc#c#c7cQcKc7c,c7cGc4c1cScPc9cDb8b0b|ckb=bLb>cOcsczcUcscecococzcHczczcHcHb>bXbqbObxb+cic8c*c8cmb|cvcscHcUbRbxb,b,aDa?bIbZb&b^b*bmbmbDa;a&bWb^ccb<bDbma]bda7a0aTaJaMa]b+bZa}a}bmbRbZbJbxb8b*b1bsbZb2a1ayaDaUa5b9c3cdbmbjb%b%bpaOa,a,a0aTa0a7a7a4a0babRbpa`a+a>bebib/cRbJbIawapaSaBaMa,cqc#cWcgclcgb4bPb1bPbDbxbDb+b9bZb&b8bIbma=a>bWb5bOb5b$b5b$b]bRa`aTbga\a-bgbFb[bJb$b~cqcmcqcqb|b5cmb<b~b&bRbJbga~bubpbxb*cIc0cDcfcIcNcNcNcNc0cwb|b9bZaBa[a.aB",
"aiaBbva;aRazaEaFaCaFbHb<b)ckb;b|bcbPb5b;brbWa`a{bWa{brbDckcNcCcCcvckb5b5a}aXa&a+a}bnb?cDclbza}bJbZbDa:bmcDcmbPb5bLcmcyckb<b|b;cqcycqcqb~cNc4c7cLb)cmctbJaBa/bhasaWcIc5c5cKb-bXczcQcHcecocob-b!b-cocococzcecHb-b-cobLa_bfb!cpcQcfceb{ceb-ccc$cacFc2b`b>bUbybqbybXb!bXb!bXbYbXbUb!b=b{b-b!bXbUb!cbb|b#cwc$c(c9cQb{cocscHcsbxa=a2bVb.bSbibnbxbmb5b~b5b&cWclb0b~cwbNbabxa&bja&a+a7a0a=bJb9bja>a>a&a4a*bxb~b&a>a&a4a&a7a0aTa0a7aTa9a~bpa&a(bKcdbja&bKbWbxbIbRaMaRa&a>bebxa=a$a1a=a;a3a+b2b2b2a[aYahaeaKa(a<bsbQbcbkb1bxaWbda`a1a]bJb+a(aMaEaXa&a1aKa9aMa1bkbHb$bqbcbHbDa{aJaRayaxaDaMbabsb7bYb$bGbrbkbcbmbkbra4a;a7a7bpb2cxc0cLcvcycNcqcvcvcCcLcScxb=b<b|b9bpanauaDau",
"auayaOaxaFaTaMaXa(a1aCbac7cNb?b#cCcNcNcNcVcVcyb|c0cVcmb|b;cmb;cmb&b&bJbea>a~a]a}a>a1bmb+bnbea}a}b<cwbJbWb~b~b5bPbEb5b~b0b~cmb~b)b5b;b;cqcvcNcVcLcCcvcwb^alalaqaqbyc0c!c!c!c)cZceb=cBcscjczcOcZcebUbLczcHcebLbLbXb-b-bybybfbrbXbXb{cocBcob`cEcXc6cXcXb:b7bXb>b7b#bYbGbybGbGbyb-b}b7bLblbyb-b7b=b{coceb{b-czcZcZcHcKcZc5cObJa*a\bFb2bCbsbmb<b~cycDbHbzb~b<bObWb~bEbibma&a>a]a+a>a9a&a]a(aFbkb5bxbkb5b4bWbEbxbaaMa9aRa+bja]a0a7a=a]bja+a(a0a7a,aFaRa]a0becna]a=a&a+bkbWbkbca*a1a&a4aBayaOaGa8bwaNaDaxa,a}aWbrbsbHb5bQbcbDb[bIb9bRb9a+a1bkbsbaa{a9a1aRaRaRaQb?cbb#bYbQbka+a+aLa.a;a}b7b)b?b?bObOa*babEbza>a=aOaRa0a,bcbHcvcvckcbbHbzcbckcvckcscCb?b#b<clbRa;apaAaNaN",
"bMaVaTaTa=a9bababEbHa$bcb4bObOblb?cmcLc0cVcNc0cmcvc0cyckb5b~cVcybxbxbva}a(a?a9a?bua;bvb9b+bZataAbWcdcdbDa+bmb<b<bWbmbrb5cVcyb|b?b|b;b;b5bObOcCckb4bfaKaQaBa%boa^bDcwcUcOc!c5cZcZcBcBcGbLbfbLb-ceb-b-b-b!ceb-bUbLbybUcocob>b>cjb}cecob}c9c,cFcrc3cXcXcpb_cBcBcpc4cRb:b}b-b=b!b-cBcjb-b}cbb{b=b-b!b>b!b{ceb{czcjb}cUc1c7cCbJbea%boa?chcJbmb0bWcmcNb$b|bWbcbcbmbWbma9aTaRa&a4a&a+a+a>aRa7a0b?b|cvcvb|b?b#cqb1a$aXa+aOanaxayaAaFbxbJbebma>a+a+a>aAaFa7a?bdbdaMa7a>a4a{bebcbcbkbrbrbPcccDcwb5a5aJa6aZaJaFaKaQbkbxb*bWbHb1b*bxa]bRbjbZaXa9a:a:aXaPaJaJaAaJa;a+bUcbb:bXbIa=aMaFaMb,bIb1bYb;b>b?b/bObkbHbPb4a>aMaMaBa&a>b)cycCckb|b0bkbzb?b)cbckckckb;b#bmbebvbja7a[bVb\",
"bFa\aUa1a;a*bsbQb]b/bOb]cRb?b7b;cvcNcLcNb?cmcyb~aPb5cmcmbma`b&b~bRbmbRbDa}a>a]a]a(a(a>bnbga7afanbDclbZbmaRa&bWb5bJbsbWb5bWb;b;b|bGcmb;bAa:bma$aWa$a4a=a]aAa!b\bobRb8cUcoc!cUb{cocececbcja_blbXb{cebXbXbUblbybybyb-ceb{b{cocjcoczcHcHcWcpchb[a~a~b*bjb#b_b}b-b_b_bXb}b{csczcob-bXb}b{b7b!b!b-bXb!b}cecococeb{cecKcZcHcVcHbva=a.a/buchcnbzbPbAb?cqb|b7a`a{bcbPb<bzbmbea&a&a+a]bna9a,a0avaJcscCcCb!ckckb:b)cCcGcmcma>a1aJa7bmbibea&bsbebebsbDbeaFaFaOaTa(a(a(a7bda`bcbzbzbObGbGbYb#cNc)b~bYa0aAaSaSaJa?a=a$a3a=a{babcbabDbsbaa]a=bnaWbabqbzbObOa=a#a&a=a$beb!b-cjb}bmbiaRaJa;bdbHbPbQb1bHbIcgb:b$b]cgcqa;aXaTa7bDbnblbWcvcvb4b$bOb4b$b0cxcmcIb;b]bHa0a7aOavaGbob6b\",
"awa5bKbna;a9bja&a*bxb]cGc!c1cCcmcLcVc%c7c0cmbIa{b4b<b<b5bDbebJa+amapbda}axa0bpa}a,axaRa?a7a0a7aOb&cdcwc0cwb<bZbsa`a&bkbDbfbHcvcLc5cZb;a_bqbka{a=a+bpb+bZayaDbVbTa`bscececococscvcKcsb!bLb=b}czcob-bXcjcsceb-b{b!b-bXbXb!bLblceczceczc#cGclc&b*a:a>a;a*a*b7b)b-b#b-b}b-b#ceb-b-b}b{b>b!bXb}b>cjcjcocecocecececOcUcScZcScObvaPaZaSa,bScAbEbObPblb?cIbGb#cNcycbb0bEb5bEaTaFaAaxaFa0aGanaPbIcOcHcsb}cvcCb#b7cmb#bkbma0aTa+a9bea`aXa&bDbra&a:a`beaMaRaTa]a0aMbda]bxbDb0bNb)b?b_b7bNb7cmc#cPb0a(aTaGauaMaTbabEbrbcbca{bebkbebzbmbxbmbRa3babqbzbAbGbYbYbEbAaPbIb=b>b}b#bHb^a=a;bjbxbvbxa(a7bebZcqb/babmb4cgb:cwb/bzbNccb$bOcbckb?cbb0ccb$b0cCckb*bra}a9aTa,ayasaIbtbTa^",
"aIaIa7a;bibaa1a1aRa1a{bPc7cVc1cLcQcLc!c!c!c!cVb|b|b~bWbWa}a+aiafaiafazbja}a`bna}apaMa(a7a0a,bpa>bmbJbZb5a~aXaKa1a`beb0cqckcbc!c7cNb=bLbGbGbNcfb_bva>a[bKaGa2aZaLa$bsb-b!bXb:cocscococscKb}b-b}czcjczb>bLbXbLbXbXbUcocRcxb-b7bUb-czcBc1c7c9c(c)cWcRcGb1bzbAbGbYb#b-b_cBcococzb{coceb{b-cjcBcKcBcocscecocececocecocUcQcVcLbpbBa!aSaJbgcDbkb5bObLb_cxb?b=cbcNcNcyb?b<bra4aXa&a+aRaEaxanamaCb7cGcvb}cKc1c7c5cScCa&a+aRaRbHbPbWb$a*a`a&aPa&a+a=a:a+a4a1bjbja]a+a~bPbWb;b0bNbYb?cbb!b?cvcvc0b)a>a?a\a%a0bdbrbza{bkbkbkbibcbrbrbababJb+a:brbNbNbNbGbAbGbGbzbfb1czcsb_b#bcb1b:b_bQbkbIb*a7aMa`bZcgb0b:cwcGcxb_cIcCcbb;bAa$bicbckb)b$b$b;b#b)b)bOa9aKa;a~boa8asauasaSa/aN",
"aLaxazaOa1a1bibQbIbibEbQb)cRc7c5cZcOcLcLcCcNcvckcNcbccbzapaxaCaXa$a9a3bRb&bZa}bjbja]aMaRa}a(a(a0avaFa>a}b+a4bzb~b#ckcCcCcbcvcvb?bYbybObya*a*a*bxbSb2a5a-aNaNaSaBa3bmcecHcxb}b{b{cecobAblbLb>cob{b-bXbfbfbGbfblbybLb!cpcWcecoczb-bXbUbLb7cBcRc#c#c#c1cfbXbPb#bGbAbXb7b!b-b}ceczczcjb{cocKczcKcOcBcHczcjb-coczczcHcOcHcjcsa>bubhaNa0bBb&bzbEa_bAb$byb7bYb#b?cfcmcmbsbka=a`bmbWbDbka1a&a(aFaraXbzbqb-cNc5c5cLb>aFavbjbnbWbPbabra=bebrbkaXa1bcbebsa*bebmbna=a>a7bebmb5bcbkbOb7b!b#bYb{ckcGb7aTaRboaSaMa&babzbqbEbrbrbxbIbibibEbrbsbIa<bHb)b7blbza{bcbEbqbAb_cBczb_cpa*a&b#cqcfb7b$b]bjbpbcbIb/b4b_cfcgb_cDclcybObdaHaPbpckckb$b4baa=bAb0bQbcaRa5aTaTa2aDayayayaOaTa5",
"a.ayaya5aTa7a9a9a>bibQbibNclc7c7c5cZcLcUcCckbObOc#cvbWbxbmbDbWbRa4a*bWbWbWbDbmbWbDbDa;a4bJbnaTaFa0a>bBa&bebnb?b;b4b;b?cLcLcvcmbNa)brbYbYbYbObma*aBa,btbCa2bobVa%a;a=bybUbUb!bXb!b!b=b-b:bLb!b-b-b-b!bLbybybLbUbUbUb{cfb}cxb)b-b-bXbXb-bXbXb-cpcGb_b7b_cGb4bEb/cxb_b-bYbNb-b7cecjb}b>cKcSczcBcBcHcBcQczczczczcjcHczcHb{cjbJa&aNaDaFbSb~bAbrbkbAbAblbAb#b!bObGb<b5bObWbObWb5b5b;b5bPbWbsbaa4aMa1a4bzbkbLb)b$blaFaRb[bna`a4bma=brbza{bkbka:a{a`a4a9bmbebna=aTaJbnbsa}a:a:beb7b7bLbNcscjcqb7a7a(a^a2a>bKbrbrbkbia:a*a=baaXaQa:bsbrbia<bHbXbLbNbqbNbNb:b7b}b}cocob}cbbIbIbqb$b1bPbmbabHb1brbQb/b4b0b]b&brbga+a0a7aOaMaFaMa1a+a+a9aBataFaAaTaUaYaTa?a+ayaDbwb,b,bSa~a(",
"bwa5bbbga7a;a;a*bib8bEbib4cgc!c7c5c1cvcscCcvckcbcmb;a:a=b~clb&b&b5bsb;b;b5b&b<b;bWb<bdaQaFaRbmbRbPbObDbsbzbzbWb;ckcbb?b?cCcLcCcbbYbNbNbGbPa_a1bjbBbha|a!a/cacMb,a;a=bLcHb{b!bfbybXb=b}b!b!ceb{b{b{b{b{blblbXbXb!ceb{b_cPcRcIceb{b{b{b}b{b}cjb)cfb7bNbNbGb]b-b$b/b7bGb}cfbPa#aPbabOb0cpcScxcGcOcQcZcHcBczcBcQczczczczczcHbpamalawaMbSccbza{bcbqblbNbNblbGcbb?cycbbHbWb5bzbea:a{bWb;b;bPbzbHb&bxa:a`a`aJaCataAavaTbva&a{bxb?bNb7b:bNbAbNbGa_bkbrbEb$b4bWb5a>a0bkb<b<bfbcbPb?b?bUb}cBcecmb;a]a(a6aNa1a>b$b7bEa{babrbzbibkbibrbEbGbHbYb#b#b)blbAbEbPb#b)cocococeb}bXb$b*bWbzaRa1a;bvbHb1bOb$b/b]bQbcaFaCaFaFaJaxaMaYaGaAapaAaBaxaBaUa5aUaxaDaRaUbga~a!cFc-c*cab\b(b\",
"cMbTaAaxbibQbQbQbibibQb*b*cdcxb)cjcvcLcLcbb7b?b;bOb$b;b<b|b&b~b<b;cRcIcyccb;bEbkb;b5bWa=a}a}bzbHb?b?bObNb|b?bNckckb)b7b0b)b#b0bAa{bPb8b8bhb(boa\bgbCb6bhcab6a\bhbOcIc5cZb{b{b}b=cecBcBb{coczb-ceb{b-b-b-bXb-cob{bXb-bXcoczczczczczczczcHczcocjb}b-b7b7bLbUb7b:b)b}b}bPa#axa-a[a.a5a~b4b/cQcQc1c1c!cZcUcHcecococzczczcjcoa>amaqaGaOa,aQaXbcbsbfa_a{blbyb$cBcLcIbYaQaHaKaKa:a:bca*brbPb7b_cCc1cyb?b<b$b8bHbWbZbDb^cdbzb4b)b$b#b4b)b)b)b7bNa*a:aXa1brbxblb<cwcmcCcNc0csb#b?b?bYbXb#b)b:bnaPaxa!bha!a0aFb7b/b)bYbPbPb$bHbzbQbGbzbAbEb#bYbra{bib8bSa}a9a]bQb1bIb1bKa]aRbdbga9a,bbbZb%b]b8b$cgcqcqbJaXaFaOaRaMaTaRaJa0aUa5a(bgbwaTayaBaYaYauasaOaJa?bgcac,c,cMb,ctcacY",
"bMb,a^ayaoakakakakahaoauaoaraEaMazaravazamavaQaEamaEapamaraFaFaza4a9a4a1aAamaravazaFaEaKaxaCarapaEaEavazavavaravaRa4a1a0a1aRaRa5a?bTbBb%bTbVbVbFbobobbb\cYb,btboa*bmcHczceb!b)bXaQaravaPbLb=cHczcob}b=cececscBcsb7bNbmbaaXaCaWa$a)a<bXb#b7b)b)bYbAbYb7b7bXb:b}cjb#b>a;a>bhbCa!boa|bbbga&a$aWbfbqbLb)csb}b=b=cBcjbYbYbca3azaMbwa%aAataJa0a$a}brbrbEbPbObEbkbkaQazazaKbabea4aPapaiaeakazaCa1aKaWa1a4aravataFaMa&a`a9a4a1aQazaFaxavamavatavaoanaqajananamaxaQa1a*a`brbcbcbka9aWaFazanapakaealauaDaVaYatazaFaEa4a9a;a~a]aOa~bCbua~bdaRaMaJaxaIa8a[a/a.aqaoaqaBaIaZaIasaBaNaNaDaDaOaGaMaFaJaYa]a(aJaAaFaBaOaGaMaSa!aOaqajaqauaqaGaSaGaDa!a.a^aVaDaObbcYc,c-c-c,c8cMcM",
"aZasaVaVaSaSaZaZaNaIaLawaqayauaBasayaqalaBauaqajakajalaoaoalalajahagagahaqaoahalalajagalawayaSaVaGawaBawasasawawajaIa%bCbwbtbbaVa-bCa.bwcac8cMb\cucub\a\bCbTbobta6aqatatatataxaqahahaoajakanaAaFaAaMa5a,aTa5aOaJasaBaGaLaGaBauauawaqalananapapananaoapayaUaOaRaTaObocab,bTcucYb,bMa[a8btbMboa.aVayayaAaxaMaYaOaAajalasayaSa!a!a!a6aSawaoaoaqalalajajahajajalasaNaLawalalaBaGaBaoalaqaoajalahagafagahajalagafafafafafafahalajaBa%a/a.a%a2aSaZa^aNaLaGasalajahagagahagagagajaoaBauaLa.aLbwbVbba!aBalakaja6a\bbbhbtcic6cuc6cFb6cab6bFbVbTbTa^bhbwbhbTa\a\aZaIaVa!bbaLaNaIalajakahakaqaoaoasaBaoauasasaLbhbMbVcabTb,bMbtbMbtaIaqaBa2bTb,b\cib(b\b(cacacicMbVcucacab3",
"bba%a!a2aSbFb,bTb6bMbwa\bba^a\bba!aVaDaNbbbta\a/a^a%aNaNaNaBa%a^a.aZaSaDaBa2a\aSaZaGawawa/bbbtbwbwbwbMbVb\cabVbwaDaNaDaGa.a^a6a6a.a.bha^aZa!bTboa.bVbMbTb\b6b6boa.ayalaqayaDaVa^bTa!a!aZbha\aNaGaqaBaDayaSaSaSa6a/aZaNaBaSbbbwbba.a!aBaSaNaNaZa!a6a!bTbTbobhbFbVbtbhbMb6bTbCbMb(cucYcabtb\cFcibMbwbVbwboa/aSaSa\a^bba%a!a/bobba/a.aVa/bobbbba\a6a2a.bbbba^a!a!aSa/bMbwbba\a6a%bba!a/bha^bha!aNaSa2a!a/aZaDaVaSaLaLaVa2a2a%a.aSaSa\btbta^btboa!aSaVaGaDaLaSa2a!aVa/a\a\a.a!bta%aZaNbba.bobFbVb6a^aZa%aybbbVb\b,b6bwb6bbboa^a\bhbwb6b6bVbVbob6cucFb\cucYcYcFb,bta^bbbFa/a.aZbha/aLaDayaqaDaGaLaoaLbtb6b6b6c6cYcMcucMcab,bTa/aBaBaqafalaVaNbFbwa!aIaBaDa2aSa!a2a!b6",
"crcEcEcAb`cEcXcJb`b`cdb`cJcncrcXb*bJbZbBb[b%cRcRcPccclcycDccb+cdcDb9bSa]aNaSa%a^bwa/a[a[bhbCa8a-b3cic8c8c8cEb\ctb%a?bpbvbibsbvbgbga|a0bBbua;bdbubBbna9a}bbb2cab3b%b2b9b8bJbJbob2cMcibTbub2b(bSb(chb\cub3b3cucEb(chcrcYcacicFcEbCa[a!aLasayaLaLaNa6a%bFa%aBaUa6a[a5aYaOaUaNaUaNaVaDbbb,cib,bFa~aRa0bua?a?a[a5a5bua?bvbZbKb8b9b%cdb.bKbob2bTbFbtbKbhbFb3bMboa-a[bFbTbocib,a5aVbgb(b%b2b2bBbgbgbub2a.bobTboa\bobobobhbhbVb6boa\a~a?b3b\bga,bKb%chcrbSa~bBb2bBa}a?bwb\bFa-bhb%b2ctcAb%b2b+bRb+cdb2bda?bBbubda]bSbQbaa:a=a7a>a?a~a2a!a,a,bKbpaNaZaSaZa2a\a\bhb6b3b9cJchb`bTbhbbbha!aNaqahahaGaNaNaLaZa%aSaDaZa-a,bbb,bTa[a5a~b%bBbbbgbda~a1bjb*b[ccb&bZcnb2b`b`cnchcr",
"b$b7b)cgb]b/clc2cWbQb/b*b1cJb+cdb8bZbpbjb9bJcIcIcIcfb:b/cpb_cBcGc1c1b^a{auaLaDaVaKb2cDcgb^b/b1bQbIbQcncdb[cncAchcXc2cEc9c2cAb0b4b:b4b4b0cgb:b*b/b8b*b[bWbJb9bSb.b+b[cTc&cXc6crc8c*cuctcrcJcDb]cqcgb]ccb/bPbPb$b$bPb^c(ctccb*a}a>bDcdb2aTaGayasalaua-a+bucdbvbsbnbxbxbIbia>bma+a+a;a;a;a;bmbmbOclb*beb*cncwcccIcycRc#c#cPcycgb]cgb]b~bpa4a]bjbmbja>a(bvbBbda]a>bub*bHbdbda7a?bKbvbjb9bHbHbxbkbrb^bKbvbtbbaZaBaGawa!a%a[bbbsa9cfclcwb$b]cfb:b#b0bObHbPcxcPb/b$bxbRb(cFctbpcGcscscscxcbb:cpb4bObPb0b/brbja`a1a;brbQcGcGbPbrbabdbKbgbabjbsa;aYaUauasauajaqauawaya7a?a}a>cdb+aSaBa!aVaqaSbob3b\ctb(b.cdb9b]b$b4bla=bcbibPb/b]cRcRcGcqc#c+cqbNcxcIc1c#c&c,c9b$bAcwcRcv",
"b4b$bQcgbjbpbBbgb8b2b%bRbSb[bJb%b9bRchcnchcEchb2bJbabibabmbmbIbHb=cGb*bea|cFcYcYa~a(bAbOb7bYbNbGbqbcbIbIbubSb(chb,b%cFc6c,cFbGbPbNb4bPbPb8b1chb%bsbIbsbabdchcub2a9a>cEcXctb2a+bBb(a?b(c,c-cMb)b#bHbzbzbrbOb0b)b)bObPb^clb8bPb8b8bQb*b2a&awawasajaza~cwcPclbIbaa:b0b^cRcgb;b$bQbrb4b&b$b/b0b$b$b5bsbxbDb*cycWc#c4cGcgcgcgbHbEcIcRcca_a4a}bda}bda~a~a(bpbxbubSbnbKbQbQb|cgb+bda;bub9bZb_cmb|b?bPb0bWbIbubSa^acagaNaSa/a5aMbebaa<bPb)b7b-b#b=cbb_b7bAb0bGbAbqb$cgcfb^b5a:bDcbcbbNbNbNbzbebaa*a`bsa:a;a*aQaRa:a>aXaXbabia1a1aRa(bjbnbIbIb$b4baa=a;a;a>a]a8a[aGawayauasawa9bBa-aUaGaGaUa-bKbBcAcdb]b_cfb_cgb:a{bcbAb4cycpbWbcb:cDcyb]cfcqb]b0b4b|a1aXa1bnbSaRa3a`bPbH",
"a:bsb+bZb9b9bda9bKchb%bBb8b2cdb8bQbIb`c6b\cMb2bSbvbpbcbrbPb4bIbDbibkbebZbtbtbwa.a9bgcfb)bObGbAbrbqbEbxb1b.b%cFcEb2bBcFcta;bRbHbablbQb1b8bIb1b+b9bebkbibrbebxbuaKb`ctcPbEa{babgb2bda;a7b.c6b`b/bGa*bibsbxa{bzb7b7b)b7b0bPbObzb$cPcdbQbwbhasaLa6aZaRbncqcmcgb/cgb_b4bqbEbEbOb;b$b/bOb]b&b$b4b4bIbHa`bsb1b]b8b$cgcIb]b7b;cgcwcgb&bzbsbaa]bibjbub.b(a]a~bpa`bKbBb9b2bubvbsb+bZbRbpbvbHbWcqcLb_b|b$b0bPbIbzb^aOanaNbFa2a5bJbRbPbsbxbDbNbYb=b>bNbYb7bLbLb)bAbAbzbqbfb0b|bGblbObYbYbEbAa=aXa4aXa1aRaQa1a_bHb]b7bEbzbabmbsbebEbHb1bxbnbvbxa=bPb/bIbka9a;a;bja5a[aVaBayayasaua;bKaUaOaVaZa4b9cyb/b/b8cScGcGb)b;b$bWbqbfcgb_b)b$b;b?b|cPb4cgb;b_cIc0cxa+a;a(a7bga?a}a&a&be",
"b+b^bRbZb+b8bvbxbBcda~a>a-a]bda~b*b[bKcrctcrb.bBbvb2b8b9b1b*b%b9clb]bDbIbha\aLawaXbub:bGbrblbzbEbrbzbzbHbQb1b.c6b2bjcEb`bibjb*bxbibabQbIbpcdbsbxbxbrbababmbQbnbRc6c6b^a{a$bibjbpbua*a*bzbQbHbaaWaWa_bPbGbEa_b7bYb-b>b7b)bNb0bZcdbha5a.aVa8b,cub6bpbKckcfbObNbYb:b_b_b$bGbYb:cfcfbHbEbPbEcfb|cpcxcgb:b$b$bWbEb$bPbEbrbPbkbibia:bibQbQb+b+bSa~a~a~bDbDbsa=a>bub%b%b+b+b^b^bJb+cqb|cpcpcmb|b?cRcyb?b)b0bOb&a5aGaSa6a1b+c7cLcxcbbzb&bNbYb}cbb-bYbXb7bYbAbNbLb?cbb)blbQa:brbzbqbGbsaWaMaRbzbzbzbca{bzbGb)cpbybaa=aRaTbrb8b4bObQbca&bubda4a*bxbebaa1a1a7aTaBa8aSawawayawaya0a>auaDa^a^aFbgcScRcWcGbrbcbAbYcLc4c%cNa<b^cNc0c5c!b$bla_b$b|cfbkbzb4b;cXcnbmcdcXccb+bDa+bd",
"clcqb8a$a1a;a+a4a]bja(aEa7bobxbub8b1b9bRb.chchb3bRbnbBcEctctctctcPcgb]bWaIaGauaga1bubGb4b4bGbNb4bHb*b^bIbIb1b%ctb8b8c6b.bxb8b9bQbIbib[bJbdb%b[bQbxbxbzbabicncFc3c3b%bqbla=b*bia{bzbla*bsbEbrblbla*aWaWa<bNbYbXb>b-b=b>b>bYb)cEcEb,b,btbbbMcib6a^a+a~bHbrb$b|ckcGb_bGb#b_cpckcfcbcvcGb_b7b)b)b$b_bzb&cqclbmbab/bPbxa:bebIbibebebIb$b1bJbia5ara]b.b^b^b^b*a~bubvbubQb+b^b^b9bZb8bDb7cqcqb|b0b4b)b0bYb#bHb~a|a8aLaBaCbdcpcbb)b#b!bYb=b-b#b!b#bUbUb)b#b=b:b!bfbfbGbGb*bka<b5cGcva=a$b9bJb}b_b7bNb7bNb#cjb:bUbebca=babzbib4brbibaa+a1a;a+bea=a9a&a4a+a7aTaxa2aSasawasaxaAa>a>aIaBboa!apaybQb$bibsbHbHa{a_bObYcscVb;b$b0b/b!b7b0bfa{bkbOb$b/bObzb5cycWclb<b<b^cDcdb]b<",
"b8bPbnbZb1b8bIbsbdbub[chcEcEchb`b^b*bKb+b.b9b+bQa;bibdb8crcEb%b3clbzbrbPaNaSaLaka(bBbfb/cjb>bGbNbxbPcdbmb1b1bib^bSb[c6crbxb8bQbQbsbrbQb%bBchcAbQbibrbcbrbQb)chc,cJb2blblbibsa{brbEbAbqbqbrbHbEbfa)babla)bfbqb>b>b>b=b-b#b#b#b`cnaNa-boa[b,bTaSaya,a(cgb4bAcmcbcpcfb_cpckbrbcblbEb)b)b7bNcfb_bxa<bjbabmbJb*b&bzbHbIbibabRbQbebHb8cgb]b1b8bja}bxbRb+b*b^b^b%bZbubibmbIbpbmbDbJbvbdbIb1b/bObcbkbqbzbYbXb5b8a|bhaBayama(cyb:bNbYbYblbAb7b>b-b#b-b)b7bAblblbGb7bAbkbfbaa{blbzb_b)a#bPbGbGb}cfcBcsb)b}b}b}b}cjb4bNbaa{babEbPbzbEbHbHbHbia*a&a>a1aXaTaTaTa0aGayaqaqawayawaAa(aXaSaUa6aBakaBbpa}bxb*b]b7b7b#ckcpcxb>a<b|cLcsb:bNbrbfcfcRb5blb4b;b4b$cVc4c2cIb2b%b%b+clcD",
"b1bPbRcdclb*a$bab+cnb2bBbSb%b[b%b`b+b+b[b1b8bEbIb*bIb+b+bSbvb.b(c6b2bDbxbtboaZaya8aMa#b1ceb}bGbNbicdbIbicdcJb8b.b*b1b%cXbBb+b%bxbQb9b2b+b`b%b.b`bPbQb`b+cnb9bGb/b+b[bEa:bqbqblbqblbkbabla{bla*aWbAbqa_a{bla_b!b=b>b>b>b>b:cxb`b+a%aZa%cibFa5aIawa7bbb7b$b>cfbObfa<bcb:b4bzbrbPbObYbNbYb7cmcfbkbsb8bQbEbEbPcgbsbca=a:bibxb8b*bZb[bPbIbxb+bJbQbRbDb1clb*b8bnbSbSbubJbpbibpbab8bZb*bQbab$b]b7b0cbcbb;blbWbQbbb(aLasaMa>cxb>cBcKb_bNblb4b=b>b}b!cgb]bObqbqa_bAbqbqbqbqbOb4cga=a3bfcfb_byblb:cjczb>bYb>cscjcjb#bYbrbrbzbDbrbkbcbEbma{a9a1a$a=bia:aMaMaTaRaGayaBaGaOaDaDayataDa/bbbMbba\aUb9bxb4clcGcCcpb}bObObWa#b=cIcbcjb#b?bNb0b7b]ccbca*bxbia3b;c0c4c4chchb.b.b[bx",
"bDb1cAcnbxbxb1bzb4b]b]cgbQbjbvbvb8bRccclbQb1bQbQbRbQb8b+bQbxbKb.cEchb+b8ayaVaSayaFa[bGb4b}b=bNbGbQb8b^bQb8b8b8b[b8bibzb8bQbQbHbabactb`bpb.c6c3bxbHb^cEb`ctcJb/b_b^bQbsb1bPbPbAbla*a:a*a#aWa*bqbqbqbqbXbXb/blbUb}b}b=b}b!b-b>b/cPcub%a8b,cubVbha\aBaFbIa$aHaPbqbHbObNb#b0bGb0bEa<bAb:b:b>bEbfbxb*b4b0bPbQbPb8bsbrbjbibebpa=bebIbxbxbIbIbdbQbRbZbZb1bRb9bZbBbBbJbnbxbDbQbQbibpbsbxb/b$b4b$b)bNb0b0bzbkbabDbtboaSaLaMbjb?b=b>b!b7bNblbNb#b-bXb!b}ckb!b!bNbya_a_bkbqa$a:a*a]bYb_cocsczcjbYbqb-cfczcsczcscsb}cscjb}b_cgbkbNbEbNbza=bcbzbabzbrbzbqa9a1a1aRa5aAaDaBaDaDaDaBaRa(bbbwb,b\b,a-a&bRclb/b$cfb0bGbYb#b4bNbNbYcbb>cbcVcCb>a{bzb4cgcfb|b~b|bHbEbrb*bKcrbRbRb*bP",
"b8b1bEbsbEbIb0b4b_cgc1cRcgb4a;a]bmbQbQb/b]b/a]bjbRbjbxbIb8bZa~bBa?aJaQa;agafaoadaTbBbAb7b}b-bYbGb$bPbPb$cdbPbQcAcJb[bQbXb[cJb*bQbQb8bQb2c6c6c8cXbEbHbQcAcEb[b/b/cdb[bEbQbqbYbrblbpa1a_bHa<brb)b-a<bAcBcSb}blbXb-b}b}b>cjb>b-b#cpcRb_b4brbbb\cucua~bgcIb7bca)bzb$cbcfcGb#b7b7b$bGbPbqbfbzbrbqbkb5bPbzbrbQbDbabQbkbsbxbxbmbEbEbrbPbIbRb8b8b*b*b9cdb^b^b9b1bDbxbQbmbmbebWbWbsbabkb8bEbzbNb4ckb?cvcsbWbEaXa+a[bCb6boaXbjcGcbb>b>b>csb7b7a<bfbYbNbLbXbGbLblbqb7b#b)b>bQbfazaQbqbGbYbXb#b-bNb7bAbfb=cfczcBcsb{b-b#b-b}b#b=b}cjb_b#bfbzbNbGb#b)bGbzbrbcbiaXaMaRawayaqasayaMa>bdb2bMb6cFbTa.b^cDcwcgbGb4cbcfcbb}b4b_b$b:cCcScGckb?b_bHbkb0b4b_cfb)b|cgb;cnchcrcdbxbJbWb8",
"bEbrb0bObEbca:bDbrbrb1b$cgccb]b]bia3a$babmbca1aXa;bsbabia,a]aLatajaBaVaZakagayaqaRb2cjb>b>b-b#b7bGbqbAb4cDb8b1b1c2cJb*bQcrc6b^cAc6cXb.cXbScEb2c,cdbibEa_bQcgb:cgb/b[bPbzb#bNbabqa:bab-b_cBczb}czb-bXb}coczb-cocob>b{b-b>b=b}b=b{cocQcfb-akaGbhbVa~a>cLc1c7cScxckb7bNbGbNb7b)b:b7bYb0bca_bqb4bOb4bxbka9a9bJa}bHbrbebrb]b/b5bObDbRb.cnbDbQb8b[cAb*b^b4b<b&b4bQbxbDbmbdbmbxbxbsbzbHbHbkbEbHbAbccCcNcLckb1bDa8bhbwboaFaObea=a)bib0bOb7b$b}b)bXb-bYb-b7bUb0bybAbLbGbla_b4a]aia_b$b:bLbGbqbqbAbca)a#a{b{cjcscjcocBcfb-bqb0b_b_b7bObPbEb7bGbAbHb)bYb7bYbia*aQaKaJaFaOaAaJa0cda+a5bgbwbFa%aGbccdbYb4cpcxckb#bYbObNb&bEa_brcTc&b+b4bzbNcgcqb#bDbIbRbibWb]cWcDcXcJbxbabsbD",
"cpb_cpb>a:a$aXa&a&a*bxbIbIbPcgb]cpcfbia:aXaWa4a+a*a+a&aJaUa-aSaSa\aNaSaNa%bFa/aSa1a]b_b#b#b}b}cfb_b_b)cwc8c3c*c*c8c*c6chc6cEbEbEcDcXbQcdb[b^b8b2cAbjb/b/b)b/cBb_b:b]bja*brb7b>b:b}b}coczcKcKcQcBcBcBb:bya1aHblbNb}b-bXbYb7bXbybGb#b>bra*aIaBawaqata(b1clcDcgb$b/b5b4b#cpcgbYbkbqblbHb:b$b]b]bIbxbmbQbRbJb*bQbEbEbzbQbEbHbRaXa}bjbRb[b[bZbDbDb1bDbka{baa=a*a;bzb*b8b5b/bWb:b$b:b:cxcyb0b4bEbzbGb:bHbEbIbIa5bbboaVaBaqaMaRa9a+aFaxapata#bEb-cjcsb-b7bNbGbGb}cpcCb}bkbcaJamamaAbGbPb#b_cjcscfb:bEbAbka{bPb4bNbGbea$aCaEaXaKazaMaWa;bQa*a:b*b_cBcfb}b_cxb/bYb/bObia*aJaAatamaua^bFbVa!aLa=b+ccbGb:b)b)b)b)bYbOb$b?bYbabsbxbIb$cwccb$a9a3aKa0a=b8cycDclb<bxb8bHb5ccbP",
"bzbca1aPajaAayauaFaNaLaYaNayaBbbbHb*cccwbCbCbCa|a%aDayaBaoagawaNaDahaIa6b,cFbVb6a8apaCaEaEaXaJavaCa1a`a*aTbKc6b,ctc6bMaYbgboaXaCaAb2b`b`b%a~aXaKaCataCaAazaCa1a:aEaTaRaMa1aMa#a$a:a)a1aWaWaWaEazaCaCataBaDaoajakakararatatavayaOataoaoaGbhbba!ayataGa}a9bpa+aKa(bmbea}a`aTaEaDaDaAakananakapataxaAaxaKa0a1aQbxbia+a1bja;a]a+a7bga>bSbTbSaYa0a0a7aUaTbbbba?aYa&a+baa&a=a&bJbia}bia]baaTa}bvb[bgaJaBaAawa8bhbhbha^a%a6ayanahafahalaoajavaEaPaHavaCa3a*bcbEbka:aQaEaDa^bVbtaSaOaFaRa{bcbNbObrbqbrbca>aWaJaJa0aFavaMaRaRaAaAanaxaKa1a4aQanataza4bia{bfbPb$b:b:b4a]a;awaiajaya!bobwbVb\a\a0a?cqb]cvcNcxckb;bAazaraWa4aWaHa3babrbPbjaWaGa!aYaOaQaQa+aXataxaQa1aXaQaCax",
"a/bhaZa/bMbTb6bTbVb,bta%aLaIaVbbaYa8bob\b\cibVbhbha6ayaqagafalajaoaybwb6b6bVbVbhaLa6aSaqaBaDaNa2a6aSayasaqayaSbwa^aLbwb6b6cFbwa/aGagahahakahayaIaIayaqayaDaSa2aBayaSa\a\bMb\b6boa%aLaSayaLaNaDaBaNaSaIa2boaZaBayayaoalayaBaLaSaSaGaGa%a.a6aNaGaBaGaoagagagaoajagahaoalalaoaBaGayawajalawaBayawaBayawaBaBaGaBayaNaNaZaSaNaIaNaGaLbbaSaIaBaZa/bwb,b,cFcicucicibTaSa!a^bwb,b6bTb6bTbbbhbVcab,cucibFbTbta6btbVbobhbMbhb6bhaDayaDaGaVbob6bwaGaNaSaLaDaBauaqajahajayaVbocacFcub\btb6bFbha\aVa8a[ayaoaDaVa-a^bobFaSaqajafafayaVaVaZaNayawaBaLaLaSaLayaBaBaoahahaiahaDaGaNaDa!btb6bwbhcacMbFa\aIaEaRaXaQaRaEaTaTa%a/aYa\bhbobCboa~bhb,cacab6b6b,bVboa!aZa!aDaAaSaZaSaNaN",
};
