/* XPM */
static char *xpm[] = {
"320 180 255 2",
".. c None",
"ab c #000000",
"ac c #010100",
"ad c #020201",
"ae c #040301",
"af c #050402",
"ag c #060604",
"ah c #070602",
"ai c #090806",
"aj c #0a0803",
"ak c #0b0a07",
"al c #0c0905",
"am c #0c0b07",
"an c #0e0c09",
"ao c #0f0e0a",
"ap c #110f0c",
"aq c #12110e",
"ar c #14110c",
"as c #141311",
"at c #16130e",
"au c #161614",
"av c #171716",
"aw c #181510",
"ax c #181714",
"ay c #18191a",
"az c #191712",
"aA c #1a1916",
"aB c #1a1917",
"aC c #1a1b1d",
"aD c #1b1813",
"aE c #1b1b1a",
"aF c #1b1d1e",
"aG c #1c1915",
"aH c #1c1b19",
"aI c #1d1b16",
"aJ c #1d1d1b",
"aK c #1d1f20",
"aL c #1e1d1a",
"aM c #1f1a16",
"aN c #1f1e1c",
"aO c #1f2122",
"aP c #201c18",
"aQ c #211e19",
"aR c #211e1b",
"aS c #21211f",
"aT c #22201c",
"aU c #22211e",
"aV c #231f19",
"aW c #23211c",
"aX c #23211d",
"aY c #232322",
"aZ c #24231f",
"a0 c #242320",
"a1 c #25201a",
"a2 c #25221c",
"a3 c #25221e",
"a4 c #252422",
"a5 c #252423",
"a6 c #26231d",
"a7 c #27221b",
"a8 c #27241e",
"a9 c #272420",
"a! c #272623",
"a# c #282521",
"a$ c #282725",
"a% c #29231d",
"a& c #29261f",
"a( c #2a251f",
"a) c #2a2624",
"a* c #2a2721",
"a+ c #2a2723",
"a, c #2a2825",
"a- c #2b2823",
"a. c #2c2822",
"a/ c #2c2a25",
"a: c #2d2621",
"a; c #2d2720",
"a< c #2d2925",
"a= c #2d2a27",
"a> c #2e2722",
"a? c #2e2923",
"a[ c #2e2a24",
"a\ c #2e2a25",
"a] c #2e2c27",
"a^ c #2f2b25",
"a_ c #2f2d28",
"a` c #302823",
"a{ c #302b27",
"a| c #302e2b",
"a} c #312924",
"a~ c #312c26",
"ba c #312c27",
"bb c #312e28",
"bc c #312e29",
"bd c #322a24",
"be c #322d26",
"bf c #322d28",
"bg c #322f2a",
"bh c #332b25",
"bi c #332c26",
"bj c #332e27",
"bk c #332e29",
"bl c #332f28",
"bm c #33302b",
"bn c #33322c",
"bo c #33322d",
"bp c #342f2a",
"bq c #343029",
"br c #352d26",
"bs c #35312b",
"bt c #35312c",
"bu c #35322d",
"bv c #362f28",
"bw c #363129",
"bx c #36332e",
"by c #36342f",
"bz c #37312a",
"bA c #37322d",
"bB c #37332d",
"bC c #383029",
"bD c #38322b",
"bE c #38332c",
"bF c #38332e",
"bG c #38342e",
"bH c #383530",
"bI c #39322a",
"bJ c #39332d",
"bK c #393430",
"bL c #393631",
"bM c #3a332c",
"bN c #3a342e",
"bO c #3b352d",
"bP c #3b352f",
"bQ c #3b3732",
"bR c #3c342d",
"bS c #3c3631",
"bT c #3c3731",
"bU c #3c3833",
"bV c #3c3934",
"bW c #3d352e",
"bX c #3d3631",
"bY c #3d3831",
"bZ c #3d3b35",
"b0 c #3e362f",
"b1 c #3e3730",
"b2 c #3e3832",
"b3 c #3e3932",
"b4 c #3e3933",
"b5 c #3f3730",
"b6 c #3f3933",
"b7 c #3f3c36",
"b8 c #403934",
"b9 c #403a33",
"b! c #403a34",
"b# c #403c34",
"b$ c #403d37",
"b% c #413832",
"b& c #413b35",
"b( c #413e39",
"b) c #423932",
"b* c #423b33",
"b+ c #423b35",
"b, c #423c35",
"b- c #423c36",
"b. c #423f39",
"b/ c #433c36",
"b: c #433d36",
"b; c #433d37",
"b< c #433d38",
"b= c #443c34",
"b> c #443e38",
"b? c #453c35",
"b[ c #453d36",
"b\ c #453e37",
"b] c #453f39",
"b^ c #45403b",
"b_ c #463d35",
"b` c #463e38",
"b{ c #463f3a",
"b| c #464039",
"b} c #46413b",
"b~ c #473e36",
"ca c #473f38",
"cb c #47423c",
"cc c #47423d",
"cd c #483f37",
"ce c #484139",
"cf c #48413b",
"cg c #494038",
"ch c #494239",
"ci c #49423c",
"cj c #49433d",
"ck c #4a433c",
"cl c #4a443e",
"cm c #4a453f",
"cn c #4b413a",
"co c #4b433d",
"cp c #4b4640",
"cq c #4c433b",
"cr c #4c453c",
"cs c #4c453e",
"ct c #4c4741",
"cu c #4d443d",
"cv c #4d4640",
"cw c #4d4841",
"cx c #4e453d",
"cy c #4e463d",
"cz c #4e473e",
"cA c #4e4942",
"cB c #4f463e",
"cC c #4f4741",
"cD c #50473f",
"cE c #504840",
"cF c #504841",
"cG c #504a44",
"cH c #514943",
"cI c #514a41",
"cJ c #514b45",
"cK c #52483f",
"cL c #534941",
"cM c #534b42",
"cN c #534d47",
"cO c #544a42",
"cP c #544b45",
"cQ c #554c43",
"cR c #564c46",
"cS c #564d44",
"cT c #564e46",
"cU c #564e48",
"cV c #564f49",
"cW c #57504a",
"cX c #584e46",
"cY c #595047",
"cZ c #59524b",
"c0 c #5a5148",
"c1 c #5b534d",
"c2 c #5c534a",
"c3 c #5c554e",
"c4 c #5d554b",
"c5 c #5d5650",
"c6 c #5f564c",
"c7 c #5f5851",
"c8 c #60574e",
"c9 c #615a54",
"c! c #635a50",
"c# c #655b53",
"c$ c #655e56",
"c% c #685f57",
"c& c #6a6259",
"c( c #6d645b",
"c) c #71685f",
"c* c #766c62",
"c+ c #7b7168",
"c, c #80776e",
"c- c None",
"aPb7cPcVcfcPcQb\cVcqcWcvcWcsbWb[c3cOcWcncqc&b?bMbYa2bkcjcocobJb2b/cfb6bAcFcib/bPcwb&b>cccjcpcZc*cca9aoaAbTb}b7bGbZbUb-b6cmb2bGbmb`b%cVbCbubxbgb.b!b6aZa|b7bZbNcFcacva?cAb|b9cwbDbLb$b{ckbVbGcNbZbLbHbtb8cNcNcUcWbua4axaRctcjb6b!bKbQcecPb^baaYaYa)bVb7bKb^bBcscJcAbBb&c1bPb<bAcvb^a-bLb.b7bLbLbKa|aXbQa|bubQa,bmbVb7bAb^c7cNb^asaoaPcic3c1cFcHcob-b>cfcJcNcca+bZb$cJbKa9bmctcGcJcpbUb{clbua3a_cca9bVa$a!bmbVb<b]b-b-cbcmclb]cFc9c#c0c$baaHaqa|a{cjcJcjbTbVb$b&clb>b!cscbb^b$bNb|b-cNbkb!b}bsbqcja_bxcocUcGbUbga/b<bKa|bKb(b(bGbZcfctcHcGcAcbctcUc5c7aUama1cVc9c!c7cJcicUb^b]cmbNb7bLbZbHbHbtbZbcb7btctb^a[ctcmbmbgcbcbbebmbHb}clb&b8b<bCc9b{bNc1cWcCcAc5cjcAc&bf",
"awb^cEcQcNcEcNckcQcJcTchcQczb;bJcLcVcgcncKc#cQcnb:aVa%b]b[cabPbSb&b|cvbrcscab!b;ckcacocFcicicOc+cpa9araxb0cqbLbQb<b6bTclb>b;b$bmb|b1cwb2bBcbb{b%b{b/a4a4bmbQb~cBcFbvbIcPb0b:cJbfbtbZb!b>bGbpcNbAbmbgbAbVb<cJc1cWboaUaqaRcmb&b2b2bNb]cUcLbKa)aJaEaSa!b.cmb$b.bJcNcZbsbEcNb]b6baclctbJbmcjb(bLbKbQa=aXbtbKbyboa9bFb<b-b.bLcUc&cmasalaGcDc3c0cScIckb/cJcococwb}a.cbb!cFb}btbtcHb}b(b}b.cbb}a=aTbccca9bVa3a3b7b7b7b7b>ctcwcscCceb|cZc(c!c9a~aAapa|a=b>ctcmb(bUb8cicCb|b>b}cibUb^bJcpb0cPbDb&bLbLa{b>blbBbHbQbUbHbpbtb^babaa{cpbUbBb(cvcFcCcvcvb!cbcpb7cGaSamaVcVc7c1cVcsctcVbUbGbZbUbGb7ccbfbsb7b!btbVa^b}bZbfcGb.a6b9cNcNa?a-bAb-cwb]bAb!bkc1cCb2c5cwcscFcZcTcsc$a<",
"apb!cIc2cJcEcNctclcNcYckcYcqb9bOcac1crczcKc4cQb~b=a?a*b^bzb>b!bXb3b2cNbIcxcDcucgcscfcEcEcyc2cGc*cma8ataubzctb!b2cib&bvcmb1csb|bNb\b|b6cvbSb>cdcdc8cXa%a#bucbcqcXc0a;bDcAbRcncwa}a_b7bTb;bQbUbLbHbZbya=bob(cmcZc5a_aRaoa&cpb,bGbxb\cIctbkaSaHaHaHaSaEa2b^ctcja~cwcAa*b9cNb|b2a#bLcbb}a_b^b;cpbVbUaxbxa|bybVaUa<bpb7bLbVbyb]c9cJasajawcQc$c8cKcrcycacZcIcScPcCblcbb*crcVbBbOcNb$b7bQb$b$bsa_aWbxbZa&b$a3a9b|b!bLb:b3b}cjb}crcwczc2c!c2c7a{aAapbTbScbb:bYcbb4bQclclcib\b>b}cbcbbScJbOcCbDb|bUb4a~b]b&bjbua^a+bma]bybUa)bxbccJbbbmb.b>clctb>cWcAcbcmb#cAaUaiaVcJc1cTcTcIcWcabZa[bubbbgbmbLbubububQb}bUbsb(bLbkcjb1bScQcYcVa[a^bQb2ctcpbSb3a~cVcJbSc1cecTcQcJcZb/c9a.",
"arb(cEczcrcZcbcjcQczcTcac2cPb3bqchc3ceczcBc6cqa;b}bGa1cib9crb:a[bSchcTb9ckceb:crcyckcPciclc3cuc)cNa2aDawbvcjb9b:clcjb2cpb,ctb}b6bRcCb*c0b&bSbTbZcLcSa~a#bYcbb*cXc2a:bEcwbWcqb7bsblb4b/cacJb.bba*bVb7bZbycpcwc5cJa]a5aoaRb-b|b7b$cqcNb}a&a,a,a5aJa!aAbecpb|b7bJcpcba&cvclb:b,aQbmcjcta-cmb6clcmb}a6cmbubxa=aRbHbgbua_a-bLb7cVcpaqalaGcIc#c3cDcEczb=c3cKc0cZcWbbcmb+cJcNbYbHcGbHb4b$b#b7a_a8a*bHbya&b7a8aWb|b$bJb>bTcib]clb]b|cuc1c%cYc9bvaTapbUbgb$b|b.b}bxbQb&cjcpclb6b>cbcbb3cJa}cGbGbub(bLa?b.cGbMbmbna/bmbsbsbybmbZbZcVbnbqcAb#b|cGcJcNcJb.cjb(cAaTaga3cpcTcZcpb3b7bHb7a*bubmbfa\bmbxbbbLbfb^bsb3b$a^b:cbbDb;cZcIc1ckbebLb#cbcjbSbLa^cTcsb9cNb4cAb}cVctb#c9a_",
"arbZc!cBcFc3cCcucJb&cWb:cTcNbYblb*cWb9cycncQbEa?a]byaQb7b9b|cfa(bkb;cYb=b|cvb6b-b>b,cib/cec1cMc(c5a!aGaqa(cwb2bSb-cib1csb|b|b7bHbOb(bMcMbZaVa!bmb_cRa~a[b]clcdcScYbCb1cHb0cibLa~bmb7bAbHcbb4bZa-bUb(clbUbQcwcZcCa{aYamaLb/cCb]cjcFclbLbxa8aUa+a,aXbxcbcbb$bxa*cbbDb2cCb6clb2aGbHb}b}a*cmb.bHcwcUbmcjb$a|a4bgbya=a<a,a=a|byb(cpasahaIcYc6c8cycEcyb1cVcFcFcjcVblcAbGcGb(bgb9cGbVbubybHbxbLa-a2b7bLa]bUa3a9b^bUbJb;bqb^b$b|b}b$b|cNc$c!c9a}aJanbsbucicGcmb|b#bYb>ctclckb>b2ctb]b1csbRcPb(a-ccbHbsbEc%cgbsbma{bpbKbZbfa\a_b7cjbgbpb}bZcccwcbcicJclcGcpcwaRaga9ctcVcpcbbZbUbtbgaXa,a_a_bnbubtbybmb7b4a]b$bxbmb}bHbfc5cMcEcMc0bQb3bYb7cIcebGa&cwctb!c3b;cmb>cJcAb]c5a_",
"atbLc(cKcucZcOcOcUb{cPclcOcGbTbSb*c9b*cIcKcXb5bjb4bGa2bHcgb~cvbMbzb-c2chcfcvb[cCcrchb:bSb5cTcOc)c5a&aTapaQcGb/b6clcCb1cfb|b+cbbzbGcjbvcibVaQaNa_bvcCbea^cBcDcncQcXbrbNcJbJb2b:bGbHbUbAbUcmbacbb4b.b4cjb(b2cWc(cPa=a5amaHcgcFcncucZb`b}bsa#aXa=a=bybUb2b^bQa6bBb4bscAckcicjb6aWbucbb$a>cvcjbJb\c7bub4cta_a4a=a|a]aJaTa4a$bmbQcAauaiaGc2c!c!cIczckb\cvb|clb1cZbScla~cJbHa]b[cNb.bLb(bUbcb}bta8cfb2bgbtbcbgb|bBbGb:bbb.b-b|cjb}cncZc0c0c#a?aLaobebUcycycicCcNclclcpclcib^b6ctb]bOclb+cJbVbbcHbQbkbac6cQb]bDbLbxb}cpa_bgbub^ctbsbTcAcfcjcCcccjcGcpcwcWcNa3aiaIcmcJcbbZbHboa+a/a,a3a<bfbQbsbsbQbxb.beb$b:a&b$cma~bvc%cicFc4c%b9bLb#bTcncUbsa2b7cjb6cWcicNctcZcNb^c1a<",
"awbuc0b9b[cHcOcRcFcscNcMcTchb^b6bvc#b`cucycKbqa?bLbga+bAcucncicibTb]cPb)ckclcib[cHcPcvb6b!c1cOc(c1a#aLara:cTbZblb|cJb+cCcsb|cpa~bDb]a?b]b(a<aRbmbmb7a;bJcqcncxcXcMbdbjcAbSbPb-btbubHa_bycta~b}b.bZbVb^b7b;cGc7cJa,aNakaLcucPb|b[cjcbbSb&b|b]bLbtbga!a/a<aZaZbtbQcdcqcRcxb4bUaRbLcpb$a9bVcib-b1c8bSb2cFclbubHa/aYaHa=a,a5a4bycmauaiaGcXc8c7cuczcMczcEcocPcicWbBcGa.cGb(bBb>cWcjb4bZbVa^ctbgaQbub}bta]bsbsb|a~btbZbtb]b:b]b]cjcqc3c8cQc$braUana<bmb$cjb]cWcGcCczczcbclclb|cicjb!clb!cVbGa.b$bUbLa[cKcXcHb?b.bBb4cma^a^a]ctcmbQbAclb-ctcNcib}cGcAcbcUcVa0akasccb.b$cpbHa=a+boa,aQa/bma_btbxbxbVa+bpb!bNbeb7cbblcRc7cfb\cYc#b^bab<b<b\cWbjbSb3cbb3cwb$cbc7cPc1cGcVa9",
"ata#c4cQcxcYcocTb]cpcBcUcJclbNbTbMcTcgcPb?cqbAa}bBbHa?bfcncxb>b:bJb9c8b_b/b|cCb[cocUcNbPbzcVcCc(c$a#aHapa?cWb2b6cycEb&cpclb9cNa~bsb7a%cickb9a)bmbgbta<a^b*cqcOcXcIbva?cYbMb[b-a}bmbHbabVb7a*cfb&bZbQb(b(b3cpcWcWa=aSamasckcQcrchcHb[b2b\bHbsa0aLaJaHaLaAa,aHaPbHcTczcIb6b(bta2b}cmb2aWbHb#bzbJcJa*b4cZcLcQckbKa#a!a,aSaSa,b^cmauahaDcocZcucBcBcLcacNb?cfcpcAbbcwbkcjcmbHbPcUbUa<a<a/a.btbFaXbqctbBa#bfbcb]babqb7b]b&b;clb&cfcnc#c(crc3a~aTana#a_b&cAcRcUcPcPcNcjcFcFcpcib-ctb|b-bIc3b&bab7bQbZa-cgc4cncncpbjbVbZbHa\bgbUbQb(bAb7btctcwb]b.b^b>cHc9c4aSamancpccbna_bma)a)a)a|aza+bsbgbmbsbZbgbqcbbQbsbZbUbkclcZcRbGbQcXc#cHbWb6b!cucXa~bSbTb|b(cpb^b^cGclcVcscta0",
"ata9c5cRcTc6cfcPclcHcFcYcJcFbTbNb%cuceckb~cYb/bibbbBbPa~b`cacib\bjb9c5b_ciceckchcncBcNbzbDcUcsc#c&a9aTaqa;cwb2b9cHcsbPb>cpbJcUbAbtbpa?cHcCb+bta-baa#a6a-b~cKcScXcXb0brc3brbPb>bJbtbBbTb]b$a+b-bSbQbHb(b4b]ctcVc3a|a0anaqcsb|cbb}cvcHcqcFcqcnbLa+aLaAaTa0aQa-bxa^a#a=bBbAcbbEbXcCctbDa(cAbHbbbucca8b$cmb-b>b;ckcGbZbAa4aSa=cVcZaxalaPclcVcCcicJckb\cTb`cCcwb}bkcCbUcvbUa<bMcUb^bHa<bmbxbUbLa+a}cHbQa+bxa]b4blbtb^ckcib6cmb6b-cdc3c&c0c7a}aLaoa*byb-cwcZc1cTcRcJcbcscJcvb\bSclb{cFbXcZbua[bUbbb.bgb5c0cFcub(bbbZbUbca*b7b.bucAbBbLbBb}cmb$b.b.b$b}c9c3aUapaccpcNbGa#a0aUa#a#a=aIa,bfbQbybQbubHcpcla^a#bUbma`c1c7cxbAbVcQc!c7b~bBbQcEcEa[bLbmb.b!ccb7b^cGcpcZcmcGa4",
"awaTcZc1c4c6cEcWcNb|c1cYcJckbUa~b|b}b|b6cncqb$bEa[bscja~b;b|b|b|bzb&cJbRcncDcGb\crcMcZb1bvc3cPcZc%a/aRaqa(cMb>b&cFcGb2cGcjbpcWbfbmbVbIclcpa~bubxbya,aGbLc2cYcXcQcQb~a%cZblbHb>bSbNbSb!cmbUbab7b$bVbVcGb;b/cscUc5bma4aqaobeb.b3b}b,b:cRcuchcScjbza8a2a_bmaRaUbQbHbmbHa]a<bxbBctb}cta^bfctbua^b(b7a9bKa]bobcbmcBcFcWb[aSaYaSa|b$aNamaGcjcWcQczc3b:bJb|b!cicmccbScva\ctbHbccscVb(bLa=bma|b7bya<a[cmbUa^bLbGbUbUbpb>cbcwb9clb4b4cac1c&c#c9biaHaga6bVb|cjcwc1cUc3cVcFcJcIcmcib]cwb+cGb/cfata3ccbbbHbLbXcCcCcob:bLbLbVa|a#bVbZa_b}bmbUbQb^cCb^cmb}b.cbc#cZaUasaecpcJbOboa]a4a#a4a0a_aLa-bkbmbub7b^b7b$a^bUcbbla~cwcVclbTcfclcNc9cQbua]b}cTa[bQbLcjbUcbbVbAcGb6cNcjcAa5",
"awaRcLc7cDc8czcWchckcVcFcQb|b6b0c0cabRcscQb0b6bJa~bBcAa^b=b:b&b!bPb-cechcFcPcEckcib[c2b/a;cNcMc#c%a/a9ara(cGb9b\cecNbCcUb|b9c3bwbHbUbrcicwa?a~clcbbLaIbQcLcQcqc2cSb*a%cMb1bPcsbMb8cfb9cJbNb6b\cib|b|cwb2b6clcVc5bga0aqapbqb$bTb}clbDb+clbRcOc5b5b7bQa_bQaLbubCclb;bTb;b6cAbvcFb|b|a~b]b|bma^cGbza)bAa,a]aUaRbEb|cmb-bua]a5a5bQa5amazb=cQcscib$bYblcbb\cFcpb-b9cja[cGb.a*cmb|bHbLa\a\a{btbybQa+ccbmbsbxa_bsb(bNb}b|cvckcsb|bZcqc3cKcxcZa:aNama2b.b>cAcMcNb\cscTc0cZcIclclcicmb]cjbPcwbma#b$bmbnbyb5cYcQcKcCbRbSb<bLa+cmb7a[b.bUb7b(b$cjcJcGclcbctc7c7aRaqaibHc1cZb$a<a=a<a!a3a_a3a<a,bBb4bNb}bGbUcfcRcjbzb\cGcCclbsb7bTb|cXc#b|bbb2cVa[b3b}cwcbb.b(b4b}bZcjcAcJa3",
"aGaRb/c9b}bDb2clchcMcXcQcRcgcob%c5b9bIcTcFb0bTb&bQa~cjbNb+b2b,b9bsb7cdcxcDcLcFcscCcnc7b!a:c3cHcYc9beaZara:cJb3b$cbcJbMcTcvcfcWbsb$bLb5c4cja[b*cRcUb?aIbOcOcMb)cSc4b~a1czcab2ckbrb\cHb%cHbMclcRb[b>bJcJb,b[b|cOc%a|aHauaoa~cmb9bLb]b>b3b]b|chczcqb!bNbZa_aGa]bBbmcgcBcDcXcGa~b>b<bcbacAbvbub4cAa~bpcca]a!a$aHa,a!bQb7a=aOaKaFbLa$akaIbwcAcPb\bSb^bQbscmb>cGbLb]b2b&b}b.bGcwb}bmbybga=a&bHb^b2a-b(a-a&bna*bsb^bDcicicPcJcJb;b]cTc!cabCb}a.aIama\ccb|cJcYcWckcCcYc5cPcGctcib>cfbSccb&cpcba[bVa_bHa[bIcQc2cXcCb\bUb.bAa<cAb(bGcAbGbUcAb>cccjcAb}clcCc3c5aLawadaoa]b$cpcNa+a9a+a!a=a9a/bmb3b:cGcsbBbsb>cmblb}cOc1clcbbGb4bPb!cMc&cGbObNcwa~cmb!cicjb7bVb7bVbKb(cwc1a5",
"aMa#bIc(c3cgb&b]ctclcNckczbOb/brcZb:bic9cNb0b=cLb!a~b;bsb2bzb&cibSbSb\cQcocFcvcicCcsc7bqa6c1b]cFc9a~a$aoa&crb|bOb#cAb1cZb+b8c7b1b>bSb?c1bGa.b~c2c!cSa%bzcqb=a?b_cScra7ckcsb)b.a^b[cCb[cob6b\cicfb6bzcsb|b9b|cLc%boaPaAaqa(cGcbbsbBb$cacNb*chb&bSckb2cjbba8a-bAb(blb$b:cjbGa.bxa-a[b.b7bfb6b}bVbsbubgbLboa=auaRaHaLb^b(a|ayaya|aOamaPbvcMcWb[bGb.b$bxcwbTcWb3cibTcUb|b|bQc%cJbcbmbna]bGbUb}bTa_b(bma&bgbnbHb7blb|b]cTcGcbbPb;c2c!c7b?b$a]aAaka#b.cvcFcZcVcicpc0cNb\ctcwcjb(cjbLcwb[cGb$bebZbub#bLbOcFc2c2b&b2bgbQa_a<cJb6b3cVbLbVcjb.cpcjcpceb}cbc3c2aXaDaeaqa=bVbUbLbVb7bua<a!bUbZbUbOb>c4cqb!b}cbbYb!cwcRcCbBbUa_bcbmbxcrc9cJb1bGcta?cvb4b$cAbxb7bUbKbLbZcAc1a!",
"aGa!bdc!c!cZb[b|cvclcvb|cscka}bkcTcaa?c$cEceb+cib-a}cpbzb#a^bfcjb]b-b&clcacacGb|b>b;bZaIa#a8bPcpc$bba]apa8cjcibDcscNbJcTb>b9c1b*b6b2cdcRa[bQcKc6c&c(bra~b\bEa.a^b~cQa%b>cRcdb-bvcaclb_cnb3b3cDcFb9bGb!b|b>b|cqc7bHaNaqapbeb}cmbZa^bZcncZcOb~cJb0bPb!ceb,a\bHa?cjb<bTa=a/bmbma[b^b!cibZa-bQbUbLa_a8b.bya/a,aRaxaNaqaEa|ctbVa$bUaSamaGbDcTcwb:b}cNbLbpcCbKcWbHb<b]cZbPbAb4c9b}a_bybLa\a_bycwbOa^bVbVa^a\bcbZbZbbbQb>ctcpb}crbIcKc0cYb=cNblaAana.b}b;b}cZcCb]b}cGcGb-cmcCb^bZb.b7ctbRcJcpa1aNa/apapbNb}b+cobDb>a^bQa-a{c3bHbVb7bnbQb7bVb}cmcmclcmcjcWc1aRaxadasa=boboa=a/bQcWc8bZbGb7b7cdc4c3b)b5cZckb:cRcPcwb>bmbUbua]a-a-b,cNc5cib2cta[cjcGb2c1bTctbybHbnbGcVc1a5",
"aHaTbdc$c!c!czcacMcrcFcscjclbzb2cEb1bdc1crcrb:b*b3a&b}bJb#bLbDb]b9b\b|b\cfcocNcecvb|cbaLa2bLb|b$c3bga$apa1cGcbb3cAcTbDcVb+cucPcabPbNcTc0a:ckc0c!c6c6brb0b#a?aZaPa^cjbLbOb;b2b|b2ceb\b9cMbOb3cdcVb:bqb;cickckcPc%bgaTaxaoa-b.b|b2b#bEb=c0c0b)cTchb6cycAbza^bLbqbbcCcsbPcib2b-b]cbbLb4bYa2cjbbcma-bcbUbta{a<a=axa,aSauaqaCb8cGccaNajaQb3ckcWb1b9b$b6bTcNb2b.bqcla~cWb>a?cwcNb0bxbHa|a<bmbHcIcea#bgb^a-aWbLa]b$bqbqb>ctcib6chc5bMbMb3becJbtaHama]b.b-cjcGcPb>cAcAcpcccCcJcbb7bVb7cmbqcmcmbbauapabanbAclb[cocncubJb<bma9c3bHbLb7bUbVb.bZcpcwcsclcjcAc5c7aRaGadaia=bybLboa=a!cqc9c5b1b`cZc4c0cfbWcUcOb0chc6cMcMb*bNb2bLa~a_aWb:cTc2cVb]cwa?cpcZb2c3b-cma]b7bybLcccWa$",
"aIa3a%c7c(c!cEb=cEcqcVa&amaUb2b;csb,b*c%cYchcCb[b]a7czb|b9bEa?b2b/cob;b&cucFcwchceckcZa8a2cAc7chcNbqa_aoaQcGcab9cGcNbzcWb%cRb]b;bGbBcXcXa>cYcYcYcYcYbIbIbla?cVa[a1b(b6a:ctbJbSbSb9b\b+cabJb]b5c3b;bsb#b$b]b]cMc%buaTaNaoa&cmb|bYbYb-bkb|clb|cvb\b6chc9bia[b7b!bpcgcRcyc2bJcibZa[bgbZbga_a/bmb$a^bcbLbcbma]a]a3a3a=a$asasaua=ctaZalaPckcWc5b3bHb$b<cmclbPcAbLcta[c1b.a*cAcWb2bQbua/a9a/a=b]b|a[a[bUa_a3bFa<cbbQbubYb$b]b2brc%cNaMa[bqcmbnaRama<bUb]ctcmclb|cbcGcscbb}cbb}bQbtbUctbqcbbLbGb^a_a(b(bCclcncncdcub3b3a_a,c3bQbYcbbVb4ctcbcAcAcbctb}cJc%c8aRaGaeagaHa=a|bmbmbHcJc3c3cBc!c&cYcQcobMcYcCbWcscYcqb!bfbYc2cebDbba8bQctcTc1cIcea.b7cZb&cZbTb$bsbZa_bUcGc1a,",
"awa<a7cAc$c6c6b\chcEc1cebHb7b|cEbObTcIc4cRbRcib%c#a[ckbPbRb6bIcecaclbSbNb&a?a*b3b*chc7bZaIcwc#cAc1bsa=anaDcwcEb=cycZb9cIbMcVbSb3b2bscTckbvc!cXcKcKcMblbEbCb+c2cSbIb/cibdcYcPb?cBb)cfcqcdb0clb5c!bBbvb]b;b;b\cJcNbgaNaLanbjcpb}bYbNc3bqb|ckcrb5cZb[b=cZb5b2b\b9bLbsb4bsbZaWbma,a9bgbUb7bLa6b(bya8a<bZa|a_a<a,a=aQbFbma,aHaKbycpaUalaPcxc!cWb|bLb.b]b}cibScNbLcJbscbbGbqcNcbb]cGb2bqbybpbHb4bLbta^bLbAa=a{a9ccbLbub-b|b|b,bMc9c$a;bwb9ctbmaHanbGcbb}cpcpb.bUbUcpb}b$b7bUb.bLbubGb}bQb^bUbmb7bmbFcjbvcycIb*b1ceb!bNa_a*c5cbb4b7b<b<b}b|ctcmcbcJcscTc)c8aNatapaUaZa,a_a]a|bgb]cZcUb_c6cScKc4cOb?cRcxb5cyc4czbObTb_c8cTb9a.a-b9cwcEcYcZcna>b>c3b%c3bWcjbUbKa|a|ccc5a5",
"azbua%b6c8cYc!cPb|cicYcZcvb/cdcZbJb!cMcQclbJb`b/c8a%b|bBbkb!b1b2b!b&b]bNb!b6b,b|cCcicscGa.cbc%c3cZa]a<araPbVcdcBcocWb!clb[cGbDb,b-bfcVb+bWc4c2b*b_cqa[b0bicNcYc2cKbhcJbrcucPbhcIb+bRb+b|bMcCb*c%cdb)b}b|b;bPc1cHbxaHaNafaMclb>bTb2cNbNbTcJcebvcPcicgbTbDb1b/b;b!a_a3a|bxaXbabobyb4b(b7bUaWbQbxbtaQb7bQbmbca_bxaGa]a=a=a,bobybZa5amaPcrc3clb!bGbHckcFclb6cbbHb]bPctbma?cNb^b7b}bLa,bxbpbpb&b]bVa]bKbkbLbAa+b7bQbtbSb>b|ctb5c7c5b[cPcCc1a\aRalbGcmcfb]clb^bLbUcbcbbQbQbQb^bnbubxbHbZb$bmbAb7bGblb3a~b]ccbPbfb2csb9bLa8cmcNb4cmb3cjb(cbcwcJctcpcsc9c,c0aLaraiaNa|bHbZbxa_bxb]cmb(bebVbmcgc7cob?cOcubWcEcTcgbkcicDcKc8cQbua&b^cwcIcNc2cxa>b!c2b9c$b:cmb7bLb8a,buc5a)",
"azbZbza[cLcZc#cYcFcBcYcWcGb2b)c7bIcscrchcqbRb%b0cWa%b+b!bMb|b6b\cHb|cjbfb}cichb:b!b&ckcNb3b.c#c5cVbpaZara^b9cocub{cJb+b/cFcoclbPb/b\cYb0c0cBb|a;blb^bNbfa(cTcYcQc2brcrb1cfcsa?cqb4a*b2cib*cFb?c9b*cub[cCb+bNcCcZbQaQaLamaDctb;b;b[cvcFbMcocCb8b1b?cHb>a~b%cicDcnbya#b$bUa*b$cfckb$bBb$cma#bQbLbQa3b^bpbpbGbQb7a#aXboaUa0byb(cca+ambab*c2cCb<bmbVcvcjb}b!bZbVbQb7cbbLa?c5clbSbLa^a#a]a#bmcvb\b7a<bUa)a{bKa+b7bBbBb7b^clcPcqc(c$bIb>b.cVa(aRagbscGcWb;ctccbZb.cjcpb.bLbQccbVbtbQbKcCcVbtbFb8bKbHbcbkcib^bBa8a-cFcebLa3bScNbmb.b>cjb2b]cHcvcmcccic5c(c0aLawaia,cmb.bQb7bma<a|boa,a<a,a|bTcVb+b8cXcqbDb-c0cqbfcicSc4c8c2b;a(bGb^b\cPcFcfa%b&cwbzc5bXcpb(bNc1bHb^c5a5",
"azb3b?bIb\c3cIcrchcMc!cTcQcrb\czb=cEb&bObCbIb*cecRa>b6b8bJb;b2b\b\bXcmbScib|ckb=b\cececvb>cGcWc9c1bva$aoa&cAb_cBceckb[cicYb?cJb1bXcFb*b5c#bWaUaAaMbmbBbYcrcLc0cYc8cKb*crbdcCbRcqb;a;bsb]cncLb5c$b)csb[cFcfb/bzc7a|aUaNaqa(cmcHb2b}bNcGa%b!cFb^bJbscmcCbhcfcocqcOb]a~clcbbkcjclbsbUb7b!bTbfb7bAb<a*bBa_bxb6b&b}bebfb^a=bLb$cVb^a<apbkb6cJcJb>bPbScAb;bActb7b.btccbybHbvc1cwb2bubGb7a~aGa{cmb]b^babybUbabLa<b$bEbGbOb.clcjb*cYcvbDa<bmc3a:aTakbSccc1b/cAb}b|cpcscjbZbZbUbHbVa|b4bAcHcCbBb$b2b2b8a%b!b|b|b!a]a&b|cGbQa<a^cJbFb(b!cWb;cmcUcNctcjckc5c%c6aXaDana/ccb}bVaXaNa!a!a4a4a4bLbpa=bZbUbLckb|bvb>cycabwctc8c8c2c!ckb%bHbLb\cGckb|a.b$b(bucNb;cmcib&cWbTcpc$a5",
"aIbVcnbRb_c$c8c2c3cIc2cXcPcFb/cecHb2bOb|b~c6cOb~c#bCbwbPbAbJb&b;bPb-b}bSb6b!b3b>b/cib[b[b|cCcJc1cwbma<apa#b}b6cTcHcfb\cMcvckbvb;bRcVbMcWcGaVbxbZa/a9a^bUc0cncxcqcXc2b1cba[cCb6b0bUblbpcccncObvc(cob?b6cJcbb#a?c1a_aLaSaqa*bVcJb3cAb&cma<bTctb|b{bWcCc1a`b/ckb*cRcIb0b9cba\bZa)a{cHb&ccb<a=a{bmb$a+a]bUbQcsclbLbga]bmcjcmctc9b(a<aqbfb]cpcvb&bLbpcwb]bNcGbBb7bscAb7bpbTcNcpa^bvcNcHcHa3aRbAb7bBbaa,bpa]bta\b7bQbbbHb7b-cjcxcYbabAazb^c9a/aUambGcmcNclcpb.b}cjb}cbb$bVb^b-b^bob7bZcZbTbyb7btb2b&a(b/cibUa<a]a/a~cmbUbQbpclbVb7bPcJb4b(cmb<cbb}cbctc&c8aXawaIcwcWbGaNaTa!aUa!a5aRa$a]bVa,bobAa{bmccbsbGb2b]bNcpc!c%c0c#cucnbHbsb;b|b]b2bqb9b(bscActclcNb}cJbQccc9a5",
"aMb3cqb5cBc&c!c6c5c5cIcTcNckb*cncPbrbDb&cDcMcIchcRb5bdbPbsbDbNbNbTb!b/bPb1csclcvclb;b9cjcRcPc5cRbXbfa=anaTcjb9cQcWb6cdcUb\b/b3clb*cEbMcZb1bPcUcCcJbka[b:cVb%bEa6czc!bzb6b6b-cfb8b<bka~clcocHa;cZcsb2b8cfb}b]b?c(bmaXaUakbPbPb}bDb]b;cpb6bNcCb&ctbCb|c#bdcjcwbkb}cZb_chceaAa|a|bKcib]b.bVa3a-b^b4bfbKb2b-b-cjb7bBaVbtc5cRb.cNb7aYapbfcfc5b|ciccbNb^cjb>cWbGb$b&cHbmbmclcNb$a^b+cNclcsbma+a*b7bLa]a#bHa^bLa*b7bmbUbNb!ckcNcdc#b^b>aQc1c5a7aHambscjctcmb}bLb$cbccb7bZbZb(bVclbUbKb>cCbPbLbGa~b7bkbpcHb+bVbmbga/a-bZb4bBb$b(b}b.bAcJcccfb$b$cmb7cicNc(c8a0aAalbucwa{a,a,aTa0aUaLaSaSa$a_bxa,a)bKa=bVbmbBcCckbkcicRcCcKc!cgcObTbab6bScwbNbPb6cJbzc5crcacFcfc3bAcUc9aS",
"aGbLb2bRcScZcPclb]b}cvcVclb+b)cfcTbWb|bGcqcxcMchcibWa:bPb-b6a]a]b&cbb&b:cEcrcBcBcGcab|cvcDcOc7cGb7a]a+aoa;cUcyc0c2b+cFcPcibPcJb3cGb1cbb}bfcmb2bSb3cbb)cvcpa~a!aLbjc2b3brcHbRcDb5cGbSa.bQcscvaPbGc3b,b9b.b|b!cic$bga0a$aibGb$bHb4bQb(b&cjbscwb^b^b]bTc3a[b/cwbGbqc$cYb4bGaMbmbUb(bGcjbZbVa!bgb}b3btbQb(b$bLb(b(b7a*bVcWcZcGcmb^aUapbgb2c1b6cicmb7cwb^bZctbbb7bBcpbQbyctcGbQa\cicNb}b>b.bsa<b7b$a]bgbxa#bQa.bZbgbVbLb7cuc3coc7cvcsa2cWc7a/aAanbOcAcZcFcwb$b$b(cjbVbLbQb^b$b.b^bucpctbNcGb!btbQa[bGcta^a]bZb:b#a+bmbUbVbVbHctcwb4cZcjcjcmb:cmb7b}cpc%cZa0aHaqbybVbpa$aNaSa5aYaTa,a0a#a=a!a_a+bLbVbQbQa8cictbLbsb6b;c0c8bRcRbEbTb,cscJbzb|b$clbscZb;cbcbc0c9b3cAc9aT",
"aDbZb2bPcSc2cRcacHcPcKc3cBcsb0cscRb5cRb*cQcOcMcgcab+a:b!bsa?bZa&bub7b!b!cQb\cVcucGb+cacEcUcPc3cRcta^a+aoa~cUc0c#c0cAcyczb+csbWcecFb0clbTcfbpa|bKa#a<bScwbyaPb&cma?b>cYbCcvcncKbRcTbzbGbHcncLa+ahb!bSbUb^b}bUcoc#bKa)a|aka[cAbJb2bPccbPb^bNcvcobCclbTclbsb\cPcja8cac2bya\a+bUb6bPcib}bcb(a9bmbZbma^bUbLb3cGcsb}b4bab^cZcFcVcNcAa8aGbFbAcmcib;ccbLcmcwbDcpbyb.bHb}b(bqcbb$bBa~ckb;b|bPb^bsbabmcbbebsbma&bxbcb7bHbLbQb(b&cJchc%b;b6a&c9c9a[aLaobscAcZb]cbb4cbb(ccbQb8bUb(bVbVb^bQb.b7b^b.bUbua]a<b$btbpb4cjcFcNa|a|bpbQclb2cccCbVcGcpclcwb.cbb}cbcAc9cWa0aRaia#b^b4a|a0aYa4aZa$a!aUa4a,aTa+bybgb]bNb$bxb|cPb|bqb-cGcPcubWcZa~b>b:cQclbJcacsclb!cWbJckcIc!cYcWb|c7aT",
"aGbVbXbPc4c!ceb1bNcbcUcBckb=bRcTc0cdc0chc!cQcxb2b+csa(cyckb9bqbObHb9bYbOcUcdcVcucececqcOcRcDc3cZc1a^a$aobvcGc!c$cechcNceb>b]b_c3b/b|bNcAbTa>cbb.bUbUa]bQa6bGcBcMcaa?c#cObXcHb+cab/bvb;b/b0czcNataQa]bLbscbb7b:c2bHa0a|aja7cJa:bScvcGbzb|bPb]b}b]clb2bmbmcDc2b.a&a!cmbBbBa{b^b7bBcbbGbUb7a2bUb.bLbubcbGbQcicpb}bpa}b!cZcQc7c1cJbaaxa<a]cbb}bQbHbLczcJb&cVbZccb<cvbHbLb^b4bscicJcicfbAb6b]a6bbb7a\a\bmbfbUbbbUb;b2b6cfb1clcLc!b|b-a*c$c&a2aAanbybZb|cAcHb&ctb]cpb4b^b^bZbKbVbUb^b}b-ctbVbyb2b-a_bua#bxcmb]coc1cmbebba*cmclbGcjbQcbcpb4cAcmcmb}cbc3c$cOaUaLaha$cbb}bHa<a,aZa/a!a/aXa!aLbba/bLbbb7bqbZbubAcVcmbBbta\bzb]b9cha.b\cucOcWbzb2cAb,b:cJbJcscFcVcocNccc9aR",
"aIbyb6a?cuc7c!cEb+clcCcvcqcrb*cEcTcrcOcecncFcxb?b9cza1b>bHbHbqb|b,b&b3bjcVb~cDcBcsb[cucucLcUcZc4c9a^a4ambJcJcXc$cEcacJceb`b?c2cdbPb&b|b:bubHa-a-a*bublbBb|cIcdcqcHa?cOc&bWcsb)cLb\b[b/cabSb,b|b9aVb}cpb9cjb}cec7bxaLa=ama(ctbfb;cvcvbYbOb;cfcpbTb7b}bGbgcQc#cmbea]bLbAccbPb2bNcjb<btcbb|aWbUbZbubZbmbZbLb6b-cvbSbbb}cWcfc#c#b}a^aQa+a_cbcAbYb7b7cAclb#cAb4b}cccHbAcJcjb6a~cwcRcBcjbSb\b}a6a_btbxa]bxbJbSbub.b<bTb2cmcHcvcxc9ceb,bfc(c&aTaAana_bZcwcAcjb#cbb^cjb7bUbQbKbKcbb^cJb>cwcbbLbubJb!bna*a\bVclcicFclcNb]bQa*b>cNbUcbbGcmcjb9cJctcAb}cicZc%cFaRaTaja#b$b.bLbma!a4a9a<a!a+a9a<a*bga/bubga^b(b7bdcVcWb~bUbmbeb.bba1b2b2cocCcTbvb>cwbNb}cGcecTceb>cJcMczcZaT",
"aPbxb|a~cLc#c3cLcgcucIcQckcIb/csc4b~cJb9bJbOb1b2bRcFaGbtbHbLbEb9cbclb3a.c3cncucsb|b:b\czcXcQc0c)c&a.a,anbGcAcMc0cYcOcHcib)c$csbSb9b3b$bLbqbxb.b:a_a/a/bnckczb?cncqcgbWc3cLbCb{bDckbWb\b[b*cEb|czbIc0ckb:cycqcPc#a|a3a]akbdcUb[cvcvcibLbHb#b$ctbPb2cpbZa6cgc&cEbMbLbGbpb.bma<b;cJbHbsbQb$aTbnbVbxbQbUbLbLb&cib7bQbJcwcYcnc&c8b7a<aDa/bsb$cbb|b$byb&cmb]b^bLbVb$bVbAcGccbLbecAb>b|bZbQb}b&bxa#bcbxa-a<bxbxbmbZbVbBbNb]clckcdc#clbKa_c9c5aWaLaobbb$cTcJcib-ctcpcmbLbyb7bxbxb.bQctbYcUb-bHbVbQbUbga_b2cGcJbPbHb7cecFcpa9a|ccbZb^bZb}b^b.cUcpcjcpcRcVc#cHaRaUaia|b.cbbHbHa-a_btbta_a_a=a_a/bybab(bfbtb^cca~ctcTcIclb3bga-bTbeb>bAcMcqcJbCcvb|bNb]cfcCcvb9b}b>clcNcVaS",
"aIbxb&bfcOc7cVb9a{bpcicvcscrbRcic!b=cXc4cYcXchbJa~ctaIbtbBbublbHb}b&b6a:cYcncncncqceb=cycJczcSc*c$a>a!ambOcIcKc0cRcRcococOc4b-clbTb;b\b\b(bqbVbLa=aLa<a=bScibya_bjctcObCc6cdb1bDczb\b1ckb\bWcqcNb*c$b9b9b[b[cec0bxa,a$ambicZcxcPcCcebYb#b!bvckczbRcvcpa8b0c%cMb=bQbtb4bQa2bQclcHa^a_bUcba&bgb3b3b<bNbbb.cCclb]bpb8cvcxcuc2c6ctbeawbxbEb|ctb&bZbbbZbVbVbQbtb4bQbBbUccbybHbAcvb$btbbbLb.b4ctbfa_bVa^a6bBa^bga]b&bAbScpb-b}cuc&b^bsb1cJcZaQauanbgb$cpcUcwb}ctcAcmb4bVb.bUbZcmb:cAb|cVb,bmbgb}bPbxbVb|cPclbta{btbPb{c1bDa{cmb}cmcbcjbUb}cGcjclcpc1cZc&cRaTaRaoa#b7clbQbfa-bKbVbZbnbLbUbGbbbZbAbLbtb-b8cJbTbJcDcOcHb/b9b3cycab2bTcyb|cJbRckbXb>ccb=cYcjb,b|b]cQcNcWaX",
"aPbQb3bvcSc#c9cebLbHb3b]b9ceb~crc!chb~c(c&cYb5bObjctaIbubLa_beb3ctb2b3a~cGb[cychcecMchcycEcyc0c)c7a>a4apbJcJcQcQcOcPcsb3c0cEcAb9b9b}b1cJb|bqbxbua|a$a8bmb:ckb9cIcsbRb=chcxc8beb&b5cTb=chchb,crcYbMc#cecebOb|b\cTbua&a!ana}c3cscPcGb,b;b]b4bsb]cAbscmcpa7b0c9c0cIb4bqb:b3a(cickcCa#bLbQb(a^bQb3bGcpbLbEb9cgcvcfbkcocHb:cIcYcMcVa[atbubTclcmb(bLbubVbLb7bBb4bAbZbpb7ccbVbGbTcNcGbSbVbHbHb(cwb2bfbLa<a#bfa{bma#b}b^bTcpb>ciczc$cVbTa_a]cmaWaLana[bUb|cJcmb;cbcwcbb.b^b7bZbZb]cpclcCcTb:bHbycmbcbVcccCcCb4bGa|bmbgbycWb-a[cAcFcsctcwbUb}cwcpcicpc7cTc9cYaTa9ata=bLcbb7bgbmb.bZbZb7b7b}b7bVbZbJb]bGcbbXcNb&bJcac2cZcIcbbEb/clb&b;b|cecwbvb]bSb|b}b5cZchb|clb]ctc1c5a0",
"azbQb!bzcscTc2c3cQc0c2crcicCcscscVcYbrc!c&cXbObObsb>aVbTb>bwbebGcQb1b>a~cscuckcecGb|b|czcNczc6c*c1a%aLasbwcNc$c0c0cUb,b,c6crcYb?crcyb]b]bgbxa\bHbma#a/a|b9csb+b[b|crcncncecQb>bNb:cecVbMcacab:cEcucocZcgb\b[ckc5bGaXa4ala1ctcRcPcpbSclb;b6bJb1cHb9chcia?bMcZc2cDb6bPb|b9a~cscvb[bbb}a<bUbbbHbZbgbZbxa_bVb9cFb$a(cocib~cXc4cTcJa8awbyb3cpcbbGbVbxb4bQcla]bQbyb$bBcpb}b4a~b-clctb3bybnbub7cmb2a]bQbxa&bmbabGbccpb&b;cmb}b}cEc7cVc3cia?bZaQaAaia6bQczc0cjb|ctcGcjb3b.bZbZbUb-cGcdcPcvb0ctbDcpbBcicGcOb/bcbta_bga|a,b}cwa/bYcwbVb7cmbLb}cmcwb;b]cNcYc5cUa3aTarbmb$b.b7bnbLb$b7b7cbb7cpbLb9b9b!b&bDcmb2b/cGbLbIc9c!cScja~cyc2b/b+b,cbb|bhcsb[b;b;b6cGb;b|b:cbczc3c9aZ",
"atbLb+b)cDcRb]bDbTb|cQc2cZcXc2cQcicZbic4c%cKb~bObscia%b/ceb+b7bLb;bTcFbhcdcXcPb~cXcyczczcCckcYc*cZa%aTaAbwc1c!cMcGcCb\cwcIcucncBcKcEcEcyb(a<btbQbZa\a,a=bAbBbsbLbZbub3cKczb_cHbvb*b9cTb5clb9b/clcxb?c8cgcncdclcVbKa{a5aiarbycQcrcsb2cLcnb>b&bTb>bJctcjbjbkctc#cBchb1cwb2a~cjb}a[bBcGa.bObSb]b!b2bZa_bAbUbScMbNa?cEcqb~cLcncOcma[arbUb6b;cjbGbQbHclbScvbAb.bGbVbpcHb>bGb#clb]b.bAa]bgbcbQb;b!a-bxbKa#bAbAbGa^cfbTb>cpb,b:cQc!cBcUcTbIbUaQaAaiaVbyb;cUcmb}b$ccb^bZbHbVb$bubQcGb>cWb&b|b|ckb}bScxcYcVbDbmbnbxbgbZa3bQcNbobxcmbVb7b}b4cjcFcPb&cJcPcUc2cWa#aRatbxcbcbb}b$b}cjb>b<cjbKcGbUbAb2b\ckb2csb}bwcVb\bic!c%c6csa:cMcTb*b2b6b|b]a?cRcncJb/csceb9cQcwcpb<cUc$aS",
"awbmcfcncFc7csb+b>cwcPc3cOcNc6cXcecPbMc6c!cdb\b1a?b!a>bSa^bLbObHb2b}cGbkckcvcDcLcLcDchcEckcscLc*c7a1aRaHb0c7cUcFcJb}b9cGcqcqckcEcacycBcxbLa+a_a$a0a0aTa!bybLbPcjb>b|ceb\b/cocnb_b\clbvcIb,b,b\cicDcqcxcOcxcncJcwa]a!a/apaza/crcEcbbJcPcDcib;b&cGb+cib(bsa[cpcYcDckb!ckb/bvb]cva?bcbZbJb!bqb4bSb-bQa^bcbQciclbDbJcCclb0cPcocOcwa\arbubVbyb.bHbZbxbZbHb.btb7b4bHbHcbb4bAclcwcjbVa\a#a<btbQcfb-bcbybta{btbQbGbqclb6b!cjcvcCcFc3cXcPcWbIb}aPaLaia8bZb.ctb}b^b$cbb(b7b.b$b(bQb]cNb`cNb7b7b2cJb!b!cncUcma~bscbbZbAccbcbHb$cjbyb^bVbKcmcfcfcJc1b/cWc1cCc#cZa4azaIbob(b(b}b7b]clb<b<b^bTcNb6b1b`b}cib0cHcCbWc5cDb5cZc%c&cZa.cncxb!bDb&b>b-bvcUcCcWb9c7c2b#b.clcCcGcJc1aY",
"ata|b/b!cDc5cKb?czcZcXcZcKcFc0cOcgcXb0cHc8cLcKcdb/b0bMcobqbqbzb3b&b2cAbkb|cCcLcMcBcKcucYcPckcKc+c#a2aRawb1cWcucOcHclb}b>b6b>b|b\cacscqb5bga.aTaRaRa)bFa,aLa!a*bmbUb4bDb&b6cecscib0ckb+b[cob?b|b/cncFcqcYcDcucVb;a=a0a,asa(a~bNcAcAbNcfciczckb/cCcicsb;bfbcbxcucVcob2ckb/a~b3cGa?bpbZbPbNbPbNbNb>bmbta+bpb>cpa~bGcCcab=c1b+cHcGa&aqbpbZbsbBb7bQbUbUbVb(bLb3cbbzcjcJb!bzctb$b9bua^bmbca]bgb7bLa~bHb7a^bpbBbkbNb(bUb|cjcib&chcMcCcFcUb1b}aRaTaiaPa|bVbybZbVbVbUbVbUbZb.b(bFcvcJcucPbQb(bAb6bsctb}cjbLa<b}b-cHb/cjbJbkbpb^a=bQbUbUbUb7b(cAc5b>c3c7b{cZc1aUapawbuccb!cvb&b&cNb<b>b|b-clb6b-b]b[cibsclcPb_c0b*cacyc%c#cTa%b&bPb&bNb&b6b1b2cfcfcNb[cZcLcwcGclcAc1c9c5aS",
"atbFb+b2c#c0cXcZc4c!cZcYcHcWcScHcdcSb?cxc4cXcYcqcub`b+b\bAbNbpbab#bscFbPb/cHcxcxcFcqcacvcQb|chc*c5a7aRaxbScpcjcbcbclb^bGcjb:cackcub[bUbea]a_a/a#aHaNaxaJaNa4a#bmb3b$cab\b2cacab|b|bJcRb0cGbPb{b}cacCcBc0cucic8c!a=a!a$apa*blb~cZcAbSczclcqcPcdc0b[cfcGbCbybZcqcYcsb1b;b&a?b:cja*b6cibtbtbTbTb2cGbAbSa*bpb>b>a{bNc!cXcdc#cacRcJa?aqa3bLbLbtbububVb!ctb{ckb;cjbDb}cUb1b+cGb!b!bta^a_bgbaa)b-b|a<bBb^babmbZbgbGb6b6b[cvcmbFcicCcKcWc5b`b^aVaLagaTbZbVbgbybLbxbybya]bUb(ccb2b^cjcvcFbPcfbTb6b6ctb(bGa+b7cocdcIb:b$cbb7a+b}bZbKccbHbUbZbQb.ctb>cWc9cBclcVaNakaDbAcGb;cUb}b`cHb\cicfb<ckb8b!cfcib|bWcFcYb+cNbMcHcoc&c4cva(b/bfb\bDb&b;bMckb~b=cWb\c1cscOc#cpcbcZc9c5a4",
"atbVb\b+c(c%cUb3b2cHcZcYcTc6cfcvcdc1b1chc4cOcqb%bRckbpa3bLbUbGa<b(bLclb&b6cZcqcqcvcob*cgcQckcqc+c1a%aLaLb$b9b&b|cjb|b;b6cpb&b/ckcfb!b(bGa)a)a,aZaNaTaBaJaUa!a0a!blb4cechb=ceb[cscaceb+cFcfb5b`cfb`cCcqcYcvcucOc1a_a=aYana[a8cQcScCb/cqcPcHcPb)cPcub0c2bObAbFb|cHceb+b]cia2b^b4a[b#b|bsbsbsb|bPcpa~b7a[bHb}b;bbbHcYcQcqc3b?cVcJa?axaTbSbta\a_bUb.b-cwb;cvb&ctbzcwcAbNcNcCb7bQa^bBcfbSbfa=bKbUbHb7bBb}blb$bubub2b6b|ckcvcab\cNcLc5c9b2b(a9aRaga3bHbZbHbubLbnbybLbubLbUb}cjcscFcPcFbPcfb2b&b6cvb7a+a?cVcDcqb3bEbQb^cta5btb(a=bVbtb8b(b.b^cmb.ctc7cFcjcGaLaoatbZctb(ctb.ckcHcib|csb<cvb8b1cib9b[b:cQcTb~c%b\cab[c6c6b6bkcabRb&bPb2b}brczczbic5b3cPcicUc9clcAc5c#c5aR",
"arbVcbb1c8c(cZckc9c7c2cXcrc0cUcOcgcYb?cDcScXcsbDbJcsbcaDbZbUbGbqb,b&ctb:b+cPcLb?cvcscBcOczczcLc*c9a7aUaRbHb4b7b(bQbQb&b|cGb;cmcvbsbQbHa6aJaBavauaJaSaJaJaJaJaTa4a+bUclb:cbb,b/ckcucIb/cob`cCb+b/b1ceb=cPcLb~b>cAbga,aYaobfa~cGb;b/cvcqcucucPb0b|b`b)c1bvbKbKbfb7b&b|bQbUa<b$a|a9b<b<bpbtbub}bDb}bJb!blblb2cibfa#cDcLb?cZb+cNcNa{awaRcPcxbca]b3cmb7b.b!clb;cAbfcib-b|cGb.bybgbeb4cJckcta\a3a<bVb$a.cwbGbubfbKbKb2b6b-cickcpcGcPcJcUb!b(a9aTahaPbybLbtbmbKbxbxbQa{b8b^b-cwb|cictctb4b7b&b6cccmbBbUb/cub6bza_a$a,a=bubxa{ccbAa|b8bybLb7b8cvcpcjc#c7b^cNaNapapbgccb&cjb.cscNb^b>clcib}b-b\clb/b[b|crcRcncZcqb+cocRcva}b;cnb0bSbfb<b>bscmb|a^c1bYcGcHc1c3b^cGclc5c5aR",
"arbUcEbCc8c6cAceckcPc2cYcdc2c8cMcfcRcgcScYcQb:bzb9cebcaTb2b-cvbDbScib2b,b5cCcgcnckcMcCcicPckcgc9c5a6a3aubNb^b>b2bLbTb,b3b]cib^bubga]a=a+aRaRaZaIaEaNaKaOaNa,bma,a-a]b3cjb9b|b`cfcacfcPb+cBcRcsb[ceclb?cgcRcgb/cZa$a$aSana^a.cOcgb\cHcacucgcsb:b,cbbzcGbrbZbga<b7b(bubmbgbmb^aQa#b<bPbHbca^cjbzb;b-b-bUbQb2b^baaRcPcPb+cRbWcRcNbfaGaPcMcScRcZb!cFb^b6b!ckb2cJbicCb/cFcGb6bFaUb;cwc0cucAcwa+aRbHcma.b7bsb4bcbZbUb4bNb^b|b{cfcvcscFcVbZb}a3aLahaNbmbUbubAbAbVbVb^bLccccckcWb9cvckclb4b4b{b+cCb^a^cjb~cDbKa<bFbQb7b}a|b<bxa|bVa{a]bya|bubQb.cNb.cVc1b]cWaTapata_cZb;cfcJcRcRcicicfclcGb|cacvb\cCbRcRcococOcObWcPcTbYbrcCcxb~cia~b]bTb1ckb}blcWb>cFcFcZc1cccccicUc9aT",
"awbLcIbOc7cqcecTcScXcOc0cec6c4cQcgcPbIcQc!cOb=bWb[clbBaVckb\ckb:bfclbTb2b9cecdcSb/cPcBcqcPcub0c$c7a1aNazbLb3b&bSbLb4b-b>cib6csb]bAbPbVa]a-a]a!a!aNaKaYa$a4a=b7a_a]bcbubHcncucfcob=cxcDb=cDcncOb~b0chcgb=cZcabMcOa=a#a4apa~a8b-bTcFcPcdc0cacacebWcyb0cFbRbVa]a=bgb.a!a]a$a^cAa-a6b^b-b7bbbTb]bGb}b3b3bGb^b;b]a^aWcCcPcecJb)cPcGa?aza+cTcec2c0bMcCb]b&b]cpb/cTbvcmb8cfcJb+bma-cHcOcFcCb;clbLaZa.cAbLa.bubxa9b^b6b-bTcjb|cicicFb\cNc$clclaTaBadaAa_bobLbybycbbVb^bZb<clclcZbXclcfcNbHbZb}b6cUbSbPctb6b\bHbQcpb}bKa,b8ccbKbKbobya|a=bybubHbLcbb}cWc9clcUaUanaDbgc1b/b>ctcocWb2b!cbcjcsb|cackb5cEb%cVbWcncZcqbCcFcYb0b`cnbNb9cjblb-b}cvcecbbbcpclb\cscNc1cjcmctcWc9aQ",
"azbLcIb5c%cYcycNcQcPcncQcIc!c0cYcdcXbCcqc0cgcab|b,b}bLazcqcyb>b>blcjbSb;b+cecKc!cCcvcncYcFckb?c%c)a3aLaubDcib!b<bVbub;cjcsb9b}ctbTb.b}bSbqbbbbbLcja]aOaYaYaSbya#a=a#a?b}cncncecEb,b:cTchb]b:crcab9b}b:cacCb`clcJa/a#a5asa[a[b-cjcqcNb*cTb2b1cpb1b-bvb]b&b(b4a=a#bZa/bua0blcpbma&bQbLbYbqb&b6b&b>b$b9bSclcbb:a?bScqcRb=cPb=czcWa;awaIc8c0cwb3bJcJb-b]b/ckcocWbWcVb2cGcNb-a-bxc0cJcwbTbtbLb$a^aTbncca&bxbta^b}bVb$bHb^bLcbcecNcecTc#cGcpaIasacapboa^bZbUbZcmb(cfccb^cmbScVb9cFclcZbGbGcpbDcUb2b|cJb>bkb]cNb^bAa=a_bUbVbxb7cpbya|bVbobVbZbLb(b^csc(cNcta!apaGbAcJb!clcFcLcYb}b*cbcpcjcbb\cab/cHcqcYb%cic1bMcgc#cEb_c!cqbYbsccbHb2ctckcscjbpb!cmbScccvctcbcmclcwc7aP",
"aDbAcib1c&c#cTcIcNcIcMcYcKc&cSc!cucDb%cPcScycecqcdcgb$awckcjchcea;cjbtbAb|b|cMc!cXcDcucRcrcEb=c7c%a6aRaucecCb!b2b4b7b|b]b,ctcqcyb6clcCb/bga!a8a!bVa_aCaYa|a$bobybUbZbTb|cfcCcqchb+b6crcycrchcIb=b+cachb\cLcucocWa,a4a$asa(a*cEcTb[cJbWcHb1bOclb3b1cjb&bzcjb4boa4bAa0bya/a~b]b.a(b(bgb>bvb!b-clb|ckcMb/cCclb|a~b]cBcDcgcTcncLcUa.aAancIc2cmchb-cmb]b}b!cib[cVb+c3b%cVcHbPa1b:cOcJb$bGbHbUb}b}a6a6b.bHaTbAbBbGbtbHbLb^b4cjb]cwcMcYcNcjctaPaxaeaxbxbHbLb7b.cjb.cccccfccbJcJb/cHckc0bHbOcGbscWbNcLcxb+bkcZb{bFa)bZccbVbVa|bybQbHbobVbUbQbQbLb$ccb|c&c&b&aYaqaQbkcVb[cVcHcucRcyb|cFcFcvcsbSb6cab`cQcQb=czcCbIc&cYb0c6c%cXbZbnb.bZb!clcuc1ctbfbLb$bNcGb]cHb$cbctcAc5aR",
"awbKb-a?c6c&c!cMcrcQcMc0cnc#cSc%cqcab*cZcDcdcab:crchb.arb3cjb>b|bactbzbPcVcfcDcVcQcIcMcMchczcec0c3aVaRaAb:cJbVbQbZbBb-b>b;ctb>b}b-b}cJb5bna-a-aZaJaJavaCaKaObKcpbGbLcHckcFcPckcEcab=b1b&ceb1b|cyb9b\cCcschczcnc3bca!a!asa*a6cyc2b:cMb\ckb]b&b6b;bOcTcGbiccb&bta|btaRbubobjb$b.a6cjbBcibTb-b&b-b|b_cVcxcdcib;a?b;cScLcgcDcucLcAa*aHatb]cJb>csb\ceb-b;bPcsb`cWb5c5b+cWcPbWa?ctcycMbubmbxbHbZbFbxa3a*bVbca+a]bcbmbxb7b$b4b(bubZcrc)c3b}cpaNaAacasbobVbLb(clcAclclccclcjb-cJcaczb>cVbYb.cNb2cVbAcvcibSbTcNbSa+bAcmb7b}b(b7ctb(bLbxbQbobZb7bZb7cccbcWc%b<aAaqazbpcJb9cRcRcHcGcvb|cCcJcjcbb[cacnb`c2cqb~cYb_cUc0b:c6c#cYb*bVb7bubUbZcmcocsb^bga|bVbgcjbZcGbHbUbKcNc1aL",
"aza_b!a}c0c&c2cMcIcYcOc3b)cUc4c$bOcqb[cPcxcTczb9b:cab(aPbLb|cjcebzcbb:b,cFcacBcBcTcrcrckclb|cIc2c3aVaAaubLb}bsbGb7bLb]clb]b-b3bTb,b\b}bNa]aXaSaSaSaCayasauaFa=bHbubUb2b&cDcDcrcqcib[b5b5b\b+b1b|b9b3bWcFcqcPcec8a/a]a0asbba2crczcqchb\ceb}b2bPcla%cjcWbebJcNbybmbHa<bHbub5cTbHa[b7bGb>b6b|cjbJcAb[cFb=chcsb/bkbPcRcPcqcOcHcFcAa.aza*clctb/clb\crb}b]bXcHb)cVb%cZb?cFcUbsbhcFclb>a/a/a6a*a|bQb.b}aWbma,a<a_bgbmbxb(a_bxbga_bLb,c%c9clctaPaxacapaSa_b$b|cGcWcmcbctb}cmb>clb:cwb,cNbzb$cwb>cNbScLcYbMcfcNbPbscmbZb$cca]bScNcjb4bxbxbybobZb(b^ctcNcUcWcHavaoawbccRcuc0cTcYcTcqcecRcOcEb:b|cacnb%c2b~cScOcocWb>b}cwbYbya=bxcjcwbLbmcjcicvb7bbbUbQbQb^bQcjb7cjcccWcVaH",
"aza]bSbzc8c#c!c0cEc2cNcZb0cZc!c!bMcvcHcvchc!cZb%bEcpcja1btb-cHcgbkcjb9cjcCb[cDcxcYcyb|cHcPb/cNc0c5aWaLaub&cmbQbQbgbxb:cbclb>b9bGbzb]b.a?aJaEaEaSaSaFauasayaCaCaKaKa,bubLb\cCcrcqceckb1bOb:b*b9cab3bJb\cecgcOcrc4bna*aTaxb2a?b\cscab|cQcycGb2a?cma*bOcVbYbDcTbVbmbua,b6b2b:c2bbbmb>b6cmbDb1cTb:csb;b!b\cEcib\b-bJcLcRczcQc2ckcpa(atbmb.ceb9cIcEcEcIcybOctb6c0b9c2b+cOcNa.bWcGcAbzb|b;bAa3a+a/bVcta|a3a)a|bfa)bAa|bLa-bLa\bubub:cZbOcjcGaTauajboapafa#cbcjcNcwb7cjb}b]cjb$b/cNb=c2bYbZcmb!cZbRcTc2bRcEcJbfb&ctb!cwbZbZcucUcwb6a]bma|a|bobZb^cbcPcob^cmaHakaIbmcXc0c5cYcPc5cTcycFcFcDcgcrb1cqcgc0b=cVb)cwb,b>cNcNb}b.bLbVb}cNcpbZcccncOcUbecscpb4b7cjbucmb}b^b(cNaN",
"ara<bEb&c!c(c!c6cvcRcTc8b?c0c0c%cdcncWcub5c0cZbIbdckcja7bebLcFcdbqb.cacscub)ckb|cRcxb+cCcCcacOcRc5a7aBasb!cfbpbZbPbAbUb}cAb:bTbPbJb]bta6aKaKaFaCaCaOaCayaCaCaCaCaKaFa$bVbNb\chceb?cocab9b6b\b*ckb\b6cdcncycycgcXbua,aHaqcabrb)cvb`cac4cycOcnb)cCb2b1c3b5b?c8bUbfbxa_b6b|bOcsbqbLb6bScjbAbWcZcvb\b]b-bRcPcib5bSa:cscFcxcLcRcLcmaWapbKb{cab+cJcOcXc2cQb5cWb0cPb*ckcncZcCa(b]cGcib+c5cDcvcfbHa,a4a_cJa)a9bVbQa,a/bxa_bmboa\bLa\c3c$b<cGcWa9axaga|b.buaTcjcbcwb]bVb$cmb3cAb!b\cGb/cVbLb4cGb[cWbzbXcvbzb]cAa\b]cjb}cNbTb-b[b9b(bEaYa5a5a$a5a5a|b(cXc!csbNaBaiaDbyc0cScYcRc0cPcBcYcUcRcxb~ckb6cub_cXcqcOcqb>clcLc9b}b4bma=a_bUb(cGb^ccb`cscmbtcvcWcjb>cNbLctbVb7bmctaH",
"aoa3b1a`bOc5cXc9cYcTc#c8cDc!cXcIcncqcYb[bMcRcTbrbXcvb-bza?a[cucgb3b,b*cYcacub:ceb|cMcaczcRcnc4c2c5a1aAaxb;b{bQbAb$bYb}cJcrchb|b;b[b+a{aRaKaOaKaFaYa5aCaCaKa=aOaFaKaCaObob<b6ckczb9b1b9bDcrb9b*b|b9b/b?cucucQcgcRbma!aLaAb*a?cLcSczcrcQcrcKcrcucOcnb)c3bhcqc9b~b[b4bub8cvbzcja?b4b-b!bkb6b+cCb[b/clb{b+cib;bJbJbacCcicycIcRcXcAa2anbKcDcFcRcCcEcIcxcUb~cVb0cGb?cncBcYcfbWcPckb\cPcFb6clc1cpbHboa<bobHbga/bUa|a|a]a<a|bmbHbtbgcWcGcmcwc1a=aLana,bubVbLbZb7cAb(bAbtcjbGctbAb>b}b!ctbQbQcub{csbSbdc1bPbScJb+b\cFbWcJb!b2b;bSa{a)a=a!a=bybya|a=a|b/c7cVb_aSamaRbHcNb/b6b]c2cOcgcUcUcucib`cucgcLb?c1b~b/ckcGctcmb.a=a!a=aOa0aYbmcmcGb^b6cFb7bfb[cWcaclb6cvcvc7cNbLclaN",
"aGa+a{a:aQbBbDb|chcycXc2cVcYcUcDcqcgcRb+bCb2b!a{cBcnb&b9bfbtb/cib6csb*cZb_cOb>b|b1b\cfcvc#cucRcZcNa%axawclclbPbScAbNb1cGcIchb!b2b:b|a_aTaCaFaOaCaFaFayaCaKaOaCaKaOaCavaFb2b*cOcnb5b9cabMclb2b0cvb[b/b\b\b*cDb)cXa_a]aHaxbDa.cTcrb_cuc2cgcYcqb~cLcqb)cZa%bMc3cucxb&b!b]cNbicNa}b6b&b&a{bUb/cJb2ckcOb`cfcub;bDbabkcXcXcncncRcqcGa(aqaRcncDcOcucFcRcucYcxcBb8cscfcvcycIb6b|c1b\b/cGcjb2ccb>b-cmbQb7a,a0bUa=bma=bKbta{a{a|a,aRb(bSc$c&ctc5bcaUakaLbobxa=btbLb(bQbHbHb7bUcmbQclbJb]ccbGbHb<cib-b^a\b$bTbzcGcvbfcib2b]b|b\cFb`bua8bpb(a5a#a|a|boa$a5bycGctaNaqa1bGcVa#aga,cPcPcDcLcVcBcPcqcLcgcqcgc0b+b!bPclcjbLa<a4a$aNasaEaSa4cpbZb8b<cWbpbtb/cFb[cZctcUbVb7a-bZc1aN",
"a3a|a%bvbWc3c%cib2b}b:b}cgcickcib2bkcvb2bga_bpa3b`cPcfcia~b&cibDb+clb0cUb1csckckbSb,clcecPcxcKcZcNaVaAaAclb>b!b|cpb-cHcPcTckb|cjcibWa!aBayaCaFaCaOaCavayaCayanasaCayaFa5cbb=cdcncucPb9b9cqcucacHbPbNbSb:cgcxcuc3bta_axasbJa7c8cBb`cacKcuc0cObPb;b`b0cVbaaPc0cLcxb+cacucRbhcWbfb>bTb6a{bScfcHbrcJcocacncxb-bPbfbacOcUcob[cFcvcJa)apa9cPcCcacFcqc5c2c1cMcab,cbcxcncvcCa~b]c1b6b9clb^bcboa,a9a=bVbVb(a=aRbVa,bLa]a,a|a|aNaTbLbVa{bAc5cpcVbgaEaiaJa0a]bubQbQbQbHbobobmbVbUbKb<bKcCbSb-bpbpb^bAcja,a3b.a]b!cNbqbbcJbNcfb>cvbXbka,a=bKbuaNaEa!a|a=aOaOa|b(aFasa3bUcpaPanaHcicFcqcTcFcCcTcBcKcncxcgcRb?b/bDbQb7cmbtbHa|a$aNaEaSa<ctbVbFb|cCbNb2b8cib>clb6b}cCccbLbVcWaH",
"a2a&a%bvb%c!c+c(c4c!c2crc6cXcvb9bWb2cab|cibsa\a<a-a]b[cebMb1cWb9b:b;a?cYclb1b|b{bXb|b|b;crcqcqcPc7a:azaGcbcJcib>b!b!crcIcRcub&bTb;braNaJaCaOayayaEaJaCasaKaCaKaKaKayaCa|b|b*bRcucIcqb9bYb?cncqcMb*b5bDb8b\b|cqb=a/a_aLaub=a?c2crb~cDcOcrcLcDbWcacdb=cVb1a?cqc0cEcEb:b|cra}b|brcCcacsa?b-cscsbAbTb|b!b=chb.bsa^a-cicHcxcucVcOcHa:aqa#cLcOcQc0cIc!c0c0cBcOckcecncRcCckbrcscGb6cEclb(a-b8b{cbb.bLa<a]b7bya/bya,bma)bHa0aHbQa$a|a,aBa9cccJbuaBagauboa=a/a,bob.a=a_a|bLbUbfbLb4b.cvbacJa^a{cja{cfcpa.bQbUa^bGcwblb&cia/aZbLcAa{aPaNa<a,a+aBaHa|a=a$a5a|b^aYasaTb4bUasaBa9cLcFcDcYcTcYcPcBcLchcLcqcXb*cgb5bTbGb}cta_a=a4a0a|b(ccbVb7bUcNb1cbb&b/b/cTcabscic9cfc1ctb(aB",
"a(bqa^bwbvc#c&cqb|cic4cQcRcPcCb+b=cIcQcgc!b5cFcva[bbb|chb!brc1bObkb&bzcjcbb3cvcCb|b1b6b2cCcacOcRcZa1aua=bNb;cAb]bLbGbxbHbOcpb>bScSb=a,a5aOaKaFaKaYa!a$aCayaFaKaFaCayaCaOb>bRb=cFcrb*b1b6cub=b?cRb/b\b3b>b/ckcIchbmaIaNasb2bCcEcxcub%cxcOb_cgbWcob~b~c8bDa;b>cLcDa:a(b;b-a<btbScJcvcCbSbDcHb\b+b[cab[bJb]clbsa&a~cecIcqcgcRcdcta3aoa?cyc0cUcLcrc6cTczcHcSb]b-clcicTcibRcHb\cecVckbBbuc3cRbLbGcbb$a/a4a|bQa]bma|a|bxaSa|boa_a,a0aHbPclb(a_asaeaHa]a$a|a|a/b$a|bobmbxbQbpb(bVb7b7bBcNbtb2bPbSbPcNbPa8cmcba.bLb.a<b7bLbpaRa<cAcibpa,a=a=a$aOa$boa|a=a=cca$asaLb4cAa3aga|c4cycqcucRb_cOcScqcBcnb%cXb)cTbvb&b]b7bQbHa,aYa|bUbLbubQbLb(b2bkcPb)bOcecZb~b-b-ctb|b.bubVaL",
"a%b6b{bRbRc)c(crbYbEchc8cYcucMb=b9cIcBb0cNb/cQcMb\cCcJcfb]a1c1cnbNb/cib|b-bPcqcrclb6bGb$b/b\cacscVa6axa3cJb9bEb$b#bTbHa_a^bHb&bDb_cna4aHaKaOaKa5a=aOaOaYaKaOaKayayayaFa5bcbScab|cib2b/b!cob+cgcFbzbPb1b6ckcrcyc0bmaUaxaucMbIcIcYcYcSc0c4cgcqb2cacgb%c7b6aVbtb|cNa*aIb^b^a,a,bJcAb+cobNbvb\b;bvbTb9cEbvb&cmb<a#bAcPcCb_b_cUcnclaRara9cEcEcYcXcscCcRcvcncRcjb6b}bTcGb}bCcUb+bNcUb\beb$cib6a]a=a=a|bbcbbya=b7a|boa$aTa=a,aUaTaHa]bVb7byb$a|akacaxbobLbua=a|bLbUbHbybpbLbLbLbZb7bUbHcpb4bHa_b.a[cjcwaVbmcVbZaRa,bAa{bubHa,aLa#cjbLbBb(b}b7a=a=aKa$a$boccaKaiaBa<c1b!aPb|c6cTcBcQcKcxcScBcxcgb~cdcEb1cCbRcfb;bSbtb<bta,a!a|a|btbQbUb(bSb|cPbWb9cQcJb/bBbLb(b4a+a|b(aL",
"aPbYb`b+bMc%c(c0cFcHcLc4c8cxcUcdb%cFcOb%c0cucfcvb/clb{bXcja1c3cnb9bOcab0b9b+chckb-clbJcjb>b>b1clcNaVawaLckb|clb,b$bLb2b;cib2bsbGa~b]bAa#aKaKaFaOa$aOa5a$aOa$a5aFaKayaybgbGb:b/cCcub+b\b+b{cicncnb&b&bJb;b-b]b)cVbtaRaHaAc8bWcYcKcOcScOc4cDcYb%b~cubvcPb/a+bmb/b2cYcvcpb}a+bmb>b|a~cpbPbMb|bPa8bTb1cAb0cicsb+a}bscRcLb?b?cPcdcca2ara)cRcUcMc0b|bWcNcIcscacsb+cRb[cRcobRcPb2cecPb\a1b3b(a.a[bVb.bGa,a_bUbVbobUbxaYaLa<a,a!a-b.ctbya5aqa|a$abacaAa|b7a=a|bua|bVbobLbtbtb^btbZb(b4b7bTcva[b(bQa&bNcVb(a6bBb^a_a!a0a3bga]a/aIaxa,b.bVbQb7b4a^bUa|aOaOa|cGayaga0bgcocCcYc0c8cYcOcLcncLcxcdcncEcxcXcdcnbMcPbDcfb|bJa+bma_a4boa$aXbmb4ctbRcacpbkb[cicUcaa.bHcGb+bmbuccaN",
"aVb^bWb)bMb[cIchclb>cacNc0cKcRcFb6ckcRbIcDcOcEc2clcibYbYb}a&c2b[b.bsb9csb+b6b:clckcrb:chcTcscLcZcNaVaxaGb#b#b>clb.bmbpbTcTcKb-btbGbHb-b;aOaFaOaOa5aOaOa5aKaOaKaCaKaKa)cfcLb_bPb{b|b1cicib:bLckbNcbb9bGb#ciclcacZbAaUaRaAcdbCcscfcycIcrc4cKcua7b,cEbicab1bBa[cib6c1cOcNb3aPa|clb>bpcjbLbEcbbza.bVb9cGbJb,cZb*bvb2cOcFb)cdcPb[b}aVana*cQc8c2cQb=cqcucdcWb)cGbjcLcBcNbfbDcwbwcVcbbub!bAbua&c2c$c!cKbgbga,bmbybma$a5bLbub^b.bpbQbKaJaxa4boa5ababaZa]a]a|bubya|bKbZbubLbKbZbAbtbub7b^bvcUbmb(bGbVa^cbcWbWa+a<a<a|a_a0aWbybAa=aSa,a=bKb(bHa$a!a=a$a|aKaOb(ayafaLbHb=cIc!c$c#cOcRcXcRcBb=cxcncuchc0b0cCa;cecma?bsb4bGa[a#a{bybnbybQbGcjblb.cwa~cbb}cNb9bvb>cVb3bQbmb(aR",
"a(cUb)b*b0b\cIc2cZb6ckcHcOcdcLcqb=czb|b0cYcdcsc1cjbvbBb(cNaPcZbDbpbFb`b[b1b`b:b}crb:cFcncOcPcBc7cpaGauaxb7b#bsb4bQbQa+bQb|cscCb2bsbQbOb}bya,aOaOaOaOaKaOaKaOaOaCaKa$b}c5bWb/bkbNbTb-b\ckcbb,b]bJbYb9b#b3cacecDc8bpa)aUasb9a?chcMcIchchc4crczbrb[cQb*cIb5bcbgbLbqcXcxcZcaaIa_cib2a~b>bGbOcma?blb$b1cFb1cicvb6b6ckcKcMb9cyceb6b$aVama2cIc4c4c!c$cIcgb+cEbOcPbMcRb+cWbDa7cHbOcscjbfcUb!a7cjc*cYc4cXc6cCccbma,bQa]bZcGb.bLbQa|btcmcJcNctbZa,ababaAbga|bybKbtbHbKcma=bVbubQbLa_a/bZa_bzcpbGbBbtbZbBbccUcucbbsawa4a^a^a!aZbga*aoaEa5a,bVb(bxa]a=a$aOa5a=b(ayaeaMbGczcYc7c$c4cSczcTcAb]brcqcqcqb=c2b0cnbfa>cnb5bba_b|bNbua8a/a_bmbVbBb.a~b7b.a[cacHcvb2b!b|b^bsbLcbcWaP",
"awclcDb=b6cec*c)cRcacPcPcPcFcxcRbTcjbeb,cXb~cqcybUbLbzb;cVaMc3b9bCb|cCbMb8b/b]b|cCckcIc4cYc2c#c!cjaAaqaub7b7b4b7bgbmbubQb4bQbGb:bxbQb3bTb3bHaOaCaCaOaOaOaCaKaCaCa!cJc7bRa&bybAbNb!b2b1b1ciclb:b#bJb;b+b;b+b|cFc1a<aXa!apbMbIczcMchcrchc#chcyb5b?cyb1cScra&bGb:bwchchb}b,a2bGcnb?bbbHbDbNcicabWb|cqcBb/cebvbSbXb+cgcQcrcMcBcnb^aPanaDckc2cYc&c)cKb9bPcab\cVb)cVb5cHbNa{cHbPcJb>bvcUbTa;c$c6chbIb-cucUcVcscCb!cfcGcccmbma0b$b:cjbUbcbxcca]acabaqa,babAbKbFbHbxb(bxbZbybpbZbga/bHbnb!cfcvbvb2bDcca?bCcHcib2a.bGa/aQaTa=b:bqaLa4aSa/a|bHb(bLbKa{aYaUb^cNaFaiaQbjcYc4c4c2cXcQcSchcMckcucsckcqb_cKb)b5bLa[bDb[cjbza#bybya&a&a+bZbbbGb.a{b-bQa[b>b}cIchb#bTbNb&bHcGcpaH",
"aobZcQcxbMcoc+c&cqclcicHcZcCcicNb!b&b_c3cFb?b|b|cbbYbsb7cJaPcWb\bActb+b\cmb!b:b:b>cpcQc!cfc7c#c(cja2asaHb,b3bNcAcmbba<bmb]b!b]cbbZa*a&bsbxa9avayaKaOaOaFaKaOa=cccbcrbua[a,bmb-b|bYb,cpb;b>cbb9bSb#b#b1cjcab/cscTa<a4a!aqbvcbcSczb0cQb*c0bMchb)b`b\b:cgcPbbbqb|cvbUbQa|a=aUbAcscibcbabHbxcacTbDbNb+cCb+b/bmaDbMb+cqcOcOcRcCcecNa1akatceczcycTc6cgbTb-b[cucPb5c1b%cpa~a~b}bScNb1b-cZbsbvc%cLcna*b$b6cicUcBb-b>cIcqcVb>a=aLaXa#bxa,a,bZb$a|adadaLa!a=bua|bSbLbmbKb(bxbLa=b7bma|bZbHcba[cTbRbUbubtcca^a^b}bPbma^bga/a2bLb$a&a_a3a4a,a0aJaZb7cjcjcYc1c1cZaNamaWbOcXcTcPcscVcTcOcgc7cxcicicncqcucqcfbrcjb>a?cgc6cQbebVb$bxa3aAa/bncjb>beb7b6bAb-cicqcEb]bfb$b:bBcNcmaQ",
"atbQcBcxcdcMc7ckbsbGb\clc1cFcOcPclb6c3cTcEcacPb\bzb3bAb2cla1c1b/bvcHcncBb&bSb9cGcib[cqc8cQc2c!c8cGaQasasbPccbPb]cjb|bma{bububTbLbYbYbba^b4a^aJaKa$a5a=aOa$a5a|b(a|aZa8a]bGbQbLbQb3ctb\chb>b>bEb9b&b!b2b|b\b\cRcYa,a3a=aqbzcecDcOcgczcDcMcgb=b%chb)cnb5c2b8bRb|c8bybmboa,aXbxcyckbNbDb7a^bvcVb2b\bzb|bOckb.aQabaUc0crcXcEcEb|cNa2akarb*czb~cHcQc2cab2b/cCcfbRc4cdcwa.a6a<bEcmbPb&cJbDcXc!cRcgbzcfckbDcCb|bub4bLa\cbclb7bgbQboa,bycwbVcma]aeaiaTbHbxbma|a|bUbKbyccbmb(a_b7bUbgbBbUcva>cvb1a}b-a7cib}a?aZaZa3btbxbta~bGa]aQa3aHaUaNbobgaEa,bScmcncuc5cNaJaka1bNczcYcYcob|cTcacEc9bIcicfcBcqcScgcDa}b:bSbObec2c0b_cOclb[a|aGb1cCcZb_bTbTb-bNbscbb3b,b;bPcHb1b-cmbQa#",
"apb2b8bCbIcsc#c!b]bpb,cjcTcNcucsctbfcecTb|b\b}cib!b-bcbQcHa7cWceb=cPcFcob]b&ckckcrcTc0cEcDcUcRcgcGataEasa<b<b4b3b-b|b7bubGb4bHa[bJbSb~cqcYb*bMbEbma)a5aCaKa,aOa<a)a=a_bUbHbLb&bJb|bPcyb:clb;bpb>bQbUb7b4cacCcWcOa,bfa=apbzb]cucOcEcTcKcXcgb5b)cBb*cxb?c4cLb5b=c2bVa/bga=a6bHcab9b!bNb4a*bRcFbkcjbMb2b\cMb^aMana)cTcicIcXb=cqctaTaoaAb3cAcucncSc4cdcOb?cFckbWcUb~cGa7a*a-b!b|bzcAb!bpc8c8cRcob*cFcUbCcUb+btbma+a#a+bHbHbpbZbFbubVbUctc&a=agakaUbHbUa_bmbAb.bxbKbZa|bZbybVb.b4bqbHb<b]b0c#bFa>bfbpcpb}a#a#aRaLa*a-blb4bPbNaSasaBa4a{a|aNaJa{b<cYcSc7cVaJaqaDbGcMc2cAb\bkcNbPb+c9b6cncvb?cqc6b~cTa;b-bTbLa]b3bOb_cRcMcqbLaLcdcLczcebQb4cpa?b-b&b>bTbScib6b!b7cmbVaX",
"apb(cFb=bRczc#c%cMcDcTcTcVcZcacRcJb1cCcRb!b&b]b>bJcmbTbScWa1cHcCb2cFcRcacrb|cxcDcrcqcJb+ceb|cMc$cVa?aRasb&cvb$b}b}b#b$a_a!a!bybua3aHataRa~b6btaGaqaBa5aOaya$aJaRa,aZa$a-bcbtbTb;b[b[cacvb&b!bSbSbSbPbTbPb0cicHcFa|a|a,apbqb.cOcBcycIcMcyb=b1b_cxbWcDb?cYcFbzcic1b(a-a|a,a8bLb+b1bTbzbQa]b-cmbkb-bpb2b1cQclbza~b6cTcSb*cKbDb}cAaTapaAb:cTcucnczc0b8b|b1b,cpbDckcicGa*btb6buctbScJbpbNc6c8csb|cqcQc7bRcNb2a9aZa#aUa#a!bFbFbFbmbBcJc1c5c9aRakaia&byb$bmbHbLb(bcbLbVbUbBbLbBbGb$b&cmbTcNbicWb-a(bya+bkcmb4bLa_a#a\a\cacib7a?a=awa=aUa3a+aSaSbDcWc4c6c7cNaSaBazb(crcQcHb6b%cPb[clcNbPcfcucdcnc0b)cPbCb0csb|a}a~clb9cIc2cBbKawb/cHb/ckbzb:cta6b>clclbzb<b>bYb3bLcVbZaG",
"atbHcOb+bzb|cec5cTcab2cJcsckcFcncPb)cBcVcfbNb!b6b/cHbpbPc7a%ckcGbWcicZb)cscacncRb?cncZbRb>bPb5c$cGa7aNapb2c1clbNbUb^cCbFaLaUa#a]bmbAavaxaqaAaHaUbHbyaJaEayaYaSaSaSa!a,a$a#bLcjbtcfcsb/cfbUbub&b2b2bNbLb4b&clcicHbxa=aNaka^b^cRcqceb=c0cOb%bRb)cKb_cdb5c0cCbrcKc5cpbqa|a=a9bFb/cfbAbabVa+b2b&bJbSa{bPbhcfb]bJa~bTczcIb0cqa}bScma3apascgc3cDb_b=crclbPb[b|cPb`cRb_cmaPa1bZb&cjb0cRbNbCcXcZcxcDcncucWbfbpa(bca#aUaUa,aXa!bHbgbLcfccc9cWcta,aualbmb$b$bLbQbmb.b7bybuccbFbHb7bpcfcsb+a;c1b5cKcHa:bNb!bAbJbQbQbSbAbHblbFa{bma<a3aLa!aRaJaJawaUb1cfcxc8c(cSaJasazcscYcxcRcRcPcCb)cFcib8b2clb=cnc8b%cBb8bvcfcvbzbJb!bzcicsb[b(awa=bKbAb<bscjb$a+b^b.bUbbcmb2b^bQa\c3ccaR",
"aqbSb}b\b+b/cRcUcjb#b+cZcZckcscecNb5cxcOcibJb&b6bPcvbabKcWa7bRcVbIb|cPb`ckcacgc2cucocvbDb;b!cgc8cAaTaUaqa<b7cib]cbbGb2cVbZa8aUaRa$a,a!a=a$aZaUa3a/a9aFa$a,a=a,aOa!a4a3a4btbHa~bLcibPclb+b<bAb!bPbPbPb6bPb7b4b&ctbHa_a!aka6b.cOcscicacXcDb+bDcncxcgchb~c4b\bicfc7cAb2a,a]a4bocCb|bGa*b7a*bTbkb6bNbfbpb5cHcDb0b9b[cQcxb*cKbSbJcAa3asaIb/cVcKcMb[b/b}b,b:b:cPb+cLcqcAa;a?b2ctb}a?cNbNb8cOcBb+cub+b+cjbDbbbbbsa[a)a<aUa|baa=a\bVbUb7b7bLcGa5avana-bQcAbUbLbLb$cbbQbub$b^b4b7b%cucicfbrcPb~cDcGbra{b6cGbzaPbabKbcbsbla+bBbfbza|a9axa!a3aAa1bpb0b9cgcBc0cMaJasapb$c8cQcRcLb+ceb;cvb6bfb2ckcdb~cYb=chcqbhcacTb5bGbza_bcb#b.bUaHbab7bQb}bMcNb>bpcib6bHbtcmb6cGbTbAcJccaQ",
"atb.ctbJb+b|c%c4bQbgbHctcTcEcGb2csb2ckcsclcjclcvcFckbfbAcNa?bOcJbRcCcUb?csb|cfcOcucOcca(cacecFc9cVaQa3aua~bLbNb]cbb4bfa<bVbca=a4aZaUaTa!bubHa+aLaWbLaNaJaYaSaSa=a,a_bHbcbybHb4bLb6b^bTb>bpb!b>b2bUbAb4bGbLbbbTcwbAa+a$ama&bZcOcFcBcncScLcgb)cqcrb)b*b~c2b=bRcqc3cAa/a!bobga=cCbXbta6b$a&bUbqa>b2b!bPa1b]c2cKceb6cYcrcgcKcqbrclaRapaxb+cWcBcMb:chcqb\cacacObWcxcqcTbObGb7b-cAbzcCb9b|cRb~b2b!bQbta]a<b_cgbubuaTa9a+a9btbpa)a<bHclb.b^cZa!aHaka2ccb}bQbLbZb7b$bLbtb!b&btb<b1cib`cacqb:cLbRcYcObPa{cucHbLa?bEa^b1b{bSbkb>b-aTa3aTbLa<aGa1bmcgb_chchb-ciaBasarb7c2cQcKcCb9b\b8csb7bubNb6cncncxcLbMcua:b!cNbzbsb>b]bvbBbZbaa9b7b(bGb7bAcUbLbqb7a+bUbxb2b|c3b6b}cNccaL",
"atbKckcZcMb|c(cTb7a|bucjcNcFc2cxcscHb;b;cEchb&cjcVb>bAbfcAbsbMcQbTchb:chcIceb\cTcxcXcMcQcfcicUcZcJa>aYara#b(b7bLboa|a<bob7bZa/a9a$a|a|a0a#a+a<a/aXaGa4aqaLbgbya,a3a=bma|a^bybfbpb>bNb-bJbPb6b+b2bHbbbUa_bVbxbzcTbKa)aHaka+bKceczcFb_cXcOcychcycgb1b1bIcUbWbIcMc2cwbla]bxbya&cmb2bpa#b:a~bHbsa6bGb,b*bvbwcEcIb|bdcqcncqcyclbOcVaXaoasb0cHczcIb:cEczb,b\b9cPb[cxcBcNa;bfb<b0cZb[ceb3bScEb+bxbsbabta[b7bka~bUa.a<a-b>babKb8a{btb7b4cVcHc%a3aHaqblcmb.b3bubHcpcjcib}cib\b!ccb[cib|b*b\a?c0bRcMcSb]a(a~cec2bRceb2b!cfbrb1b&baaTa{aLa3bBa[bib8cocgb]b2b&b|avanaGbUc8cEcgcscfb`b2b2bPbSb2b1cqcDb_cXbMcCa(b-cJbibDcib-bSbabFa9a9bUbmbLb4bVb^bab(bQa^b^bGbqcGbybubTc3b^aM",
"axbAcNcjb[ckc9b*a!a0bmb.cZcFc1cLcScMb+csb/cOb7bLbLb7bpa+b]bzbIcTb8b{clb2cvcicvcRcqc1cLcWcfb/cYc)cGa&aLaoaUbga_bVccbobgbobkbkbga+a!a!aTa3aSaSaLa!aUaNa=aqaAaJaIaJaIa4a,a+a#a|bcb7b8b{bHa<b>bDb2b-bmbGbUbtbHb4b6cAa|a3a4aka#bZb{cFcOcfc0cOc0b5cDb?b[cva~cbbSbwcqcLcJa?a,bQa_a=b/b;bPbvb6a?b8b/bTbkblbLcJbWb\cqbNbNb?cncxcKcFbMcGaTamasbsctcrcIckcyclcFcsb1cEcecCcucZa%a?b^b1cNb1csb6bNcPb1bbbba3babPcla&a#bBa.bHbba+bQbUbmbTb^cib-cmcWc$aVaxambjcwckckbHb4b.b}b]clb{ckb6b&bIcCb?b*cYb0c!b?cSc0b&bNa_a_b&bSbzbBbAbpa;b&bXbRbAa2a|aXbbbmbNbSb[b1b2bPcJciaBapaRbmcVcRcscFcsb|ckb|bPb2b+b+b`cHcdc0b0cFa%b6cvbib$bQbGb$bgbga+bmbHbHbQbAbQbGbQcca_bgb|bSbAb^bfbQa[c7b.aP",
"awa|cbb:cgcLc%cubyaWbfb7cYcMc6cxcIcXcdcRb?cDb]bNcwb>bZbcbLa_b0cNcnb_cHb0b/b\cncOcucUcucUcjcjb\cNcta3avanaZa/bHbqbUb!bLa]a=a|a{a,a9a<a$aUaQaLaIaNa4aLbca8a|a!bbbgbga]a-bUctbYbSb&b2bzbkb<bbbGbGb(bxbub2b-b$bTbJb>a=a9aLaga8b^b>cCcXcqcBcOc2b)ceceb9cIa.bLa~bEcBcQcGa[a)b8a{a,b+b|bPb!b!a{bPcjbJb]a~bGb~b?b=cSb5bRcqb_b=chcEcEcVaHaoaqbrcqczb*b\cQcecvcob+cHb/b?cncGbDa}b!ckcHbzcib*bwcpb6a]aWaQa/bQbea1bOa_a2bgbmaQbVb&bUb]b&b|b|c4c3c$awasaha6b^cib&bXb\clcvb|clcicFcfb?b)b_cab0cEb*cTcYb5c7b~b*cma}a^a_bpbSa>bpbMcobvb6bsa?bHaIb:b1b1bzb\b\b+b+cjb!aBapa1bscYcXcMcEcTchcbcJbvcJb0b2b+b/b=c6bRcOa?b!b{brccbfbab8a,bfa*bVbJbSbsbGbZa]bUbQa+a+b}a~b$b7a#b7b!c$ccaM",
"auarb;cNb6clc%cnbxaTbLcjcYcSc8czcIcTcacCb_cLb!b|c9cob4b$b;bfb_cxchb|cRb=cxcxcncRb/cvbzb-b#bEb-cZcmaWaIaobmcjbxa^a\bxb!cfb(bGbxbxbpa,a0aLaAaUa4aZaHa!aZaQa6a]bQa+bfa-bHb7cba.bzb}b-bkbNb2bebsbHbUa^bGbSb2b4bQb;cpbmaTaHaga6b$b+cCcDcBcMcKc6b~cdcqcncqbNbTbsbscOcQcpa~a{b(bKbub/cHbsb-b9bDbWcCa~bSa~bNbCb[b_c0cdbhb~cdcBb~cwczcGaLaparbNb:b=cyb:cEcIcEcJb[csb\b[ciclb1cibJcucxb0cab,bwblcbbHa^a&bubUaMa{baa9a#a*a^a+bmb6cHckcNcVb>cRc$c$aMaAaga[ctcAb>cvcVcdcUcLb*b?cvcdcncqb*cnb~cObIcycXbRcUcqb1cWb`bAbkbabSa}bJbzbMbzb2a#a<bmaGcDcgb6bWchb*b6bRcjb&auaka:bScMc0cDb?cMcab-b-b9c2b+b+cfcacqc2bCcRa~bJcobkb|bsbAbVbgbta6cbb!b>bAb2b#bTb$bEbHa]b{a:b7bca*bQb\c7cNaW",
"aqaxbGcGcncRc9b+a9a!b^cvcUcFc8cecqcXcCb+cpctbzcwcVbQbgb(b(a~ckb[b|b|cFbWb`cRcncLb|cEb\b\cZchcNcVcpa&aJaka]b^bma,a-bgbVb$b.b7buboaTbUb.a~aRa!a!a/a4aRa$a8a!a,a$a8aTbtbUa|a,a=b-b$a{a{b-a:b.a\bKbAbgbZbUbBb.bHb|cta,aZaHaia9b^b1cWceb`cBcDcZceb*cucub?b}b3a~b!cDcncpbva?cjcjbvbPctbJb-bJb}b6cia[bxbGb3bNbNcqcXcDbCcscab+brcIchb^aPaoaDb9b.b=crb:b:cbclcMbOcsb2b:clb8b;ctbvb&b>bDb/b|bSaVbma-bubQb4a9a^bgaGa<a+bmbaa^a8cOcYcCcGcpcpcGcWc5aDaAagbJctcsb/cCb|cacFcEb*cEczb/cCcEb5b?cnc3a?cDbRcDcYbIclc1cRb^bQbtccbtb!bzbvb+bWa+bma_a6b:cjbzbDb\b6b1b9ccb]aJana#bEcxcZcLcucYb\b}b2b:cMb6b[cucocgcPb5c0a`b+cibvcbbqbsb(bsbGa?cmb|b!bHb^bZbLb7bsb4bBccbkb!a#bGbHclcTcAaT",
"apbob$b}cIc!cVbNbmaRb-cWcXcSc1cgcKcQcNb6cjb-bvcVccbga_bHb}aQcjb!bNb-b&b6cgcucTcxcBb?cPcicMcqcZc7cwaZaLahaTb(bHbcbKbmbKa{bQbKa#bga]aGbucma/a_a9bgbua=a,a=a<a=a#a=a>b(b&bNcHb/b$blaDbxbLbebHbwbtbaa^bcbZa]bUbmb-cjbmbcaNaia#ccbNcJb-b-bPb6cjb:b/bMcCbWcma>brcfb`cacNbja%cvcUa?babKa}b>bOb:bsb}bfbfb2b-b!b6b~cDcxbRcgcnb0bCc5cyccaxanaGb|chb3chb=b\chb\cLb%b]bNcCceb\bPb|bTb!bTbfb&cEceb#bwa/a8a\a3a(b!a6a&bba^blbBb4a.cCcVcocOc1c0cpcNc$aPaxagb2cGcib{ckcab[cCcCb9cycqcucFcQb\b\b9cZa;cjbfcKc1cdcKc5cXbZa<a>b<bWb`b1a?b\bIbfbkbGa&b8cCbkbSb1b\b[b6cZb&aNana(bSczc6cPcxcNb9crb*b/cHb6cHclb2b5cvb5c2bMb/cvbrcfb1bSb;bpa<a%cNcncgcscPa-a_b8bNcjb!b3bqb>bfb$bBbGcGcAaP",
"apa$cNcwb_c$bVa9a9a3cqc2c2cSc3b*b|ckcmb6b|b(bQb7a_bLbZbHb(aGb]cpbSb-b>b6ckcvcNcic2cMcRcRbDb>cTc5cwa#a!akaIcmb$bLa=a]bxccbLa,bma8bVb$a/bnbgbta_bHa]a_bua]a<bmbUbsbAb>bHbLb}b2a]aTbzcba*bZbbb7bsb4bsbbbVa]b$bLb!cNbgbxaUaja#b^b-cibLbZa^bLbYb3b\b9cab)cJbzbPb}b|b>cWbPa~cmcGa(a=a3bNccczb:becmbjbEb9cbb9b+b/caceb6cacxcabOcTceccaAamaQb*czb=cIb\b\cNcdcZcOb]bSczcEb]b9cbbOb7bGblbEchb5cdb_cgceb/a}cqb)a6bObtbaa.bqclbvb]clcfcRc$c8cTc$c%a%aNanbTb&b!b<b/cCcacvb;bJceczcMb|cCcachb1cTbvcGb0crc!c#cQc0cTcca-a8bLb~cLb2bwb|b1bbbebQa.cacsbDb1bzb6bTbJcVb}aBapa%bScDc$cOcBb]b]cib;cecTcncMb>bSb?cob_cYb_cqchb:b}bOb3b|bLbHa_b7bDcjc8cda<bmb$blcbb4bsbub(bBb|b|ctb|cGaH",
"aqa0b^b^b?c&c7csb4b4cLc7c6cgcMchb4b7a_bub(bQb^b7bgb$b(bxb7aRb.cjb6b&b&b2cqczcWb=cScQchcrb6chc$c6cta#aUaoaXa|bUbUa|boa9bmbybVa!bua*bxb.bGbZbma!a!bAa\a{aUbpbZcwbfa!a+a^b7bQa^aWa8b.bbbxbxbqbGb2bAbpbGa\bcbmbyb!cNbGb$a!aga#cjcwcvbabKa+b7a.bHb+b+b+bWcVb)b;b&b9b[c1bpb[cvcwa1a=a,b3b$ceb6a.cma2bHb2b|b9clb:b9b/bzb5b5b9b1csctcwaIajaRb0cEcacfb2b+cOcncPb)b]b2b6cyb6b;cbbjb#b#b|bDcxb*b~b_cKcxb)b*c6bWa*b7bsa?a~bubNbAb\cCcocPcNc1c1c$c7a(aNapb8cZchcab6cqcocob!b!ckckcEcaczb|cibzcPbRcWbWbWc8c6cQcRcocAbba[bucMcMa[a.cPbRbqa6bUa*clb\bNbDb1bNbMb[cZclaxanaTbucncSb~cPb+csb>b<b:c2b:cyb;bNb/b8cqcRb0ckbMckb>bvb\cibzbzbsb4bsb]bGblbLbQcmbDbQbGbfbHcjbpb!cib.b$b.aA",
"axaLa-aZcEc(cGcJbZbQcicmb|cEcWb\ckclb|b3cvb2b.bgcUcmcpbqbFaHclb}bSb&b+b+cucgcTb*cacIcrczcHcucZcXcta#aLanbab.bpbma]a4a0a3bmbQbHaTboaXaRa|bca^a/a<a9a3a<aAaRa,a<aIa_a/bgbLa~b>bBbsa2bLcla(bGbtbma\a<a|a.bBa~bGcfb^babma=agaTcAclcCa\bHa2clbmbtbtbAbPbMcYb5b+b8a;cCc5bIcXcYcVa7bubmb6b-b1chbJclaQb9bRcibWcfcsb2b*b=b5b:cEb=b]cZcNaGapaMbPceb~b_b+clcscfcJb9b2b&b\crbwb}cpa}b.a[b[b0cxb%b*b?cKcYb%cKcPbCbeb3bkbTbSbNb2bJcacqcMcZctcicXc+c3a7aJasb/cWcvb1cucqcEcIb|bNb,b}crb|cscfckbIcXcdc1b~bMcOcFcncJbJb.bqbmbscScXa?a?cIb5b0b6bJa>cPb%bDb!b1bMbRb+c!cnaxaoaVa&clcrb\cEcxcqcfcFb/cJb]b&bsbgb*cqcdcYbRcvbLb#b3a~cTchbHa~bTb&a]a_a^bUbTb2cjb!a]bgbkb!cta7b|c1cpb]ccaB",
"aPaDa*a<b_c%cwb&a9a#bVcmbPclcpb-bUbUb|bPbUb7bQa0cRcRcHbhbHaRcicfbSbzcgb?cCb9cWb\b:b>bTb>cFcLcacWcAa9aRana3ccbUblbka+bca+bcbLbQa,a3bua+aTaTbua=a_a|a+bpaTaUa!a{a)bubGbLa?cMcDa^aWa(cGbMb2bAbFa)a+babpbBbcbebLckcZa<btaYaka&ctclcCbNb]a}cfbabtbtb&b2bCcPb5b%cLbMcRcFb?cXcKcRa}bHbUbSbPbRcObRcZa(b2bzb/cncdceb6cEczbIb~cQb~ckc0cNaWapaLbOcecqb_b)cocRcqcCckb,b]b:ctb9b6cba}b\b|b~b0cgb~bWb?cxc4bCcdbjbqb2bSb3bDbsbPb0b/chb|cNcGb&b>c#c*cZa(aXawcnc3czb*cFcqcucYcebWb6cib|b\cFcub|b9cCb?cLcRbhb\cxcqcWb!bma|bmbHcZcda&blcgcxcBcBcBb5cubMbCb1b6b0bWbCc9cnaTasaIa^cMc2cqcrcVcLb{cvb=cVcfckbYbGb[cFbzclbTb|bvb-b-a}cZcgb<a?b|b]a8aWa<bVbAb!b.bGa^bVbfcma[bBb-cWcfb<cNaV",
"ara]bDbDb9cNcAcpa|a|cjcAcmb>bVbZb7babHbtb^bZa_a$bdcFcNbibxaVb8b&b6bzcfcucfb6cIchcOcvbKaDaBa=cPc7cVa+aSaiaGbKb{b<a|bpa]a,aRa,aTbKbaaRbxa=aTa#a3a3bGbca3a,a)aUaLa/b4bua(b2b;a}a<a]b6b6a>b<btbfa#babAbtbLbBbfbGckcZa9a<aTaka*cNb>cmb/b{btb]bpbPbXb{b?bDcabIb%cKc8cXbBbQcCcicRbIb&bfbUbKbJcCbIcPbkbsb&bscqb~cobMb/csb)cFcXb=cncUcJaXapaAbCcacncnb/b?cZcncJceb>b}b6b/cab=cmbkb+b;cnbWbWcObCb)cDc0brb!a?a~b}bNbTa?a~bsbOb,cHb2cHcCclb|c2c(c3a;a0aqbRcPcBcncDcBcncOb>bPbXcsb\b{cCb`cnb[cdb~cKcXa}b|cocacWbza#a/bmbHcWcebfbSbRcqcBb%cOcxcnbMb0b6b2bWbRb%c$b=aJasaxbpcBc3cib6btb!bSb>b9cCbPcib7bQb)cCbNb\bQbUa8b^cfa>csb+cybCcjb6aLa4btb>b>b-b-b!beb$btcCa^b}cfcNbTbJc1aN",
"awaPbDbDcncVcVbqbmb.cJb^a,bybgbybmb7bta)b}b4a|bxa6b(b;bSbVaPccbPbPbSb|bSb;b;cfckcTc2b^acabapcCb}cVbfa0akaIbZb}clbtbHa+a+baa3babkb.a6a#a_bfbta_a2a\bAbua6aUa3a2bgbmbba6bQa3a=bvb-b+a?bPbpbJbAbAbAbababAbHbpbHcHc1a&bcauaiaRclb]csb&bTbrb\bNbXbzb+b/b\b`cabCbWc#cLa&bsckcecJbCcib/b;bkb+ckbDcibfbpcCb%cncab>bfa:b}crcIc4chcBcOcGa3asarbicFc0cgcebRcEb9csbRb+ceb?cUb_b*cGa}b>a~b+cPbRcObRbRb=cSbPb1bLa8babAb}b3bsbqbPb^c5bMcCcvcCb/cTc8cWa(aXaobzcvcdcLcQcXcBcnb+b/bJcfb`cucub`b|b8b)cnc0cqbdclcub/cGbTbya|bsbUcRcnbJbJbCcncua`cKcOcfbMbPb1b2b1b0c0c#b*aRapawbtcPcnb>b6bBbUbSb<b/csbsbsbUb4b~cRb)cCa]a+a<bccjbDbWb|cfbrclbzaZa#b2csb|cib2bPbPb|bPb}bNb6bUb(b]cpc$aQ",
"apa!bRcPc1bsa9bFcGb.b^bma]a=bga=bFbAbKa)cmcjbUa|a<bmcpbTb(aPccbNbpbHb3bGb:b3ckb\cKcTcAaiacauckcJc1btaYanaQb7clbzbma_a=aTbga,a]a_bHbGbgaNa3a|bxbyaDbmbmbtaTaNaTaRa3a+a)a|a6bmbRcVb_b%bfbPa\bAbAbfbcbxbcbmbgbVcLc3bebsaJagaWctcicRb>bNbzcsb1cea]a-b2b|b+csbdb5c8cObNb-csb?cvbvb_c#cjbfbGb7bPb]bJbJcCcob/b+cGa~a%bTc0cMcXcXckcCcGa9amaAbIcRcLcxcybMb\b+b,b3b6clb:cMb+cacla:b$bjb1csb~c4cebzb=c4b2bjb!bkbkb2b\b3b&bJb6b]c3cfcQcMcpbScqc%c0a%aTatbCcvc2cXcyczckb/b>b}bSb|cvcucHcab{bNbRcBcYcXbvcEcqb9cGb2bAbkbpbKcNbfbNbNbCcnb\bzcXcrb6bMbIb9bRb+bRc)c#b*a0aoaVbacQb5cvb2bPb&cib+b2b{bHbmbAcfb9cTbRcla[a.bVaLb9cjbhcicfbvclbsa,babSb&b/cFb$a~b4b$b6cib6b]b}clb}cZc5aI",
"aoa_cDc4cZb;cmcmboa|bHa|boa=bobLbobua{a3cbb|bUa-a/a#a=a,b.a8b;bTbsbJb!b6csb[cvcHb/b2cUb\bAb2cbb|c3bPaZaoa8b:ctbDbZbxbqa_bga]a,bkbpa<b7a_a-a-a3bQbGbbbTbOa-aWaHaNa.bHbebsbGa~b5cRa>bkbAbpa.bBa/a/bcbVa]bcbHb4chcNa.a^aLaiaPb^cfcfb^bNbRcCb[cobGbqb!cmb1cvbvb=cDb~b4a.b4bLb4bLbdc#cWbra]bycjbza?b;cUcnchb\cbbqa.blchcScTcab;cicGa!akawbCcBcEcqb5b0b!b&b!b!bOcqb_cYb)cncPa;b>bOb]b,a;clbfa(cgc!b,bdbTa~bDbTchb5b/bPb3bqcRb+cWcHcncob~c(c6a1aAaqbMckcqcgbNb;cucqcbcsbDb,cicecvcacab[cgcLcQcTbzc2b|b?cTcab(bVbBbQcwa?bMcobCb[bWb)c4cOb_b=b*cgbMb*b0cec7b?aTaoaQa_cBcOc4cgcCbRctb:bJb-bGbmbPcib0czb=cDbxa\bVaUbdcCbRcBcLcdclbza2btbHbQb2b|bxbcb-b&b6b&cbcscpcmb;cpcpaR",
"aoaQcdcTcjb}cpa]a,aYa<a=a<a,a]bya|bubAa,bScbcGb;bkbpa,a3bUa^b6bNbXb1cFb|b|b9b9b>b?b0cOcfbGbQctcpcNbbaSaoaGa.cNb=bZbtb$bsbHa\bQa^cja}a\bHbgbma8bnb7a\bsbLa~bza^a*bOb&a6bcbQa.b;bia^a.b<a>a\bga_a#bVbybgbxb]b2cgc5a<a-aSaia/a<b^b-b7bmbDcvb~cnbTb2b2csb0cCb_b?bta<bsbqbga-a9a|a%cHc#b)bsb]b>b!bSbtcTchcickb!bJa[bEb~cMcScnb-cmcpa9aoatbMcicdcdb9b:b,bOb:b>bIcab0cxb|b9csbzcocCcCb/a.b2bjbYcgc!b>a;bla.bDb3b2bDb1ceb]bDcZb+cZcDcdcFc%c(c6a(aAapbrb|cMcYb=cqceb5ckcibOb&cbb:b]b2b\b\crcdcrcSa%cTcHchcHa?a/bobsb#csbzb)cDb0cdb)cxc2cKb_cqb)b~bWb1bObOc9b?aJapaIa+cqcyc0cMceb0b|b2b6b2bUbHbYb}b2b}b9cqbAa3bKaUa9bQb)cucabWbHbLaXbLbHb7b>b|bgbtb$bLbxbxb]b6c3cJb(b^cGaL",
"aoaGcMcqb7b$a=a,a,a!a!a4bxa|a|bgbyboa,a]bcb7cicpbLbHbmbpb}aZb4bUb\b/b{b/b{b\bTb&cfcfcCcCbPb^cib}bZa&aJaqaVa_cxcRbQbsbZbxa<bZbxbubybyaIa_bFa{a,btbHb:aVbubCcfb=brcnb)aTa#bAb&b|a%bVbma_a_bmbcbubsbsbgbmbZb;b!cfcVbcbQa0aga=a4ctb&bQa<a{clcicvb-b&bYb#b*b=cHbzbPcJcgcgclb&a0a4a3b^c!cTb3b4b7b.bqbLcCb[b]b-cacCbja[cBcuceb2b-cGcmbcataQa[cab?cub1b+bOcacqb|bsb6b+cFcnb?bXbPcscfcVcqb1cib2bJcqc2b,a;b!babIcTb&bsbNb|b|bPcUb&cWcPb\cgcQcScYa(aIana~b}cqcKb{cfb/bDb|cfbzb[csb/cpbOcjb/b)cKcEcTbrcecXcLcVbka,bmbUbUcvbCb%cqbCb[bRcuczcIbNb;bzbfb0b\bRb/c3b%aLapaGaTb/b+cdc0cab6b}bPb^b&b7btb3b$b9bObAbJb(bBbmb(a4aTb8cFb&bDbHa-a,bKbGb.b$cba\a]b(bQb(a-bUbQb2cAb}b$b(aU",
"anaxcdcYcAbZa$a!a5a0a0a4a=a_a]bga<boa,a]aXb7cmcjcJcja=bucmaWbUa^bNb]cjb&b{b\bPb6bPb2c0cQb*cEcFb|b(a-aHakaIbTb%cRb;bTbAbHbfbBbsb7a[bHa_aQa*a-b$bBbHb$a~bebzcicgb0cCbraZbyb0cabNbJbUazbQa.a*bga]bLa]bga?b$b|bvcec0a_a.aSaibga8cNb2bVbpbAcfb8ckbYbTbGbTb|b9cicacQc0cPb0cYcYcCa{a1cpcOc8bsbGb.b:a2bVbTbTbSckckb|a*bqcab\cvb|bOcGcta_araGbhcab_cMb=bMbMcicucxb1b+b=cUb\b/a2aGb]b:cScLbIckb9bjbRcWb\a%b(a[a}ctb>bJb4bGbHbGcMbDcycTclckc*c&c2a7aWama(b|chb|b)cnclbib6b-bMb!cjb>b}bPcjbNcrcIcucnb9cEcrcLcWbTa/bubLbHcjbzb1b:bIb\bWb=chcxb0b~b9aQb9cscgbIcNbPaJapaGa+b`b%b%cvb=cecmb2ctbPbgbUbTbObya&a$asbHb4bub^bmaBbNcCb-bTb$a.a_bbbgbGbYcja\bmb|bScmbkb:b.b]cWclcUccaR",
"aoaGbfb-bba-a=bma_a|bma|a=bob$bmbZa{a|a]bpbtb^bVb:cwbga]b(aWbFb2bCcib|b;bXcib\cabQarcbbeaPb}cJb|c1a]aJaiatb(cucBccbAbzclbJbAa\bQbpb!bta#a]aTbsb}bzceczbCa*bQb1b9bUa(bPcjb1bra:b>bla6b4bea+a_a&cma/a]bZbLb4bbb+c5a]a]a0ambabUcNb2b7b7bqb7b2b}b3bLbNb;b]b|b1cGb]a(a]a<bmbKcPcXa~ckb*c8bYb\b$b:aDcwbsb>bCcecbb&a?b2cqcxctb|bTcNcNa_aIaGbwckb_crbOa?cncib\cIb_cqb)cubAbSaUaoclcicFcUbRb)cOb[chc8cQbIcab/b0cTbSbMb1b1b;bzclb&cEcIckczc&c*c2a(a!apa}b!ckb\b*cgclbjbQbQbLb4b>b>ckb1cybrcecSb>a(b9cIcDcKc0cdbQb(a\bmb$bechcxbvb8b8bPb?b`cycMb3aQbOb>bPbrc7b1aSasaza\cab\b+clb+clcjbPb.blcAcbb7bVbZa&boa]b7b4bBb.bQaxbicWcgb0b|bbb4bea<a/bVb^a]bxb&b!cFb;b!cCcJcCccc7bUaS",
"awaRb%cacJcmbua,a|a=boa+bma,bVbybUbybQa9bZa=a_bQb7b}b(bLb7aTbJb]b:cecaceb>cpbSb\cIcrb.ataba!cpb|cta*aUanaQa.cucRb7a^a]bLb7bsbQa<bBbBb-a(a$aZa[cta.clb\cia9aIa#a+a4a_bOcbbPbfa[b.a?bEbwbJa\a<bqb:bgbbb4bBb4bQbfb^a)a+a,aoa8cbcGb\bLb$a_bUbUbub4bLbHbGcjb3bUb7bfb^bPbNa+aTblcZa^cIa?cZb}bebVb(aMcbclb]b9b&b9bTaVa]b[cfcrcEbPclcJa!ataDbIcQb`cdb5b=b|crb=cFbRcnb)cxbwb|a{ancQcEcDcnb|ceceb5brcQcNbIaQbQbMcQbwa^b2bTb6bTczb3ckcEb=cMc&c!cTa:a,aqbhclcvb/b1b>chbrb6bDblb$b9b&csb/c0bEchcMbYa[crcecBcqcUcnb.b4a~b4b|a?cdb~bzb9cab1cgb=cYcLbqa&a.bbbLaMb&b>aNapata]b1chceckb1cbb$a?bHaQcpbobLbmcwbsb}bab>cjbkb&b7aHbhc0b`b+b;a~b;b6a<bgb^bGbmbHbLbVb>cAb]cCctbLbfc1a]a!",
"aDa<cdb_cmbyaSa4a|a+bma_bma,aYbLbKbKa]a/b7bybUbVb}cmbybVbHaLa-bUb[cfb2cib1b|b1b{cxcLbUazapa,b}cjcWa]a$apaDb:chcLb}a?bHbsb7a*bHa+bGbLb1b[bba*a.b^bGbOcsb%a]a-a]aQa]byb0b=a_a6bqb7a1btbJa>a_a-bxbmbmbmbDb;b|bkbkcCa)a=a$ana6bZcjb}b4b7b>b>b>b]bua_bHb7b&bUcvbAb{cFcQcBcJb9a6b.aVcNbGb3cJa~b$bAa#bZcJcabUbGbUbua#bub1b,crcMb&b]cJa#araGbIcqcecybvb;b6ckcncnbrbPb+cobrb\cGbdctbOclb1a?cIceckatb4c7bMarbcb2csaWa#b3b>bSb9cEb:cGb>b\cecyc+cTa?a,ana}cHcCbWbXb1b<a}bTbabDb]b|b>cicec2b1czchb2becxb~b=cgcZb_b.bya(b^cFa%bNa:bib+b`bWb>bsb0cabka}bObscwawa.cbaUaoara9b=b6cwb3bLb^asabacaNbZbgb&btcTb2cjbNb>b-bjb3cmaGa.cWchb*b&a:ccbAa[bmb$bGbfbFbpbHclb}b#cpa4asapa_bUa4",
"aPa^b8b8bga|a=a,boa9a_a_a]bVa,bLa|a|a-bnbQb$a{clcpcta-bZcca2bfb<b)b/b5cib`cob9csb[cJa,aeaoa=bfb}cWbma$aoa1bWcKcBb}a[bjbscla~bLbTbrclbhb+b}a~a.cbb2a%cvb1bBbBbpa\bDbSb~cga^bEb|bfbga]bta}bta<b$bmbta\bTb-b\bCcfc7bVbaa4akaIb$clclb!b<cFb!b^b-btbpa,bfbKbKb6b6cib2cncCcuc8a~bGa1cAbTa[cpb2b7bHa1clb5cHb&btbta=aMbAb6b>ckcEb}b6cta)amaubIcDcDcDbPbJb[b|cub+bMb`b)c1bRcRc#b?cQb1cyb|a?ckcqcPcBc#c3bIb5b|bkb>a;bDcob/b[b2cIb9b\b:ckb3c4c*c!a&aNapbkckcub%b>bSb#a6bGbjbSceb|b:b[cac!b=cecib)bIcQb~cgcgcYcfcJb8a7ctcLbhb3a~a;b-cOb5b]bNbCcCcFbrbCbXcla`a^b}a3aqara<b~cIcVbCbmcVa=afacaYbZbGbVbAcZb6cFb1b1ckbqbBcjaza7cZcDb*coa(cVb+bgbubUbLbHbQbqb4cNbPa+aLbtcca|a+b^aY",
"aVa&bIcFcca,bmbmb7a{a)bpa{bQa|bua|a=a_bZbucpbtb]cOcRb2b}cma6a>b6bkb;bMb|cacHb\b[b>bpaqabaQccata{c3bsa,arb~bCcBb~b{b2a6a#b;b2bsb4a>b<a}b2b6bJa#bQcta?bJb&bqa?a?bGb9b1b;bvaVb\cTbhbsblbma[bta<bAbpbAbtb]b!bJbJcqcYbubcaSaoaIbycCcQb|cfcJb/cvbtbtbpa9a{bmbUbpctb3bscacub5cFbsbQaMb}b]bjcMb|bHbLa?b$b-b6b6bSbpaRa\bmbkb;b|b|b;b-b^a!apawbDcCb?cgceb:cncucqb=a?ceb%cBbrcHc2bMcPb%cDc4cabOb\bMb)c(caa7cqcTa&bLb,bScEbvcCbrb;b|ceb\b}bOc)c,c%a(aDama\b-b|b9b`bRb|a?bGbpbNcbcychcdb_c!chb*cecnb=c3bWcfcfcub%cVb9aPctb2brb*b*brb0cyb1b/b+bdcHcPa:bAbFbDb1b8b\aYapasa|b5cIcTbRbZbVbUaHakaSb7bHbTb-b\b!b]b|a?b}btbNccaGa7cwcqcgcka7cHb`bJb;bUbFb!b2bebUcHb%b2bAc,c!cVbzb$a5",
"aDaDblb.bga,bKbFb(a_bmbHbfb7bAbAbma_a-b(bHa_bpbkcHcLcCcYcPa7bfb2bMb1a3bmbSb|b[ckb>bkasana{bUakaTcWa|a=aob*a1cKb?b[cea[a~b8b8a<b7a~b2b4a^a8bma<a+cocaa?bSbbbla:bkb%b=bQa^a(bTbXbNbfa\bfbSbtbTbabAbqbqb<b2bJb2cOc#bBbGaUaoaIbxcpcNb\ckcib+bZbBbgbobaa3b7bAbZbVbJcGbGb9cncnb/cea?b!cPbdcycrbpbca~b7a~bUbSbSbmaGa.a[a-bgbtbmcvctbZa<axatbCcvb_b5b3cpb~b*cRcna.clb*cnbzcscdb5c2b%cKcTcSb%bZaraQc3asahb`coaBagawbVb6a}aEamakb8cjb\b/cgc%c%c!a7aLagbCb{b|bMbNb6cia?bfbAbSctcvb6b=cncVa(bvcncKb`cLcncWb=cfb!cJbsaGcGbJaPbWb6b0b_b|bdcob?a%cRclbia|bkaMb2cCb{a4apana$b%cYcpbDbLa$aOanaka|bUbtboaUauaoaiakakbKb-btbZa-a9b(b~cdbTa1cCb0b<bNa<b$bSbTbkb!b|b+clb+c)cZc1b}b^aL",
"ataqa3bAaUa_bKbKbLbAa_a|bAb7bFbLbga=a-bgbVa,bQbub\b|cucxb-a%brcib/b2bzbLbebPbUbbb=cZaTaGb<b>awbScZa|a,anbWa7cKcrb8b;bpbPb!b&a&bGbMbCb|bsa&bbb]a%bXckaPbGbvbDa~bzb*cDa^a-bfb>bzbkbQbabfb]a:b<a}bPbUbsbfbpbMbXcRcZbAbHa!aqaxbZb`cnb;b!bpbBbpbaa_a,btbabAbVbZa8a*bZbPbtcXcdcMcyblbEcNa:b)cObTbva>b]bTbPbGb(aQa<bmbta{a+aUaUbFb-bZa=asaMbWcnb~b%b[cucqcqcYcfb5cFchcqa`cVcgb)c#bWcQc4b\bXaLaHa:c1a,anb5cZbMb{clb-bNbka!aNapb7cCckcFcac%c&c$a%aRaebpb8cibzbIcvb}a7a]bUb?cOcob0b)cocbaob0a?bMcgc2b*cRb?ckbzccaVa[cGb&aPbIb[b5cgcxa}b6b/brcPcubdbma.aDaxcfb&a0apala=b*cQcma+a|bVaYaiagbob}b7bQb$b^a5aOayaia$b{a{btbxa:b]cBb=bSa(cDb~b6a>a\b(bQbca}b>cgb~cpbScGcvcVbYcwa5",
"axasa*clbxbma_bLbmbLbZbca|bKbpbKa=a,a(bAb}a{cpa\a\bLbPbJbAa9a>b]bTbsbSb!b=cEb\bOcab?a3aQcscla\bAc5a<aSamb5bRcqchbObTbbbbcmb-btbkcia}bPb2a.a+cta(bAcfarbcbPbPb5bMceb5aRa+bJb&a-a_bfbaa{b-a:cfbdb2bJbJb1b8b%b%c1cDbxbQa,asawbQb>b}b\ckbHbfa=a<a=a{bUbta!a=a<bmb2b|bSb2cUbrcUcfbQbqb.a*bScibNbDbDb-bNcpbZa_aTbybpbta,aNapaxaHaXbaa,araLb~cBcgb0b_cqcdb%c!cQb5b|crcMa:csb*bMc#bRbRc7cob?cca%azcNcDbrbIcXb2a;b/b/cAbPbtb7bSb&clcscfb[c!c6c!a(a#agbhb{cibIbvcka_akaJaSbScjcib9bWb[cqbIc1bCbrb*c!crcOcqb}bTb$a#b-clb4a6a~b]b0b5cub5bvb2b%b+b`b0c3bRcvalb<b^aSakaobUcachcca<bocca|aCakbLbHbBbVbZbya|a|a$aybZcfbrbQbVa)bfcib<bKa>cocnbKa>bmbZb7a\a<b7b2b\b}bJcscAcAbAcmaU",
"aGawaTccbUb^b$bVbpbFbsbLbLbHbVbVa]a/a<bLcba[b.bHa#babWcfb6a~a~b\bDa?b6b[b5b\b)b+cMc4baarcVcia>bAc9a)aJaib5a;cncncab9b/b/cib|bib+bDb6bbb4bea?cGa%bfctaQa^b=b5b0bIcQbraPbmckbRaRbma(bQa>b!bMb|a`b!bXb;b>bNa(bEcTcPbtbma]asazbQclb\bXcvbLa6a!a,a]a<a_btb>b6b6b/cnb?bfb>cAa7cmbTbSb;bta^cab|b&bsb0c!cRcdbubcaTbua]a]a=asaza#a|babLa^aDaPb~cxcOb%b=cxcBb~c$cMb_cfcDcub)cLb6cdc3b+bCb[cfa7bza~b5cZcRbWbwczb%b5b:cEb*cqclcacvb|b|csb1b+c!c0c$a;aWaib0cib\b5bzb|asaeaEaob4cicfb/b~cRb)cXc4cdb*bvc2b~cgb?clb[bmaRcicPbDa;brcfbDbMcfbNa}bNb+b2bicecHb+cWazcocCa!apalbFcOcrbVbma=a|aCaFaHbybVa\bAb7a=boa|bobKcfcfbDbLb4aTa9cocobJbacBcnbHa.bbbZb7a^a.bVbSbSbGbHclcNb}cicJaH",
"aMaXapbHbbb}bobLbAb6bbbxb&b]cicibAa,a%bHb-b&b7bpbpbAb+clbwbwb9b+bzbObYb\b1b3bDb1cqc!cVajcLcCcab+c5a8a0akb1a1cgczcyb*b-b&b\b|bkb!bMb{bfbfbGa.cGa*a?cUbvbdcrb*b5bMcHbva^b4ckbMa6bHbkbAa}b2bJb>a?bPbkb-b7bba&bLc2cTbba^a4aka&bZb3b3b;bsa3a#a!axaLa4blb^b9b0cncub[b[b2b9cGa1a_a]bNb6a]a.chckb#a?b:cTcgcFb}a?aQaZbya<a!aWa]a-bcccbaaPawaLb*cSc4cqczb=cTczcEcScgcEcxcBcfc9beb!c3b_cPb2a}cic0chcdc0cMbRbrcychcdb9clb:b|cwb>cHb;b{b{b6b0cgcyc&a;a2afb3cNb1b,bNb-akadasaEb!b!cob[b+cPcncqcMb=a7bNcQbIcgb?cCckbxaIb;c9aGa6bDcabRa}b|bha?b2b)b?bvcGcZbRc5a1cecAa4asambgcscCbZa|bZbLayaya3bZbQbybtb(bKb<b<b8b8cncfbfbsb4aRa3cacsbDbNcLb?bLaTbsbxbZa<a-b$bzbEa<bLb(cwctcmclaL",
"aDa+aDb$b^bLbtb7b!b-bGbHbXb1cjb&bka+bfcjbPb-b;bDcYcYcBcTa?b%cxb*b+b0b/ckbMb+b/bCb[cUc3a7b+cuc0cuc%a=aNaib*brchczcqb=b|bXb6cabSbAbJb!a(b2b&a:cAbfbCcIbPa:b~b_b0bMb]a?a}bPckbra1bHbpbJbkbAa}b;a{bfbrclb>bDbXb2cZcVa9a{aJaga,bFb+c3cRbvaNa0aUaRaxaNb`cob&bJbOb.bSb*cdbWb]a1a9aRa]a_a+bxb|bDbAaMb;bSb}b9cpb-a*b.bxa+aZa/a]a_aVb7a!aHaoaxbWcXcScdczb\c2cycLcnbMcEb~cFb_cObMb+cYcncLcxbzbPb-bvb~c!cyb*bhb=b~bIbRckcab5cib+b~cBb{b!cqcYb=cKc!a%a8ajbjcRckcebDbSakaiaHaHbGb7bJb!b~cqcOb%cBb=aDb8cEbrcib+cLcxbKaPb1c&a&a2bCb2bNbrb/brbpbubzb|bvc9c9a?cWaMb]ctaSaqakaZb?cPcJbSbVa|aiaCa\bLbQbybAbKbBb^bKb8bSb{ckbhbDb]bta\b2cma6bBckb6bQa2bxbgbKa)brclbIb|bQb7bubVcjc3ccaL",
"aDa>aMbcbQbVbGb7b4bQbTbLb\b[b\cfbQbqb1cvb+bMcib6c0c0cScSaQb+b\bOb[b)b_cnbWb\b{bvb)cfczcIbCcDc0cOc9bma!ambIb*cdcKceb5b|b2bPcfb+bMbhcibhbNb:a;c7bCbIc!b:a;b5cgb5b5bGa.bsbTb2bra.bLbhb!bXbha:b-a`b\bWcfb1b1b?cKcRc1a)a<apafa+bUcDcDbUa<aUa=bma!a!a#bPb|bObYa-bga;b,cTa^bGa+bEa~b3bjbjbYb4a[bVaPbUbxb$beblb7b=c%b-a%bQa_aUaAaRaTaAaTapaQbRcRcycQcxcgcychcgcQb*cVcgb?cFcncqc4c2cMcEb\bsbzbqa?b_c#chb*bCcqcnbCb2b+bWb`bWb0cocHcfb|cqc!c4c&c!a;aQagbecMcncqbNa{aLaRbLbKbTcGclb9b?cvcSchcBcSbjbOb]bkb>bSclb\b7a_b2cWcwa;a?bBb0brb!a~aWbma?b>a~b|c$bIcNazb&cfa!aqaha{cgb~cNb<a|a$ayaybeb.b7a(a=bpa+b(bKb^a~b!clbibMcFb$bbbkcta?b,cqcqbya&bxbHbVa/bJb}bvcabLb7b;cicJc7ccaP",
"aMa6awbtbubub2b-b>b;bPb&b!b&b&cib3bsbvclb}bJb|b2cncgcEcea1bTb*b=b:bMb+cab\b6b\bJbMcEcLcOb~chc4chc3a/a!aoa&b*b)cBceb6b}a%bDcab6bJbvcachbrb:a(c7bhb*cZcaa~bvcgcdb*a[a^brclckbia\bPb1bkb!a(bvb2a~b9b0b6b[bWcncPcWcYa0a)aBaga}b6cma>a4a3aZa]a-a2a<bcb6b2bga8a3a+a*bqb!a(b-bzbLbeb\b\ckbwbebGbLa6b]b&b7a&a#a9a~c3cQbEcWb=bqa(bpa>b2bPataTb*c2b=czczcQcncLcScQb=cEb|bOc7b%b~c6cYcTcMb1bmbQa*a.cdc8cKb5bdcIcMbvcnb5bRb0a~bOb~cLceczczcYc4c(c6braQaeb#cMcdb=b-a}bQbcb.bLbXcHcbbSb9crczcEbIb*b\b|b6bTb|bPb}cibKa{btb^cWa?a?bDb0bRb!bvbzbSb,b&a8b3c)c4cNatb<b^aNapaibpcPb_ctb!bHa|aua4bGb4bLasalbmbpb^b!b-bMcecHbva?cwb>bPa<bZa(cicxb_bma*bHb4b(a*a~b]b6cdblb4bObYcNcUb^aU",
"aGaXawb4cNb2b2b]b|ceb1b>b\bPbTb<btbBblb4bTbkcmb2b9b0b_b~a7bkb5b+b9bOcfb5cfb0b6b0b0cncKcQcrb5cKcec5a[a$aoa1bwa?cyb/bWbtapbWb|b6a;bvbvcvbrbTbDc3bdb_c8cabva;b6b?bIbbbebhbXb8a(a3bHb2bDbPaVbTb2bWb+bDbDbPcfb0cPcZcXa3a|aTaia*b(b<ataqakakasaxaJa*bmb-bsa9a9a9aRaRa]a9a.b;bfbTbqbRczb}a?a6bLbEa*b}bJa~b4cja(aQbbbBbHb|bTa^bLb2b!b}a:ata2crc4ceb3czcrb~cXcYb_b?cLb:brcJb[b*c4cYcKcEb9bsbBa&bscecSczbOa7cqcPbhb=cdbNbSbrbXb_cPb0b\b=cYc!c*c!bIaWadb[cacnbWb\bvbBbQb!b8b6b]bAbAb1b&b\b*cdcMbIcObRcfb^bSb-b&bFa=btb<cGa%a?bNb1bWb<a(bqbGb>b2bzb3c9c7cjamb<b>aNaqaka<cPb?cNccbLaOapbHbsb3bUaZatbLbFccb\b\b8b|cwbfa>ccb[b0bxbHaRbVb7bBbublbSb2bUa#bDb2b2ckbLbZa/a_b(b.bVa4",
"aLaQaGb.b}b4bGb$b:b&b,b:b&bfb]cjbQa~bqbQb3blcpbObBbObWcea;bzbNb1b+bMcCbIcqb5bWb9cgb=cqchchcdc0cIc9a[a0aka1bOb*cyb/bCaHabaDcvb+b2b2a(cCbvbNbSc6bhbMc6cubMa~bNcdbMa>bfb`b0bsa^a[bGa~bjbJa:csbEbkbSa~bsbzb+b?cqc9c1a!bcaUanbickcWa7axaHaLaZa,aHaxa|a2aPaLa,a]a6a&b4a+a.cibCb+b2a/a_aQaLa/bbb3a7bWcGb$a[a_a=bga]a/a&bObYa.bGbwbJcTa.atatcEc0b|bOcyb_crcTcKcxcqcOcdcqcGbDb5c2cMcKcqcMb|bNb:bTb5cEb~b5a7b&cLbWb?b1bSb-b*b*b]b,b9b2b1cSc%c&c)bOa8ahb*cyb=bIb]bvb-bzbLbLbOcAb&b3bDb2cqbIb5c6bIcSchbRcibTb}bGa]a-bsbLcMa}a?bsbOb9b7a~bbbBb(a*a^b3c3cJa,atcNb&aSapambfcLb%cHb{boaKbbcbb3b>b.bHaIbQb9b/b6b;b-b&b#blbfb;cEbMbsbVaIbVbma|bgbLbLbQbpa9b1bJb6b[bZbHa_bbb^bHbUaL",
"aIaPaMbtb7btb6b2csb,b&b>b#bLb&cjb7a?a_bmbSbkb}a&aZa]a^b:a6bjbib~b0brcNb1cdb*cdb_cqb5cnb*b%cqchb0cZa-a5akaQbMb)cSb7a2avakarcHb_b%bNa%cMchb~bOcYbMbvcXcKbIbrbzb\bRa?bzcQb=aTa+baa^bAa}bAa>cta}bwcbbsb3a~b-cLcTcZcWa/a_aZaka}b!csbjbgbmbma=aYaNbLa9aLaxa8aWa*a[bQbGaPbxb[bMb:b5a&a^a[bQbqbqbLaDcEcEa*bba/bnaQa/a*a8a~cTbwbMb0b1b.a8anaDcIcMb1b~chb0b1cEb=b~c4cBb_crckbSb3cycdcMcrczbYbGceclchcxcFbva;b:cMbRb~b=bOb*bRcacybRcab|bOcrc(c%c(b5a7ahcab?cnbRcabMbqbsb3bYbJcjb2b:bDbSb|bMbMc#b5cxcYbwcjbPbQbsa!a,bsbUcZa%a~bSbNb2cwcNaiaHb.bsa6aVc(cNasamcZb&a4asaobgcMbIcRb?b.cjbsbZb!b2bZbxaQbVb;b\b;b>bDb>cxcdbHa_b,b3blb$aQbHa]a!aQbybQbLbma/b2bwcnb)bVbtbsbmcwbub(aR",
"aDaTaMa>b4bHb7b7cmb}b;b|b-bTbUb}bBbBbYbqb;bCcla6a_a_a8b4a2a2a(cscrbrc2bRb[b`b_b*b[bRcgcrb_crcub%cGa4aNaiaIbwa`cCa3aGasadalcob;bhb9a^cncgbDbJcsbrbhcRcDbCbhcab!a?bvb3c0b=aVa_bta#bGa2bHa<cvbMbDb|bkbSa?bPb*cXc9cLa#a!aLaia}cmb?b*b:bLa0aHaTb(bgarauaxbqblbaa{bCb?bMb1b|a?bebBb!b1b6ceb!bfb^aDbGbLbvb!bta+apa,a9a!a&bOcQb0bObvbuaVaiaqcrc0cXchchb*b/b/b0b0crbrb*cMczbEb5cucycTceb2b/b8bJb-cKcQcXbIbibScLbrbNb6b2b1b*chcEbIckb\brcKc%c(c4bda7ahb?cocFb2b[cfb6bTb:bTbzb.b3b9b+b!b\ckb_c(b_chc4bCbSbTbLbGa,bgbpb8cWa?bsb-bkbNcicZaoaLbsbsa{aDcAc&b.a2c1b|a!auanbpcObvcsbDbZb7bubUbPbAbVbya?b2b!b/b4bUb2b8cXcKbVaWbUbQbpbLaPbHbxa#a1b7b6bSa{a=b-a~cyb6b4bmbtbtcGcjcGaL",
"aDa1aQa(cCbXbJb!b+b8b>bDbPb}b2cibAbAb;bPcHbRcma7bpb6a~b-a\aVa?cecOb%cZb0b2b;b_bRcab)b0cncqcOcLb)cca3a0aka1cDbhb|aBaJaEaiapckceaPcgbCbJb&bzb!b\bNa(cHcLbIa1b[b2a(a;b/c4bIaVbtbua2bAa(b2a<cvbpbicGbkb2bJbPcucCc1c0a+aQaIaka^cicQceceb\bxbua_a4apaRbaaTa<a.bpa>bAbfbSbWbsa1a>bNb+bRb[b)b`b0claDa:b!bka%a<a#asaqaQaLa6bga?b3cabva+awalaqcqc3cdcncnb)b1bDb?bAcYb%b5cqcbb3b=cBcXcYcIcabPa~bfbNcBb~c0b~bra~cBb)a{bpb2bCcxcgcka?b[b:bWcDcQb~c6bIaVaeb?cucubMb%cnb2bObSb]b3b:b}bvb&b!cncCb)c%b0chc#bRb+cib7bUa=bmblb}cJbDbzb1a?buccc7aGaRbkbAa)aMbPc,cVb]cGcta0auana^cDbMcsbvb6b&bHb4btbPb7btbJb>b+b8b<btb`bAcXcDbGa1b&bTbHbVa1b7bKa3a%cHb4b-a=a,b{a`cib6b^bubxbGcGcbcAa0",
"aDaVa}aMb!cfb!b]b]b;csb/bScib9clb!bPb8bDcHbicba^b/b\bhcPa<a>bzcecubRcPcgb*bIceb+b|b\bMb[cncLcOcKcca(aNaka(cQa:cJa)axaSakaGckcua%cdb=bTbsbrcEb!bCbCcFcfb)aVbBb[a;a%b\c0bRa7a^bSa>b2a(b2bpcta(bpcmbab!b2b&cqcgc1cPa!aXaNaka;b|cMcOckb2a)baa)a9axa=a^a[a\bka<bkbfbta[a~b9b1bIb5cdbrcncubPbkbKa1a{b-a#a\a^a\a9aMa*aTaDaWaLaQb9b6bHaQalaxcecEb~cdcib5bab6b%cfc2cdbOb9b?cBcBb~cLcucTb]a-bVcCb/cdb%c2cdbibkcDb=bvbsb9bRcgcucIbRbkb-cqc2c6c6c6bOaQacb)cRcqbRb9ckb1bSbNbTb-b&b|bzbTb|bRcCcnc#b=cycTa?b1b!b>b8a=bmbkb}b;a}bvb\a?b2bNc9bSa{bAb!a.aVa~c%cUcGc7b}a,aBapa#cDb5cvbRbPb;b6b6bTbNbUbsbSb]b&bTb;bDb>bscLcBbsa?b|bDb7bGa3b4a|a)a?cmbTb-bga<b{a:ckb/bZbabLbQcjctcJa<",
"aDaQa}a:bfb^b/b|cvb1clb;b$bQbBb^b4bqb\cacibzb(a_bSb>a}csbibrb0cnb|bOb[b%cub5cqb~cFb?bCb~cqcOcScnbLa#a0akaVc$bIcDbGbHa$ananclcFbrcqceb0b6bWcOb8a1b=cQb`cga1babAa}a%b]cMbIa?bsbAa*bta+b2bhcla>bfclbvcHbPb>bIcnc3cKa,aZaHaibdb|cgcgb\bNb|bTbSaPaQbHa1bpbFa<a>bpa#a*bYa.bzb1chb)cabvbAbta:bJbTa>a%b<bGa9bga<a\araQaLaGaQaLaHazaIb&b&amaMcxcDchcQb=b*b6b!bsb;bNbDbCb/bvcHchcrb|cvbSa?aUa!b-bsb=cxcKbRa~bkb+cubwbDceb6cqcDc2b=bicvcBcScKc6c(bIaIacbhcvb~b%b~cgb|bJbQbUb&b}b-bTcvb{bRcPbRc6b=cncNbva~b]b-bSbgbybmb$b-a;b1b/bNbTbtbGcJcFbkb&bua*b7b7b-cJc$b]aYauawa-cqbrcgcBb/ckb!b-bAbAbZbsb-bTa]aTbBbabta<crcrbBbbb[bWcca{a#bLbAbAbpb7bNb>bcbpb]aPb[b{bHa-bVb(b>cVcNaY",
"aGa1a>a%brclb!b1cvb8b2b;cfbAbAcfb|bPbOb}b!b2b7a.bvb|a~bSbXa%b~cub/b1cab6cfb[cgcOcQb~b0cqcgcBc2cnbKa9a,alaMc2bRb%bfcjbma9aMcFcubIcnb?b+b2b?b?cubicocPcdcua>bkbca-a(cgcqbda%b2bPa>bBa2b8bkb|bCbrclbJb}bMb;bWcLc7cXa=a!a4amaGcvcgb?bDb?b0cxbPa(a:bPbCb%a(a>bAbpa{a%blbGa;bfb9bwa<a&a{bAbvbkb|a~aVb4b6bvbqbja]aWaTa8aGaIataRbsbUaVa.ata8cCcfbvcrcbbva2a^bMcPbhbzbRb[b+b\cKcScub+cgb%bea1bma.bRb~b=bRbLa[b[cNb%b%b1bIcqcqcRb~brb\cBc!c6cSc(bIa7ada%cVb)bRb?cnb|bObTbJb|b&b4bsb!b]cqc0bIc8cdb%c2bNa;cFckbRbHbLbsb.b|a:b6bMbGbUa{a%cvbAbtbSbca6ctcjb4cVc3b.aSapawa,cnbRcqcPb%cFb{b!bLbkbGbHb8bPa\a]b-bJb$bscqcBbGbbb{b2b>a)a<a|bAbGbUbVbAb]blbqb]aVb|cab.bBb^b^cfcGcWa)",
"aQa2a7a7b4bQbGbLcmbPb4b4cbbYbSb>b>b&bsb#b9ckccbca<bVa(bNclarb)csb>bzb2b/b1chb~cqcUb)b=cxb5chcKb?b&a&aJala%cIbib9b0cqbZbaa;cJb?bCcXb=b9bvb?b[b{bhcLcXb~b?a(bab4bbbhckb*a;a[bUbAa?bQa.bTbPcacabib{bGb3bDb&cdcucZcWa$a8a4anarbUcTb?b9b9cnb)bDb&bkbfbWb1bNbza?bla}b&a6bbbla(a?a[a.a^bTb2a>a{b-a}aGbBb2bOa<bGbca+azaZaTa8a0awbab-cNa8aoaRcqcub0cqcFb9bvb}bIcPcEbIb1b8cXcScrcrcBb*ceb+bzb|b.a2bIbWb=bWcAb9bOcwb\cebJb}bXb!cBcRbicicxcSc4c!c6bra&aha;cJckb|cqceceb1b2bTcbcjb-bka}b>b+cHbMc!cgb5c2bMbCcHcJb1bLa|bacjcpa7bsbTbzb&bAbPcta:bqbLa{aPbQb7bQcNc5b&a0asawa<cqb)cgcLb!ctb;b!bAa-bNb}b6bJbubGb-a<cibCclb|bbbbckb6b7a*a_a_bta]b$bma&b.bqa_b}a;b6bNbZbsb7b}cfcccZa)",
"a2aGaQa%bYbYbPb|ckb[b&b&cbbEb6b!b!bSa>b2b1b&bAa9a&b.b%b%ctarb[cvb0b9b6b0b_cxcOb~cRb0b?cKb_cBcKb*b(a)aJaia7cTa(bWb/b6bxaXa7cTb*brcYcgb4a*bdcub!a:cQcOb)b+aWa]bsblbrb:b%bha\bta}bfb+brb-bpbrcCb+b)bQbBbebGb\b+cVc1a#a#aSanarb7b~b_b)b)cncnbOa[bNb3bMbCb!a?b>bvb9brbPa:a>a}a(bzbCb|a?a*bvcgb2bMaVbsb,bea#bHblbHaDa6bea&bma8aMcbcVa?anaXcBcDb?cfb:cab*cQb1cocLb0b9b6cXcnb[b%cgcxcxc#c#cSb-a7cDchcna}b,b]a?b|csb\bRcCbMb\bWb?b%cLcgcBcKcKc6braQafa(cTb6b9cDb[b;bJbJb>b:czb|bzbJbPbWcCb=c#cncBcCbdbMc2cZcgboa=bmccb(aIbIcabzb1bSbPb(bebsbBbxaIbtcca^cAc5b&a4asara{clb0b_cKb-b&b6b]b7bbbNb]b6bvb8b!b|bhcCbDcucabJbscsbMb7a.bgbGbHa^b(a-b3b.a2a]cCa}bsbfb7bub$b.b<cjcWa,",
"aTawa6a2b4bUb!b-cCcCb\cacHa.bmb.bKbSbcb4b+cvbZbga+bxcycIcbaMcab9a~b|cebIbCcFcDcncVb%bWb)b~cqcyb*cNa9aTakapbea[b,cecaaZaLa1cMb%b[cLcnb(a2bRcOb6a;cLcQcdb~a(bNbPa~a:bScMbWa*bGbAbfbDbTbTbkbfb;b*b)b>bkbsbmclb;c1c3a|a+a$aqanb!b?b?b/cnb2clbGa?a~a^b9b9bfbfcebMb&a?a?cea(bkbIb)cnb?a~a?b5b[bvbka8bBbEbYaMbGbsb2a#a&bJbJbAa^ata#a^aVara+cecMc0cEcecrbGa-bzb3cEb:bWcic#b=cFb)cgcQcrc6cTcabUa.cucxc0b0ceckb$bjbca_bvbScXcnb2a%cnb~cMcScYcKcMbOaQajbvcMb*b0cOcnb]bfbJb!b6b/b!bJb6b>b2b;cBc2bIc8bTbzbOcMc1bWbLa|bmb}b:aPbPb6a?b&bQbeb.bebqa&a*a/bGcVcjcwcUb;aNaoaqa/cnb)b_cFb4b(b7b.bUbQb&b-bJbPceb1cCbvclbCcMcxbJbJclb|cla}a_bgbca-ccbtb|b;a-bgcabhcsb0b(bxbUbUb$ctcWa9",
"aPasa.a2b9cyb|b9clb|b6b[cTbMbUb<bQbAa~clb|bSa|bSbfb7cXc0cya:b9bzbvb-b+bWcdcTcncqcTcDb=b=cBb_cBc$c7a)a,anaGaWbwb>b}b2b7a(a1cPb)cqcqb)bOa*bMcfbzbrcBcQb_cea(bNb2a?a?bJcYbIbdb2bHa(a%bNbSbzbwb]b+b5b:bTbObscvb)c!cYa]a!aSauamb)cdcXb/b+b\b8bMb+bOa.a~b|bNbzbDb2b0cea&b3a-a*a6a&a#aGa*bLa?bfbSb\a*b3bvb!aGblbJbJbua&bMb6bPbpaVa\b.a2anbtcecTc!cQchcSb7aVbObZcCcab:crcTcSc2chcBcQb1b\bzbzb7a2b9czcYb_b3bqcicVbGa[a.bucOcfbcaGcDcdb=c!c!c!c%bOaWajb2ckcgb?cFcgb;b6b-b&b|b|b2bDb9b}b?b`cEb:brc&bqb3b5cucHbrboa|a=bFb4a1babUa&bTbLbEc1bMbHa]a8a_bYcNcTcWcWb}aSakaqa=b~b=cvb`bpb^b|b(a#bUbSczbPb8cvb0cvbvcobCcsb`a~b.cib1b3a&bTbLa_a8bUbcbJb;bBbGb3bvcsbrbVbQbUbVb.ctc3a-",
"aPaDa2aVbJb]ckb[csb+ckckclbsb(bAccbUbNckb]a?a<byblbHcKc0cVaMbsbTb+b[b/bRcqc0cEcrcOb)b=b6cdb=cqcIc9a_a$ama&a8bvckb?b)cWbNa1cGb=chcdbWbJbDbRcubzb1cgcqbMb9a%bpb2a~a}a?cVbCa7b>bBaVa}b-bIb)bMcsbpb&bTb6bTblcobWc#cxa$a!aHaualbHcucob[bWcRb*a~a}bGbTbDb-b0b+bvb2bib+a}a>bqa.a9a+bAa}a~b,bebDb:bNa(b2bNcfaPa&b+b/b2a;bzb6bzb1a7btcUa1apbochc0c!cXcqb:bQbucjcbcab[cdcBb\c5cScrcxchb,b>a*bHb7aVcgc(cBcdb=b9bicvctbsbga]a-a\aGaRb[cab~c0cSc!c&bwaIajbjclcvb%cPcfb{b!b&b6b|cib2bsb6cpb*b*cTb9b0c9a8bLb?cqcFbJboa|a{btbGa&bjb:bvb2bSb3c$bzbLbmaQa_c5cmclctc7b]a,anara|b?bIcpb6bqctb>cwa~b&b+b|bAbAcqcgcfbCcfbPcCb+a~cpb&bSbUa*bxbQbca-a/a]bvcbbqbLbJbkcobMbZbBbgbQcpcjc$a\",
"aPaQaza6bzbGb/b|cEb*b|b3cNbTbQbZcpbmb6cFcibNbZbga-bucdczcwara(bUb|b+b6bRcdcQcKchcHbdb%cnb_chcdcqcWa]a=amaIa6bMcEcLcxcCbza?cqcqb_b~b*bTbNbMcibJa~cqcka?bSbebSb8bDa;a~cObCa%cibsaIa(ckb~b0bTb}bkb;b6b&bTbqcgb~c5cDa#a<aSaxama&cyczclbCcDb)bza?a[bObYb:b9cebNbkb0b0bTa^bvb3bMbOcebMa:bPbwbvb&a(a~a}bvb&a~b2bNbDbPbzbObeb5b:bebJcJa?awa6cEcQcSc2crb|b1c1b|bSbzbScncucLc6cYcqb~b_cQcka2bsb]b]chcTchcdb%cqcebMcjbTa2btb^buaIa#a}b6b?c2c4c4cXa^aAaja1cscybOcucnb8b8b6b[clb\b#bYbTb.b2a~c0cIb9cZa9aDcUcnb;b2bma=a5bpb!aVbIcEbwbwb0b9c7bjbta\a^bYb3cNcmcwcVb|a,apaDa,b/b+clbDbUcwb^b7bsb|b3b>b6b6cqcdb\b1cfb+cFbRbrcGb+b/bBa6bua_a]a/aTbcbSbJa\bQbPb;b!bzb$bGbHb4cjcwc5a/",
"a.aVaza#bTbsb>b]cab2b>bTcVbZbubGb.a<b&b6b|bzb.bca^bGchc2cNaza&b!b;bfb`bRb_cOchcqcraPb5cEcychb~cMcja/a#amaQa8bMcOcucqclb9bIb/cub*b:cab9b[bCcvb3a[cDcra^bqbCb[b[bza*a*cib[a;csbuaIaPb$b\bIbwb}bJclbYb#bGbgb\ckcYcQaXbga!aAaoaWb+cob/bIb9b5b6bJa*bqbDbPbWb/b>a(b1bMbSbPaDa\bjbwb1a[aVbbb2a~b2bka>a?bScea.b/b6a:cfbDbDbzbIb9a}bScVa[aparckckczcIckcEb9cIbTb$bkb6cLb?cxcScLbRb=czcYb\bgb^bmaQb`cucQcycrb*c0cybDb!bUaPbGbga8a8a^b4b\cEc6czcAbjauaga~csbIb6cecvb&b]bSbzcacscjbPbLbHb]b2cZb5cncZaIaccCb9bNbAa,bma5a=b;aVa:crbva?b[bIcJbOa]aTbbb}a[cwcwcAcUbYa!apatbpb9b6b|bJb!cpbZbLbeb(b&b6b6b\cqcqbMb+b+b8cCbRbWcGbJb&a\a8bnbla8a-a-bgb3bGa-bybfb|bNb2b>bDbQbsb6cNc9a+",
"a2aPaDbab/b[b\cab\cecGcacwbTbOb.cNa^b;cibVbsb}a/bQb4cdcKcJa1a6bZb|bhb>bNbIcxchcucXcdcgcMcScxb=c9cJa5aNama(bvbCcLb*b?cqb%b`b?cnb_bzb|b1b|bhchcaa(cKcnbzbvbIcgcxb?bAa}b?cna7csbLaIawb.bSbwbecsbvb:bAb-bfbAb+b|cdcZa+a|a/asawb8crczbWbzchb*b9bsbfbTb0b1bPbfcibrbsbPbSbNa2aWa[a.a*a^a(b&csa?aDa^a(b2bvb&a:b2cbaQb`bibfbDbRb~b&becWa[anaob1cbcsb2cjb|cbb>b|csbsb]cEb)cKcScIa7a~cpcTcTaNa/b7a-bzb=cqcKcKb*b*cLcacsctcwbTaVb3bea/a_bWb|c6cMcpa*asagbicJb6b9cqckcecrb}bEb:b,b>bJb|cjb:b|cya?crczaxaba-baa\a{bgbQbgbgb3a[aQb3b:aPb:a~cNbwbga-a^btb-cicPcVcAb6a]aqarbQcqb9clbTb!cmbZbUbCb{b|bPbNcib0cubvcvbMb8b\bRcucxb7bLaPa^bYbTa)a<bpa^bTbSbabLa:ctb2b1b&b2bxbccbcmc$a,",
"aQazaMbNcucdcocfb|b/b:bLcAb3b;b&cma[b^b7blb(b}a*bubQbOb:cGbra(bTcfbrbTbPbvb/b5b=cucacMcLcQcLb_cocla5a,aoa%a?b)cnb%cocKcYb_cgcnb5b6b=cacaa`cMbDa(cCb?bka?bWb5cxcub2a(cgcga1cfbVa2aMb$bPbvb5cvbNb8bSb6bGbVb|b|cDc2bba6a5aparbub0cub+bRb6b9b2bfbab6bXbXb|a?cib0bDbMbfbta-a_bvbDbObjb2b0b`bhbCbPbhb`bhbXbrb[cja7b\bXbMbWb5cnb1bicNa*akaqbGa[bybVa]a<bHbLctbBb&b:cQbIcKc2cMb0b0cPc2b9a,bmbUcjcea7bMcub_b?b`bMbCbzbja~b2b9csb|b2bTbua1b?b`csbjanada>clb[b`cacOcfb\cpa~b2b!cibJbBbQb&b&bNa~cmb-amacaxbUbKbcbga0babfbvbPaQbqb}a~b4a&cZbmbxa\a~bbcmb]cQc7cWbka=aqaGbBb\b9clbNb]cjb4b$b>bpb-bkb8cibRcubAcNbrckcabOcocubUa_a1b!cXb_a,a#bBa[btbNbAbPa:ccbNbPbUbKbQb4b}b(c7a]",
"aQaDaGbOb,b>b[b+b}b>b&bPclb>b&bDcwbPb^bHbactb.a8a?b<cqcDczbRa:bSb\bzbzbNbRb~b=b*cdb0bRcPcDczb?b%cta5aRaia8aQcgcKb%cqcKc2b~chcSbIb*b*cdcnb0cSbPaVcFb0a>bPb5b%cucKbJaQb)b[a(b>a=anapbob0b2b=b_b+bRb1b!bKa\cacocYc4a=a3a,auarbMbIb`b2b0bRb?b!a}bfb6bNb1b{a>b+bRa\bTa;a?bva:a[bibkbsb!a~a%a}cfa%bXbXbib/a:b1b]a7b|b\b5b0cBcqb%bIcNa2akascjbSa?cwbTbfbUbxa6bGcqb9cQa[bIcYcyb=b%cDc!c2bRcGbMbzcIbrbickb5bRbRb0b\cCcDcRcScIcPb+b\b1cib|b=cxcCa:anacbhb}b[b9b\b/b/ckcFbWb;b&b>bJb}b|b\b\bKa%cCclaqacaia|a{a+a=a<bma^bjbsa6a~b:bObaa6cfbSbLa<a>b^b\cacXcIc9b2a,apaDbRb*b~b>bNb&b^b!b2bSbAb|bfb/b?b+cgbJcvb0cRb?b[b|b7bmbBbdb\cdb~bQaUa\a#bTa}bJb&bvb}b+b8bYbOb>b-b^b4c1a=",
"aRaoaDb+b/b\b>b,cFceb!bPb>b&b,b]cwbObUbBbBb$bHbAa~bGcgcqcdb)a>bAbvbTbvb2bWcdb=cqb,b1a1c1cXcxb*cUc1a9aYama)a7cdcnb_crcqcOb_cDcQa>b5cub~cqb)c0b/aPb+a:bdcob*chcncxb>a%bIcna>cxbUaeacaSbPbPb*cxb+b2b!b!b/b/b?cucOc2bga,a$awarbMbOb3bMbCcncab8bha?b2bPb1b>bfbDbSa}b]a.a2bPbsa?a.b9bRb8a`atb2b?bvb)b)bhb/a?b)coa`cub~b?b)cxcBb)b)cVa2asatbPb^b-b&b6bpbmbgb2ctcrcEcQbOazcrcub5b=bWcDcDbWcub=crcdbvb=b~bRb5bzbvbMb1cechb=cMcJchbSb&b[b0b5cFbQaVasagbPb&b9b1b\cib|cCb+bNb|b9b(bubJb-cnb/b/bdcTcTaUahaGa9a\bHcRcPb&bPa6a6a*a(b1b|bGa.bTbPbVa&bicZcBcqcYcYc5b(a,apawbGb~cgbPbkb8b8b8b8bKclb<bpb+cacubRb+b8b?cBbPb+bZbGa*cba?b!bNbPbmaVa3a9bGbpbHb4a(b!b;b!bSbJbPb]ctb}c5a=",
"azaDaPbZb2b]b2b!b]b&b-bSb7bHcib;b(bkbZb7bybUb7ccbpbHb8b+b+bCa+bBbebsb+b\b)cgb=b~bTb>bIc3cxcDb?c(cWa5aUana:a7b*b*cLcqcgcLcdcXcTa1brcsb=cyb)cBcLa7bfa)b`cia}cqb_cKc0a;bvcsa%cdctawada=b2bNb0cCb+b1bNb^b<btb%cBc0c4a]a0aSaqajaPbrbWbPbvb%b%bJbvb8bJbWcfb|a(bDb|a>b/bza1bNb8a}a?cdb=cgb5aMbtbIb)bRbWb0cqa(bMcibhcebMb5b5cDcub=cxcTa(atana\bAbBbsbBbab6b&b[b\b5cncScqa;cacFb=cBchcTcIbrb~b)cxb?a:bObWbCb_bOa?bYb_cQcecncBckb\bAbkcfcCb5b)cja;asagbNb{b+b6b9b|b_cPb,b3b!b&cibDbPb8b)b+c0b5cOcqbVazbma#bhcHcYcKcib/aVa8a?a(b+b1bkbpbLa(bmaBbIcVcOcDcXcYcWb2a,aqatbcb?cxbAa{b!b!b7bLbSb&b!bKb9b+clbhcobAcBcnbDbdbaa,b`cibNbDbAbfbtaVbPbaa+bBbcbxaPb2cqcgb;bJa}cccfb]c3bu",
"axaxaGbBb+cfb;bScjbYbYb9bVbHcfcFbZbcbmbAbLbAbHcpbNb>b=b_b8bXa3bka[bub[cscxcdb?b?b?cnb%cUb0cub+b`cla=a,ana:aPbIb*cLcLcdcIb=c2c0a%bdcicqcOb%cgb/aMa?bacQcBa>b/b_cycYa}bdcFbvbCb!aDaka_b8b1bXcob0bMb6b<bNb;cxcgc0cSa+aUaJaqala7a>bXb}bhbpb1b2bkbNbkb2bSb\bvbIcPa6a*bAa(bzbMa{a?bMb?b`bIaMbDbPbCa:a1bXb%bkbXb|bCcsa~b:bwcecdcgchc$a:asasbDbPbBbabpctcCbCb/b6bAa}b0cfbdb`cQcqchcxcQcra}cdb%b?b_a;b%bMb%b*b*a;bva~b3b1a[becCcFbBbcbNcfcdcucvbhasafbactb`b/crchcickb!b&bTb&b]bDb{bXb?cocPb0cibvcUb+bsbbbWcfcqb*b*cKbtbpa[aWbrb{bTbAbSa{a|a+b*cZcgb?cWc2cVbYa0anara<b_cLbJb&bSbUcca{bFb-btb2b;bDb`bCb\bCcOb5cub/bcbHcHb)bababtbAbabTcma:aRbAbabma6bBb\bXb^bAb1cCcicwc$a]",
"awaMa3btb&cpbTb9ctbgbQbQbLbQclctb4b$bmbtb7b3byccb]b]cEcSb+b`a6bqa?bub>b>chb|bzbkbCc3c9bNa?cib=b`cJa=bgaqbbaQbOb:cKchchcyb)c2cObdbCcxcLcKb%cabaaMaIbUc8cKbib9cncgc#b5a.b:bTa%b!aXawbVb)b%bMcHbtbNbOb.bSchcncgcVcTa4a4aTasapa?a;bDb&bJb1b1bJbAbAa.bPbfbDbNbvcva?b6b;a(a(bNb!bDa}b?cnbraQbGb0b0a(bvb8bMbvcncebvb;bDb[bIcqcgchcDc7a%axaqbSbTb6cjbzcpb_bCcIb1bDbDb~cubMcicYcqcqcrcXcKbMb0b)b=cna(b)b9bRc0c4bIbla(a~b>a_apa#bFbga3a+bLcgc2cybiaxaia<b^cib/cpb}b]b-bHbBbSb2b(blb&bPceceb;b/bQa(cMb\bfb|b0b*b1bCbvcJbqa[a+a3bfb-bHa]bWc9c#b\b)cYcUcncJcIcNbZa_atara_b~cPbBb4babQb.a[bmbUb-b&b!bNb/bzb2b+cPbrcObwbUbyb&babfbfbqbHbHbucbb7a8bmbpbAa6bmb;bscvb2b2b<b;clc&bA",
"ataxa`b2b|clbNcjb$beb4bQb2b2cjb-bLb.a{a<b.bGb7bAbQbgb9ceb0b0a2bla&a]b6b]b3b1bGa.a^b7cJa?arcicgcucJa!a<aqbMbvcgb=cEb~cMb*cyc0cra(bRcgcqcqcqbrbPbPaMb>c0cxbIb1b*b_c0cXa>bfcFbibPa:aQbLbMb+bCcBbfbSbsb(bNb|cqb_cEc0aUaRaUasaoa#a7b2b!bzbCb2bNb1a<a.bJbNb2b{a(cjbDbDb\bRbJa?b!bXbhcnb+a}a;bPbRb[bdb[b=b6a;cucCa`brb/b~b0cgcub*cXc3a7awapbLbEbDb&b%cqbDbMbLbHbubmcacvbCb+cqcdb)cncKb~b%bMa:cgcra1bIcqb5c0cSb_b5b9aPa#a!aoaPccb7bLa]a!bicfcyb1aNamaVb<cFb~cEczb/b!bJbTb^bLb;bNb/b`b?cxb*ckb6bMcibWbzb[b0b%bfbfa:cBb!a?a#aRbGbebAa-a;cXc#cYb?cMcLcDc4c!cpbsa,asapbab5cLb`b%a<bKbZbcbmbub&b2bNb!bfb-bRcKcab)cubkb^b2bQa3a-a^a?blb:a[bAbFbUa9a9a<a6a]b>bab]bTbeb}b;b>c7b6",
"arasaPb7ckb2bHb7b7bBb-b!b>b2bVb7bJcHbya2cbbGbKa=aQbLb:bDbIb:a.a&a[a-b/b/bJa~a~a*a]a6bkbNb)cBb=crcZa<a4aob2bhcrb_b=cqcTbdcQcXcqbhbrb2b)bCb/a;cDcObvcMcycrbCbMb5b5cqc0bfa:cxb%bma.a(bubMcgbIcDb5bWbTb>bJb|cnb_cucYaRaTa4anawa2a(bSb|bDbza~bPbSbea&bNbAb2b6a1b|b9bdb6b6clbda*a1brcebrbia;a~b*cda?cqb9b9a`b\b]a~brb!cgcBb~cxb?cxc3a1asanbUbebwcpcFbva_a_bLaTa\a&b+cnbRb?cib0brcecxcxb%b)bib_cza;b9b~b3cEa?bvb9b9boatauaEanb$b`b2b.bHaQa_cybMaJamaIb(b\b1cpbSb-bTbUbHbAb6bTb6b2b8b*cNbMchbRb=cfbvb=cqbMb0bfbva?bJbGbla#a2bTbabta+bebEbRcPcncBbWcdcQc(clbfa$asanbkb%cobAb&babQbHbmbubBb&bNbsbUa~cjbRcBb%cvbJbJb^b<bpaMa3babHbUbsbBbYbsbUbHa9a+a&a+b\bPb]b6bzb]b/cCc9b9",
"ataMaGbfbQbbbmb7b>b:b;b;b}b}bLb7a{ccb4becwbYboa]bDcwcka7ceb|a[a-a2aPb2ckb3bJb6b6cfb8b8bzcgcKcrcSc3a+a!aob0bzchcqcdcucnbdc2cOcnbrb5b*bRbMcebCc2cKbIcMb*cdbIbDbWb*b)c2brbIcub?bKa\bcbcbzcla>cLcfbRbvb6cjb,b+cacgcVa#a4a0anawa(a%bNb|bNbDbDbkbza[a[bBa~bkbTa%b[b_bCbvb5cxb_a\aQa(bza(a~a%a>b?b?brcDb2b0a?cdb2a:bMbXb_cBcxcrcdcOc7a1axaga.bGb_b%bEa&bobybVa|b7a_bvb/b[bvcvb/bicfcHcfcdc0cncyc2a?crcgb0b2b!a}bwbJbHa&a0auasaBb>b!bLbGbGbLcCb1aLamaQbHb6b=b|b[cibNbTbNbtb!b2btbSb6b%cob5cRa?crb`bIb?cnbRb6a}b;bvbCbNbNa&a&bSbDb4a.bmbbbJcjcdcQb=b=cec4cJb3a#ararbub5cubabGbub$bpbtbGbLb6b6btbJbvbTcob%b;b2bHbUbxbZb$a#b|clbcbLa<bcb&bTb$bLa]aIbfa6bDb!b]b&bzcmcCcFcZbS",
"ataDa6bgbUa]bkccczb:ckb{b}cmb2ccbJcjb(bfcjbSboa/bMcZcEaDcucxbea1bNbfb:b1bUa&a{b!bSa}cTcLcIcqbOcYcVa!a=aqbzb5b?cqcxcqb0czc0b)bIa;b?cqbRchb)czc4crbrb\bCbIa~a8aVblbCcYbMa%cBb~bzbkbba?bIcGa;cEcybMa?b4b|bNbWcacCcRa!a]a$auaDb*a%bvb6bPbCb2bla[aZa*bbbbbDbNbdbDcBb?a}b0cncnbTa7a+a#aVb6a.a.cgcgbMcLb0bRa7cybJbfbNbXb_cgchceb?cTc7a1axadaLbnb9a~aRa|a$a/aUbQcAcpa,bob{bicabDbib/cqbMchc2b9b6c!bdb_czb?bIcQb9a^a^a3babyaXaNaqaIb^cJbJbTb:bUa&aHakaWbbb2ctb|b\b-bkbBbGbBb4bLbQbPcjb9b[cgcSa?cCbMb0cdbIb;bPbvb1bvbha>cja<a+bubLb}aQa^bgbPb>b=cIb~cKcrcTc7b/a#awatbmb5cyb3bGa{b7a[bububGbNb!bQbpb1b+cab+b!b2b<bPbQcjb$bfbHbua_a_bgaWb7bHb4bBbQa6bAb<bjb3b2b;bSb-cacGcVb2",
"ataxbJclb;b]b2b|b&b&cwb&b]cmb>b!btctbubuclbtb.a_b5c8czapb~cybzaPbWbNcucgcGa`clbNbHaVcRcRcrcMb=cecAa<a=aoa1b2cdcrcLb=cdcScrbhb5a;cxb5b~cybIcrb=b9a1a?a7bta^bba[a6a%ckcYa1bRcLbrb2b1bNa~cJbrbWcMb_a&b^b3b3bRb[cZcsa9bga,aoaMb=bIbRbPb!bkbDa#bpbsblbfbfcab:bDa?cxcnbzbMcab?b&b6bqa^a1cra[a*ceb9bCcHbzb6a:cwbfbtbzbDcnb~b=cncycqc9a8aGacaQb7bQa6axaRa0a$bVbga!b.bZa|bQb4b/cfbrcdckcrcwcsbEbOb&a.b5cDchcub|bia?b+b$a^a-bLa]aXaWa_crcQcTc4cma^aEagata!bscmb$bGbLbBbtbtbGbYbsb4a~ckcab5cqb:bCcebdb/b_bRb+bhbsbNa^a&aMb$b#blblbbb$a6a-bgbEb:bIcyb=cOcgcXcAb|aHapatbGcqchb&a~a-bZa[bUbGblbLbHbBa~b;b{bMb;b-b2bLbGb>clcmb.clb-bca<bUaWb;bSbma+bGbxbab7a8bYbDb6bUb7bNcVc1bS",
"aGata?cbcOcUcAcJb&b;clb:b]cib!b!bqcwbqb:ctb3bca\b0c6cTaoaVckb;a1bSb6chcgcTa?cncub]a}csb2b_czcrcKcta-a|ana.b\cdc0cMb*c2cqbOcgcIbCczbOb5b~crbIaDaGa+aMbNcebCcdcKcna7b0c6cna1cabCb?b?cnbzceb9a?chcea&b.b&b2bzb2cZcsa_a|bmauarbdbCb0bObObsbNa~bsa{babfbAb9bWb6a%b~cdb1bdb9b=b+cab3bScqcMbja*crb5bhcvbibNbscwa?bJb6b0cIcdb5b`crcrc1a(aAamaIcwbmaIaAaLaHa3a]a]a|bxbVboa=bLb1cqbWb0cJbOb9c7a[bqcta1bvcsbIchb9bJa2bUa^bYaTa|a*bQb7a+aQbgcQc2cWbeavagawa=b2cbbBa^bma\a^bAbEbOb7b9bJb2chbIctbvb!b1bvcRb+bra~bLcicTcjb2aLa_b9a(bga_bga-bubUbcbQbzchb_cOcgc4cJcGavanatb3cqcxb#a6aQcca-bZbmbGbTbtbPbkb2b/bSb2b&b]blb7bLa^a,aSa9bLcAbPb<bAbDb-bHa-bcbLa#bUa2b7a~b-b6b&bNc7c1bS",
"aGaza[b$b]b!bJb&b9b]b|bJb-b;cjb|bGcAa&b}cwchbLa_bvcTc2a1aMb~b{a1b0cocab:cbbJcncxcRcxcqb*bvcKcxcQcta6aSaia~b,b=cScnb_cXb~b)b_chb)cqb=b0b~b|a%a<a2a2a8cOb5cncqcXc8cna:crc2a*bqb0b1chcLb_b_cgb~bIcLa(b2b&bTbNb+cZcUa,a/a]asara*bNbrb1bOa^bsa*bubebbbAa}b2a(b8a>a?b`bWbvb\bRb6chb:bJcOcLbMa;cucaa1b-bsa~bicfbfbTb6b2b?b~b*cqchcncUa2asaraIb.a<aTaIaEauaua]a=aYa]bybobHb.b5cLb)bRcZb~b3cAbHaQb^awa7cjbMbzbsb;a~bScecaaIbbbuaWbsbHbsbQb\cycJa1axagaza/b(a*a3bka<a,beblbNbPb3b9b}bNb}bvcma~b!a}b5cLbPbNbDcsb`cvcTb[aWa6b.bEa]a^a]a6bsb#bmbHb0cob=cDb~cXcUctaBanarb3cgcdbLa6a8bHa[b7bubsbSbJbLbebNb;bPbPb|bza~cja$a0a]aKa0a4bUcmbSb|bfb6b-bfa~bGaPbVa}b>bib+bGbObEcVcAbH",
"apaDbTb.ctcbb&cbb|b,b.bzb}clb>b>b/cGbfcic0cebLbGb0cXchbda8bOb^aPbrcFcab8b\cqckcicXcOcFb_b*czcgcOcpaRa5aia%bDb?b~b)cXb=b5crczb*crb)b0b=cgbCbDaGbca`bXcyb~chb)cLcKcKbrbOcQb=a?b+a>b_cBb3b9bIcQbrcBbNbvb2b!b&b;cPc7a#a=a!apata[cEbvbTbPbtbAa.bua\bfbva{b+bicobraQbNbJbeb=b5b|b6b*crcqcrb:a;cqcka1cfa}babCcobPb[bRcvcgb=b=cqchcdcNa%aqawb}a^aNa,aEavaSauaYaLbya,bobmb(bVbNb\b*b%c(c0b0cGbFbab{bDa}cvb\bibrcFbfb|bGbsbebTcmbYa8b7b&b|bMcac1a;aBafata|bca&a/a*bZbqbUb4b7bGbSb&chb=cibzcsbrb8a}cucnbzbkb:b3bDbJb1b+cAa(bsbLbma-a*a/bbbba<bub?cDb=b)cMcrcTcjaBaoarb\cKb~bMbja&bQbcb7bAbPb&bSbcbabTb6bRb6csbhb+b!a$a!a$aKa$aYa<b.b6b&a>bNb]bTbAbAa3b.bNb&bDb-b3bGbHcWcAbt",
"ataxbVa<bubQb-ctcwb&ccbtb>b^b7b7b|cibscpcUcnbGbZbRcMb1bwa:bNb4a#bvcvcibIclcsb;b;cucBcPbDb0cEb=crcZa1a5aka1b6b*cdcKc0b0bebOcrchcKcdb0b?b_cabva1b!a{a:b%cocCbib1b~cqcYa;b=c8b=b*b1b~bRbvb2bNb2b*b)b;bMcib!bTcjcic%a=a_a=asawa&czbrb8bAbkbKa>bPa3a>a)a{b2bDcvbia}bTa}a}b_b?cLcgbvcacgcqbDa}cJb/a:b\bJa>bNcibhb/b%b5cgcqb~cIb~cIcNa7apbabKa9aEaEaUaUa0auaUa=a=a=b7bmbLcAbBb&cvbMc2c2cScnauana+bUbCb|a[a2b|cia*b4b1b/bzbzcpa^bHb$b|b}b2cNc9a7aJagaDbgb4bua]a6cbb$bAbQbeb$b9b9cebRckbzccbJbNbPcqb*b0b6b&bDa^a_bsa*cwbwa*bQbua^a3a<bxa{a^byb+cEbra(c0cqcZb.aAanawb?cQb~b,bqa3a|btbZbNbJb+bPbcbcbDb8bNbPb|b3b7bGa$a!aYa$a5a$bxbKbUb6a>bPcjbNbta)a~b^bNbJbGb4bTb-bQcJcVbg",
"aVaQb;b&bua.aIa-ctb>cCbMb>b}bLbGbLb^a~cNcOb_bAbUb!cfbfbaa^bBb$a&bhcsckbDb|cEa^bHb1b/ctbka;cKcXc0cWa3a4ama1b;cucnb?b)bOchbOb3b)cgcgb_b?bMcfa(b+brbhbpcHb0a(baaXa9bzcyb0bdcgcXbRb)bXb)bJb1b6bMcXb%cvbNbJbTbTb&cac1a+a<aEanaMa;cFa`b6bfblbBbabSa(bka:babRbicabva>b9caa7bhb2cxb_bjbOb~cDbNa}cucdbrb;bGa.bkb&a;b2b6bvb[cfcqcncrcXcGa7apanaqasauaAaTa0a<a0a3a]a$bmbQbobgcjbtb2ckbNcTcrcScXcfbrbvb6a(bea;b>ckb+b(a[b/cFa&bgb:b3bmbyb|b6b`c1claMaJagaxbtb1b+bBbsbQbGbVbHbcbybkb&b/bCclb1b&b&bMb|cvbdbMcebTbla6a<a8a8beb4a8a]bpbtbQa\bHbubebGbWcvbDa%cicvcZbVauakarbXc0cncgbPa<a3bAb!bNbzb;b1bsbebmbmbqbTb|b1b6bsa=aNavayaOa=bQbcb>bDa7b>b;bvbtaWbqb4b&b;bUbGbBb4bBcGc3a=",
"ata3cecIc$c6cba^b7b7bqblb6cjcbcjbxbLbCcZb]bvbGb7cub<a`a>bPbTb2a?bdclb|bXb;cibubsbTbTcca}a1cscXc!c3a:a=anbrb`cnb?bIb+bWb[cncqcib+b5cob/b[bPbCbfbaa{aGa3a<bCcvcgb+bDa~ceckbhcFcnb*bCb_b?bCb%b%c0bWcqcgb&b&bJbfb}cVa9a|aBakaMa%c7bCbTbkbMb1bfbSa7bJa(bfbrbCcsbIa;b+csa`a}b&cabRbdb1bIcOb+a`b?cDbCcnbCbvbMb;bhb2bMbib:chcIchcgcQcZa1aganayaAaLa3a,a<a_aNa!bQa_b7a|bobtb^bUb6cibCcqchcXcOcYcBb%cgb1b1bzcacxcgcQbzb&b3a?a?ctbTaZbgbNbTcnc(b3a1aHagaQb8b/bMbzb|ceb2b;bSbtbVbpbPb6bzb\b/b8b|bRcPcubdcncdbpa9a9b(b{a{bAbpbQaRbKa\a+bGa\bVbQbBbWcGckcia&b9c3bQavakatb5c2cKcRb%a#bpcsb}b6bsb%cfbNbJbAb6bGbLb6b-bHbHbta=a!a,a{bobfb3bPa>bCceb2bkbBaVbAbSb>bPb3b3bUb7b4cAc1a/",
"ana-cocHc4c0bUa^b4a?a#aVa#a#bmcbbAbQcacNb.bEbqb(cCb6a:b8b2b1bUbea}b|cab2cucLbAa%a+aPa-bHaQcXcYc2c8a?a,apbrcDcDb_b_chb?b_cRc#cLb0bsb!b6cabza~bAbAa7bka\b8bBbta[b+cycebzb|bCb5cLbMb5bCb1bRbrb2cYcdcucqb2bPb>bTclcAa!a|aYaoaIa&c9bhbvb2bIb?a~bSaVbNa%a~bra>csbWa(cab|a%a?ceb~bWbIb+bWcDb+a}cgcdbvcaa:bkb9cba~bNb6bwcgcfcab[cdc5c1a1apaUboa3a,a]a=aSa,a$bga|bpb$bubLbubQb-b&cdb=cqcgcScXcKcxb0b~b=cdbIb2czczb!b!b3bLbRcob}a:bLbQbSb]cPcOcTa%auaka(cscPb`bJb6b,b2b,b:b6bTb-bkb&bNb-b2b8b\b%cWbrb2crb5a}bNbcbca)a9cfbpbAb7a9bpa1b(bJb&bUblb6b!bDclb1bNctbZavaiatbIcQc0cSb0a\bpb!b!bqbOb,cibzb&bLb|bJbSbBbQbmbubpa{a]a$a|btbSbJbua.ceb9bSbzbLaPblbGb|bzb7b4bLb(b.cAc1a9",
"aja*cycIc6cQb[b6cLcVc1b+cGb#b3b$bsbLb!cGbHa+b<b!cfb!a3a^bvbNb}bva&b3cebRcncub6b/cta&aXbKa;cBcQcXcWbaa]ama[cEcgb=cdcScKbCb`b`b!b8b7bubPb-bAbAbqa~a{bkaPa#a9bAbqbba[bBb|bicBbCcLb_b-bfb+b)brb1cgcSb`b`b]cpbTbAcWc3aLa0aNana3aPc1bIbJbNbRb<bvbPa(b2a%btbrbvchb6a?b+b\bra?b&b\bCcab%bWcKb8a%cvbWbIcia7bDbzb!bIb_bSa:b/b[cgb?cKc!cGaIaoaLa3bobKbAbga_a_a!bubQbyb.bVb.a+btb`b{b?cgchcgcLcgb+b*b5cQb_cqbDbObOcqb6b6bWcacncXb8bDb|bJb+cJcQc8c3aVaLama7cicHb1btbcb]bNb,b9cab9b!bAb6bNb!b2bsbUb0cObdcDb,bjbTb]a3a{aHa4a\bta+bKbQa^a]bmb<bPbUbGb4a?cacscZb|bKccaEagarbvcScOcxcgbaa+bFb2btbPb[b|b\b/b1cCbNb!a^b4bpa\bZbVbpbVb^bQb4a[bxa+a[bLbNbSbLa1bGbbb^bqbVbmbLbQbmcpc1aN",
"aja*cDc0c2c!cUb_cLcVcVb[cicTcZcFbQa[b>cmbAa3bUbyb6a{a?a.bJbNcibza:b2b>bkb[cscEb\cCcucsb;bvcLcScycIbja=apbMckcychb*cecgb5b6bWb{b!a<a&bpb6a{bNbbbua-a6bmb$b;b|b]b9b|a~bMb1cnb*b=b*bWb9b_b=b5b)b~c2cfbMb6bNb7bQcbc1a4a]aSaka>aVcsbIbSbsbWb\bMbWa}b;a>bXbzbWb=b_a%bzb]a(a:bWcnbWb`b?bRcibza%cva`bzczbCb2bzb+cgcgbXa`cncncnb=bIcFcwa7aqaAbubVbQb7a|a/a|bubBbVb4bUbgccbubtbXcicKcOcBcqcrcTcrceb*cSceb9a2bLbeb]cFb%bjb\cncBb2b[cncncBcDcDc2b:a1axamaVbUcab1b2b2bTbTb6b6b|b>b&b6b!bAb2b!bAb!bOczbCcQbsbJb/ckbcbxa[cwbAaMbHbubQa.a_bHbqbLbmbgbqb4b|bDcWcZbZcJaEaiatbhcqcncgb?b]b2cfb1bJb!cecactbNcocUbNcpbebLb7bebyb7a9bVbZbHa^bxblbebSb6b2bPbzbvb!a~b.bsb^bubHbucAcccWaS",
"ala#cyckcDcMb>a~cececvb6bSbNb;b6bUbebGbYcJcbbebBclbDa.bxbzbNcjbJa(bTb6bfb1cvcRcqb0b6cjb-bvc4c0cQcha\a0apbvckceb*cOcLb*cKcQcnb;ckaTaUa#a+btbAbLbpbta^a*a^bqbqbbbBbRcibdb;b0cgbCcFbrb+cKchb+bWb5cucab=bOb&b7b7aTbla$a,a$ana>a(cQbRb0b2b5cgbzbra3bfawawa(bpb=b_a:a~b|bIa>bCcdbRb?b5bIcsbMa?csa(bIcrb=bObOb\cBb?b|bdb_cdb=cnbWcvcma6ananbybub7b(boa-a3bUbYbEb^b4a_bVbHb7b?cucqcucxcXcycMcEcrb0czckb9a1b#cebOckb0b2b+cScrcacrczcMc4cdb%b%cpa?aqaia.bzb[b/b6b\b-bSb!bSb}b2b2b]b]b2b2b>bDbTb_cyb5cRa;b;cacFa*a*a^bUb^bBa-bca=a9bba_b7bBa_bma#bpb3b9cLc#c&cNaEaiawbvcyb)b5b)cub+b2b2bWckckckcHb0cDcSbRcHbMb0b;bJbua]a]bLb.b7bmbAbkb|b/bDb2b2bjbSb#a*bZbmcpb,bVbcb.cpc)aS",
"ala9cDcOc0c#cHbJb!cJcwbNb7bUcvcea^b7bubucZb|bsbeclbPa^bQb1bRcPbWa2bqbSbkbXcfb,cjbMcicFb+bIc2c0cKcha8a4ambDb1b)cgcrczb~cOcOb_bJbJa,a3aZa!bAbcbGbUbga&a[b(bQbGbla?b>a(bzblb*cBbvcLbRb~b*cxbNbMb+b9csb+b7bHbVb7bHbQaTa$aSaoa>a>cObRb\b;bCb?a}aMaganayaqaDa\b5cna7a(cnb%bCbPb%b2bvb1bOcEa?a(b|brbCchb6bib2b/cnbRb|a:b?cHceceb?cYccaPaoarbZbVb|b|bGbUb(b$b7bHb7bmbFbmb3b|b*cub?cBb~cIcQcMcyb_bOcrchcEa8bObNbNb9bqbDb%c8cgcucPcYcQcTceb=bRb(a6aAagaIbucrb~b-b2b&bkbPb{b{b/b2b|ckb+b]b;b3b2cOb=cEb=a?cmcWb2blb7b]b&bpb7bHbUaQbbbya]a]bUbca8a6bQbeb7cscVc$c7aSaiatbCb)b5b*b?b|bMb6ceb[cickb[cob`cncObWcFbRcncCbCboa,a\bQcab9b2cjbzbScnb~b1b[brb*b9a*bUbbcib!b$bLbybHcNa,",
"amaWcncFcQc#cRb9cacJclbJbTb}cvb[bUbQb4bqb>b>bbbmcpbJa^bmbXbPcHb1aWa<b!btbTb2bOb|bGb9bTbYcLcSc4cqchaWaHambNb,cqcgcScXcYb~cDb=cobMa/aLa/a,bga+bubca^a^blb(b&bOb2bTcRbWbvb-b_cqb/b?b8cfb*cxcab1b2bDcjbJb!bKa&b.bHb.a!a0a0aoa>a`bRb5b-bPbvb2aRaoagadaoaHa7bNbWcua?a?cqbRbXbrbPbka(bTbWcLbDa.b+bJbickbAa(bDb&cab[b|bCcncqb5b5b)c2cAa6apaXb:b,b!cpb^cfb}b.bZbAb^btb.b}b!b|b=cDchcYchcIcYcIcgb~b0crchcYa2a+cibvclbIbObvc!b~cicPcEcYcocfb~c#cNa1auagaqa*cOb?bNbkb}b6b:b>b\b/b/cab[b`cCb+b\b=cMbOcSbRb6czcTbictbzbAbtbfccbAbpa-bybtbua/a]a,auaTa_bUcbcucRcFc$aNagawbIb0cMb)b?b\bOcab:ckceclb>bLbTcecMbIcib6bMcfbrbma-a?cib\bIb1cMbzbjb\b*bOchbrb\bbbeb7bub]bkb4bbbUbHc3aN",
"ama+cqcEcyc#cScdb/cFcia}a[cbclb2bTb2b$bubga6a/a_cmbza-bmbLbqcibNa&a]bTbjb&b}bNb-bNb-bHbHc4cycgcQcka*auamb5cncKb_cQcKcOc2c8cKcebMbxa\a/a-aXa+a]bcbma\a<a)b2b!b;bkbNb-bMb!b_cnb~b5cubIb1cqb[b[cab0b:bOb&bNbAbFbmbZbma,a!apa:bfbCcycvbMa~bTaQaWaqaiarbta}b9bCcqbra(csbvb!brbSa~a^blbdb|bva.chbWbjcebDa?b[b2b6b~b+bhb)cxcgcrcdc2bQa2aoaNbqb$b=czclb]b$b.bUbGcpblb^bxb;cJcxcXchc2b_cqc0cgb*cqb=crczbIafapb}b1cebRb*b*c0b5b|cEcMc!czckcdc!cTa.aAaeaIa]cnb~b-bAb4blb:b,b&b,b\ckb|b6b:b2b5b`cMb)cXbWcgc4cdb?b/bvcFbzbtbHbQaZbya_bgbsbtbma_aJaJaSbLbHb%c3c&c$aNagarbrb5cYb)cnb[b0b9b9ceb\cjb!bqbqcocHbRb[b{bCbJbNb,a~bJb!cjbwbEbzb3b3b1b]b1cebdb+a^bUbtbNb]bkbQbHbVbyc5a8",
"ala#cgcQcrcScrb9b%cFcrb|b2b>cbcba7b}b,bScmbwbLbgb|b!a&bsb2bzb]bva8a-bUa[b]b}b|b&bqb(bUa1czbRawczcNa2aBanb5cnb*b~b=cqb_c!c!b~bObGa/a*aRa,a/aZbcbca\bma~bqbSbNb?cPb+bCb{bDbDb!b0b?cab%b6b\a[b\b:b\b:b&b-b;bZa]bDcVbobxa,aqa(bwb)b*cybWa:b;a^b1bTaMaVbmbhbNbvcubvbvcPbrbzb0bCbNbvbka?b:a?a7b|bCbhckbrbvbOb0bCb9b5b5cdcgb0chcgc4cwaVaoaAbTbYcycHcjbPb6b]b3bOcmbecpb&b2b|cBcXchc4b=czcSb)b=b=bMczcbaMaeaBb6ceb+bCbCcxcIb5cScYcBcYcsb~b=c(cIa7aLaeaIbHb\b=b*cab>bOb|b2b\b\b\b\b9b,b!b2b8b+cYcgb\b1b)c8b1cra(b6b>a(cbcbblbbblbEbQbya[b|a_aWaRbga=a4a?b^c%cVaJaganbvb*chb*cdb[b)b+b9b&b3b)b`bRb9cdcBb?cqcibIcdcRb5bOb>bNb4a&bSb6bQbqbRcobMb/a}bTa[bQbqbQb:bGbQbVbHb^c5a8",
"akaTcdcMcScMb3a.bdcjcbbObYclbTcma~cib/clcfb!bsbscAb]bba-bPa~cjbsa#a9bVa-b=czcbb]bzb&bYa(ceb1atbYc7a&axapb&b:b9chcdcnchcKcrbIbubma#aZaRa4a/aZa<a4aTa!a8a]bfcmbebBcqcnb9b9b1b1b1b\b,bNb>b!bzb#b1b|b2ctbQbeaDaRa~cbbmbVa!aqa%b~cMbCb\bMa:bDb2b6bzbNa3btbdbzbrcnbvbrcPbdbIcaa}bPa?bjbickbEa1b2bza?cqa^bOb5b|bWb+bjb:cdb~b0b0cgc6cZa(apaAb3cjclcVb|b|b|b&b8b\cvbMb.bybsctcKcXbIcQcEczbMbYchb1bwcMcFb[anaqbIclb+bRb0cBc0b*cOcVcBc0cyb*chc!cEa~aLaeaWbBchb=bMcab>bDchb:cab9cfb+bPbJbTbPbzb!cdcnb2b2cdcSbWb+a(cAa&bzcpbwaQa]b2cTb(bjb-bTbHa+aLa_a!axaxaLbEcpaTahamb0chb5bWcqb=bIb[b+b0cab/b8b+bXcdcMb_czb*b1cQcSb&bDbYbsbLa.bEbTb2bNb&b:bkbNa}bAa.bYbLbUbQbQbUb7bEb9c7a#",
"ala)cQc2cScSc!cBb5cNcfa{blb^cCcva{bFbwcpb;b!bxa_cfcsa<a<bua8ccbNaWa6a_bmbzb>b|cqbzb,bOa[cYchazc4c$a+aAaub&bOb+cfb)b?b`bMbDbvbAbNbLblaPa$a/a9aHa#a*a8b4bsbibKcibvbzcsb]bzbDb&bTb-bXb1btbAb]btbpbtbCcUbTbNbAb>cjcla0a=aNama%cnb?bvb;b/a;bNb0b%bAa{a(bka`bXb)cnbrbrcxa`b?b?bkbza8a.a?cacMa;bvb!bdb`a;b6b0b2b5cobIbRb=bRbMbEb*cYcWa%aoaxb-b;cgcVcRcBb;b;b2b/b]bAbsb7b/cicqc0b=cYc4bWa~cib|bWbCcRcgcTaTawbpb]b6b0bCcDc0b*cncUchcLcsbdcKc#cvbraNafa.bBb:b\b>bsb2b2ceb1cab5b/b!bQbqb-bPbPb;b!b;bkbvcncgb2bfa~b]a(b}b6bWbGa*b\ckcfb+b2b!cja{aRbVbVbya|a<a$a=a5anajbrcQb~bOb_bMbMb6b9bNb2b8b;cfbRb`cobCcDcBcrb]b3b}blbbbBbGa#bpbtbTbPcib0bAa(btbpa*b$bqbQb<bJbVbHbubQcZa+",
"aka!cEcScScYcMb_bPcpb]a~b;cmcGcla^blb=cWbOb3bsb#bScma9a\bla*cib&a.bma^bUbDb}cickbebYbTbzc%cYcqc*c5a%a3aAbPbJbRb6cdcnb5b%b:bRb1b0bHa^aSaSaSaNa9a<a4a+a\bmbJcib[cCbDcbb!bva~cibNb6b!cfbNbfcvb9bJb}b~c7cPcob?cXc6c8a!a5aNaka7b?cdbvb=bSa~b3bzb0bta(a:a{a;a~b5cxbfa1b`a:cnbWa~a~a7bsbdbMc1bvbrbXbCb0a%b`bRb`b5cYbIa;cqcdb5bRa}b=cGa%aqaxb,b3b1cvcFb[b-b;b!b-b>bSceb\cacocKc4cycKcTb=a&b7bZbfbvcOcKcxbPa(bsb|bMb2brcSc0b0cdcIb*cqcGa7b)cPb}a:aAaha(bSb)cacHbvb&b|cabIb|bEb,chb)cxcfbCb8ckbsb6a:bAb`b+b-a?bvbSbhcFbRbMbrb+b2bCbRcTb/b1aLasbta|aYaSa0aUa!bLa=aqajbicrcgb~cdbRb0b~b=bDbJb9b9b[bCcab+bvckcEcEcbbLbtbHbcbcbHa#btbtcfb/b\bhbGa2bPbkbtb.bfb;cebWb!bSb6b-cGa\",
"ama*b6cqcdcEcsbMa?b]bYbea?b:ckczbsb6b/cHbsb2bBbUbAb]a<bpbLa.a{cca.a^a-bZbTb2cAb&a8bgbPbtb5c0c!c%c!a%aLaxbNb-b0cicdcnb\b5bWbRbPbTa|btaSaNaUaUa|a3a)a+aMbta}bScab+cvbzb\b1b2b&b;bsa~b$bpbPcCb)bPb{b=c6cDcucvcOc%c!a4a!a!apawb*crbRb3bNbvb+b1b!babkbpa7brbdbCcMa?bicua7cvbva2a&bvb8b?bCcWbha(b+bIb%a1cobRcxb*cIbea(bIb9crcgb~cOcta.aqa0bTb2cacJcFb2b+cfckb2cab[cCb\cxcncKchcyc2cycKbLbAbga0a7cvc2c2cqbCbrcsbNb1bMchcTb0cDcTcxcYcua(b5b?cGa;aLaha*bub1b2cebOb,b1b\bObSbSbJclcacab;b!bzb6bvcCa?bvcibIcba7bTbOb0czbwbSbCb9bMbPbib8b0b\aJasaSa5aTaTa,a=bub4a=aBaja%cycKb)b~b0b0b`b%bNbJb\b[b/bzbJb&bJb>a|aGaPbVb7bQa^a^bLaTbNbNcqb)b!a}bGa1b-bDbqcbbfb!czb1b!b!bPcjcwa3",
"aja8cDcQcTcQcTb0bCcNb}bsbDb|b>b>bkb!bzcCb/cCbqb7b;b-a1a*b\b1a1cpbNbJbtbga.bucwbDa+a<bAa)a1czc*c&c6a7aqaub2b-bMcsb%b=b~b%b:b1cab0bmbmaHaHa=bma=bpbKbAa>b!b}bCb2b2cfb{b{b1b2b2b6b6bNb!a(bAcib<b+b&b5c2cxcqcRcoc#c1a5aSa4aqawb0cqbvbWbWbMb)b+b)a\a(b1a1b8bdb%cDbrbrcCa7cCbha^aGa>a{cubMcXb%atb}bMb8a1b;bvcxb/bRbrbCbWb%cdbWb5c8cVaVaqa0bJb!b_b?b^bAbQbmb}b|ckb9cscecqcucMb=cXc8cLcLa|aXbvbJb_b5cXcXb=b5bMb!b0b%chczcYb5cDcXcYcSb)bvc0cncia(aXaha[bDb9b9bSbEb-bzb/ceb!bzbNb>b6b2bkbpbzbJbzcGbhbPcibvcla?bLbBbSb6bhclbqa(a~bTbibJbSbAaNa=asaEa0a,a!bgbGb.a,auaja%b_b=bObMbrb/b!bNbubGb2bJbJa{b+b%cUb{axauasb$bVbua\a<bVa#bKbAbNb8b-a}a3aMb`bMbscbbfb&cab6bua<bScJcmaZ",
"ahaTcKcSc$c0cMbvbqcbb-bNbJb>b6cCbpb&bNcCb[cCa^b9bPb>a.a&cEcha}cVbqbebmbQbebHckb:bma+bGblbubPcnc8cSaPawaHa_a[blb3b5cdcdcnb|a.bBbcboa=a|aKaYa$aYa$a|b.bjbLb9b]b2cfcfb[ceb9bJb-bNbSbPbJbHa^b!b{b!bMbWcRcBcLcHb/cAcpaTa0aSakawbzcxb5b=bRb0cucqb5bRbib!a(b2a%b*cua}a7b\a(chbibAataPa<b6bRcMc0aGb#bib1a;b+bMcgb|bIaQb[cab*b=b0cdcYcWa%ata9bkb2b=b1cvcab.bubTb]csb1b|chcBcDcYchc2c4cub*a+bgcOcxcQb*cycSb_crb0b\b=b)crcqc2cgcQc4cCbMbIbzcXb=cNaVaWaja*bSb]b,b9b*b}bzb1b\b3b3b5b*b[b|bPbDbWckbrcHbrcocla;b$a&bsbQb0b|bhcka.a&a*btbdb6cvb\a)btaSasaJa$a$a-blb7aZawana:b0b5bIb=bMb%b+bzblbHbkbva~a%cDcncEcIbxa^a^bmbUbBbNbNb7a2bNbJb)b)b]bva6a\bSbDbbb7beb}a~b6bLbUbscjcVa-",
"ama2chc4c$c6crbvbecsb]b&b>b-cecqbEb#bwcJbDb|a}cjb2b2bNb|b-cia;c5bYaQa.a]bqbLb|b9bpbJbxa_blb#cOcSc0a1auaHa&a[bvb9cBb~b~cDb}a?a4a=a|a_a=aSaOaKaOaOaYbHbHbjcibPb6bTcocfb2b+bTb!bpb>b<bPbtbGb1cfbPbPb0cBcKcCczcrb.bHa!a/aOaiaDbvb)b%b]a1a7b!cqb*bza;b+a(bNa(b*cra?aVa}a~bvbIbTazbCbkb/bCcyc2azbzbkbAa.b+bWcdb=b1a[b#b|b=cab5cqc0cka;asa=bsbYb=cecbbJbOb$b6cdczb9cEckcqcec0cxc8c4cOcrbab2cLcxcBb=crc0cyczbOb\bYb*cScScZbWb0cRcEb*bObecqcgcNa7aNafbJbvceb1b9b}b&b9chb*b,bScxcfb8b!b8b8bzckbrcIa~bYcja?cba.bJcibjb:a(b6bNa?a+a#bDbNb2bfbLb(bQaXaNaTbebGcEcTa4axala9a(b_bIb)b%b)b!bhbJbPbzbNbpbab6cla(b;cCcabHb7bbbGbWb[bUa1b7a+b[b5b[bWaDbbb3bDbEb|bjcebJbTbYbVbNclcwa.",
"ama9b=crcycQb\b,bDb]bYbja*bHctb:a~b4bWcsb3b9blb}bJbSbHbLa<a=a&cpcsb0a8a8bsbQb|cib&bfb7bGa<bmbvcXcZaVaxaqa^bLb1b6cgb0b~cga]aUaOaOa5a5a=a!aKaCaKaFaFa=b$bjbLb4b|bSbMb|b!b1bHbHbHbQbTbSbSbPb2b&bSbJbSb|cdcXcycgc#b4aSa=a!anaDb*b_b~bQaPahakb2b2bka;bNa:bla6bWcnbMb?bJa}a7bNbpaPb+bRb3bwchc4a7bNa:bpbfbJb0b~b=b|a7bAb+bNcqb=cdcLcGa7aoa]bKbTb\ckcab\b-b-bPb6cab/ckckcdcdcKcxcycScQcxa:cib~cgcdb*b)c0cyc0bEb9bOchcdcScSbIcqcYc3bCbPbfb~cKcWa7aHadbaa#b9b9b!b-bMb+cacab\b5cecebNb{cib1bvb|bCcFbkb6cFbWcpa*a~cibJb&aWa<bfbSa_aPa)a3aRbmbubQa_a=a|aNbebQb\cka4asaja7bCb*bIbwb_b%b6b6bzbNbOb1a}a}bdcibzbkcmb&a?cbbAbLbAbHa#a{bpa.b&bNcacfatbtclbMa~ctbkb>bTb6bubUbfcNcAa3",
"albacocncxb?b+b/bTb|b;b6a^bBb-cjaMb6cPbCcecabSb;b4b4bfa*aTa9bsbTblbsa-a_bBbbcecFb/bPb|b-btbma1cjc3a7apasbEb>b+b+b~b*bTa[a,aYayaFaYaYa5aOaOaKaKaKaOa,b7bTbubZb7bHb8b{b!b2bmbLb!bAb;b-bkb6b1bMbAbpbNb>b~cOckb1c&b-a4a/a4anaMb*b~b~b3beaHasb6bRbqaVbJbsbqa6bMcubrcybza}babSa(a}crb0b:brcdcXbhbCbkbzbRbRb)cdb1b9a&bHb%b=cdcncncDcNa1apa=bPb|cMcqcacib]b|b8b+cfcfb`b`cdcPcDcMcFbCcZb\a}cHcgb5cgcncqc0cgc2b5b3b0cncxb~c0cqcKc3c8b0cob%cDcxcta1aHadbqbqb|b&bBbLbJbpb?cgcib+b/b[b1b/b4bqa~b]bCcVbhcicPbCcpa~bgbubsb4bgaIa-a+bLa&aQbLbaa9boboa/bmaYa0a8bHcncBaLaoara(bRb*b%bCcdb0bWb=bCbRb5b~bIb0bzcqbPbXbQa&bAcmbJb2bSb6aPa|a[blb`bRcucfawbgb}a}bwcJbrb\bmbfa\bya8cWcNaV",
"albfcqckcqcdcHcCb0cVb[ckbPcfbPcNa(bAcwbzb>cja>bJb6bSb7b(bbb7b\cTbGa*bua+b3bjcvcCb]bSb3bua&bZa%ccc1a(alaAb6cEb=b|b|b=bmaNaKaKaCaCaYaYaYaSaFaKaKaKaFaOb3b.a_bVbtbmb;b|bTb6bcbQb9bsb}b>bJb!b4bHbzbLb>b>b]b}b,b2c%c#a,a|a!aqatchcxcna7aIaDaGcea?bpa*bJa}a~a*b*cza?bhb&a?a?bPaPbvcBbCbTa(bIcTb1a?bfa:bRb\bIceb+b6a(bPb%cdb=b=b?cBcGa%apa9b1clcrckcCcCb;b!b-b;b>bNb9ckb5cCcqcLb*b:c&b1b3cMcAbzbSckb_cMcDcSbMbkb6b6b*cqcRcxb=cFc0bWclbkcDcScNa;aLaea^bgcbbba-bgbLbOb&bTb|b\b&b9b1b&bVa]awbubDcWbecbcPa?bHbGbmbgbsblbLa\bLbBa-a&aIbybGbmbca_a!a$a,bgb0cxcOcBaNapama(bIb=b9brcebIbWbDbNbPbRcub2b6a`cub9b6buaWbNcfbHb4btb!aPbtbfb!cab1cCbMatbGcHbIbYb.bib|a^blbQa*a^cwcJaU",
"ala/b~cBcXchcMcrb!cpb|b6bSb|b9cJa`b2cJa~cqcea}b>bYbsa3bUa*cja?bTc3cbbga]bYbTb/cecybRb.bOaRa/a6aLcwbsasaHbQbEbDb]bRb6a5aHayaCaYaFaJa4aFaJaCaKaFaCaJa]b.b#bga|a/bgbGb$babQbsbQbVbsbTcjbXb8b$bLbqbsbNb}b*cEb2bSb{cWa-byboazawcqcKcSazanaoawbLaMaLa&bGa?bkbkcecybja(cybhb\bza:bWb*bMbGa.bhcQb1a.b2a;b1cqb=crb+b[bfbkb:b9b=b0brcDcJa7apaNb,cpcgcDcFcDb6b2b+clb6bNbfcib=cScKcMcqc4b}bmbLcpb|b#bOb|cKcrb_cQb=bRcqb?b%cDc$b5cncncrb6bWbvcSc4c1a%aLada#a|bta\aRa|bubHb3b9b1b/chb9bubZbma<a&bQbJcJa;b>c1a;aLa|a/a|a-a\bma<bma*a9a]aWa_a*bba]a,a$a!a_a=bRcxc$cSaHaoaha6bMb~b)bCa?bfa-a]bvbJb6b\bCcfbrcDb)b?b>a?cbb#bjb&bZa^aQbAbvbTb+b[cFbvaIbucjbDbsb(bdb<a[bLbgbub$ccbVaJ",
"ambbcDcKcBcqcnb~b6b2b$b7a?b$b]cAbfb2cJbecpbSa?b(b2b}a/a*a*cwbuaQcecHb>b!bUa<b0cscxb_b:bObgbgbbbmbHbbamaAbGbgbRb/b1b2aSaNaFaKa5aYa4aYayaSaOaFavasasa=a/a_a_a=bAa=bma*bqbHblbQbTb;bJclbpbJb7bqbzb3bzcCb+clbSb6b;c7a]b(bcara7b*b_b~a6araqaqaqasaWaWbSbfbzbecrcrbhbicnbdcqbIbRb/bOb=bSa?bwcdcka?b3bzb%b?cdcIb9bRbNa;b_b?cdb5bMcKcwa1apaRb2cGcBcQcXcYb6bNb/cCb|cabzcachcQcqcncIbOa]a_bca/bLb|bOb1cYcyb_cXb)a?cncqcdcIc4b5cTc4c3b_bIb\cXcYc2a%a3afa(bsbNb>bqbubLa~bNb2b|b6b|b\bQbebna_bDb;bRcRa(b:cWbraHa!aUa|a8a/a8a-a.bbbqbla\aQa,a!a]a+a|bmbcbBb)cYc6cOa3auaja2b5b*brbka2bsbTbaa}b`cgcKbIcgb5c0cdb_b6a~b}bzbRcib;a(aWbLbzbPb5b+cvbva8blcrbObebYbdb{bLbea/bmbGcAbUaW",
"akaZcdcycBchb~b~cgcHb]b|b#b:b&b|bQa?cjbDctbbbgbVbObQbsa2bjcmb7aQb,cbbJcjb&a~b3bJcyb1b,ceb]cwb,cWc3a^auasbsbGb0b+b&bvaJaBaOaSa4aSaEasapasapauaFaKaUccbLa]aSa,a]a,a=bpcca9bKbAbsb7bkb&b&bfb3bqbOb$a[ckb&b9b&b}b\c7a_cma=awbDbeb)cXbQaoaoapaoanara<bPa}b1bdcgcqbdb3b~brb,a.b[b|b5b*b3bjbNbvcLb0bRb2b0b6b?cFcgbvb;aPb3b>b*b%bRcycNa8ata3bScAb~cDcFcvbPb2b[cab]b}bNb>cDcubUa]b3b:bna_byb7bLa<a^b$cQcKchcYbWa?cgcub0cLczbdcTb!bsbjbOcqcKc(cSa(a!ajaWbAb\b*bGblbsa^b:bOczb6b\b=b:b9bLbsbwcbbRcZa?cgcLb=a/a/aZaNa$a9a8a]bsbeb]bva,aTa-bmboa=a=bLb/b/cxcqceb|a4auala8bRbWbSbfaQbEbPbDa;clbWcObRb~b0c4crb=bsa^ckb=b:ckcia7a#bVbEbebDb3cibCbJbzcabMbqb9a~b-b-bkbga<bPcJcGaQ",
"amaTbrb6b*cgcDcBcKcTcfbMb+ceb6b\bYbGclb&cJbzbsb3bLbtbya]beb#cJa%b;cjb\clbNa~b\b1b;bXceb*b&cAbNcJcNaWanasbtbtbCbDb-bDaSaJa5aFaxaJauaEaKaJaFaFaCaybQb.a4aSa5a0a0a=bAb^a{btbZbgbba_bJbzb|a?bHbUbqb3bPb6bNbNbLb3b!c5a/a*a9asb1a^b)cYb9araja3bUapahbbb[a;b&bjb?b)bdb~b2a?b~bdcab\b:bOb2a`bJbDb\cebObDbRbRb*b=b0a?cya(bqbwbMb0bCcYcWa%ataNbwclcncncib[b;bzb:ceceb\b5chcIcEbLbYcjbua|a]a{btclcpb0cFchcycqcObia.cucdcqcYcqbdcMcEa[bOb)cqcyc!cza%a9alaQbHb|bOb:bObfbvb_b9crcdbMbOb2b>b[bRb1csbWc2bzbvcpbzaTa!bxaSaRa/bna/a_a6b$a^a8a-aGa]a]a,a&bVcDbCbCcncdb*a5asaja6bWb=b9bJa;bDb1b6brcobvcMb/b%bvc0cab=bObBb|bOb=b|ctaPa8bmbwb,b2b0b&beb)b0cebRb2b|bfb6b&a~bHbtb;cpcNaP",
"amaPbzcqcycrcxcBcMcBcQbYb>cpb}b2bub7clbzcwb!bNb!bma^a_bcbbbLcGa7cmb;b1csb4bBb2b&cib1b]b!bubUbJcNb(a3asapbtbpbIb/b\b2a$aJaYaJavaKa!a!aOayayaCaya,bUaUaSaEaNa,a$a!bQa<a^b}bsbqbxa<bHa[b6bNbAbNbsb>b]bDb;b&bxbxbJc3a+aRa9alb:a;b=cha/apaea<b\a7a6a^b\bhb5b0b`b%a}bXbrb8b\bvcnb?bOb=b&bNb2a1bzb;a\baa`b+ckbzb8a1cxbCbJbDb%bWbIcDc8a?ataIbsb>cib[b>bSb\bPb)cab\b{bsb2crcSbLbLaTa0aNaHaJaSa#b7b+b{b0b%cgcDa;bkcfb+crc6chcqc!cMbzcibIcuchcOcWa;a9aiaQb$cib6clb0b+b0bYbMcqb=b&bJbzb&clbWbWcCb%c2b)bIbUbbbQa#a/boa\a6bEa^a_a&a/a[bta\a4aRa$a=bNb2cqbWbRcucEcea4aqakaTb1b6bDbSbrbWb0b0b5b`bRcLb=b_brc0cdcgbNa>b}bsbMb\cbaDa*btbMbXbvb8cea;b5b=cqbrb6bTa?b]b]a?a/bnb!cNcmaP",
"arbAbRcxcxcOb0b=cRbIb(bBbGb$b.b7bEbzcmbscjbSb2bUa=a9a\a^a+bHcma&bScwb$a.bsbQbSb,b1b]cjb|bHbxa?cVbVaRapaobKbAbCcqcub*a4aJaKaFaCayaNaKaCasayayaCa$a$aYaEavaYaYa5a,a<byb.bbbebUbSb&bka<bHb$bFb8bPbAcfb2b<b&bHblbzcNa*a]aTagb-a(b=cxa/arahbmcka%a%b!cebvbWb1cBb0a:b6a?b-bSbDb\bRbPbfa~bebsa1bzb|bkbSa}b2cabCb8a:b9bJbvb0b5ceb*b*c2bhata*b,b9cocFbUa[bPbpcfcnb9cebJbNckcrbQb7aRa3aUaLaNaxaLbmbPb]bMb)cKcna;bPb1cqb0cLb0cLcYcMcQcnbRcqcLcScZa>a$aka1b>ceb/b|bNbNbPchb5b?b[cab2bXb;b[b0bRcnb~cnb0b9b2b+czcXa]a/b4a^bTbsbbbea?ctbca^a,a3bpa^b[b/b5cqb%cgcZb?a4aqama#cgcha?bJb0bWbNb3bWb8b_cDbMb6b_cOb~cxbObDb-bDb5cCbZaza<a|bkbAbrceb/a?b+bDcabzb-bPa~cjbLbHbxbUb>cNclaI",
"aobAbWcucKcXbrbCc8cOb-b6bObYb|b6b$becsb6ctbDa{a<a<a9cicFbqblcjbea~b}b2bDbQbHbDb}bWckcjb9b4bGa>c3cpaQakascfcsb5b9cKb~boa0aCaCayayaKaFayauasaFaSa<a$aJaBaFaNaEaNa|bxbLbVbububLbqb7aRbmbAb&bAb!b{bDcfbPbObGb3bTb2cZa/aWaZajbqa^crcKbEa*arbRcaa(a%cib[bCbsbvb2bzbabNbCb|bvb6b\bMbka(bqa.btaWa%b6cub`bzbkbIbWb6bPbfb6bCb!bCbMb?bCcZa:ara#cncab2cFcvb%bNbNb)cob2cebzbDcub*bsb-b(aTaSaSaLa0bUbLb*b:bMchcqbIbrbSa(bUb!b!a~b*cucXcebrcgcdb_cXcPa>a0afaPcFbRcfb\b1b/b2cDcgcsb+cnb_b0b[b/bWbvb)cdb_bNa%b_cMcYc2cka6a_bgbNa?bJa>bdb|a~bNa.a^bBbBbsbTcncgb5cuc$chaZaoarb+b_cQbCb+b5b)brb`bCb0cqcKbtbpcncLb_cub3bSb=b+b)cobmaTa3a9a<bfbrb;bDa~bMb%bTa~bQbLbrcCbTb-bgbxbTcVcpaI",
"aka3b3czc2cOcdb?c2cDchcqb]b,b$bYcja^cbb1b2bNbma]bSbfcsb\bQbbcGbsa;b|b!bzb9bebscib/b/b&b3b4bUa:cWcma8auanb\csb9b=b~cnbVbfaKavayayaCauayayaFb8bKa=aFapasaCaNaKaLaUb(bqbxbtbgbLbHa<a<bpb2bPbSb8b{bzb}b2bGbubNbNb1cNa*a8a!ala^a~cqcqa[aQawa;bPa?bdb|brbMbhbrb9bCb0bMbvb/a;b9cFb*a(bSb%cdcOb_aPbzcvb0a>bJbDbTbzb>bvb&a?bPb)b0b_bIcUa;asaxbSb!bMb{b0b2csbCb+cibCcsa2bHb=cgcob?clb8bpa)bQcmbNbTcdb*b=cLbOa1b6cEa^a+a]a^bJb|b=c8bIcicScgcuc0cVa;aHaea1cJbMb5b6b*b9b:cub~chcqb~b5b*b~b\b9bzb1crb%cqa;b=cgc!cYcYbMa[a_a;bfa~a8bIb6cia;bqblblbLbDbJbWb1b=cKc%cKa/aoaDbRb1bMbfb;a~bJb5b/bRb?cxcqbJbNcxcOcgb_bvb[b6bWcab|bgaPaRaQa\bcbzb/a~bJbCbMbTa?b6bfb)cabLbEbbbbb>c1cAaw",
"ana!cEcMc6cMb\b9cPb?b:cjb}b&cpbvcGbecGa~b.b#bcbcbsbscmbsbma8b9bObpcmbNb8b|bkbmbLb+b|b[b/b;b-bfb}cbaQasakb1ceb&b2bjbSceb9bKa3aFaOaSa$a!a5b<b<a!aKaFauauaEavauaRbxbFa<bmbKbeb4a=aXbQa6bQbBb\cab\b0b/bXbAbVbDb!b9cTa,aXaXajbSb!cxb)bcazawcabPbka{a>a}b+bCceb*brbSbza~bsbib9cibrbvcHbRcsb%cicja%bub7aPbLbzb2a~bPb2bNbLbucabIb%bdcGa(asaqbPb;czb*cFb|ckb1b0cvb6cya2bsbwb9b)cxb?b?bZa<a2bHa8bub?bCb~chbRa7cKc0cma?aGa]a%ctcnc5cdcRc6b%cScQcNa(aHadaDcocgb)bWb1b5bRchcgcgb%cgb_b?bWb*b9bObMcEbCcIa~bhb~cMcqchb_a*bHa%cfbNa1b=b%b:a.bAbua~bPbqblbzb\b~cXc9cDa,aqawbma[a&aQbUa;bDb5b%bRb~chcdcab0cKcxcqbWa?cEbSbzb[b6a{aqa&a*bsbubzbTa?bPa~bJb4a6b!bfcebzb3bEa_bxb|b}ctaG",
"aoa8cBcRcKcBbJa[bEbeb|bBb3b#b}bScVa}b(bLbYcba_bxbGbbbBbbb7a6b9bLbTcbbzb&cia~btb6b+b|b;b1cCcvbLb4bZaPaxatbEcbb3b|b]bDb1bJb6cib.bLbtbKbfbAbUaNavavauaFaYaSaNaBaIboa#bLbHa<bAbQa6bmbqbubBbLb2b3b9b9bSb6bJbkb2b6b*cZa.bba*amb1b1cBbRbuaTatc!b?bibRbza~b3bCcqb`bdbNbeb2a?bCb|b8a>b;b2bDb6a.bsb(a2a7b]a>bpb&bJaVbHbTb3bVbab6b/bWa}cta%aqamb9cpcOb~cVcKcfcib?cxbJb2a?bqbJbPbGa&a&a!btbpa{clbIb9b9a;cOb_a~a;cYc0cdb?aZawa+b7cxb_b6a~bvcgc2cucNa[aLafawb+b=b%b5b9b3bMb5b)cdb=b~b)b~b=b?b%b1bvcKbhcEbCbvczcrb=b1bla~b,a}cub9bhb>a~blbub[bWb[b2a~b]bOcqchc0c$cQa,aqara,bea[azb<bvbvb9b9bzbRcqb)cibMcQcdcnbvb)c0bDbNb&bTa+btawa_bkbNbRb6a.bXbzbsb6a(bTa}cBbWb&bPbgbZb-bScGau",
"atbubhcNcBcRcVcOcib\b}b9clb|b(b$cJa&bUbybUb7a]bsbHbAa6a_cba[bLa\bJcAb0cab}bpbabKb/ckb1b,b&b6bNb!cma&aAawbSb|b1bOb/b;b{b+bPb{b8b{bmaDbKbFavasaFaEaNaJauaKa5aYa,bga9a/a<bma=a+a#bmbdcibkb!b2b|bJb^bvbTb-bvcsb\b+c3a[a[bxara*bqb~b)byaIaDc3b5b0b=b6beb9b*cnb1a?b?bMb+a(b)b+bta:b{bPa\btaZa3a^a]a6bma(a*b&b&a~bTbQbUbma2b!b-bRbWclaVapapbTb>cYcFcvcfb1cicPcqbRb8bSa%bTbDcfb)cjbsa,a4a&bHbPb;bDb2cxcBa7a(cucOb9cva^a6bLa.b2cibUa6b%c4c)c!cIa[aQahaDcpb[b*bDbDb1b6b)brcgb?cKb0b0b*b[bRb5bDcQbOcKbCbhcqcgb*bRbkbJb!bzbJa~bPcla(bGbubPb6bGbHbsbOb|b8bWcPcZc1a#apaoa^bpa?a1cmbPbNb/bWbzbCcDb_b[bMcQchcvbrb+cHbNb6a?b-a\b7azbma^bLbrb8a;bNa^blb(a8bPbpcLb)cHbpa[b4b>b&cNaQ",
"aoboa^b3cncRckcab2bDbGb7b}bYbUbGb^a0bVbtbQb7a]a^b!b&bAa^b7aWa~bQb1b2b)cvb/bMa?bPb\b\a~b&cfb/b!b|cNa8aBaia8bHb\b:bSbSb6b[cicob1bhbRcqcAa(akanaFaEaSaJaEaYaJaJaTa!aRbLbca_bmbfa[blb&btbkbSbXb/bMb!bzb2bObzcHb1b\c$a*a&bxapa8a[bTbscpa-a7cOb*b0cebIbCbIb5cabSa[bIb8b*bMcobIa(bNbTa:a,a9aQa9a.bAbya#aQbZa.bLa&bUbtbNbqblb2b{bhcqb<aVanaqb|b|cxcqcEceb1bRcDb_b\bvbPbCcebhcBb=bqbYa_a#aBaxa1b.bIcnchcYaIa;cCb?bScrbzb9a~b>bPbzbCcCb*cIcKcScpa~aIafaPb]b*b_bRbzb0b0b)b?cdb%cKb~b1b9b?b0b8bRcBb0cDbrbhcnchb)b5bOb)cfbWbvbMcnb{a(a~bLbwb#a#a.b#bqb6b!b=c9c5cMaZamaobSb+bIa?b;b0b*b1b1b?bMcKb5b3b*cqchcnbvckczbsb&a*bGbBbaaGbHa8bbbsbTa?b-aWa]bUa6bNbfcBbWcJa^bxbsb!cCcZaM",
"aobVb,bDb,b}b`b/cEczb&bPb.b|a_a,a_aZbga=a|btbybmb>b>bLblbHa-a.cbbua*bzckb9b0bCbSbPcfb[b1ctb!bGb9cZa6aqaiaHa,a-a_bsb2b4bbbAbJaPaIbDa}bgaQauaEaJauavaEaLaAauaAaTaSbxbqa)aTbmbta1bHb7a6bPbPbAbJa~bPb&b2b+b/csbjb]c&a\a*bHara&blbSbza0agambUb6b5b=a;bOb1b\b:a[beb0chb0b5b[a;bfbJa_a2bJbNa^a~a-a<a_a_aDb.buaDa9a+bLbca&bgbNbTbhc6cba1arazcFcFb~b=cab0bSb3b;b2ckb6bkbsb:beb5cBbebJbea*bmaIa2cbbRb1cncDaQbEcScDbJa?b2bsa#a\bsbqbvcmb*cScSc8c5a;avagaDb|b~b?b0bRb5bRbRb%cgb)b*b~cnb)b`b0b5b1cMbIckbwa^b*b|brbga-bWb/b2a[bMb|b!a%a_bgbUbHa_bsb>bDbDb:ceckcFcVaUalama<cBbRbvb,bWb+bDb2b)b*cLb5b0b|cMcxcgbrcKcKbCb+bPb!a&bma2bVa6bqbzbPbzcbaWa]bxaTb*bRcLbRb}bNbsbBb8cfcZaP",
"albmcma~b!b>ckcqb]b]bUbma^b(ccbybxboaTbya=a=a|bmb>b-b$b$a{a)a~ctbbbGa%cmb2bPbPbpbWb|czbRctbTbLbHcNaRaoanbub.bSb1bHbGbta\bAbtbIcgc2cBaNaAaBasauaEaKaEaIa|bxa!aJaJa9a/a<bpbxa^a<bUa9aXa]a^bqbLbHbsbLbub\cacFbvcsc9a.a[a|apazbTceb9a!amajbBb~chchbvb_b%cIb~a~bsb?cgbichb!a(b-a:a-a&bJbzb[b/aTa/a#a!a[bGbuaza<a_bma^a/a/bkb!b)cXcTaPapawcIckb&bzb+bXb-bPcebMcob5b>bvbqb$a?cob%b)b%bIb|bza:b2a[a&ckb|aQb1cScxb9bzcRcgcqcIbNbSa]bQbJcAc!c#cYa?a8akarbtcrb_cdb*b6b3b)brb)cgbRbRcfb0b\b3bRb)cIbCcybzbrb2b&a}bba^bIceb*bCa:b6b2a?a_bua+bublbHb\b3bJb,cgcYb%c1a4anana3cabRbNb1bDb1bNbSbRcycdbCb)b[cBcxcea?cScDbOb2bGb}a/bna-bna6a^bYbqa~b|a(bqbGa&b[bvcVb)bObLa[a_ckcic1aP",
"aebFcta~brcicaclb}b-bVbHbZbubVboa,boaqaLa!boa]bHcja=bqcmbpa)a-b(bAb<bMb|bJbJbPbAb*b|cGa?cbbwbHbHcGaNaqaka,b(bgbbblbea9a{aTa<b`cvc8c#a$aJaSaSaNaEaRa=a_a|a0aLa4aHa]bxa+bta]a_a:bJa^bebUa[bxa^b!bNbGbzbPb;b]bvb+cJa[a_bxaqaoblc!c0bYbEa1bGb\b*b|a:caa`cXcgbdb2bzcya(cKb0bMb&a:a6bYbza^b!a~a]bUa]aWbsbUaTa9a<a\a_bya{baa(b$cnb=c2a7aoaqb9b>cab0b[b+bRb0cnb5cfbvb;b2bjb}bJbSb)b5b5bRb~bMaIbGa&a#cib\a.b|cvcibLa\bIcoc4cIa6btbkb<a[a*c0c)c9a(aTagarbLcqb?cabWb)bWcnb5b=cIbzbCb*b%b~b)b5bIcKbCcFbCa~b6b8bCa<a$beb1b\bObicebzbea_bya/bmbga\bSbJbPbTb5c8cFcBa4aoaka,bAbAbOa&b0b|bIb)b5cgcrbMb_b=chchcabIcubCbTa~bAb6a&bya*a8a*a_b|a^a-bZa*bnbqblb0b1cobRb^bJbNbScHcocJaI",
"afbxcTbwb|clb|b2clb|bUbtbVa0a|a_a4bmbya$boaSbobLb(cma*b}bpa\a]bxb9bYbXcib2bzbDbDb:b\cWb0cNbqbgbHcAaHauamaXb$b&bAbHbma_a#a#bub*cQcJa(auaEaBasaTa!asasaqaSa|bma,aHa!bmaNa!b7bpbqbHbSa~b3bsbLbqbOb(bOb2bTb;bPb8chcTa\a#a|awanbEcScMcsckbqblb1bOb>a(cebrcScna%b[brchbvcYbzb:bjb&brcGa[aQbxbgbHa#aLa!bgbVaMbta^a+baa=a*a]a_bZcsb`b}a;arasbzctcub*b-bDbsbzcqcgcjbfbOb&brckbTa?b5crb5b0bObOawa]a8beclb\a*b#ceb\a]a3aIa/cGb3a-bxb&bTcmb#a(c!c%a(aNafazbLb~b?b*bIb+bMb3b*cqcxbDbecab1b+b+b[brcibhcAa~bqbla~bGbebGa.bsb3a.a~cta*bebsbTa~bObba-bmbgbSb&b5c1c(cYa!anamaZbJbzbBa&b9b:bdb{b)cBcKbMb0chb5ceb:bCchbCbUa&bGbEbjbOa_a*a_bucia(a^bZaQbta{bTb1b1a^bYb2bNbObYclcHclaH",
"aha!cVb1b!b]b,b>ckb\b;bPbKbFa]bgboboa|bybmaJa]bya<cpa|a3bAa=baa|bQbLbRckb|bza{bPb2b1cMb=cAbEbgbHcGaTaBanaBbAa{bJbca.a8a#a{bAbdcsb(atauaJaEaKaBaYa4aSaEaBaNa$aTaAa#btblbGbVa#btb7a*a*bzb-bNbva~b-babTb1b;bXb2b/cGa]aQa_aGarcecMchb3bza?b2b1bCb|a(cga?cOb+bvb+bIb?b*cXbvb0b:bJa>bJaQa+a?a(clbsaZaza]a=a2bLbxbsa#bfbxbmbubtbOb}b|a&axasbkb]b~b~b{b8b+bMb0b)csbvb2bSa(b|b1a~bdb\a?b)bea1anaRa:bJcncfa%bab&bsa/a_aTa!cbbsa\a3bcbQbHb(b?c#c7a;aSagazbLchb~b~bObIbWb)b?b?cubNa~b~b)b=b0bNbvb|brb|a?bUbbbxa]brcWbwbEb2a~a%b]bJbzbkb&bpbtbfbaa<bta~bScfcCc(cLa=apakaTa]bcbqa.bTbTbvb;b0cDcLbWbCckb0cLbzbfb|brbQa\bUa^b]bAbga*a}bSb`a(bpbLaMb7bpbSbGbbbvckbqbBbgbLbMcCcjaA",
"aja=bQbeb-b]b+b|cacob#bObgbta]bHbVbHa|b7bZaNa!b.bFbQbpasbkbpbFa=bHb4bMb|b{bMa~bNb1b1csb`b:bsa^b$cNa+aSanaqa=bPbzbpbpbHbAbSb!bTbvbmaRaFauavaEa4aJaJaSa+a|aNaJaHaBa=a+bPbUaIaZbSbzbca#bsb]bJbkbkbTbJbtb!b/bDbPcecCbca2a<aGaob%cEchbSbWa~a~bPbdcia(b~bdcTb=bCb2bCb0cyb~b)bRb9bIbla?a(cAbNa(bQa^aIa<bZaMbLa\a+a{a]a#a*a-a-bma\bHcpa?aDapbvb&bCb|cCcfbRcnbWbMcJbhb6bNa7bkb*b=a/a*aDcga.awamaBbMb/bNbDa7b!b7bgbobyaAa3bYbLa]a-a8a_a\a+brc7c%a:aNaeatb2b_b*b*b?b)b%b5cqcrcrbMbMb6b2b0b5b6bWb6bMcma%b$a~bxbgbrcPb_b~bSbSa6bLa^bEbjbLa[bDbAbabAbNb1b/b`cOc!c0a]anama4bNbDbvb1bDbDb2bNbRcrcBb0b%cab?cSbrbDb/b8bGa(b&a(cvbRbba8bfb6b-a;bAb6a3bma{bSbsbJb6bJa>bAb;bJcgc7ccaB",
"aobHa_aoaDb9b\b~b\cab}b#a<a,a]a=bLboa4bUbVaSaAbxbub7bfaMbaaRbgbybTbTbXb{b+bzbSbzb2b&b|b:b!bDa{b-cWa9aJakaQa/bebubLb$a]bZbYbzceb6bma#aNaNayaBaEa5auaNa,aHbaa|bpa#bGbzbGa^aTbFbga.bJbab0b[a^a*bJbAbtbkbTbNbzb2cicvbmaWa|aPaob5cIcqb3b1bsbvbCbzcea;cnbCcXb~bWb%b5bCcqb0b*b0b2bWa?b>a?cHbAa:bcbUaRbSa+a#a_a^bpa+a_a3a9baa]a-bka-b}a~awatbqb^bCb\b[cibNbJa?bJcJbzb&bvbeckcub?bTbea7cBbrbdaoaxbAbpa8bma;cwbsbGbya_aBaBa+bZbvb;bQa+a=a=a(bucJbiaLafawbTb9brb)cEb*b%b*cgb_crbzbRb9bCb9b0bzbLbwbPcva(b4a[a<bubIcVcDb~b\bwa1b3bebsbebUa#bqbmbmbbbGbSbYchcYcYcXa+amala#bTbDbMb\b2bvbIb\b~b=cgb)b=cqcqcBa;b|cgb5bsa[b-a%cGb-a+a&a?bNb-a(btbPa*bBbkb2bDb\b&b:b&bfb+b|cqcUb^aB",
"arbUcAataIbsbDbNbDbzb3b$a]a\bua]bLb(aNa,bUa$aUbua^b(baaMclbAa\bHb!a?bCcPcibMbTbzb)b~b_cBccbtbcb7c1a)avaiaAa_aTbybpbAbcaWbqbGbCb2aZaXaNa0aSaqa!aYaEaSa=a{babtbta>bAbtbGa\a+a=a&bubaaPa3a3a{btb2bAbkbAbAbkbPb\b+cibmaIa,aDapbDcDcgb1bRbzbPbrbCb|a1b%bvcPb?bIbzb~bCcibrb5b%b%b?bMcnbicaa3babKb>aRbFa&b4b2bPbmbfbVa3bKa=a*a_a_bmb$a^awapbzcab)b/b/b/cdcdb5b0cCa}bNb2bdcscqb_b;bPa1b1bMbMaqaDa+aZa3b7a\bBbhcsbHa+aYaUaLa,b$bGbZbUa{a#baa9bmbBaTagarbQb=bMbRcqb5b~ceb~b*b\bIbWb1brb1bPbkbSbsbTbPa?b!bka^bgbhcEcncqb~bza;b|bTbDbJb|btbJbsbGa*bGbObNb)cDc2cYa4anala|b+bzbDb!bDbvbRb/bJbJb_b5b5b_cfcfa7cHb~bWbebbbUaVcwbla3a=a?bub2a:btbAaWbublb3bJb:bXb!cibDbMcib`cUb^ax",
"apbAcJb|bQaWa8aQasaQaDbLbZbsclbZbZbLbLbLbZa|b7b8a{b&bQarbVa<bPb>bPbfbMb!b\bzbWbIbza~a:b3b:a^bkb{c5a+aHaiawbAbBbqbma.bGbxbebGclbIa|a0aNaSa4aEa$a$aRa{axa+a3a_bka>bSbKbsa^a9a|a>bUbBa[a{aGbpbtbAbJa(bAbJbAb0b|cncZbgaWa#atapb1csb5b1bwa?babrbicia:bva~cLbWbvbMcgbRcLbrbRb+bMcqbMb+a1bNa[bqbfa{a-bHa?bTbGbGb3bTbLa^bHbHa/bua=bmb7bfaAahb{cicocfcGb2brcib*b5csbvbzcNa`cHcIcDckbOa<aWaTa<aRa4a.btb6b]blb4b!b]bbbHbxa#aUaHbcb$btbtbAa=a\bpbSbAaYalanbqcdbRb1b\b*b=b*b=b_b~bpb2b2bNbXb2bJb>bib}bma\b7a^bHbsbMcucxcKb?bDa?b2bTbfbXb/a?b!a~b4a6bmb+b/bicic$cTa3anajb7b`bDbzcfbPbMb!bdbWbMb5bRb%b*cab)a>cFb6b0a-a-bHa6cmbJa*a-a\a^bSa:bPa<bpb!bpbPb9b|b6b|bUbsbHbUb/cWb(aw",
"aza#bBb(cMcQcNcybEb3bububybucwbGbQbkb$b}bma&bKbKbkb]b]arbGa#a6cAcYb\bwb,bXb1bCb2b[b?bvb0cWbNa^bLcNa^aAaoawbHbLa*bQbBbUbla_a[cab6a0a4aSaJaJa!aHa4b.a?a^bcaxa!a=aHaAa0a8cbaRbAbPa{bfbAa<a\a{btbJb2a^a-blbqbrb|cac%bma#a$aoaIbOcrb=bSbNa~bkbvbMb|a;bWb6cHbIbrb[cnbRcnbCbDbTbrcsbRcna7bObba[b$a?a_a]a.bua[bqb9ckbecpbGbHbmbmbga_bHa?aQalb&cJb~b0cTbWa?b!b+b0cebMbIcHbrcacycychb9bAaGa0aRaDaTa[bTcHcCa6b$b|b>bScibxa#a$aGaQbmbUbFa<btb`bWcbb1a4aiawa}b?bMb*cebMb%b5b6b:cea~bTbDbNbYbLblbZbbb.a?b&bZa6bNbNb=b*cdcdcnb)a~a~b2bJbvb;a}b-bsbTbzbSbTbzbvcscYcMa!aoalb}b|bObsb}bfbvbMbrbrbzb5b*b*b?b+bWa7cEbzbea-a]bua(b&b!a\a+a+a-b!a%bLbfbUb4bqbqb2b!bSckbsbbb4b4b&cGb7az",
"aqazbLb.cBc3cTc0chceb3bYbGbHcjbPbQa]a[b(b3bebmb(bNb|b;azb]bea]bHcmb]bfbDbMbMbRb%b*cnb_b*cWbNbmbZcAa/aAamasbtb>beblbTbsa6a_a]bRcvbtaDa5aKaNboaSaua<a]b-bJa0aTaNauaNa$a^b:a6bAbsa?bgbga>b!a[bqa{bJa]a[blblb2b/bIc)byaWa<aqaQb\cDb%bPbNa~bPbzb0cea;b5b0cIbrbvb5b~b5cnb%brcibRb?a?cia6bza>bNb&a~beb9b>b1a8a-bDbPb|b|b.bua+bpbpa<bsa[aIajbeb9b?b5cCb+b2bJbMbzcxb=bvcebMb=b?b)b+bRbNa?bLa&aNaWa}a~cZbCazb(a*bYbLb(bVaQbxa$aAaAa~b(b]b]cncRc2bia!ahaDblb=bRbIbRcob%b6b5b>b,bfb2bTbzbzblbHbsbsb3a[b:bqbebGbObJb!b=b5cBb5bfbvb+brbHbHa-bVbDb;bPbDbDbEcFb=cLcxa3anajbcb2b0bPbSbzbfb6bIb1b6bCb2cgb*b!bza(csbrbJaVbsa\a<bSbTb(a&a8a/b#a7bna&bubZbzbfbMb+b2clbQblbYb3b>cpb(aw",
"alaLclb}cLcRc&cra#a&bfbQb\b~b9bDb3a[a+a6b:bebscbbNb{b2aMb\b2bsbTb7bHbfbPbXbhbzb[cgb_cBcrcZb1a_b7cGaTaEanaqbgbYblbebYa^bEbLa+a(bPcfa>a#a<aHaTa$a]aWa^cSb?bga-a3axbebHb3a.bZa^aMa|bma\a[b9a6bsa~a[bGbTbkbsb6b1cgc(bma8a,anaQcgcXb0b|b2a}bsa~bDcibrbObRcya(brb2bRbRb?b0brcabRcdbrbIa?b4a?bQbPa;a~bqb,bDa6a&bEbeb\b\bcbma#aXbfbLb&bsaWahbjb9cdb9cgb)b9b\bIbrcibMbCcfbWbhcBb=bHa8ana{b1b9bkbzbCb2cwaVa#b7a8b(bHbHbHaGa3bAa,aDaWaIbDbPbCb)cWbIa!aha%bvb*b%b~b_cdcdb*b~b6b=bsbBbHbqbqbbbLbub3bjbLbUaTbubHbQbkb&a~a~b+bCbka?b/brbBa&a-a^a^b#bgbmbjbTcCb+cPb~aSaoalbmb[b1b6bNbWb[bzbzb2bRbzbzcyb=b\bIbib[bMbIa(b4a3babSbNcGa(aQbgb:a1bnaWa_bGbEbzbGbGb6b6bQbgbEb3b]cbcAaw",
"akaXcAbTb3c1c&chbHaQaVbtcdcLcdcnbLa\a_a&bUa&byb7b0cnb\aVcebNa-b7bYbOb,bRbXbCbCb<b1b1cPbMcpbSbmb$ctaZasapaxbgb7blbua_a\a^bHbHa*beb>a?a4aHaIa!a=btbma6bDbJb\b1a!aGb1b;a{aRbZaVblbea<a+a-bHa2bmbta\a]bHbzbYb+b[cMc!bLa2aZana1cCcTb_b+b/a~bSbsbvb[bCb5bRcqbhbebJb2bRbDbvb0b?b%cda~b!aQbua~b|b3a(b3bqaWaLa~bTb5cacOcQbua2a0a4aXa#clbNaZaea[bYcecMcibzb6cabrbMcfb+bCb[cnbCcKcdcfa>atbZbCbWb[bIbYbObmaWbQbHa{b<a[bHbua#bmboa-bHbtbAb=cncqcOc0b0a3aebvbJb0bWb_cKcqcgceb5b2b-bla.bbbbbsbGbxbmbVa_bHa_a-btbsb4brbvb&a?beblbGa3b#bjbUa^a<a]a~b4bPbTbJbTb+cfcYcaaNasala_b[b2bTb6b1b:bXbXbTbSbCbMcYb)b~bCbwbOa^bGa*b.aTa^bUbqb}a[a/bmbGa1bQa\bLa_a]bmbHa_b.bGbfbmb6b!b:bOcJaz",
"ana^cIcackcIcLcBb|b\a[bBbObScdb_bUa^a6b7bSa?b$b#b0b_caaVchb|bObLb,b#b\b0bzbSa?b\b*b0cTcab:b}bLbZcma1aBanaGa_bzb1b2b;bMbzbObHa^a&b!a}a#a9aua!bba]cia?aoaHbjb|b6a:bya*a8bmbGaVbHbea!aLa}bAbqblbma]bzbObqbLbMb1cLcXbxa8a4ala(ckchb9b*b=bNb2a~bSb=bRb0b\cka?bRb0b5bMb)cgb6bMa~b}a6b3aGbLa~bfb#a~bEa^aQa6aVbsbza~cLcFbmaPa!aZaSa5bVbgaWaea1bLb=c1cjbebWb[b*b%b?b[a}cCcobicxcdcPa;awcfb0b=b9brb3a?aVa-bTa.a}b!bab!bLbebya&a_b$bCclbSbYb~cQcpa;a4afa7b!b5bOb~czchcgb&bNbzbEbubLbcbcbga]bnbqbgbgb.a^bQb$bubga[bsc!b~a%btbTa1bsbxa*a*aTa/a_bsa8bbbsbEb?cXc%cqaNasaha{cabWb,b2b/ceb&bsbkb>bIbIcQb5cabzb1b+a-a6bfb>aDbmbJbPb}a[a*a/bBa2bua*bLbtbgbmbubtcibzbba/bHbZcHcHcWax",
"aoa,b$bHbqb.bsa:chcabGb3a7b9bDbMbLbTa7b3bHaQb3cibvb0b>aPchcecJb&cAbLb\cibCb|bkbSb2bzb:b}a|bxa&cNcZa6aLama1b:b2bzbzb\b/bRbNa~bua<bxa&a^bHa*aza]a/cjbRaxaUaQbgbLa&bLaPa6b:a}a>blbzbaa3bHa[bHbsa]a_a^bQbzbzb:b|chcrbQa&a$aha(cFb\b5bGbOa.b]bwbSbObJbRbMcaa;b0bRbWbIbIb?b1bWa;cba;bJaPbOb6bDb9bsa^b#bzb!a-aQa8bqb5cfbGa8a3a0aYaSa,a/a|afawbycTcyb}bvbzb8b1b6b5cua>cLb6brcqcKcHa`aIb=b)cqb=bIbQa8aQb4bJa(cpa?a-a-bga&bqbzclb0b/b\a~bYbIcGb3a8a0aga`b/b)bIchceb%cgbWb?bPbzbubqbma/a]bubgbnbGa]bQa*cbb&a[a-b)cRc8cBa%bPb6a%bqb:bzblbgbsa^bca.bubsbzcrcIc!cTaTaualbmcab0b>b&b|b+b;bDbMb[bMbzcDb5b|brb>b&a2aWbRclazbyb0b9clbea&a_bGa*bga&bHa/bababebBcwbsbgbcbGb.b=cIc3ax",
"aoa9b#b|b7b3bQa~bYb.bbb3a.b3b1b0b9bNaQbwb&a.b1cpbCbRb!aMchcacNb*c3b.b+cobRcebva?cebMbGb3aXa=bbc7cWaQaLamaPbtbLbOa~b1b1brbNb!bAa2bGbga^a-bmaQaLaXb1b\a*a/aTaUaXaNaZaLblbHa&bsa(bza\a*b2bfbgbbbNbza~bSbAbkb>bJb`cVbYa*a4aha(c2cqcnbDbJbRb[bNbDbzbvbOa[cgbrbJa[a:a(bCcebWb5bCb[bib[a&blcbbeb,b:a#bbbDb>bgaPaGaQcBcPb2bka<a4a,a$aoa=byahawbHcLb)ceb6bCcLcdcgb5cIa%chb\bjbIcDcIbWa;bwb5cqb_bCbEa~a8b$bfa?cla(bmaWb$a.bDbTbNbDbvb]bxbmb0cFb|a*aTaga:b!b0bMb=cgb*chb9b9bEbzbLbxbba*bgbba/bZbcbLbLbgcbbza.b3cSc!c0cLa}b&bOa&a&b3b3bJa}b6a^bba~bHbNbTb=cRc%cXa!asambgb|cab0cecEcdcebEbObObrbWcPb5b?bzb}a?a7b,cOb)aGbzb*b=b|bqaWbgbEa~baa3bxa]a/a!bjbGcja~bgbubzb#b|cscZaG",
"alaWb|cwbnblbGb}bVbma2bla&a[bRcab:bJbzbWbObOb=crbCb%bPaMb,bDb;b-ccb(b1cPbWcibza~cfbrbEb9a*bLbccGcWa_aXanazbLbRb2bSa?cia}b+bMbVaTa/a/aZaVbUbea$a!bPbJa)a<aNa0a,aAaTa3b;b8a8a\a1bQa#a8b2a?bxa]bfb&a\btbBbeb|a}cncYb.a2aTaia7b]chb=bJbJbEb:bIb1bNb2brbMb|brbMbMb|a?bIb6b*b1bIb6bjb!a1a^b7a1a-bca#aPaAaXaWa*axaAaIbLb&bJa_a_a!aHaqbna/alaIb#cEb5b2b&b8b[cgb*b5cYbdcXb=bCa%cPcTb5chbRb5cKcKbRa(bkb)b)bfa{b&a(bAa+bzbsbvb+brb!bubsblbTc0b~bbaWaLagazbZb6bIb1b:b+bRbHbqbxbsa[bga*bnbmbfa/bnblb(babZb8a(b1ckcKcXc2cLa#bebGbsa(bJbNbNa<bGbUbbbCb+bPbzbMcic&cra!arakbub=b:b/ceb5ceb2bvbzbPa>b{cOb?cBbrcia(bhb|ckbRaQb7b*b_b6bJaQbxbAa>bna&a!buaIa0a#a<b|bqbZbcbHb$cfcUcVax",
"ana<b$bTa]bubHa6a&a.a.aPbsa*bzcecEb1bMbYb_crb=cebrbIbSaPcba&a&cbcjb(b_cRbCb5b+bdb+bdcib\bHbya.c9c7a{a3anaMb$cxb~b\bicMcqb=b)b]a?a&a_bEbjb:bDa4aTbNa?bNa>a,a!a3axa2bcbYa.a+a]a8bgaPa*b!a%bGbUbfbSa.bubBblcja~b|cGbHaIauaga?bMb,b1a~bsbRb2bOb|bSb:a>b)cabibvbNcybrczb5b?bvb2bWb9bIa&a&ceb[bPbzbma#a9aZaRa3aBaAaxaxbrcFbybVbVa=aTblbnahawb#b_b_bNb\b{b1bNb+b5cYbCcXb:bCbdc!cYb0cXb_b5cLcQbra7bzb|bMbsbsbfbDbvbSa~bza?a~b~cdbDbPbzckcycgbya*aAafaDbcbsbNbWb2cabIb3bebBa.aWaZa6a_a,a<a\bgbGb4bicobva?cnb_cdcKc0cYa^aIbqb#a&bja?bNa8a_bSbpbDb2bva(bWcac%cra4aqambLcab:b[cFcncFb:bzb1bPb0cqcrcdb=bvb;a1bIcgb\braQb#b6b=bzb3aVa]bebqbya/a=a#aAaHakaHbxbtbLbcbDb>cqc0c5aI",
"ajaRb4b.bQb4b.b3bQbebnaIbYbVbdcsb)b_b0b9bvb=cnb_a:bkbtaMb|b[a7bLcGbYb5c1b=b0b!a;bta?cCb9bmbKa-c7c9a8aNanaDb7cKb`b)b5chcMcnb_b}bJa~b6b2a7a_bmaRaxbta{cabha,a9a0aBa;b>bza1bsbla.a[a6bLbSa?bSbTbfbTbeb9a~a^b\brcRcBbca8auadbIcEceb5cecibzb-a}b2brb!a;b+b6a?bCbzb/bdcMbWb=bCcDbvckbCb4ara^b3bbblbga-a<aPa9a-aTaxaUaAaxa+bTblbmbya*bxbLajara,bIcCb9clb2b\b%cqbRcDb0cQb,bja;cKcSbWcSb)b5cYcYa?a%bqb2bhbXb8a(b3a(b;bvbib2bIb|b+b&bNb6b+b;cfbAbfaLafaTa{bvb2cgb5b1bNbUa]a<a)a#a\a|bpa0bmbLa/bQbmb2cva*bzb,b3bWb_cKcIbRa7bkbTa]a[a^bsa6bba[a~bSbNb2a~b=cOc4cka6asambKcab*b2bNcgcOb!bvbJbzb8b`b)b?bIbMb6a(b5b0b;a?a~csbRb%brb|a&a_bbbbbta2bga-afabaoa]bUbBbgbtbzcmcRcLc1aI",
"alaQb3cbbZbQb3b.b.bHbBa6bBbHa;b+bIb0bjb9bCcecLb?a7bPbJaPbNb!bLa1cmb$bzcibCb5b2bNbibMczb9b7bga+cNc7a8aPanaDbLcBbRb*b*cgcybWb5b\b!a}cqb-a(aQbtaRaAa\bpcxbMbka*a!axa>cnbea(a-a[bca&aPbZa^a*bCb8bqbLa[b(a?a~b!a~cLcnbVa#axaebqcsb|bJbib\bCb9a?bNa`b2a;b\bIa?b0b0brbIcXbMb1a;cva}b~b0b&a1a#a8a<a6aZaza<aXaTa#a4aqaRaAasasaVbVa_bQbTbEbmajanbAb5cxb=b)bTbTbIcub0cMbCcxckb5bdb_cdbvcLb=cdc4cQbRaPbEa?a~bNa{a1bGa%b+b0bCcubRb/bWb+a?b0cecYb%b&baauahaza]bjb3bSbfbbbGa\a#a3a<a!a<a_a_b4bLcma?b7blb\clbhb[cnb%b6b3b*cqbwa(bSb3bPa}bAbma<bGbPbtbsbsbza^bWcVb~cBaTananbQb0cDb2b1cncPb>bNbkbAbNb8bCb1a[b1bNbfb=b)b:a6a~b$bzb2a~b!a-a&bma?b4a(bybLaJacatbAcbbsbxbybSbAcTczc3aI",
"ajaRbOcmb7bGccbLb:b:a~bzcjbJa?b6brb2brbMbCcuckb:aQbvb;aQbRb1ckbrb9b,a}cibSbfbrcCb)b*bsb>bZbxa_b.cZa#aRakaDbLcYbRb5b0cqcEb0cBb0cfbhcxb!a}aQbua!aNa&a_b~bCbHa.aUaAbhcga2a*a?a~bqa.a2bBa>bta:bPbMb/bTbsa?a~b!bSb\cFbVa6aLaga~bTcja~a?b6bDb1btbAbDbDbdcgbibib=b)bJbSb6bvcaa7b{bvb0b?b8a(bXbSa&a[a,aRa+buaRa9aLaLasaxawaLa/bmbca+cFcea_ahatb.b*cXchbrb/b+bCcgbMc0bdcMcgb=bwbPb)b0cOcqcqc4cKbwaQbEa?bvcsbda[bQa?bEbRbrcdb5b?b+b]bkbRcncCazcWb2auaeaobxbDbDbua&blbla+a+a-a\a&a*bxbQbTb]clb0b&bkb|b+bhb+cKb=b?cqb*cqb1a%bqb7b2bDbSbJa?bbbUbsbsbbbua^bdc7cgcOa3ananbLb_cFb1b|b)cObTb6bfbkb0b/bSb3a&bYbba*brb8b7aVbpb&bPbXa~bHaTa6bqbsbVa*bpbmbuaqbkbFb|bBbnbmb9b1c3crcVaG",
"aka0bsb.b:bLcpb.bQbubqbjcAbza;b6bzb5bsbJbCcgcdb*a7bvb]aQbWbNbEbOb2b]bhb|bSbJa.clcnb~a(b]bVbya{bQcZa-axagawa)cnb*b0b1b)cSbIczbicebvb=b=b%aVa6a|a9a#a,b2a:bya/a3aGbrcBa*bea^a.bLa9aWbba&bGa#bQbrb2b;bsbabmb!bNbjclbUaUaUaka;bJceb1b2bTa.bqbwbOb1bvbzb:bCbrb0b[bvcBb9bzb2a(b6b3bWcxb5bha(bSbCb2bea&a^bBaDa!aXaNaxaqauaLaIbUbcaGa<bya<acaDb:b0b~b0bzb~b_cdcybIc2bOcSb=cgbOa&bWb=c0cScqcQb)braQbqa(bkcHa`bzbzbja^b2bIbJbNb>b!bIcEbMb9cubicWb6aEaeaia<bxbQbQbma]a#aTa0a<bma]bHbab{cab[cibWb2a~b!bfa`b1ckbva?cdb_b*b:a;a3bkbXbzbzbDbla[bbbgbca.bua<a(c9brcvaRamarbZcdcDb9ctbCc1b2b+bebBb0b2b/b\a6bUa(bfbPbJbUaVbSb|b0b/bsb&a{a)a[b4bUa-a<babgaAb4bQb!bSbgbnbzb|cZb:cAaL",
"akaRbqb}b3cwb3cjbEbOa^becEbRa[b2brceb1b6bvcncnbRa?bMb\a1bWbJbvbOb&b3bCcdbRb%bMb|cnb~a}b;bHbLa\bZc5aLaHaiaDa&b~chbDbebIcebMb\bhckbwbebOcqa(a*a|aRaNaWb~bCbZa[a#a*bIbRa&bwbka%bYa^a#aRa8bua&bxbsbPbvbSbqbubSb1cIcEbVa6aLaka~cvcebMcab/bebLbOchcabObRb*a~a%bIchb0cSb?bRbSbfbrb1b5cgbObOaQbja.a(a6a^bObQaDa<a6aIaTaPaJaAaxaxbHaQa8bna9afatb3b1a7cdcqb=b_crcrbIc4bIcycqcSbRa1a?b_c0c2chcybIbIaIbEa?bDcja(bwa~bvbvcybRcdb5b6b5cdcSb*b*c(c2cwbDaLafaoa/b2b}cbbla9aTa&bcbxbybpbVbNb|ckb5b-bvb6a~b&bJaVbOcba;aMb*cyb*cebIa-bgbsbTbsbla\a<a.bmbkbkbHa#a;cWb%cvaNaiarbZcacycdcTcqc0bAb&bNbsb*b9bOb9bbbLa8bVbLa~bkaTb0b\bSbSbsb-bLa(bNb2bQa#a*bQa!aTb$bHb-bNbGbxbNb6cWbNcAa3",
"aka0a^cbb]cbb|b|bTb3bja*cIb*beb2b5cub1b*bvcncobIbdbMcea1bEbzbebvb\bYbIc0b1bIcab2b~cObvbDa_bUa]bHc5aTaXaiaIa^b9cebNbDbsb-b0cya;cecLbdb1cea^aIa$aTaNaNbzb9b-a?bfa;b:a%a[b+a?a?bDa(a]aQa&bgbebsblblbYbzbkb!b]bOb=cIbHaTaLapb2b6b:bJb6bTbqbEb=b*cabrbIbIa~a[b)bRb=czbMcqb3b*a1bvbWbCbMb=aPbebebBbTbjbmbsaWbbbua&byaRa!aHauata]a$a2bUa\ajazbtcybMcebRb*cgb~cIbwcYbrb_cSc6bMa>bdcdcgc0cycdb~beaPbqa;bza?a~b2a}bsa(cLb)b[b6b5b9cMcSb)cDcZcOcZbOaAafazbHb9cEcsb1bHbsbjblbQbsbsbLb&bNb\bOckbrb3a[b3bDazbEb~b5chcKcYb5ceb0a&bgbMb\bebqa~a^a*a_a[beb!a:bCcZb0czaLahazbVcEb=czcQcMcSbGbTbLa[cxcabSbfa^bsaVbLbla&ccaVbSb-a?bPbqbUbtaIb1bWbUblaQbnbua-b&b6bLbeb7bmbDb&cNbTcAaZ",
"aia!a?b9cqcycrb.b#bTa&becQb3b=b9b_cMbOb|bCcucHb5bvbrcka?bvb/bEa1cfb8bIcYb9bhcqb*b5cQbEa*bcbQbmbxcZa2aNamawa#b[cgb1bMbvceb[cqa?b3b5bdbOb|bgaIa!a,a3aAbTbEbNbzbrbhb3aQbhb~a%bCbcaVbga8a+bQbtbkbnbEb7bzbzb3b/b1b2cUb7a8aAaob:b|b6bPbLbjbla?b=cgcia%b!bCbObsb=b1cDb*bIczbRb0aza\b6brb5b)aVbgbRb9ckbda.bZbsa8a#bLbQaTaxa0a]aJbybZa2bma#alblbLcSbWchb1b~czb*czbvc2b0cMcYcQbOa?a;cEcKcQcKb~cra?a1b3a&bEbjbTceb9bja[cQcrb)b*b=b=cgcxb=cTcSb~c9b1auaiaoa+a#aVaTaRa\bLbGbEctbsbsb3b.b#b6b9b2b1bebscab:aIb3cdb*cdcyc4b_bObYbebqbNb\a&bja?a*a\a-a+a_bKa{a1cYb*b|aSakatbZcMb)c2cYc8cSb3bTb2b1cEb6b9beb3bsbubuaVb8b$azbObHbwbla_a_bUa6babKbAbta&a]bZa&b8bAbHbzbHbybGbTcNb!ctaP",
"aia9a^b#c2cScIcrb9b:bTa^cIb_chb9b5cMb0b~bvcIcdb*b=bRb\brbCchb+a7b+cibrcqcrbvcdbIb5cxbGa[bVb$bQbgcZa.a!amaIa8b=cMbObzbRb*cub*a~bzb9aVb5cqbLaQbmbuaTazbMb6b*b)bObrbOaDa;cea(bIb3a;bsblbjb3a^blbLbwbEbGbEbTcib;b1c#b(a3aRanb3b3b3bObTbEbLb.ceczb+bvbTa&bqb3b8brcEchchcEbRb:a(a~bNbrbebjaPa<bXbzcebza/a[bbaIb3cbbubHaIboa0a|a]c3blbla-albRb=cEbOb5b=b*chb~chb_c8bIbrchchbYa.a7cycYcKcKb=cqa;aVb9bjbEa?b3cebObCbMcTcdb=b*cxb*czb~cecScYcYc%bOaBakasa=a$axauaualaTbqctcEb:bOb.b$b|bOcqbvcha.bqcab~a;bTcrcrcIcycIb5bOb.bua\bzb|a^b3a^bbbKbfbca#bSbLa*b#c$cMaZajaDbZczcyc6czc7b=bEbbbTa~b9bjbma+b#bjb^a<a~b.bZawbgbcbxbtbYb$b.a*a&bVbAbta2a\b$a&b#bbbOb}b:b:blbTcVb3cma3",
};
