/* XPM */
static char *xpm[] = {
"320 180 3 1",
". c None",
"b c #000000",
"c c None",
".............................................................................................................................................................bbbbbb.............................................................................................................................................................",
"...........................................................................................................................................................bbbbbbbbbb...........................................................................................................................................................",
"...........................................................................................................................................................bbbbbbbbbb...........................................................................................................................................................",
"..........................................................................................................................................................bbbbbbbbbbbb..........................................................................................................................................................",
"..........................................................................................................................................................bbbbbbbbbbbb..........................................................................................................................................................",
"..........................................................................................................................................................bbbbbbbbbbbb..........................................................................................................................................................",
"..........................................................................................................................................................bbbbbbbbbbbb..........................................................................................................................................................",
"..........................................................................................................................................................bbbbbbbbbbbb..........................................................................................................................................................",
"..........................................................................................................................................................bbbbbbbbbbbb..........................................................................................................................................................",
"..........................................................................................................................................................bbbbbbbbbbbb..........................................................................................................................................................",
"..........................................................................................................................................................bbbbbbbbbbbb..........................................................................................................................................................",
"..........................................................................................................................................................bbbbbbbbbbbb..........................................................................................................................................................",
"..........................................................................................................................................................bbbbbbbbbbbb..........................................................................................................................................................",
"..........................................................................................................................................................bbbbbbbbbbbb..........................................................................................................................................................",
"..........................................................................................................................................................bbbbbbbbbbbb..........................................................................................................................................................",
"..........................................................................................................................................................bbbbbbbbbbbb..........................................................................................................................................................",
"..........................................................................................................................................................bbbbbbbbbbbb..........................................................................................................................................................",
"..........................................................................................................................................................bbbbbbbbbbbb..........................................................................................................................................................",
"..........................................................................................................................................................bbbbbbbbbbbb..........................................................................................................................................................",
"..........................................................................................................................................................bbbbbbbbbbbb..........................................................................................................................................................",
"..........................................................................................................................................................bbbbbbbbbbbb..........................................................................................................................................................",
"..........................................................................................................................................................bbbbbbbbbbbb..........................................................................................................................................................",
"..........................................................................................................................................................bbbbbbbbbbbb..........................................................................................................................................................",
"..........................................................................................................................................................bbbbbbbbbbbb..........................................................................................................................................................",
"..........................................................................................................................................................bbbbbbbbbbbb..........................................................................................................................................................",
"..........................................................................................................................................................bbbbbbbbbbbb..........................................................................................................................................................",
"..........................................................................................................................................................bbbbbbbbbbbb..........................................................................................................................................................",
"..........................................................................................................................................................bbbbbbbbbbbb..........................................................................................................................................................",
"..........................................................................................................................................................bbbbbbbbbbbb..........................................................................................................................................................",
"..........................................................................................................................................................bbbbbbbbbbbb..........................................................................................................................................................",
"..........................................................................................................................................................bbbbbbbbbbbb..........................................................................................................................................................",
"..........................................................................................................................................................bbbbbbbbbbbb..........................................................................................................................................................",
"..........................................................................................................................................................bbbbbbbbbbbb..........................................................................................................................................................",
"..........................................................................................................................................................bbbbbbbbbbbb..........................................................................................................................................................",
"..........................................................................................................................................................bbbbbbbbbbbb..........................................................................................................................................................",
"..........................................................................................................................................................bbbbbbbbbbbb..........................................................................................................................................................",
"..........................................................................................................................................................bbbbbbbbbbbb..........................................................................................................................................................",
"..........................................................................................................................................................bbbbbbbbbbbb..........................................................................................................................................................",
"..........................................................................................................................................................bbbbbbbbbbbb..........................................................................................................................................................",
"..........................................................................................................................................................bbbbbbbbbbbb..........................................................................................................................................................",
"..........................................................................................................................................................bbbbbbbbbbbb..........................................................................................................................................................",
"..........................................................................................................................................................bbbbbbbbbbbb..........................................................................................................................................................",
"..........................................................................................................................................................bbbbbbbbbbbb..........................................................................................................................................................",
"..........................................................................................................................................................bbbbbbbbbbbb..........................................................................................................................................................",
"..........................................................................................................................................................bbbbbbbbbbbb..........................................................................................................................................................",
"..........................................................................................................................................................bbbbbbbbbbbb..........................................................................................................................................................",
"..........................................................................................................................................................bbbbbbbbbbbb..........................................................................................................................................................",
"..........................................................................................................................................................bbbbbbbbbbbb..........................................................................................................................................................",
"..........................................................................................................................................................bbbbbbbbbbbb..........................................................................................................................................................",
"..........................................................................................................................................................bbbbbbbbbbbb..........................................................................................................................................................",
"..........................................................................................................................................................bbbbbbbbbbbb..........................................................................................................................................................",
"..........................................................................................................................................................bbbbbbbbbbbb..........................................................................................................................................................",
"..........................................................................................................................................................bbbbbbbbbbbb..........................................................................................................................................................",
"..........................................................................................................................................................bbbbbbbbbbbb..........................................................................................................................................................",
"..........................................................................................................................................................bbbbbbbbbbbb..........................................................................................................................................................",
"..........................................................................................................................................................bbbbbbbbbbbb..........................................................................................................................................................",
"..........................................................................................................................................................bbbbbbbbbbbb..........................................................................................................................................................",
"..........................................................................................................................................................bbbbbbbbbbbb..........................................................................................................................................................",
"..........................................................................................................................................................bbbbbbbbbbbb..........................................................................................................................................................",
"...........................................................................................................................................................bbbbbbbbbb...........................................................................................................................................................",
"...........................................................................................................................................................bbbbbbbbbb...........................................................................................................................................................",
".............................................................................................................................................................bbbbbb.............................................................................................................................................................",
"................................................................................................................................................................................................................................................................................................................................",
"................................................................................................................................................................................................................................................................................................................................",
"................................................................................................................................................................................................................................................................................................................................",
"................................................................................................................................................................................................................................................................................................................................",
"................................................................................................................................................................................................................................................................................................................................",
"................................................................................................................................................................................................................................................................................................................................",
"................................................................................................................................................................................................................................................................................................................................",
"................................................................................................................................................................................................................................................................................................................................",
"................................................................................................................................................................................................................................................................................................................................",
"................................................................................................................................................................................................................................................................................................................................",
"................................................................................................................................................................................................................................................................................................................................",
"................................................................................................................................................................................................................................................................................................................................",
"................................................................................................................................................................................................................................................................................................................................",
"................................................................................................................................................................................................................................................................................................................................",
"................................................................................................................................................................................................................................................................................................................................",
"................................................................................................................................................................................................................................................................................................................................",
"................................................................................................................................................................................................................................................................................................................................",
"................................................................................................................................................................................................................................................................................................................................",
"................................................................................................................................................................................................................................................................................................................................",
"................................................................................................................................................................................................................................................................................................................................",
"................................................................................................................................................................................................................................................................................................................................",
"................................................................................................................................................................................................................................................................................................................................",
"................................................................................................................................................................................................................................................................................................................................",
"................................................................................................................................................................................................................................................................................................................................",
"................................................................................................................................................................................................................................................................................................................................",
"..bbbbbbbbbbbbbbbbbbbbbbbbbbbbbbbbbbbbbbbbbbbbbbbbbbbbbbbbbbbbbbbbbbbbbbbbbbbbbbbbbbbbbbbbbbbbbbbbbbbbbbbbbb........................................................................................................bbbbbbbbbbbbbbbbbbbbbbbbbbbbbbbbbbbbbbbbbbbbbbbbbbbbbbbbbbbbbbbbbbbbbbbbbbbbbbbbbbbbbbbbbbbbbbbbbbbbbbbbbb..",
".bbbbbbbbbbbbbbbbbbbbbbbbbbbbbbbbbbbbbbbbbbbbbbbbbbbbbbbbbbbbbbbbbbbbbbbbbbbbbbbbbbbbbbbbbbbbbbbbbbbbbbbbbbbbb....................................................................................................bbbbbbbbbbbbbbbbbbbbbbbbbbbbbbbbbbbbbbbbbbbbbbbbbbbbbbbbbbbbbbbbbbbbbbbbbbbbbbbbbbbbbbbbbbbbbbbbbbbbbbbbbbbbb.",
"bbbbbbbbbbbbbbbbbbbbbbbbbbbbbbbbbbbbbbbbbbbbbbbbbbbbbbbbbbbbbbbbbbbbbbbbbbbbbbbbbbbbbbbbbbbbbbbbbbbbbbbbbbbbbb....................................................................................................bbbbbbbbbbbbbbbbbbbbbbbbbbbbbbbbbbbbbbbbbbbbbbbbbbbbbbbbbbbbbbbbbbbbbbbbbbbbbbbbbbbbbbbbbbbbbbbbbbbbbbbbbbbbbb",
"bbbbbbbbbbbbbbbbbbbbbbbbbbbbbbbbbbbbbbbbbbbbbbbbbbbbbbbbbbbbbbbbbbbbbbbbbbbbbbbbbbbbbbbbbbbbbbbbbbbbbbbbbbbbbb....................................................................................................bbbbbbbbbbbbbbbbbbbbbbbbbbbbbbbbbbbbbbbbbbbbbbbbbbbbbbbbbbbbbbbbbbbbbbbbbbbbbbbbbbbbbbbbbbbbbbbbbbbbbbbbbbbbbb",
".bbbbbbbbbbbbbbbbbbbbbbbbbbbbbbbbbbbbbbbbbbbbbbbbbbbbbbbbbbbbbbbbbbbbbbbbbbbbbbbbbbbbbbbbbbbbbbbbbbbbbbbbbbbbb....................................................................................................bbbbbbbbbbbbbbbbbbbbbbbbbbbbbbbbbbbbbbbbbbbbbbbbbbbbbbbbbbbbbbbbbbbbbbbbbbbbbbbbbbbbbbbbbbbbbbbbbbbbbbbbbbbbb.",
"..bbbbbbbbbbbbbbbbbbbbbbbbbbbbbbbbbbbbbbbbbbbbbbbbbbbbbbbbbbbbbbbbbbbbbbbbbbbbbbbbbbbbbbbbbbbbbbbbbbbbbbbbbb........................................................................................................bbbbbbbbbbbbbbbbbbbbbbbbbbbbbbbbbbbbbbbbbbbbbbbbbbbbbbbbbbbbbbbbbbbbbbbbbbbbbbbbbbbbbbbbbbbbbbbbbbbbbbbbbb..",
"................................................................................................................................................................................................................................................................................................................................",
"................................................................................................................................................................................................................................................................................................................................",
"................................................................................................................................................................................................................................................................................................................................",
"................................................................................................................................................................................................................................................................................................................................",
"................................................................................................................................................................................................................................................................................................................................",
"................................................................................................................................................................................................................................................................................................................................",
"................................................................................................................................................................................................................................................................................................................................",
"................................................................................................................................................................................................................................................................................................................................",
"................................................................................................................................................................................................................................................................................................................................",
"................................................................................................................................................................................................................................................................................................................................",
"................................................................................................................................................................................................................................................................................................................................",
"................................................................................................................................................................................................................................................................................................................................",
"................................................................................................................................................................................................................................................................................................................................",
"................................................................................................................................................................................................................................................................................................................................",
"................................................................................................................................................................................................................................................................................................................................",
"................................................................................................................................................................................................................................................................................................................................",
"................................................................................................................................................................................................................................................................................................................................",
"................................................................................................................................................................................................................................................................................................................................",
"................................................................................................................................................................................................................................................................................................................................",
"................................................................................................................................................................................................................................................................................................................................",
"................................................................................................................................................................................................................................................................................................................................",
"................................................................................................................................................................................................................................................................................................................................",
"................................................................................................................................................................................................................................................................................................................................",
"................................................................................................................................................................................................................................................................................................................................",
"................................................................................................................................................................................................................................................................................................................................",
".............................................................................................................................................................bbbbbb.............................................................................................................................................................",
"...........................................................................................................................................................bbbbbbbbbb...........................................................................................................................................................",
"...........................................................................................................................................................bbbbbbbbbb...........................................................................................................................................................",
"..........................................................................................................................................................bbbbbbbbbbbb..........................................................................................................................................................",
"..........................................................................................................................................................bbbbbbbbbbbb..........................................................................................................................................................",
"..........................................................................................................................................................bbbbbbbbbbbb..........................................................................................................................................................",
"..........................................................................................................................................................bbbbbbbbbbbb..........................................................................................................................................................",
"..........................................................................................................................................................bbbbbbbbbbbb..........................................................................................................................................................",
"..........................................................................................................................................................bbbbbbbbbbbb..........................................................................................................................................................",
"..........................................................................................................................................................bbbbbbbbbbbb..........................................................................................................................................................",
"..........................................................................................................................................................bbbbbbbbbbbb..........................................................................................................................................................",
"..........................................................................................................................................................bbbbbbbbbbbb..........................................................................................................................................................",
"..........................................................................................................................................................bbbbbbbbbbbb..........................................................................................................................................................",
"..........................................................................................................................................................bbbbbbbbbbbb..........................................................................................................................................................",
"..........................................................................................................................................................bbbbbbbbbbbb..........................................................................................................................................................",
"..........................................................................................................................................................bbbbbbbbbbbb..........................................................................................................................................................",
"..........................................................................................................................................................bbbbbbbbbbbb..........................................................................................................................................................",
"..........................................................................................................................................................bbbbbbbbbbbb..........................................................................................................................................................",
"..........................................................................................................................................................bbbbbbbbbbbb..........................................................................................................................................................",
"..........................................................................................................................................................bbbbbbbbbbbb..........................................................................................................................................................",
"..........................................................................................................................................................bbbbbbbbbbbb..........................................................................................................................................................",
"..........................................................................................................................................................bbbbbbbbbbbb..........................................................................................................................................................",
"..........................................................................................................................................................bbbbbbbbbbbb..........................................................................................................................................................",
"..........................................................................................................................................................bbbbbbbbbbbb..........................................................................................................................................................",
"..........................................................................................................................................................bbbbbbbbbbbb..........................................................................................................................................................",
"..........................................................................................................................................................bbbbbbbbbbbb..........................................................................................................................................................",
"..........................................................................................................................................................bbbbbbbbbbbb..........................................................................................................................................................",
"..........................................................................................................................................................bbbbbbbbbbbb..........................................................................................................................................................",
"..........................................................................................................................................................bbbbbbbbbbbb..........................................................................................................................................................",
"..........................................................................................................................................................bbbbbbbbbbbb..........................................................................................................................................................",
"..........................................................................................................................................................bbbbbbbbbbbb..........................................................................................................................................................",
"..........................................................................................................................................................bbbbbbbbbbbb..........................................................................................................................................................",
"..........................................................................................................................................................bbbbbbbbbbbb..........................................................................................................................................................",
"..........................................................................................................................................................bbbbbbbbbbbb..........................................................................................................................................................",
"..........................................................................................................................................................bbbbbbbbbbbb..........................................................................................................................................................",
"..........................................................................................................................................................bbbbbbbbbbbb..........................................................................................................................................................",
"..........................................................................................................................................................bbbbbbbbbbbb..........................................................................................................................................................",
"..........................................................................................................................................................bbbbbbbbbbbb..........................................................................................................................................................",
"..........................................................................................................................................................bbbbbbbbbbbb..........................................................................................................................................................",
"..........................................................................................................................................................bbbbbbbbbbbb..........................................................................................................................................................",
"..........................................................................................................................................................bbbbbbbbbbbb..........................................................................................................................................................",
"..........................................................................................................................................................bbbbbbbbbbbb..........................................................................................................................................................",
"..........................................................................................................................................................bbbbbbbbbbbb..........................................................................................................................................................",
"..........................................................................................................................................................bbbbbbbbbbbb..........................................................................................................................................................",
"..........................................................................................................................................................bbbbbbbbbbbb..........................................................................................................................................................",
"..........................................................................................................................................................bbbbbbbbbbbb..........................................................................................................................................................",
"..........................................................................................................................................................bbbbbbbbbbbb..........................................................................................................................................................",
"..........................................................................................................................................................bbbbbbbbbbbb..........................................................................................................................................................",
"..........................................................................................................................................................bbbbbbbbbbbb..........................................................................................................................................................",
"..........................................................................................................................................................bbbbbbbbbbbb..........................................................................................................................................................",
"..........................................................................................................................................................bbbbbbbbbbbb..........................................................................................................................................................",
"..........................................................................................................................................................bbbbbbbbbbbb..........................................................................................................................................................",
"..........................................................................................................................................................bbbbbbbbbbbb..........................................................................................................................................................",
"..........................................................................................................................................................bbbbbbbbbbbb..........................................................................................................................................................",
"..........................................................................................................................................................bbbbbbbbbbbb..........................................................................................................................................................",
"..........................................................................................................................................................bbbbbbbbbbbb..........................................................................................................................................................",
"..........................................................................................................................................................bbbbbbbbbbbb..........................................................................................................................................................",
"..........................................................................................................................................................bbbbbbbbbbbb..........................................................................................................................................................",
"..........................................................................................................................................................bbbbbbbbbbbb..........................................................................................................................................................",
"...........................................................................................................................................................bbbbbbbbbb...........................................................................................................................................................",
"...........................................................................................................................................................bbbbbbbbbb...........................................................................................................................................................",
".............................................................................................................................................................bbbbbb.............................................................................................................................................................",
};
