/* XPM */
static char *xpm[] = {
"320 180 255 2",
".. c None",
"ab c #000000",
"ac c #000101",
"ad c #000102",
"ae c #001d19",
"af c #005045",
"ag c #006b5d",
"ah c #00ac94",
"ai c #010101",
"aj c #010201",
"ak c #010202",
"al c #010302",
"am c #010806",
"an c #01221d",
"ao c #017e6d",
"ap c #01937d",
"aq c #01b39a",
"ar c #01b69c",
"as c #020403",
"at c #020604",
"au c #020705",
"av c #02231d",
"aw c #02b69c",
"ax c #03b69c",
"ay c #040e0c",
"az c #04231d",
"aA c #04241d",
"aB c #049a84",
"aC c #04b89d",
"aD c #05ba9f",
"aE c #06110c",
"aF c #06241d",
"aG c #069b84",
"aH c #06b89e",
"aI c #070f0a",
"aJ c #07140e",
"aK c #080d08",
"aL c #081812",
"aM c #08251e",
"aN c #099d85",
"aO c #09b99d",
"aP c #0a261e",
"aQ c #0abb9e",
"aR c #0c4033",
"aS c #0cba9d",
"aT c #0cbc9f",
"aU c #0d221b",
"aV c #0d271e",
"aW c #0dbb9d",
"aX c #0dbda0",
"aY c #0f2920",
"aZ c #0f9f85",
"a0 c #10bd9e",
"a1 c #10bfa0",
"a2 c #113327",
"a3 c #11c0a0",
"a4 c #122a1f",
"a5 c #123529",
"a6 c #133528",
"a7 c #135645",
"a8 c #13be9e",
"a9 c #143628",
"a! c #14372a",
"a# c #14be9e",
"a$ c #152b1f",
"a% c #153c2c",
"a& c #15a286",
"a( c #15bf9e",
"a) c #15c2a2",
"a* c #16392a",
"a+ c #172c1f",
"a, c #173f2f",
"a- c #17c09e",
"a. c #182d1f",
"a/ c #18a486",
"a: c #192e20",
"a; c #192e21",
"a< c #19c1a0",
"a= c #19c4a1",
"a> c #1b2e20",
"a? c #1b402f",
"a[ c #1bc3a0",
"a\ c #1c2e20",
"a] c #1c2f20",
"a^ c #1ca586",
"a_ c #1ec39f",
"a` c #205b45",
"a{ c #20c5a0",
"a| c #20c6a1",
"a} c #215d46",
"a~ c #21775d",
"ba c #21795d",
"bb c #21a886",
"bc c #21c49f",
"bd c #23644c",
"be c #23654c",
"bf c #24674c",
"bg c #24684e",
"bh c #24a986",
"bi c #24c6a0",
"bj c #25654c",
"bk c #25aa87",
"bl c #25c8a1",
"bm c #26aa87",
"bn c #276a51",
"bo c #27ab87",
"bp c #27c9a1",
"bq c #28a984",
"br c #297156",
"bs c #29cca3",
"bt c #2a7457",
"bu c #2acaa1",
"bv c #2bad87",
"bw c #2dcba1",
"bx c #2fcca2",
"by c #30b089",
"bz c #318562",
"bA c #31cea3",
"bB c #329276",
"bC c #32cda1",
"bD c #32cfa3",
"bE c #339672",
"bF c #35845f",
"bG c #36cea1",
"bH c #36d2a5",
"bI c #379d77",
"bJ c #37a27b",
"bK c #37cfa2",
"bL c #37d0a3",
"bM c #37d4a6",
"bN c #385d3f",
"bO c #38825e",
"bP c #389771",
"bQ c #389c76",
"bR c #399f77",
"bS c #39cd9f",
"bT c #3a9f77",
"bU c #3aa27a",
"bV c #3ad0a2",
"bW c #3ba37a",
"bX c #3ddbaa",
"bY c #40d5a5",
"bZ c #42bf90",
"b0 c #43b98e",
"b1 c #44704c",
"b2 c #45bb8d",
"b3 c #47b384",
"b4 c #47d2a0",
"b5 c #48cc9a",
"b6 c #49b587",
"b7 c #49c997",
"b8 c #4ace9b",
"b9 c #4bcd9a",
"b! c #4bd9a4",
"b# c #4cd9a4",
"b$ c #4dd7a2",
"b% c #4ddaa4",
"b& c #4ddda6",
"b( c #4edaa4",
"b) c #4ee2ab",
"b* c #4ee3ac",
"b+ c #4fdaa4",
"b, c #4fdba4",
"b- c #4fdea7",
"b. c #50d9a3",
"b/ c #50daa3",
"b: c #50dba4",
"b; c #51dba4",
"b< c #51e0a8",
"b= c #51e1aa",
"b> c #51e7af",
"b? c #53e3ab",
"b[ c #54c38f",
"b\ c #55c18c",
"b] c #55e5ac",
"b^ c #57e9ae",
"b_ c #5ac38c",
"b` c #5bc38c",
"b{ c #5c9766",
"b| c #5ec58c",
"b} c #5ef1b2",
"b~ c #61c68d",
"ca c #62e4a6",
"cb c #64e4a6",
"cc c #64e5a7",
"cd c #65c88d",
"ce c #67e6a7",
"cf c #68ca8e",
"cg c #68e7a8",
"ch c #69ca8e",
"ci c #6ab076",
"cj c #6aca8e",
"ck c #6ae7a7",
"cl c #6ae8a8",
"cm c #6ccb8e",
"cn c #6ce8a8",
"co c #6ceaa8",
"cp c #6dedab",
"cq c #6eeeab",
"cr c #6fcd8f",
"cs c #6fe9a7",
"ct c #6feba9",
"cu c #70efab",
"cv c #71efab",
"cw c #71f2ae",
"cx c #73cf8f",
"cy c #73eca8",
"cz c #74efaa",
"cA c #75eda8",
"cB c #77d08f",
"cC c #77f2ac",
"cD c #78eea8",
"cE c #79d290",
"cF c #79efa9",
"cG c #7ad290",
"cH c #7aefa9",
"cI c #7bd390",
"cJ c #7bf1aa",
"cK c #7cd390",
"cL c #7dd490",
"cM c #7df0a9",
"cN c #7ed490",
"cO c #7ef1a9",
"cP c #7fd490",
"cQ c #7fd591",
"cR c #7ff3aa",
"cS c #80d591",
"cT c #80f2a9",
"cU c #81d591",
"cV c #82f3a9",
"cW c #82f4ab",
"cX c #83f6ac",
"cY c #84da94",
"cZ c #86f4aa",
"c0 c #87f5aa",
"c1 c #88f8ac",
"c2 c #89f6aa",
"c3 c #8af6aa",
"c4 c #8bf7aa",
"c5 c #8bf9ab",
"c6 c #8dfaac",
"c7 c #8ef8ab",
"c8 c #90f9ab",
"c9 c #91fbac",
"c! c #92fcac",
"c# c #93faab",
"c$ c #94f3a3",
"c% c #95fdad",
"c& c #96fcab",
"c( c #98fdac",
"c) c #98ffae",
"c* c #9bffae",
"c+ c #9dffb0",
"c, c #a3ffb5",
"c- c None",
"................................................................................................................................................................................................................................................................................................................................................................................................................................................................................................................................................................................................................................................................",
"................................................................................................................................................................................................................................................................................................................................................................................................................................................................................................................................................................................................................................................................",
"................................................................................................................................................................................................................................................................................................................................................................................................................................................................................................................................................................................................................................................................",
"................................................................................................................................................................................................................................................................................................................................................................................................................................................................................................................................................................................................................................................................",
"................................................................................................................................................................................................................................................................................................................................................................................................................................................................................................................................................................................................................................................................",
"................................................................................................................................................................................................................................................................................................................................................................................................................................................................................................................................................................................................................................................................",
"................................................................................................................................................................................................................................................................................................................................................................................................................................................................................................................................................................................................................................................................",
"................................................................................................................................................................................................................................................................................................................................................................................................................................................................................................................................................................................................................................................................",
"................................................................................................................................................................................................................................................................................................................................................................................................................................................................................................................................................................................................................................................................",
"................................................................................................................................................................................................................................................................................................................................................................................................................................................................................................................................................................................................................................................................",
"................................................................................................................................................................................................................................................................................................................................................................................................................................................................................................................................................................................................................................................................",
"..........................................................................................................................................................................................................................................................................................................................bWbUbUbUbU............................................................................................................................................................................................................................................................................................................................",
"......................................................................................................................................................................................................................................................................................................................b/b^b?b)b)b)b)b=b]b%......................................................................................................................................................................................................................................................................................................................",
"....................................................................................................................................................................................................................................................................................................................b}b&b;b,b+b+b+b(b!b!b&b=....................................................................................................................................................................................................................................................................................................................",
"....................................................................................................................................................................................................................................................................................................................b]b;b:b,b+b(b(b%b#b#b!b*....................................................................................................................................................................................................................................................................................................................",
"....................................................................................................................................................................................................................................................................................................................b]b;b:b,b+b(b(b%b#b#b!b*....................................................................................................................................................................................................................................................................................................................",
"....................................................................................................................................................................................................................................................................................................................b]b;b:b,b+b(b(b%b#b#b!b*....................................................................................................................................................................................................................................................................................................................",
"....................................................................................................................................................................................................................................................................................................................b]b;b:b,b+b(b(b%b#b#b!b*....................................................................................................................................................................................................................................................................................................................",
"....................................................................................................................................................................................................................................................................................................................b]b;b:b,b+b(b(b%b#b#b!b*....................................................................................................................................................................................................................................................................................................................",
"....................................................................................................................................................................................................................................................................................................................b]b;b:b,b+b(b(b%b#b#b!b*....................................................................................................................................................................................................................................................................................................................",
"....................................................................................................................................................................................................................................................................................................................b]b;b:b,b+b(b(b%b#b#b!b*....................................................................................................................................................................................................................................................................................................................",
"....................................................................................................................................................................................................................................................................................................................b]b;b:b,b+b(b(b%b#b#b!b*....................................................................................................................................................................................................................................................................................................................",
"....................................................................................................................................................................................................................................................................................................................b]b;b:b,b+b(b(b%b#b#b!b*....................................................................................................................................................................................................................................................................................................................",
"....................................................................................................................................................................................................................................................................................................................b]b;b:b,b+b(b(b%b#b#b!b*....................................................................................................................................................................................................................................................................................................................",
"....................................................................................................................................................................................................................................................................................................................b]b;b:b,b+b(b(b%b#b#b!b*....................................................................................................................................................................................................................................................................................................................",
"....................................................................................................................................................................................................................................................................................................................b]b;b:b,b+b(b(b%b#b#b!b*....................................................................................................................................................................................................................................................................................................................",
"....................................................................................................................................................................................................................................................................................................................b]b;b:b,b+b(b(b%b#b#b!b*....................................................................................................................................................................................................................................................................................................................",
"....................................................................................................................................................................................................................................................................................................................b]b;b:b,b+b(b(b%b#b#b!b*....................................................................................................................................................................................................................................................................................................................",
"....................................................................................................................................................................................................................................................................................................................b]b;b:b,b+b(b(b%b#b#b!b*....................................................................................................................................................................................................................................................................................................................",
"....................................................................................................................................................................................................................................................................................................................b]b;b:b,b+b(b(b%b#b#b!b*....................................................................................................................................................................................................................................................................................................................",
"....................................................................................................................................................................................................................................................................................................................b]b;b:b,b+b(b(b%b#b#b!b*....................................................................................................................................................................................................................................................................................................................",
"....................................................................................................................................................................................................................................................................................................................b]b;b:b,b+b(b(b%b#b#b!b*....................................................................................................................................................................................................................................................................................................................",
"....................................................................................................................................................................................................................................................................................................................b]b;b:b,b+b(b(b%b#b#b!b*....................................................................................................................................................................................................................................................................................................................",
"....................................................................................................................................................................................................................................................................................................................b]b;b:b,b+b(b(b%b#b#b!b*....................................................................................................................................................................................................................................................................................................................",
"....................................................................................................................................................................................................................................................................................................................b]b;b:b,b+b(b(b%b#b#b!b*....................................................................................................................................................................................................................................................................................................................",
"....................................................................................................................................................................................................................................................................................................................b]b;b:b,b+b(b(b%b#b#b!b*....................................................................................................................................................................................................................................................................................................................",
"....................................................................................................................................................................................................................................................................................................................b]b;b:b,b+b(b(b%b#b#b!b*....................................................................................................................................................................................................................................................................................................................",
"....................................................................................................................................................................................................................................................................................................................b]b;b:b,b+b(b(b%b#b#b!b*....................................................................................................................................................................................................................................................................................................................",
"....................................................................................................................................................................................................................................................................................................................b]b;b:b,b+b(b(b%b#b#b!b*....................................................................................................................................................................................................................................................................................................................",
"....................................................................................................................................................................................................................................................................................................................b]b;b:b,b+b(b(b%b#b#b!b*....................................................................................................................................................................................................................................................................................................................",
"....................................................................................................................................................................................................................................................................................................................b]b;b:b,b+b(b(b%b#b#b!b*....................................................................................................................................................................................................................................................................................................................",
"....................................................................................................................................................................................................................................................................................................................b]b;b:b,b+b(b(b%b#b#b!b*....................................................................................................................................................................................................................................................................................................................",
"....................................................................................................................................................................................................................................................................................................................b]b;b:b,b+b(b(b%b#b#b!b*....................................................................................................................................................................................................................................................................................................................",
"....................................................................................................................................................................................................................................................................................................................b]b;b:b,b+b(b(b%b#b#b!b*....................................................................................................................................................................................................................................................................................................................",
"....................................................................................................................................................................................................................................................................................................................b]b;b:b,b+b(b(b%b#b#b!b*....................................................................................................................................................................................................................................................................................................................",
"....................................................................................................................................................................................................................................................................................................................b]b;b:b,b+b(b(b%b#b#b!b*....................................................................................................................................................................................................................................................................................................................",
"....................................................................................................................................................................................................................................................................................................................b]b;b:b,b+b(b(b%b#b#b!b*....................................................................................................................................................................................................................................................................................................................",
"....................................................................................................................................................................................................................................................................................................................b]b;b:b,b+b(b(b%b#b#b!b*....................................................................................................................................................................................................................................................................................................................",
"....................................................................................................................................................................................................................................................................................................................b]b;b:b,b+b(b(b%b#b#b!b*....................................................................................................................................................................................................................................................................................................................",
"....................................................................................................................................................................................................................................................................................................................b]b;b:b,b+b(b(b%b#b#b!b*....................................................................................................................................................................................................................................................................................................................",
"....................................................................................................................................................................................................................................................................................................................b]b;b:b,b+b(b(b%b#b#b!b*....................................................................................................................................................................................................................................................................................................................",
"....................................................................................................................................................................................................................................................................................................................b]b;b:b,b+b(b(b%b#b#b!b*....................................................................................................................................................................................................................................................................................................................",
"....................................................................................................................................................................................................................................................................................................................b]b;b:b,b+b(b(b%b#b#b!b*....................................................................................................................................................................................................................................................................................................................",
"....................................................................................................................................................................................................................................................................................................................b]b;b:b,b+b(b(b%b#b#b!b*....................................................................................................................................................................................................................................................................................................................",
"....................................................................................................................................................................................................................................................................................................................b]b;b:b,b+b(b(b%b#b#b!b*....................................................................................................................................................................................................................................................................................................................",
"....................................................................................................................................................................................................................................................................................................................b]b;b:b,b+b(b(b%b#b#b!b*....................................................................................................................................................................................................................................................................................................................",
"....................................................................................................................................................................................................................................................................................................................b]b;b:b,b+b(b(b%b#b#b!b*....................................................................................................................................................................................................................................................................................................................",
"....................................................................................................................................................................................................................................................................................................................b]b;b:b,b+b(b(b%b#b#b!b*....................................................................................................................................................................................................................................................................................................................",
"....................................................................................................................................................................................................................................................................................................................b]b;b:b,b+b(b(b%b#b#b!b*....................................................................................................................................................................................................................................................................................................................",
"....................................................................................................................................................................................................................................................................................................................b]b;b:b,b+b(b(b%b#b#b!b*....................................................................................................................................................................................................................................................................................................................",
"....................................................................................................................................................................................................................................................................................................................b]b;b:b,b+b(b(b%b#b#b!b*....................................................................................................................................................................................................................................................................................................................",
"....................................................................................................................................................................................................................................................................................................................b]b;b:b,b+b(b(b%b#b#b!b*....................................................................................................................................................................................................................................................................................................................",
"....................................................................................................................................................................................................................................................................................................................b]b;b:b,b+b(b(b%b#b#b!b*....................................................................................................................................................................................................................................................................................................................",
"....................................................................................................................................................................................................................................................................................................................b]b;b:b,b+b(b(b%b#b#b!b*....................................................................................................................................................................................................................................................................................................................",
"....................................................................................................................................................................................................................................................................................................................b]b;b:b,b+b(b(b%b#b#b!b*....................................................................................................................................................................................................................................................................................................................",
"....................................................................................................................................................................................................................................................................................................................b]b;b:b,b+b(b(b%b#b#b!b*....................................................................................................................................................................................................................................................................................................................",
"....................................................................................................................................................................................................................................................................................................................b]b;b:b,b+b(b(b%b#b#b!b*....................................................................................................................................................................................................................................................................................................................",
"....................................................................................................................................................................................................................................................................................................................b]b;b:b,b+b(b(b%b#b#b!b*....................................................................................................................................................................................................................................................................................................................",
"....................................................................................................................................................................................................................................................................................................................b^b;b:b,b+b(b(b%b#b#b!b^....................................................................................................................................................................................................................................................................................................................",
"......................................................................................................................................................................................................................................................................................................................b^b?b-b&b&b;b&b&b)b>......................................................................................................................................................................................................................................................................................................................",
"........................................................................................................................................................................................................................................................................................................................bTb8b9b8b,b5b5bI........................................................................................................................................................................................................................................................................................................................",
"................................................................................................................................................................................................................................................................................................................................................................................................................................................................................................................................................................................................................................................................",
"................................................................................................................................................................................................................................................................................................................................................................................................................................................................................................................................................................................................................................................................",
"................................................................................................................................................................................................................................................................................................................................................................................................................................................................................................................................................................................................................................................................",
"................................................................................................................................................................................................................................................................................................................................................................................................................................................................................................................................................................................................................................................................",
"................................................................................................................................................................................................................................................................................................................................................................................................................................................................................................................................................................................................................................................................",
"................................................................................................................................................................................................................................................................................................................................................................................................................................................................................................................................................................................................................................................................",
"................................................................................................................................................................................................................................................................................................................................................................................................................................................................................................................................................................................................................................................................",
"................................................................................................................................................................................................................................................................................................................................................................................................................................................................................................................................................................................................................................................................",
"................................................................................................................................................................................................................................................................................................................................................................................................................................................................................................................................................................................................................................................................",
"................................................................................................................................................................................................................................................................................................................................................................................................................................................................................................................................................................................................................................................................",
"................................................................................................................................................................................................................................................................................................................................................................................................................................................................................................................................................................................................................................................................",
"................................................................................................................................................................................................................................................................................................................................................................................................................................................................................................................................................................................................................................................................",
"................................................................................................................................................................................................................................................................................................................................................................................................................................................................................................................................................................................................................................................................",
"................................................................................................................................................................................................................................................................................................................................................................................................................................................................................................................................................................................................................................................................",
"................................................................................................................................................................................................................................................................................................................................................................................................................................................................................................................................................................................................................................................................",
"................................................................................................................................................................................................................................................................................................................................................................................................................................................................................................................................................................................................................................................................",
"............................................cBc8c*c*c)c)c(c(c(c%c%c&c&c!c!c9c9c9c9c6c#c6c8c8c8c5c7c7c1c7c4c4c4c2c2c2c2cXc0c0cXc0cWcWcWcWcVcVcVcTcTcTcTcOcOcJcJcMcMcHcHcFcFcFcDcDcDcDcAcAcAcAcycycyctctctctctcocococscncncncnclclclcgcgcgcececececcccccb\..................................................................b7b-b,b,b&b7..................................................................bybVbVbVbLbLbLbLbKbKbDbKbAbAbAbCbCbCbCbxbxbxbxbwbwbwbububububpbpbpbpblblblblblbibia|bibibia{a{a{a{bca=bca=a[a[a[a)a[a)a[a<a<a<a<a3a-a-a3a(a(a1a(a8a8a8a8a0a0a0aTaTaTaTaQaQaQaQaSaSaDaDaOaOaOaHaCaCaCaxaHaqap............................................",
"..........................................c,c,c*c*c)c)c)c)c(c(c%c%c&c&c!c!c9c9c9c9c#c6c#c6c8c8c5c7c7c7c1c4c4c4c2c2c2c2cXc0c0cXcXcZcWcWcWcVcVcVcTcTcTcTcOcOcOcJcMcMcHcMcFcFcFcDcDcDcDcAcAcAcAcycycycyctctctcococococscsclcnclclclclcgcgcgcececececccccccob}............................................................b?b]b<b,b,b,b,b&b*b-............................................................b-bYbHbVbVbLbLbLbLbKbKbDbGbAbAbAbCbCbCbCbxbxbxbxbwbwbwbububububpbpbpbpblblblblbibibia|a|bibia{a{a{a{bcbca=bca[a[a[a[a)a[a)a<a<a-a<a3a-a-a3a(a(a1a(a8a8a8a8a0a0a0aTaTaTaTaQaQaQaQaSaDaSaSaOaOaOaHaCaCaCaxaxaCaTa)..........................................",
"........................................c&c*c*c)c)c)c(c(c(c&c&c&c&c&c9c9c9c#c#c#c6c8c8c8c7c7c7c7c4c4c4c4c3c2c2c2c0c0c0c0cZcZcZcWcVcVcVcVcTcTcTcOcOcOcOcMcMcMcMcHcHcHcFcDcDcDcAcAcAcAcycycycyctcyctctctctcocscscscsclcnclclckckckcgcecececccccccccbcbcacbcacw........................................................b>b-b;b,b+b(b(b%b#b#b,b*........................................................b-bHbLbLbVbVbKbKbKbKbGbGbGbGbCbCbCbxbxbxbxbwbwbwbwbubububpbpbpbpblblblblblblblblbibibibia{a{a{bcbcbcbca_a_a_a_a[a[a[a<a<a<a<a-a-a-a-a(a(a(a(a#a8a8a8a0a0a0a0aTaTaTa0aWaWaWaSaSaSaSaOaOaOaOaCaCaCaCaCaCaCaxaxaraxaHaq........................................",
"........................................c$c*c*c)c)c)c(c(c(c&c&c&c&c&c9c9c9c#c#c#c6c8c8c8c7c7c7c7c4c4c4c4c3c2c2c2c0c0c0c0cZcZcZcWcVcVcVcVcTcTcTcOcOcOcOcMcMcMcMcHcHcHcFcDcDcDcAcAcAcAcycycycyctcyctctctctctcscscscsclcnclclckckckcgcecececccccccccbcbcbcacacp........................................................b^b+b;b,b+b(b(b%b#b#b!b>........................................................bXbLbVbVbVbVbKbKbKbKbGbGbGbGbCbCbCbxbxbxbxbwbwbwbwbubububpbubpbublblblblblblblblbibibibia{a{a{bcbcbcbca_a_a_a_a[a[a[a<a<a<a<a-a-a-a-a(a(a(a(a#a8a8a8a0a0a0a0aTaTa0aTaWaWaWaSaSaSaSaOaOaOaOaCaCaCaCaCaCaCaxaxawaraHah........................................",
"........................................c$c+c*c)c)c)c(c(c(c&c&c&c&c&c9c9c9c#c#c#c6c8c8c8c7c7c7c7c4c4c4c4c3c2c2c2c0c0c0c0cZcZcZcWcVcVcVcVcTcTcTcOcOcOcOcMcMcMcMcHcHcHcFcDcDcDcAcAcAcAcycycycyctcyctctctctcocscscscsclcnclclckckckcgcecececccccccccbcbcbcacab}........................................................b$b?b;b,b+b(b(b%b#b#b)b4........................................................bXbMbVbVbVbVbKbKbKbKbGbGbGbGbCbCbCbxbxbxbxbwbwbwbwbubububububububpbpbpblblblblblbibibibia{a{a{bcbcbcbca_a_a_a_a[a[a[a<a<a<a<a-a-a-a-a(a(a(a(a#a8a8a8a0a0a0a0aTaTa0aTaWaWaWaSaSaSaSaOaOaOaOaCaCaCaCaCaCaCaxaxawaraHah........................................",
"..........................................c*c,c+c+c+c+c+c+c*c*c*c*c)c)c)c)c)c)c)c)c%c%c%c%c%c%c%c%c!c!c!c!c6c!c6c!c6c6c6c1c6c1c6c1c1c1c1c1cXc1cXcXcXcXcXcXcXcXcRcXcRcWcRcRcRcCcRcCcCcCcCcCcCcCcwcCcwczczczcvcvcvcucqcqcqcqcpcpcpcpcpcpcpcococococlcoclcpcp............................................................bZb>b=b<b&b&b<b-b*bZ............................................................bXbYbYbMbYbMbMbMbMbHbHbHbHbHbHbHbHbLbLbLbDbDbDbDbAbAbDbDbAbAbAbsbxbsbxbsbsbsbsbsbsbsbsbpbpbpblblblblblblblbla|a|a|a|a|a|a|a=a=a=a=a=a=a=a=a)a)a)a)a)a)a)a)a<a)a<a3a3a3a3a1a1a1a1aXaXaXaXaXaXaXaTaTaTaTaDaDaDa1ax..........................................",
"..............................................cYcUcScScScQcPcNcNcLcKcKcKcIcGcEcEcEcBcBcBcBcBcBcxcxcxcxcxcxcxcxcxcrcrcrcrcrcrcrcrcmcmcmcmcmcmcmcmcjcjchcfcfcfcdcdcdcdcdcdcdcdb~b~cdb~b~b~b~b~b|b~b|b|b|b|b|b|b`b`b`b`b`b_b_b_b_b_b\b\b\b\b\b\b\b\b\b\b[....................................................................b2b6b4b4b6b0....................................................................bybybybvbvbvbvbvbvbvbvbvbobobobobobobobobobkbkbkbkbhbhbhbhbbbbbbbbbbbbbbbba^a^a^a^a^a^a^a^a^a^a/a/a/a/a/a&a&a&a&a&a&a&a&a&a&a&a&aZaZaZaZaZaZaZaZaZaZaZaNaNaNaZaNaNaNaNaGaGaGaGaGaGaGaGaGaGaBaBaBaBaBaBaG..............................................",
"................................................................................................................................................................................................................................................................................................................................................................................................................................................................................................................................................................................................................................................................",
"................................................................................................................................................................................................................................................................................................................................................................................................................................................................................................................................................................................................................................................................",
"................................................................................................................................................................................................................................................................................................................................................................................................................................................................................................................................................................................................................................................................",
"................................................................................................................................................................................................................................................................................................................................................................................................................................................................................................................................................................................................................................................................",
"................................................................................................................................................................................................................................................................................................................................................................................................................................................................................................................................................................................................................................................................",
"................................................................................................................................................................................................................................................................................................................................................................................................................................................................................................................................................................................................................................................................",
"................................................................................................................................................................................................................................................................................................................................................................................................................................................................................................................................................................................................................................................................",
"................................................................................................................................................................................................................................................................................................................................................................................................................................................................................................................................................................................................................................................................",
"................................................................................................................................................................................................................................................................................................................................................................................................................................................................................................................................................................................................................................................................",
"................................................................................................................................................................................................................................................................................................................................................................................................................................................................................................................................................................................................................................................................",
"................................................................................................................................................................................................................................................................................................................................................................................................................................................................................................................................................................................................................................................................",
"................................................................................................................................................................................................................................................................................................................................................................................................................................................................................................................................................................................................................................................................",
"................................................................................................................................................................................................................................................................................................................................................................................................................................................................................................................................................................................................................................................................",
"................................................................................................................................................................................................................................................................................................................................................................................................................................................................................................................................................................................................................................................................",
"................................................................................................................................................................................................................................................................................................................................................................................................................................................................................................................................................................................................................................................................",
"........................................................................................................................................................................................................................................................................................................................bTb9bYb>b8b5b5bI........................................................................................................................................................................................................................................................................................................................",
"......................................................................................................................................................................................................................................................................................................................b^b?b-b;b+b&b&b&b)b>......................................................................................................................................................................................................................................................................................................................",
"....................................................................................................................................................................................................................................................................................................................b^b;b;b:b+b(b(b%b#b#b!b>....................................................................................................................................................................................................................................................................................................................",
"....................................................................................................................................................................................................................................................................................................................b]b;b:b,b+b(b(b%b#b#b!b*....................................................................................................................................................................................................................................................................................................................",
"....................................................................................................................................................................................................................................................................................................................b]b;b:b,b+b(b(b%b#b#b!b*....................................................................................................................................................................................................................................................................................................................",
"....................................................................................................................................................................................................................................................................................................................b]b;b:b,b+b(b(b%b#b#b!b*....................................................................................................................................................................................................................................................................................................................",
"....................................................................................................................................................................................................................................................................................................................b]b;b:b,b+b(b(b%b#b#b!b*....................................................................................................................................................................................................................................................................................................................",
"....................................................................................................................................................................................................................................................................................................................b]b;b:b,b+b(b(b%b#b#b!b*....................................................................................................................................................................................................................................................................................................................",
"....................................................................................................................................................................................................................................................................................................................b]b;b:b,b+b(b(b%b#b#b!b*....................................................................................................................................................................................................................................................................................................................",
"....................................................................................................................................................................................................................................................................................................................b]b;b:b,b+b(b(b%b#b#b!b*....................................................................................................................................................................................................................................................................................................................",
"....................................................................................................................................................................................................................................................................................................................b]b;b:b,b+b(b(b%b#b#b!b*....................................................................................................................................................................................................................................................................................................................",
"....................................................................................................................................................................................................................................................................................................................b]b;b:b,b+b(b(b%b#b#b!b*....................................................................................................................................................................................................................................................................................................................",
"....................................................................................................................................................................................................................................................................................................................b]b;b:b,b+b(b(b%b#b#b!b*....................................................................................................................................................................................................................................................................................................................",
"....................................................................................................................................................................................................................................................................................................................b]b;b:b,b+b(b(b%b#b#b!b*....................................................................................................................................................................................................................................................................................................................",
"....................................................................................................................................................................................................................................................................................................................b]b;b:b,b+b(b(b%b#b#b!b*....................................................................................................................................................................................................................................................................................................................",
"....................................................................................................................................................................................................................................................................................................................b]b;b:b,b+b(b(b%b#b#b!b*....................................................................................................................................................................................................................................................................................................................",
"....................................................................................................................................................................................................................................................................................................................b]b;b:b,b+b(b(b%b#b#b!b*....................................................................................................................................................................................................................................................................................................................",
"....................................................................................................................................................................................................................................................................................................................b]b;b:b,b+b(b(b%b#b#b!b*....................................................................................................................................................................................................................................................................................................................",
"....................................................................................................................................................................................................................................................................................................................b]b;b:b,b+b(b(b%b#b#b!b*....................................................................................................................................................................................................................................................................................................................",
"....................................................................................................................................................................................................................................................................................................................b]b;b:b,b+b(b(b%b#b#b!b*....................................................................................................................................................................................................................................................................................................................",
"....................................................................................................................................................................................................................................................................................................................b]b;b:b,b+b(b(b%b#b#b!b*....................................................................................................................................................................................................................................................................................................................",
"....................................................................................................................................................................................................................................................................................................................b]b;b:b,b+b(b(b%b#b#b!b*....................................................................................................................................................................................................................................................................................................................",
"....................................................................................................................................................................................................................................................................................................................b]b;b:b,b+b(b(b%b#b#b!b*....................................................................................................................................................................................................................................................................................................................",
"....................................................................................................................................................................................................................................................................................................................b]b;b:b,b+b(b(b%b#b#b!b*....................................................................................................................................................................................................................................................................................................................",
"....................................................................................................................................................................................................................................................................................................................b]b;b:b,b+b(b(b%b#b#b!b*....................................................................................................................................................................................................................................................................................................................",
"....................................................................................................................................................................................................................................................................................................................b]b;b:b,b+b(b(b%b#b#b!b*....................................................................................................................................................................................................................................................................................................................",
"....................................................................................................................................................................................................................................................................................................................b]b;b:b,b+b(b(b%b#b#b!b*....................................................................................................................................................................................................................................................................................................................",
"....................................................................................................................................................................................................................................................................................................................b]b;b:b,b+b(b(b%b#b#b!b*....................................................................................................................................................................................................................................................................................................................",
"....................................................................................................................................................................................................................................................................................................................b]b;b:b,b+b(b(b%b#b#b!b*....................................................................................................................................................................................................................................................................................................................",
"....................................................................................................................................................................................................................................................................................................................b]b;b:b,b+b(b(b%b#b#b!b*....................................................................................................................................................................................................................................................................................................................",
"....................................................................................................................................................................................................................................................................................................................b]b;b:b,b+b(b(b%b#b#b!b*....................................................................................................................................................................................................................................................................................................................",
"....................................................................................................................................................................................................................................................................................................................b]b;b:b,b+b(b(b%b#b#b!b*....................................................................................................................................................................................................................................................................................................................",
"....................................................................................................................................................................................................................................................................................................................b]b;b:b,b+b(b(b%b#b#b!b*....................................................................................................................................................................................................................................................................................................................",
"....................................................................................................................................................................................................................................................................................................................b]b;b:b,b+b(b(b%b#b#b!b*....................................................................................................................................................................................................................................................................................................................",
"....................................................................................................................................................................................................................................................................................................................b]b;b:b,b+b(b(b%b#b#b!b*....................................................................................................................................................................................................................................................................................................................",
"....................................................................................................................................................................................................................................................................................................................b]b;b:b,b+b(b(b%b#b#b!b*....................................................................................................................................................................................................................................................................................................................",
"....................................................................................................................................................................................................................................................................................................................b]b;b:b,b+b(b(b%b#b#b!b*....................................................................................................................................................................................................................................................................................................................",
"....................................................................................................................................................................................................................................................................................................................b]b;b:b,b+b(b(b%b#b#b!b*....................................................................................................................................................................................................................................................................................................................",
"....................................................................................................................................................................................................................................................................................................................b]b;b:b,b+b(b(b%b#b#b!b*....................................................................................................................................................................................................................................................................................................................",
"....................................................................................................................................................................................................................................................................................................................b]b;b:b,b+b(b(b%b#b#b!b*....................................................................................................................................................................................................................................................................................................................",
"....................................................................................................................................................................................................................................................................................................................b]b;b:b,b+b(b(b%b#b#b!b*....................................................................................................................................................................................................................................................................................................................",
"....................................................................................................................................................................................................................................................................................................................b]b;b:b,b+b(b(b%b#b#b!b*....................................................................................................................................................................................................................................................................................................................",
"....................................................................................................................................................................................................................................................................................................................b]b;b:b,b+b(b(b%b#b#b!b*....................................................................................................................................................................................................................................................................................................................",
"....................................................................................................................................................................................................................................................................................................................b]b;b:b,b+b(b(b%b#b#b!b*....................................................................................................................................................................................................................................................................................................................",
"....................................................................................................................................................................................................................................................................................................................b]b;b:b,b+b(b(b%b#b#b!b*....................................................................................................................................................................................................................................................................................................................",
"....................................................................................................................................................................................................................................................................................................................b]b;b:b,b+b(b(b%b#b#b!b*....................................................................................................................................................................................................................................................................................................................",
"....................................................................................................................................................................................................................................................................................................................b]b;b:b,b+b(b(b%b#b#b!b*....................................................................................................................................................................................................................................................................................................................",
"....................................................................................................................................................................................................................................................................................................................b]b;b:b,b+b(b(b%b#b#b!b*....................................................................................................................................................................................................................................................................................................................",
"....................................................................................................................................................................................................................................................................................................................b]b;b:b,b+b(b(b%b#b#b!b*....................................................................................................................................................................................................................................................................................................................",
"....................................................................................................................................................................................................................................................................................................................b]b;b:b,b+b(b(b%b#b#b!b*....................................................................................................................................................................................................................................................................................................................",
"....................................................................................................................................................................................................................................................................................................................b]b;b:b,b+b(b(b%b#b#b!b*....................................................................................................................................................................................................................................................................................................................",
"....................................................................................................................................................................................................................................................................................................................b]b;b:b,b+b(b(b%b#b#b!b*....................................................................................................................................................................................................................................................................................................................",
"....................................................................................................................................................................................................................................................................................................................b]b;b:b,b+b(b(b%b#b#b!b*....................................................................................................................................................................................................................................................................................................................",
"....................................................................................................................................................................................................................................................................................................................b]b;b:b,b+b(b(b%b#b#b!b*....................................................................................................................................................................................................................................................................................................................",
"....................................................................................................................................................................................................................................................................................................................b]b;b:b,b+b(b(b%b#b#b!b*....................................................................................................................................................................................................................................................................................................................",
"....................................................................................................................................................................................................................................................................................................................b]b;b:b,b+b(b(b%b#b#b!b*....................................................................................................................................................................................................................................................................................................................",
"....................................................................................................................................................................................................................................................................................................................b]b;b:b,b+b(b(b%b#b#b!b*....................................................................................................................................................................................................................................................................................................................",
"....................................................................................................................................................................................................................................................................................................................b}b&b:b,b+b(b(b%b#b#b&b=....................................................................................................................................................................................................................................................................................................................",
"......................................................................................................................................................................................................................................................................................................................b.b^b?b)b?b)b)b=b]b%......................................................................................................................................................................................................................................................................................................................",
"..........................................................................................................................................................................................................................................................................................................................bWbUbUbUbU............................................................................................................................................................................................................................................................................................................................",
"................................................................................................................................................................................................................................................................................................................................................................................................................................................................................................................................................................................................................................................................",
"................................................................................................................................................................................................................................................................................................................................................................................................................................................................................................................................................................................................................................................................",
"................................................................................................................................................................................................................................................................................................................................................................................................................................................................................................................................................................................................................................................................",
"................................................................................................................................................................................................................................................................................................................................................................................................................................................................................................................................................................................................................................................................",
"................................................................................................................................................................................................................................................................................................................................................................................................................................................................................................................................................................................................................................................................",
"................................................................................................................................................................................................................................................................................................................................................................................................................................................................................................................................................................................................................................................................",
"................................................................................................................................................................................................................................................................................................................................................................................................................................................................................................................................................................................................................................................................",
"................................................................................................................................................................................................................................................................................................................................................................................................................................................................................................................................................................................................................................................................",
"................................................................................................................................................................................................................................................................................................................................................................................................................................................................................................................................................................................................................................................................",
"................................................................................................................................................................................................................................................................................................................................................................................................................................................................................................................................................................................................................................................................",
"................................................................................................................................................................................................................................................................................................................................................................................................................................................................................................................................................................................................................................................................",
};
