/* XPM */
static char *xpm[] = {
"320 180 181 2",
".. c None",
"ab c #000000",
"ac c #000101",
"ad c #000202",
"ae c #010001",
"af c #010101",
"ag c #040202",
"ah c #070000",
"ai c #080101",
"aj c #090000",
"ak c #0a0000",
"al c #0e0202",
"am c #0f0000",
"an c #0f0101",
"ao c #120000",
"ap c #120202",
"aq c #130000",
"ar c #170101",
"as c #1e0000",
"at c #1e0303",
"au c #1f0000",
"av c #1f0303",
"aw c #200202",
"ax c #220000",
"ay c #220202",
"az c #230202",
"aA c #250404",
"aB c #260202",
"aC c #270000",
"aD c #290000",
"aE c #2a0000",
"aF c #2b0202",
"aG c #2d0000",
"aH c #2e0000",
"aI c #2e0202",
"aJ c #2f0303",
"aK c #310404",
"aL c #330505",
"aM c #340000",
"aN c #350505",
"aO c #360000",
"aP c #360505",
"aQ c #370505",
"aR c #380000",
"aS c #3a0202",
"aT c #3b0302",
"aU c #3b0505",
"aV c #3c0000",
"aW c #3c0405",
"aX c #3d0202",
"aY c #3d0404",
"aZ c #3f0000",
"a0 c #3f0202",
"a1 c #470000",
"a2 c #480000",
"a3 c #4b0000",
"a4 c #4c0000",
"a5 c #4d0000",
"a6 c #4d0505",
"a7 c #500202",
"a8 c #550505",
"a9 c #560405",
"a! c #570505",
"a# c #580000",
"a$ c #5a0000",
"a% c #5a0505",
"a& c #5b0505",
"a( c #5c0000",
"a) c #5d0303",
"a* c #5f0000",
"a+ c #600405",
"a, c #610000",
"a- c #610504",
"a. c #650505",
"a/ c #660505",
"a: c #670303",
"a; c #670505",
"a< c #680000",
"a= c #6c0000",
"a> c #6d0000",
"a? c #6d0605",
"a[ c #6f0000",
"a\ c #720000",
"a] c #720202",
"a^ c #730000",
"a_ c #750000",
"a` c #760606",
"a{ c #770000",
"a| c #770605",
"a} c #790606",
"a~ c #7a0000",
"ba c #7e0000",
"bb c #7f0000",
"bc c #800000",
"bd c #830000",
"be c #840000",
"bf c #850302",
"bg c #890303",
"bh c #8a0000",
"bi c #8b0000",
"bj c #8b0606",
"bk c #8f0000",
"bl c #8f0303",
"bm c #900000",
"bn c #910000",
"bo c #910202",
"bp c #9a0506",
"bq c #9b0605",
"br c #9c0606",
"bs c #9d0000",
"bt c #9e0000",
"bu c #a20000",
"bv c #a20303",
"bw c #a30303",
"bx c #a40202",
"by c #a40505",
"bz c #a60202",
"bA c #a80000",
"bB c #a90303",
"bC c #ac0000",
"bD c #ae0303",
"bE c #b10000",
"bF c #b20000",
"bG c #b30000",
"bH c #b40000",
"bI c #b60405",
"bJ c #b70000",
"bK c #b80201",
"bL c #ba0000",
"bM c #bd0101",
"bN c #bf0000",
"bO c #bf0303",
"bP c #c00000",
"bQ c #c10000",
"bR c #c10505",
"bS c #c20000",
"bT c #c30000",
"bU c #cc0000",
"bV c #ce0101",
"bW c #d00000",
"bX c #d00404",
"bY c #d10000",
"bZ c #d30000",
"b0 c #d70101",
"b1 c #d80000",
"b2 c #d90000",
"b3 c #da0000",
"b4 c #db0000",
"b5 c #dd0000",
"b6 c #df0000",
"b7 c #df0303",
"b8 c #df0b0b",
"b9 c #e10000",
"b! c #e20000",
"b# c #e50b0b",
"b$ c #e60202",
"b% c #e60b0b",
"b& c #e70000",
"b( c #e70b0b",
"b) c #e80b0b",
"b* c #e90000",
"b+ c #eb0201",
"b, c #ef0000",
"b- c #f10303",
"b. c #f20000",
"b/ c #f40000",
"b: c #f50000",
"b; c #f50101",
"b< c #f60202",
"b= c #f70000",
"b> c #f70101",
"b? c #f80000",
"b[ c #fa0101",
"b\ c #fa0403",
"b] c #fe0000",
"b^ c #fe0202",
"b_ c #ff0000",
"b` c #ff0100",
"b{ c #ff0101",
"b| c #ff0202",
"b} c None",
"....................................................................................................................................................................................................................................................................................................................bub!b6b6b6b6b6b6b6b6b9b0....................................................................................................................................................................................................................................................................................................................",
"..................................................................................................................................................................................................................................................................................................................b/b_b_b_b_b_b_b_b_b_b_b_b_b`bO................................................................................................................................................................................................................................................................................................................",
"..............................................................................................................................................................................................................................................................................................................b!b_b_b_b_b_b_b_b_b_b_b_b_b_b_b_b_b{bw............................................................................................................................................................................................................................................................................................................",
"............................................................................................................................................................................................................................................................................................................b_b`b_b_b_b_b_b_b_b_b_b_b_b_b_b_b_b_b_b_bq..........................................................................................................................................................................................................................................................................................................",
"............................................................................................................................................................................................................................................................................................................b_b_b_b_b_b_b_b_b_b_b_b_b_b_b_b_b_b_b_b_bq..........................................................................................................................................................................................................................................................................................................",
"............................................................................................................................................................................................................................................................................................................b]b_b_b_b_b_b_b_b_b_b_b_b_b_b_b_b_b_b_b_bp..........................................................................................................................................................................................................................................................................................................",
"............................................................................................................................................................................................................................................................................................................b]b_b_b_b_b_b_b_b_b_b_b_b_b_b_b_b_b_b_b_bp..........................................................................................................................................................................................................................................................................................................",
"............................................................................................................................................................................................................................................................................................................b]b_b_b_b_b_b_b_b_b_b_b_b_b_b_b_b_b_b_b_bp..........................................................................................................................................................................................................................................................................................................",
"............................................................................................................................................................................................................................................................................................................b]b_b_b_b_b_b_b_b_b_b_b_b_b_b_b_b_b_b_b_bp..........................................................................................................................................................................................................................................................................................................",
"............................................................................................................................................................................................................................................................................................................b]b_b_b_b_b_b_b_b_b_b_b_b_b_b_b_b_b_b_b_bp..........................................................................................................................................................................................................................................................................................................",
"............................................................................................................................................................................................................................................................................................................b]b_b_b_b_b_b_b_b_b_b_b_b_b_b_b_b_b_b_b_bp..........................................................................................................................................................................................................................................................................................................",
"............................................................................................................................................................................................................................................................................................................b]b_b_b_b_b_b_b_b_b_b_b_b_b_b_b_b_b_b_b_bp..........................................................................................................................................................................................................................................................................................................",
"............................................................................................................................................................................................................................................................................................................b]b_b_b_b_b_b_b_b_b_b_b_b_b_b_b_b_b_b_b_bp..........................................................................................................................................................................................................................................................................................................",
"............................................................................................................................................................................................................................................................................................................b]b_b_b_b_b_b_b_b_b_b_b_b_b_b_b_b_b_b_b_bp..........................................................................................................................................................................................................................................................................................................",
"............................................................................................................................................................................................................................................................................................................b]b_b_b_b_b_b_b_b_b_b_b_b_b_b_b_b_b_b_b_bp..........................................................................................................................................................................................................................................................................................................",
"............................................................................................................................................................................................................................................................................................................b]b_b_b_b_b_b_b_b_b_b_b_b_b_b_b_b_b_b_b_bp..........................................................................................................................................................................................................................................................................................................",
"............................................................................................................................................................................................................................................................................................................b]b_b_b_b_b_b_b_b_b_b_b_b_b_b_b_b_b_b_b_bp..........................................................................................................................................................................................................................................................................................................",
"............................................................................................................................................................................................................................................................................................................b]b_b_b_b_b_b_b_b_b_b_b_b_b_b_b_b_b_b_b_bp..........................................................................................................................................................................................................................................................................................................",
"............................................................................................................................................................................................................................................................................................................b]b_b_b_b_b_b_b_b_b_b_b_b_b_b_b_b_b_b_b_bp..........................................................................................................................................................................................................................................................................................................",
"............................................................................................................................................................................................................................................................................................................b]b_b_b_b_b_b_b_b_b_b_b_b_b_b_b_b_b_b_b_bp..........................................................................................................................................................................................................................................................................................................",
"............................................................................................................................................................................................................................................................................................................b]b_b_b_b_b_b_b_b_b_b_b_b_b_b_b_b_b_b_b_bp..........................................................................................................................................................................................................................................................................................................",
"............................................................................................................................................................................................................................................................................................................b]b_b_b_b_b_b_b_b_b_b_b_b_b_b_b_b_b_b_b_bp..........................................................................................................................................................................................................................................................................................................",
"............................................................................................................................................................................................................................................................................................................b]b_b_b_b_b_b_b_b_b_b_b_b_b_b_b_b_b_b_b_bp..........................................................................................................................................................................................................................................................................................................",
"............................................................................................................................................................................................................................................................................................................b]b_b_b_b_b_b_b_b_b_b_b_b_b_b_b_b_b_b_b_bp..........................................................................................................................................................................................................................................................................................................",
"............................................................................................................................................................................................................................................................................................................b]b_b_b_b_b_b_b_b_b_b_b_b_b_b_b_b_b_b_b_bp..........................................................................................................................................................................................................................................................................................................",
"............................................................................................................................................................................................................................................................................................................b]b_b_b_b_b_b_b_b_b_b_b_b_b_b_b_b_b_b_b_bp..........................................................................................................................................................................................................................................................................................................",
"............................................................................................................................................................................................................................................................................................................b]b_b_b_b_b_b_b_b_b_b_b_b_b_b_b_b_b_b_b_bp..........................................................................................................................................................................................................................................................................................................",
"............................................................................................................................................................................................................................................................................................................b]b_b_b_b_b_b_b_b_b_b_b_b_b_b_b_b_b_b_b_bp..........................................................................................................................................................................................................................................................................................................",
"............................................................................................................................................................................................................................................................................................................b]b_b_b_b_b_b_b_b_b_b_b_b_b_b_b_b_b_b_b_bp..........................................................................................................................................................................................................................................................................................................",
"............................................................................................................................................................................................................................................................................................................b]b_b_b_b_b_b_b_b_b_b_b_b_b_b_b_b_b_b_b_bp..........................................................................................................................................................................................................................................................................................................",
"............................................................................................................................................................................................................................................................................................................b]b_b_b_b_b_b_b_b_b_b_b_b_b_b_b_b_b_b_b_bp..........................................................................................................................................................................................................................................................................................................",
"............................................................................................................................................................................................................................................................................................................b]b_b_b_b_b_b_b_b_b_b_b_b_b_b_b_b_b_b_b_bp..........................................................................................................................................................................................................................................................................................................",
"............................................................................................................................................................................................................................................................................................................b]b_b_b_b_b_b_b_b_b_b_b_b_b_b_b_b_b_b_b_bp..........................................................................................................................................................................................................................................................................................................",
"............................................................................................................................................................................................................................................................................................................b]b_b_b_b_b_b_b_b_b_b_b_b_b_b_b_b_b_b_b_bp..........................................................................................................................................................................................................................................................................................................",
"............................................................................................................................................................................................................................................................................................................b]b_b_b_b_b_b_b_b_b_b_b_b_b_b_b_b_b_b_b_br..........................................................................................................................................................................................................................................................................................................",
"............................................................................................................................................................................................................................................................................................................b_b_b_b_b_b_b_b_b_b_b_b_b_b_b_b_b_b_b_b_bj..........................................................................................................................................................................................................................................................................................................",
"............................................................................................................................................................................................................................................................................................................b_b_b_b_b_b_b_b_b_b_b_b_b_b_b_b_b_b_b_b_a`..........................................................................................................................................................................................................................................................................................................",
"............................................................................................................................................................................................................................................................................................................b_b_b_b_b_b_b_b_b_b_b_b_b_b_b_b_b_b_b_b_a|..........................................................................................................................................................................................................................................................................................................",
"............................................................................................................................................................................................................................................................................................................b_b_b_b_b_b_b_b_b_b_b_b_b_b_b_b_b_b_b_b_a|..........................................................................................................................................................................................................................................................................................................",
"............................................................................................................................................................................................................................................................................................................b_b_b_b_b_b_b_b_b_b_b_b_b_b_b_b_b_b_b_b_a|..........................................................................................................................................................................................................................................................................................................",
"............................................................................................................................................................................................................................................................................................................b_b_b_b_b_b_b_b_b_b_b_b_b_b_b_b_b_b_b_b_a|..........................................................................................................................................................................................................................................................................................................",
"............................................................................................................................................................................................................................................................................................................b_b_b_b_b_b_b_b_b_b_b_b_b_b_b_b_b_b_b_b_............................................................................................................................................................................................................................................................................................................",
"............................................................................................................................................................................................................................................................................................................b_b_b_b_b_b_b_b_b_b_b_b_b_b_b_b_b_b_b_b_............................................................................................................................................................................................................................................................................................................",
"............................................................................................................................................................................................................................................................................................................b_b_b_b_b_b_b_b_b_b_b_b_b_b_b_b_b_b_b_b_............................................................................................................................................................................................................................................................................................................",
"............................................................................................................................................................................................................................................................................................................b_b_b_b_b_b_b_b_b_b_b_b_b_b_b_b_b_b_b_b_............................................................................................................................................................................................................................................................................................................",
"............................................................................................................................................................................................................................................................................................................b_b_b_b_b_b_b_b_b_b_b_b_b_b_b_b_b_b_b_b_............................................................................................................................................................................................................................................................................................................",
"............................................................................................................................................................................................................................................................................................................b_b_b_b_b_b_b_b_b_b_b_b_b_b_b_b_b_b_b_b_............................................................................................................................................................................................................................................................................................................",
"............................................................................................................................................................................................................................................................................................................b_b_b_b_b_b_b_b_b_b_b_b_b_b_b_b_b_b_b_b_............................................................................................................................................................................................................................................................................................................",
"............................................................................................................................................................................................................................................................................................................b_b_b_b_b_b_b_b_b_b_b_b_b_b_b_b_b_b_b_b_............................................................................................................................................................................................................................................................................................................",
"............................................................................................................................................................................................................................................................................................................b_b_b_b_b_b_b_b_b_b_b_b_b_b_b_b_b_b_b_b_............................................................................................................................................................................................................................................................................................................",
"............................................................................................................................................................................................................................................................................................................b_b_b_b_b_b_b_b_b_b_b_b_b_b_b_b_b_b_b_b_............................................................................................................................................................................................................................................................................................................",
"............................................................................................................................................................................................................................................................................................................b_b_b_b_b_b_b_b_b_b_b_b_b_b_b_b_b_b_b_b_............................................................................................................................................................................................................................................................................................................",
"............................................................................................................................................................................................................................................................................................................b_b_b_b_b_b_b_b_b_b_b_b_b_b_b_b_b_b_b_b_............................................................................................................................................................................................................................................................................................................",
"............................................................................................................................................................................................................................................................................................................b_b_b_b_b_b_b_b_b_b_b_b_b_b_b_b_b_b_b_b_............................................................................................................................................................................................................................................................................................................",
"............................................................................................................................................................................................................................................................................................................b_b_b_b_b_b_b_b_b_b_b_b_b_b_b_b_b_b_b_b_............................................................................................................................................................................................................................................................................................................",
"............................................................................................................................................................................................................................................................................................................b_b_b_b_b_b_b_b_b_b_b_b_b_b_b_b_b_b_b_b_............................................................................................................................................................................................................................................................................................................",
"............................................................................................................................................................................................................................................................................................................b_b_b_b_b_b_b_b_b_b_b_b_b_b_b_b_b_b_b_b_............................................................................................................................................................................................................................................................................................................",
"............................................................................................................................................................................................................................................................................................................b_b_b_b_b_b_b_b_b_b_b_b_b_b_b_b_b_b_b_b_............................................................................................................................................................................................................................................................................................................",
"............................................................................................................................................................................................................................................................................................................b_b_b_b_b_b_b_b_b_b_b_b_b_b_b_b_b_b_b_b_............................................................................................................................................................................................................................................................................................................",
"............................................................................................................................................................................................................................................................................................................b_b_b_b_b_b_b_b_b_b_b_b_b_b_b_b_b_b_b_b_............................................................................................................................................................................................................................................................................................................",
"............................................................................................................................................................................................................................................................................................................b_b_b_b_b_b_b_b_b_b_b_b_b_b_b_b_b_b_b_b_............................................................................................................................................................................................................................................................................................................",
"............................................................................................................................................................................................................................................................................................................b_b_b_b_b_b_b_b_b_b_b_b_b_b_b_b_b_b_b_b_............................................................................................................................................................................................................................................................................................................",
"............................................................................................................................................................................................................................................................................................................b_b_b_b_b_b_b_b_b_b_b_b_b_b_b_b_b_b_b_b_............................................................................................................................................................................................................................................................................................................",
"............................................................................................................................................................................................................................................................................................................b_b_b_b_b_b_b_b_b_b_b_b_b_b_b_b_b_b_b_b_............................................................................................................................................................................................................................................................................................................",
"............................................................................................................................................................................................................................................................................................................b_b_b_b_b_b_b_b_b_b_b_b_b_b_b_b_b_b_b_b_............................................................................................................................................................................................................................................................................................................",
"............................................................................................................................................................................................................................................................................................................b_b_b_b_b_b_b_b_b_b_b_b_b_b_b_b_b_b_b_b_............................................................................................................................................................................................................................................................................................................",
"............................................................................................................................................................................................................................................................................................................b_b_b_b_b_b_b_b_b_b_b_b_b_b_b_b_b_b_b_b_............................................................................................................................................................................................................................................................................................................",
"............................................................................................................................................................................................................................................................................................................b_b_b_b_b_b_b_b_b_b_b_b_b_b_b_b_b_b_b_b_............................................................................................................................................................................................................................................................................................................",
"............................................................................................................................................................................................................................................................................................................b_b_b_b_b_b_b_b_b_b_b_b_b_b_b_b_b_b_b_b{............................................................................................................................................................................................................................................................................................................",
"............................................................................................................................................................................................................................................................................................................b_b_b_b_b_b_b_b_b_b_b_b_b_b_b_b_b_b_b_b{............................................................................................................................................................................................................................................................................................................",
"............................................................................................................................................................................................................................................................................................................b_b_b_b_b_b_b_b_b_b_b_b_b_b_b_b_b_b_b_b{............................................................................................................................................................................................................................................................................................................",
"............................................................................................................................................................................................................................................................................................................b_b_b_b_b_b_b_b_b_b_b_b_b_b_b_b_b_b_b_b{............................................................................................................................................................................................................................................................................................................",
"............................................................................................................................................................................................................................................................................................................b_b_b_b_b_b_b_b_b_b_b_b_b_b_b_b_b_b_b_b{............................................................................................................................................................................................................................................................................................................",
"............................................................................................................................................................................................................................................................................................................b_b_b_b_b_b_b_b_b_b_b_b_b_b_b_b_b_b_b_b{............................................................................................................................................................................................................................................................................................................",
"............................................................................................................................................................................................................................................................................................................b_b_b_b_b_b_b_b_b_b_b_b_b_b_b_b_b_b_b_b{............................................................................................................................................................................................................................................................................................................",
"............................................................................................................................................................................................................................................................................................................b:b_b_b_b_b_b_b_b_b_b_b_b_b_b_b_b_b_b_b<............................................................................................................................................................................................................................................................................................................",
"..............................................................................................................................................................................................................................................................................................................bsb_b_b_b_b_b_b_b_b_b_b_b_b_b_b_b{bv..............................................................................................................................................................................................................................................................................................................",
"..................................................................................................................................................................................................................................................................................................................bLb_b_b_b_b_b_b_b_b_b_b_b`bO..................................................................................................................................................................................................................................................................................................................",
"................................................................................................................................................................................................................................................................................................................................................................................................................................................................................................................................................................................................................................................................",
"................................................................................................................................................................................................................................................................................................................................................................................................................................................................................................................................................................................................................................................................",
"................................................................................................................................................................................................................................................................................................................................................................................................................................................................................................................................................................................................................................................................",
"................................................................................................................................................................................................................................................................................................................................................................................................................................................................................................................................................................................................................................................................",
"................................................................................................................................................................................................................................................................................................................................................................................................................................................................................................................................................................................................................................................................",
"................................................................................................................................................................................................................................................................................................................................................................................................................................................................................................................................................................................................................................................................",
"..........bPbPbNbNbNbNbNbNbNbNbNbNbNbNbNbNbNbNbNbNbNbNbNbNbNbNbNbNbNbNbNbNbNbNbNbNbNbNbNbNbNbNbNbNbNbNbNbNbNbNbNbNbNbNbNbNbNbNbNbNbNbNbNbNbNbNbNbNbNbNbNbNbNbNbNbNbNbNbNbNbNbNbNbNbNbNbNbNbNbNbNbNbNbNbNbNbNbNbNbNbNbNbNbNbNbNbNbNbNbNbNbNbNbNbNbNbNbNbNbNbNbNbNbNbNbNbNbNbTbz....................................................................................................bubTbNbNbNbNbNbNbNbNbNbNbNbNbNbNbNbNbNbNbNbNbNbNbNbNbNbNbNbNbNbNbNbNbNbNbNbNbNbNbNbNbNbNbNbNbNbNbNbNbNbNbNbNbNbNbNbNbNbNbNbNbNbNbNbNbNbNbNbNbNbNbNbNbNbNbNbNbNbNbNbNbNbNbNbNbNbNbNbNbNbNbNbNbNbNbNbNbNbNbNbNbNbNbNbNbNbNbNbNbNbNbNbNbNbNbNbNbNbNbNbNbNbNbNbNbNbNbQbM..........",
"......bUb_b_b_b_b_b_b_b_b_b_b_b_b_b_b_b_b_b_b_b_b_b_b_b_b_b_b_b_b_b_b_b_b_b_b_b_b_b_b_b_b_b_b_b_b_b_b_b_b_b_b_b_b_b_b_b_b_b_b_b_b_b_b_b_b_b_b_b_b_b_b_b_b_b_b_b_b_b_b_b_b_b_b_b_b_b_b_b_b_b_b_b_b_b_b_b_b_b_b_b_b_b_b_b_b_b_b_b_b_b_b_b_b_b_b_b_b_b_b_b_b_b_b_b_b_b_b_b_b_b_b_b[................................................................................................b?b_b_b_b_b_b_b_b_b_b_b_b_b_b_b_b_b_b_b_b_b_b_b_b_b_b_b_b_b_b_b_b_b_b_b_b_b_b_b_b_b_b_b_b_b_b_b_b_b_b_b_b_b_b_b_b_b_b_b_b_b_b_b_b_b_b_b_b_b_b_b_b_b_b_b_b_b_b_b_b_b_b_b_b_b_b_b_b_b_b_b_b_b_b_b_b_b_b_b_b_b_b_b_b_b_b_b_b_b_b_b_b_b_b_b_b_b_b_b_b_b_b_b_b_b_b_b_b_b_b_b{bR......",
"..bEb_b_b_b_b_b_b_b_b_b_b_b_b_b_b_b_b_b_b_b_b_b_b_b_b_b_b_b_b_b_b_b_b_b_b_b_b_b_b_b_b_b_b_b_b_b_b_b_b_b_b_b_b_b_b_b_b_b_b_b_b_b_b_b_b_b_b_b_b_b_b_b_b_b_b_b_b_b_b_b_b_b_b_b_b_b_b_b_b_b_b_b_b_b_b_b_b_b_b_b_b_b_b_b_b_b_b_b_b_b_b_b_b_b_b_b_b_b_b_b_b_b_b_b_b_b_b_b_b_b_b_b_b_b_b_b+........................................................................................b&b_b_b_b_b_b_b_b_b_b_b_b_b_b_b_b_b_b_b_b_b_b_b_b_b_b_b_b_b_b_b_b_b_b_b_b_b_b_b_b_b_b_b_b_b_b_b_b_b_b_b_b_b_b_b_b_b_b_b_b_b_b_b_b_b_b_b_b_b_b_b_b_b_b_b_b_b_b_b_b_b_b_b_b_b_b_b_b_b_b_b_b_b_b_b_b_b_b_b_b_b_b_b_b_b_b_b_b_b_b_b_b_b_b_b_b_b_b_b_b_b_b_b_b_b_b_b_b_b_b_b_b_b_b_b|by..",
"b1b`b_b_b_b_b_b_b_b_b_b_b_b_b_b_b_b_b_b_b_b_b_b_b_b_b_b_b_b_b_b_b_b_b_b_b_b_b_b_b_b_b_b_b_b_b_b_b_b_b_b_b_b_b_b_b_b_b_b_b_b_b_b_b_b_b_b_b_b_b_b_b_b_b_b_b_b_b_b_b_b_b_b_b_b_b_b_b_b_b_b_b_b_b_b_b_b_b_b_b_b_b_b_b_b_b_b_b_b_b_b_b_b_b_b_b_b_b_b_b_b_b_b_b_b_b_b_b_b_b_b_b_b_b_b_b_b_b_....................................................................................b_b_b_b_b_b_b_b_b_b_b_b_b_b_b_b_b_b_b_b_b_b_b_b_b_b_b_b_b_b_b_b_b_b_b_b_b_b_b_b_b_b_b_b_b_b_b_b_b_b_b_b_b_b_b_b_b_b_b_b_b_b_b_b_b_b_b_b_b_b_b_b_b_b_b_b_b_b_b_b_b_b_b_b_b_b_b_b_b_b_b_b_b_b_b_b_b_b_b_b_b_b_b_b_b_b_b_b_b_b_b_b_b_b_b_b_b_b_b_b_b_b_b_b_b_b_b_b_b_b_b_b_b_b_b_b_b_b_b8",
"b4b`b_b_b_b_b_b_b_b_b_b_b_b_b_b_b_b_b_b_b_b_b_b_b_b_b_b_b_b_b_b_b_b_b_b_b_b_b_b_b_b_b_b_b_b_b_b_b_b_b_b_b_b_b_b_b_b_b_b_b_b_b_b_b_b_b_b_b_b_b_b_b_b_b_b_b_b_b_b_b_b_b_b_b_b_b_b_b_b_b_b_b_b_b_b_b_b_b_b_b_b_b_b_b_b_b_b_b_b_b_b_b_b_b_b_b_b_b_b_b_b_b_b_b_b_b_b_b_b_b_b_b_b_b_b_b_b_b_....................................................................................b_b_b_b_b_b_b_b_b_b_b_b_b_b_b_b_b_b_b_b_b_b_b_b_b_b_b_b_b_b_b_b_b_b_b_b_b_b_b_b_b_b_b_b_b_b_b_b_b_b_b_b_b_b_b_b_b_b_b_b_b_b_b_b_b_b_b_b_b_b_b_b_b_b_b_b_b_b_b_b_b_b_b_b_b_b_b_b_b_b_b_b_b_b_b_b_b_b_b_b_b_b_b_b_b_b_b_b_b_b_b_b_b_b_b_b_b_b_b_b_b_b_b_b_b_b_b_b_b_b_b_b_b_b_b_b_b_b_b)",
"b2b`b_b_b_b_b_b_b_b_b_b_b_b_b_b_b_b_b_b_b_b_b_b_b_b_b_b_b_b_b_b_b_b_b_b_b_b_b_b_b_b_b_b_b_b_b_b_b_b_b_b_b_b_b_b_b_b_b_b_b_b_b_b_b_b_b_b_b_b_b_b_b_b_b_b_b_b_b_b_b_b_b_b_b_b_b_b_b_b_b_b_b_b_b_b_b_b_b_b_b_b_b_b_b_b_b_b_b_b_b_b_b_b_b_b_b_b_b_b_b_b_b_b_b_b_b_b_b_b_b_b_b_b_b_b_b_b_b_....................................................................................b_b_b_b_b_b_b_b_b_b_b_b_b_b_b_b_b_b_b_b_b_b_b_b_b_b_b_b_b_b_b_b_b_b_b_b_b_b_b_b_b_b_b_b_b_b_b_b_b_b_b_b_b_b_b_b_b_b_b_b_b_b_b_b_b_b_b_b_b_b_b_b_b_b_b_b_b_b_b_b_b_b_b_b_b_b_b_b_b_b_b_b_b_b_b_b_b_b_b_b_b_b_b_b_b_b_b_b_b_b_b_b_b_b_b_b_b_b_b_b_b_b_b_b_b_b_b_b_b_b_b_b_b_b_b_b_b_b_b%",
"b2b`b_b_b_b_b_b_b_b_b_b_b_b_b_b_b_b_b_b_b_b_b_b_b_b_b_b_b_b_b_b_b_b_b_b_b_b_b_b_b_b_b_b_b_b_b_b_b_b_b_b_b_b_b_b_b_b_b_b_b_b_b_b_b_b_b_b_b_b_b_b_b_b_b_b_b_b_b_b_b_b_b_b_b_b_b_b_b_b_b_b_b_b_b_b_b_b_b_b_b_b_b_b_b_b_b_b_b_b_b_b_b_b_b_b_b_b_b_b_b_b_b_b_b_b_b_b_b_b_b_b_b_b_b_b_b_b_b_....................................................................................b_b_b_b_b_b_b_b_b_b_b_b_b_b_b_b_b_b_b_b_b_b_b_b_b_b_b_b_b_b_b_b_b_b_b_b_b_b_b_b_b_b_b_b_b_b_b_b_b_b_b_b_b_b_b_b_b_b_b_b_b_b_b_b_b_b_b_b_b_b_b_b_b_b_b_b_b_b_b_b_b_b_b_b_b_b_b_b_b_b_b_b_b_b_b_b_b_b_b_b_b_b_b_b_b_b_b_b_b_b_b_b_b_b_b_b_b_b_b_b_b_b_b_b_b_b_b_b_b_b_b_b_b_b_b_b_b_b_b%",
"b3b`b_b_b_b_b_b_b_b_b_b_b_b_b_b_b_b_b_b_b_b_b_b_b_b_b_b_b_b_b_b_b_b_b_b_b_b_b_b_b_b_b_b_b_b_b_b_b_b_b_b_b_b_b_b_b_b_b_b_b_b_b_b_b_b_b_b_b_b_b_b_b_b_b_b_b_b_b_b_b_b_b_b_b_b_b_b_b_b_b_b_b_b_b_b_b_b_b_b_b_b_b_b_b_b_b_b_b_b_b_b_b_b_b_b_b_b_b_b_b_b_b_b_b_b_b_b_b_b_b_b_b_b_b_b_b_b_b_....................................................................................b_b_b_b_b_b_b_b_b_b_b_b_b_b_b_b_b_b_b_b_b_b_b_b_b_b_b_b_b_b_b_b_b_b_b_b_b_b_b_b_b_b_b_b_b_b_b_b_b_b_b_b_b_b_b_b_b_b_b_b_b_b_b_b_b_b_b_b_b_b_b_b_b_b_b_b_b_b_b_b_b_b_b_b_b_b_b_b_b_b_b_b_b_b_b_b_b_b_b_b_b_b_b_b_b_b_b_b_b_b_b_b_b_b_b_b_b_b_b_b_b_b_b_b_b_b_b_b_b_b_b_b_b_b_b_b_b_b_b(",
"b5b`b_b_b_b_b_b_b_b_b_b_b_b_b_b_b_b_b_b_b_b_b_b_b_b_b_b_b_b_b_b_b_b_b_b_b_b_b_b_b_b_b_b_b_b_b_b_b_b_b_b_b_b_b_b_b_b_b_b_b_b_b_b_b_b_b_b_b_b_b_b_b_b_b_b_b_b_b_b_b_b_b_b_b_b_b_b_b_b_b_b_b_b_b_b_b_b_b_b_b_b_b_b_b_b_b_b_b_b_b_b_b_b_b_b_b_b_b_b_b_b_b_b_b_b_b_b_b_b_b_b_b_b_b_b_b_b_b_....................................................................................b_b_b_b_b_b_b_b_b_b_b_b_b_b_b_b_b_b_b_b_b_b_b_b_b_b_b_b_b_b_b_b_b_b_b_b_b_b_b_b_b_b_b_b_b_b_b_b_b_b_b_b_b_b_b_b_b_b_b_b_b_b_b_b_b_b_b_b_b_b_b_b_b_b_b_b_b_b_b_b_b_b_b_b_b_b_b_b_b_b_b_b_b_b_b_b_b_b_b_b_b_b_b_b_b_b_b_b_b_b_b_b_b_b_b_b_b_b_b_b_b_b_b_b_b_b_b_b_b_b_b_b_b_b_b_b_b_b_b#",
"..bSb_b_b_b_b_b_b_b_b_b_b_b_b_b_b_b_b_b_b_b_b_b_b_b_b_b_b_b_b_b_b_b_b_b_b_b_b_b_b_b_b_b_b_b_b_b_b_b_b_b_b_b_b_b_b_b_b_b_b_b_b_b_b_b_b_b_b_b_b_b_b_b_b_b_b_b_b_b_b_b_b_b_b_b_b_b_b_b_b_b_b_b_b_b_b_b_b_b_b_b_b_b_b_b_b_b_b_b_b_b_b_b_b_b_b_b_b_b_b_b_b_b_b_b_b_b_b_b_b_b_b_b_b_b_b_b;........................................................................................b.b_b_b_b_b_b_b_b_b_b_b_b_b_b_b_b_b_b_b_b_b_b_b_b_b_b_b_b_b_b_b_b_b_b_b_b_b_b_b_b_b_b_b_b_b_b_b_b_b_b_b_b_b_b_b_b_b_b_b_b_b_b_b_b_b_b_b_b_b_b_b_b_b_b_b_b_b_b_b_b_b_b_b_b_b_b_b_b_b_b_b_b_b_b_b_b_b_b_b_b_b_b_b_b_b_b_b_b_b_b_b_b_b_b_b_b_b_b_b_b_b_b_b_b_b_b_b_b_b_b_b_b_b_b_b{bI..",
"......b4b_b_b_b_b_b_b_b_b_b_b_b_b_b_b_b_b_b_b_b_b_b_b_b_b_b_b_b_b_b_b_b_b_b_b_b_b_b_b_b_b_b_b_b_b_b_b_b_b_b_b_b_b_b_b_b_b_b_b_b_b_b_b_b_b_b_b_b_b_b_b_b_b_b_b_b_b_b_b_b_b_b_b_b_b_b_b_b_b_b_b_b_b_b_b_b_b_b_b_b_b_b_b_b_b_b_b_b_b_b_b_b_b_b_b_b_b_b_b_b_b_b_b_b_b_b_b_b_b_b_b_b{bx............................................................................................btb_b_b_b_b_b_b_b_b_b_b_b_b_b_b_b_b_b_b_b_b_b_b_b_b_b_b_b_b_b_b_b_b_b_b_b_b_b_b_b_b_b_b_b_b_b_b_b_b_b_b_b_b_b_b_b_b_b_b_b_b_b_b_b_b_b_b_b_b_b_b_b_b_b_b_b_b_b_b_b_b_b_b_b_b_b_b_b_b_b_b_b_b_b_b_b_b_b_b_b_b_b_b_b_b_b_b_b_b_b_b_b_b_b_b_b_b_b_b_b_b_b_b_b_b_b_b_b_b_b_b_b`bX......",
"..........bYbWbWbWbWbWbWbWbWbWbWbWbWbWbWbWbWbWbWbWbWbWbWbWbWbWbWbWbWbWbWbWbWbWbWbWbWbWbWbWbWbWbWbWbWbWbWbWbWbWbWbWbWbWbWbWbWbWbWbWbWbWbWbWbWbWbWbWbWbWbWbWbWbWbWbWbWbWbWbWbWbWbWbWbWbWbWbWbWbWbWbWbWbWbWbWbWbWbWbWbWbWbWbWbWbWbWbWbWbWbWbWbWbWbWbWbWbWbWbWbWbWbWbWbWbWbWbWbZbK....................................................................................................bHbZbWbWbWbWbWbWbWbWbWbWbWbWbWbWbWbWbWbWbWbWbWbWbWbWbWbWbWbWbWbWbWbWbWbWbWbWbWbWbWbWbWbWbWbWbWbWbWbWbWbWbWbWbWbWbWbWbWbWbWbWbWbWbWbWbWbWbWbWbWbWbWbWbWbWbWbWbWbWbWbWbWbWbWbWbWbWbWbWbWbWbWbWbWbWbWbWbWbWbWbWbWbWbWbWbWbWbWbWbWbWbWbWbWbWbWbWbWbWbWbWbWbWbWbWbWbWbYbV..........",
"................................................................................................................................................................................................................................................................................................................................................................................................................................................................................................................................................................................................................................................................",
"................................................................................................................................................................................................................................................................................................................................................................................................................................................................................................................................................................................................................................................................",
"................................................................................................................................................................................................................................................................................................................................................................................................................................................................................................................................................................................................................................................................",
"................................................................................................................................................................................................................................................................................................................................................................................................................................................................................................................................................................................................................................................................",
"................................................................................................................................................................................................................................................................................................................................................................................................................................................................................................................................................................................................................................................................",
"................................................................................................................................................................................................................................................................................................................................................................................................................................................................................................................................................................................................................................................................",
"..................................................................................................................................................................................................................................................................................................................bAb_b_b_b_b_b_b_b_b_b_b_b{bD..................................................................................................................................................................................................................................................................................................................",
"................................................................................................................................................................................................................................................................................................................b=b_b_b_b_b_b_b_b_b_b_b_b_b_b_b[................................................................................................................................................................................................................................................................................................................",
"............................................................................................................................................................................................................................................................................................................b*b_b_b_b_b_b_b_b_b_b_b_b_b_b_b_b_b_b_b7............................................................................................................................................................................................................................................................................................................",
"............................................................................................................................................................................................................................................................................................................b_b_b_b_b_b_b_b_b_b_b_b_b_b_b_b_b_b_b_b{............................................................................................................................................................................................................................................................................................................",
"............................................................................................................................................................................................................................................................................................................b_b_b_b_b_b_b_b_b_b_b_b_b_b_b_b_b_b_b_b{............................................................................................................................................................................................................................................................................................................",
"............................................................................................................................................................................................................................................................................................................b_b_b_b_b_b_b_b_b_b_b_b_b_b_b_b_b_b_b_b{............................................................................................................................................................................................................................................................................................................",
"............................................................................................................................................................................................................................................................................................................b_b_b_b_b_b_b_b_b_b_b_b_b_b_b_b_b_b_b_b{............................................................................................................................................................................................................................................................................................................",
"............................................................................................................................................................................................................................................................................................................b_b_b_b_b_b_b_b_b_b_b_b_b_b_b_b_b_b_b_b{............................................................................................................................................................................................................................................................................................................",
"............................................................................................................................................................................................................................................................................................................b_b_b_b_b_b_b_b_b_b_b_b_b_b_b_b_b_b_b_b{............................................................................................................................................................................................................................................................................................................",
"............................................................................................................................................................................................................................................................................................................b_b_b_b_b_b_b_b_b_b_b_b_b_b_b_b_b_b_b_b{............................................................................................................................................................................................................................................................................................................",
"............................................................................................................................................................................................................................................................................................................b_b_b_b_b_b_b_b_b_b_b_b_b_b_b_b_b_b_b_b{............................................................................................................................................................................................................................................................................................................",
"............................................................................................................................................................................................................................................................................................................b_b_b_b_b_b_b_b_b_b_b_b_b_b_b_b_b_b_b_b{............................................................................................................................................................................................................................................................................................................",
"............................................................................................................................................................................................................................................................................................................b_b_b_b_b_b_b_b_b_b_b_b_b_b_b_b_b_b_b_b{............................................................................................................................................................................................................................................................................................................",
"............................................................................................................................................................................................................................................................................................................b_b_b_b_b_b_b_b_b_b_b_b_b_b_b_b_b_b_b_b{............................................................................................................................................................................................................................................................................................................",
"............................................................................................................................................................................................................................................................................................................b_b_b_b_b_b_b_b_b_b_b_b_b_b_b_b_b_b_b_b{............................................................................................................................................................................................................................................................................................................",
"............................................................................................................................................................................................................................................................................................................b_b_b_b_b_b_b_b_b_b_b_b_b_b_b_b_b_b_b_b{............................................................................................................................................................................................................................................................................................................",
"............................................................................................................................................................................................................................................................................................................b_b_b_b_b_b_b_b_b_b_b_b_b_b_b_b_b_b_b_b{............................................................................................................................................................................................................................................................................................................",
"............................................................................................................................................................................................................................................................................................................b_b_b_b_b_b_b_b_b_b_b_b_b_b_b_b_b_b_b_b{............................................................................................................................................................................................................................................................................................................",
"............................................................................................................................................................................................................................................................................................................b_b_b_b_b_b_b_b_b_b_b_b_b_b_b_b_b_b_b_b{............................................................................................................................................................................................................................................................................................................",
"............................................................................................................................................................................................................................................................................................................b_b_b_b_b_b_b_b_b_b_b_b_b_b_b_b_b_b_b_b{............................................................................................................................................................................................................................................................................................................",
"............................................................................................................................................................................................................................................................................................................b_b_b_b_b_b_b_b_b_b_b_b_b_b_b_b_b_b_b_b{............................................................................................................................................................................................................................................................................................................",
"............................................................................................................................................................................................................................................................................................................b_b_b_b_b_b_b_b_b_b_b_b_b_b_b_b_b_b_b_b{............................................................................................................................................................................................................................................................................................................",
"............................................................................................................................................................................................................................................................................................................b_b_b_b_b_b_b_b_b_b_b_b_b_b_b_b_b_b_b_b{............................................................................................................................................................................................................................................................................................................",
"............................................................................................................................................................................................................................................................................................................b_b_b_b_b_b_b_b_b_b_b_b_b_b_b_b_b_b_b_b{............................................................................................................................................................................................................................................................................................................",
"............................................................................................................................................................................................................................................................................................................b_b_b_b_b_b_b_b_b_b_b_b_b_b_b_b_b_b_b_b{............................................................................................................................................................................................................................................................................................................",
"............................................................................................................................................................................................................................................................................................................b_b_b_b_b_b_b_b_b_b_b_b_b_b_b_b_b_b_b_b{............................................................................................................................................................................................................................................................................................................",
"............................................................................................................................................................................................................................................................................................................b_b_b_b_b_b_b_b_b_b_b_b_b_b_b_b_b_b_b_b{............................................................................................................................................................................................................................................................................................................",
"............................................................................................................................................................................................................................................................................................................b_b_b_b_b_b_b_b_b_b_b_b_b_b_b_b_b_b_b_b{............................................................................................................................................................................................................................................................................................................",
"............................................................................................................................................................................................................................................................................................................b_b_b_b_b_b_b_b_b_b_b_b_b_b_b_b_b_b_b_b{............................................................................................................................................................................................................................................................................................................",
"............................................................................................................................................................................................................................................................................................................b_b_b_b_b_b_b_b_b_b_b_b_b_b_b_b_b_b_b_b{............................................................................................................................................................................................................................................................................................................",
"............................................................................................................................................................................................................................................................................................................b_b_b_b_b_b_b_b_b_b_b_b_b_b_b_b_b_b_b_b{............................................................................................................................................................................................................................................................................................................",
"............................................................................................................................................................................................................................................................................................................b_b_b_b_b_b_b_b_b_b_b_b_b_b_b_b_b_b_b_b{............................................................................................................................................................................................................................................................................................................",
"............................................................................................................................................................................................................................................................................................................b_b_b_b_b_b_b_b_b_b_b_b_b_b_b_b_b_b_b_b{............................................................................................................................................................................................................................................................................................................",
"............................................................................................................................................................................................................................................................................................................b_b_b_b_b_b_b_b_b_b_b_b_b_b_b_b_b_b_b_b{............................................................................................................................................................................................................................................................................................................",
"............................................................................................................................................................................................................................................................................................................b_b_b_b_b_b_b_b_b_b_b_b_b_b_b_b_b_b_b_b{............................................................................................................................................................................................................................................................................................................",
"............................................................................................................................................................................................................................................................................................................b_b_b_b_b_b_b_b_b_b_b_b_b_b_b_b_b_b_b_b{............................................................................................................................................................................................................................................................................................................",
"............................................................................................................................................................................................................................................................................................................b_b_b_b_b_b_b_b_b_b_b_b_b_b_b_b_b_b_b_b{............................................................................................................................................................................................................................................................................................................",
"............................................................................................................................................................................................................................................................................................................b_b_b_b_b_b_b_b_b_b_b_b_b_b_b_b_b_b_b_b{............................................................................................................................................................................................................................................................................................................",
"............................................................................................................................................................................................................................................................................................................b_b_b_b_b_b_b_b_b_b_b_b_b_b_b_b_b_b_b_b{............................................................................................................................................................................................................................................................................................................",
"............................................................................................................................................................................................................................................................................................................b_b_b_b_b_b_b_b_b_b_b_b_b_b_b_b_b_b_b_b{............................................................................................................................................................................................................................................................................................................",
"............................................................................................................................................................................................................................................................................................................b_b_b_b_b_b_b_b_b_b_b_b_b_b_b_b_b_b_b_b{............................................................................................................................................................................................................................................................................................................",
"............................................................................................................................................................................................................................................................................................................b_b_b_b_b_b_b_b_b_b_b_b_b_b_b_b_b_b_b_b{............................................................................................................................................................................................................................................................................................................",
"............................................................................................................................................................................................................................................................................................................b_b_b_b_b_b_b_b_b_b_b_b_b_b_b_b_b_b_b_b{............................................................................................................................................................................................................................................................................................................",
"............................................................................................................................................................................................................................................................................................................b_b_b_b_b_b_b_b_b_b_b_b_b_b_b_b_b_b_b_b{............................................................................................................................................................................................................................................................................................................",
"............................................................................................................................................................................................................................................................................................................b_b_b_b_b_b_b_b_b_b_b_b_b_b_b_b_b_b_b_b{............................................................................................................................................................................................................................................................................................................",
"............................................................................................................................................................................................................................................................................................................b_b_b_b_b_b_b_b_b_b_b_b_b_b_b_b_b_b_b_b{............................................................................................................................................................................................................................................................................................................",
"............................................................................................................................................................................................................................................................................................................b_b_b_b_b_b_b_b_b_b_b_b_b_b_b_b_b_b_b_b{............................................................................................................................................................................................................................................................................................................",
"............................................................................................................................................................................................................................................................................................................b_b_b_b_b_b_b_b_b_b_b_b_b_b_b_b_b_b_b_b{............................................................................................................................................................................................................................................................................................................",
"............................................................................................................................................................................................................................................................................................................b_b_b_b_b_b_b_b_b_b_b_b_b_b_b_b_b_b_b_b{............................................................................................................................................................................................................................................................................................................",
"............................................................................................................................................................................................................................................................................................................b_b_b_b_b_b_b_b_b_b_b_b_b_b_b_b_b_b_b_b{............................................................................................................................................................................................................................................................................................................",
"............................................................................................................................................................................................................................................................................................................b_b_b_b_b_b_b_b_b_b_b_b_b_b_b_b_b_b_b_b{............................................................................................................................................................................................................................................................................................................",
"............................................................................................................................................................................................................................................................................................................b_b_b_b_b_b_b_b_b_b_b_b_b_b_b_b_b_b_b_b{............................................................................................................................................................................................................................................................................................................",
"............................................................................................................................................................................................................................................................................................................b_b_b_b_b_b_b_b_b_b_b_b_b_b_b_b_b_b_b_b{............................................................................................................................................................................................................................................................................................................",
"............................................................................................................................................................................................................................................................................................................b_b_b_b_b_b_b_b_b_b_b_b_b_b_b_b_b_b_b_b{............................................................................................................................................................................................................................................................................................................",
"............................................................................................................................................................................................................................................................................................................b_b_b_b_b_b_b_b_b_b_b_b_b_b_b_b_b_b_b_b{............................................................................................................................................................................................................................................................................................................",
"............................................................................................................................................................................................................................................................................................................b_b_b_b_b_b_b_b_b_b_b_b_b_b_b_b_b_b_b_b{............................................................................................................................................................................................................................................................................................................",
"..........................................................................................................................................................................................................................................................................................................bmb_b_b_b_b_b_b_b_b_b_b_b_b_b_b_b_b_b_b_b{............................................................................................................................................................................................................................................................................................................",
"..........................................................................................................................................................................................................................................................................................................bmb_b_b_b_b_b_b_b_b_b_b_b_b_b_b_b_b_b_b_b{............................................................................................................................................................................................................................................................................................................",
"..........................................................................................................................................................................................................................................................................................................bmb_b_b_b_b_b_b_b_b_b_b_b_b_b_b_b_b_b_b_b{............................................................................................................................................................................................................................................................................................................",
"..........................................................................................................................................................................................................................................................................................................bkb_b_b_b_b_b_b_b_b_b_b_b_b_b_b_b_b_b_b_b{............................................................................................................................................................................................................................................................................................................",
"..........................................................................................................................................................................................................................................................................................................bmb_b_b_b_b_b_b_b_b_b_b_b_b_b_b_b_b_b_b_b^............................................................................................................................................................................................................................................................................................................",
"..........................................................................................................................................................................................................................................................................................................bCb_b_b_b_b_b_b_b_b_b_b_b_b_b_b_b_b_b_b_b-............................................................................................................................................................................................................................................................................................................",
"..........................................................................................................................................................................................................................................................................................................bGb_b_b_b_b_b_b_b_b_b_b_b_b_b_b_b_b_b_b_b-............................................................................................................................................................................................................................................................................................................",
"..........................................................................................................................................................................................................................................................................................................bFb_b_b_b_b_b_b_b_b_b_b_b_b_b_b_b_b_b_b_b-............................................................................................................................................................................................................................................................................................................",
"..........................................................................................................................................................................................................................................................................................................bFb_b_b_b_b_b_b_b_b_b_b_b_b_b_b_b_b_b_b_b-............................................................................................................................................................................................................................................................................................................",
"..........................................................................................................................................................................................................................................................................................................bFb_b_b_b_b_b_b_b_b_b_b_b_b_b_b_b_b_b_b_b-............................................................................................................................................................................................................................................................................................................",
"..........................................................................................................................................................................................................................................................................................................bFb_b_b_b_b_b_b_b_b_b_b_b_b_b_b_b_b_b_b_b-............................................................................................................................................................................................................................................................................................................",
"..........................................................................................................................................................................................................................................................................................................bFb_b_b_b_b_b_b_b_b_b_b_b_b_b_b_b_b_b_b_b-............................................................................................................................................................................................................................................................................................................",
"..........................................................................................................................................................................................................................................................................................................bFb_b_b_b_b_b_b_b_b_b_b_b_b_b_b_b_b_b_b_b-............................................................................................................................................................................................................................................................................................................",
"..........................................................................................................................................................................................................................................................................................................bFb_b_b_b_b_b_b_b_b_b_b_b_b_b_b_b_b_b_b_b-............................................................................................................................................................................................................................................................................................................",
"..........................................................................................................................................................................................................................................................................................................bFb_b_b_b_b_b_b_b_b_b_b_b_b_b_b_b_b_b_b_b-............................................................................................................................................................................................................................................................................................................",
"..........................................................................................................................................................................................................................................................................................................bFb_b_b_b_b_b_b_b_b_b_b_b_b_b_b_b_b_b_b_b-............................................................................................................................................................................................................................................................................................................",
"..........................................................................................................................................................................................................................................................................................................bFb_b_b_b_b_b_b_b_b_b_b_b_b_b_b_b_b_b_b_b-............................................................................................................................................................................................................................................................................................................",
"..........................................................................................................................................................................................................................................................................................................bFb_b_b_b_b_b_b_b_b_b_b_b_b_b_b_b_b_b_b_b-............................................................................................................................................................................................................................................................................................................",
"..........................................................................................................................................................................................................................................................................................................bJb`b_b_b_b_b_b_b_b_b_b_b_b_b_b_b_b_b_b_b\............................................................................................................................................................................................................................................................................................................",
"............................................................................................................................................................................................................................................................................................................bQb_b_b_b_b_b_b_b_b_b_b_b_b_b_b_b_b_b$..............................................................................................................................................................................................................................................................................................................",
"................................................................................................................................................................................................................................................................................................................b2b_b_b_b_b_b_b_b_b_b_b_b_b_b>bg................................................................................................................................................................................................................................................................................................................",
"....................................................................................................................................................................................................................................................................................................................b,b_b_b_b_b_b_b_b_b_b`bB....................................................................................................................................................................................................................................................................................................................",
};
