/* XPM */
static char *xpm[] = {
"320 180 254 2",
".. c None",
"ab c #000000",
"ac c #010001",
"ad c #010002",
"ae c #010101",
"af c #020001",
"ag c #020105",
"ah c #030102",
"ai c #030202",
"aj c #040202",
"ak c #060303",
"al c #07010b",
"am c #070204",
"an c #080505",
"ao c #0a0306",
"ap c #0b0305",
"aq c #0b0306",
"ar c #0c010e",
"as c #0c0405",
"at c #0d0607",
"au c #100a09",
"av c #120508",
"aw c #13060a",
"ax c #130b0a",
"ay c #15070b",
"az c #15070d",
"aA c #160e0d",
"aB c #190217",
"aC c #190c0d",
"aD c #1b080e",
"aE c #1c0a0f",
"aF c #1d0a10",
"aG c #1e0715",
"aH c #1e1011",
"aI c #221312",
"aJ c #230b13",
"aK c #230c16",
"aL c #240e13",
"aM c #241717",
"aN c #270522",
"aO c #2a1416",
"aP c #2a1817",
"aQ c #2f0f1a",
"aR c #321d1c",
"aS c #33121c",
"aT c #35191c",
"aU c #3a092e",
"aV c #3b1423",
"aW c #3b201f",
"aX c #3c1320",
"aY c #3c1520",
"aZ c #3d2a27",
"a0 c #3f1d22",
"a1 c #401c23",
"a2 c #421823",
"a3 c #422525",
"a4 c #461628",
"a5 c #461924",
"a6 c #492127",
"a7 c #492b27",
"a8 c #4d192a",
"a9 c #4e312e",
"a! c #52262b",
"a# c #54302f",
"a$ c #561d2f",
"a% c #562c2f",
"a& c #59212f",
"a( c #5a1d37",
"a) c #5b1d31",
"a* c #5b2630",
"a+ c #5b3533",
"a, c #5c1e31",
"a- c #5f3734",
"a. c #601f33",
"a/ c #622c35",
"a: c #672145",
"a; c #673d39",
"a< c #692238",
"a= c #6a2538",
"a> c #6c2138",
"a? c #6c3339",
"a[ c #71213b",
"a\ c #73313e",
"a] c #73423e",
"a^ c #76263d",
"a_ c #76393e",
"a` c #77233f",
"a{ c #782643",
"a| c #792352",
"a} c #794947",
"a~ c #7d2941",
"ba c #803b46",
"bb c #804746",
"bc c #812a47",
"bd c #823246",
"be c #824e47",
"bf c #842846",
"bg c #854748",
"bh c #8a2757",
"bi c #8a2949",
"bj c #8a544e",
"bk c #8b2d4a",
"bl c #8e2c4c",
"bm c #8f394b",
"bn c #914d4e",
"bo c #933152",
"bp c #96295f",
"bq c #973450",
"br c #975654",
"bs c #983252",
"bt c #994552",
"bu c #9b2f52",
"bv c #9c625b",
"bw c #a13055",
"bx c #a25d58",
"by c #a33a56",
"bz c #a54d59",
"bA c #a5645b",
"bB c #a63867",
"bC c #a96a62",
"bD c #aa365a",
"bE c #aa575c",
"bF c #ae415d",
"bG c #ae5f5f",
"bH c #b34660",
"bI c #b36762",
"bJ c #b36862",
"bK c #b66764",
"bL c #b76f68",
"bM c #b83a61",
"bN c #b85862",
"bO c #b9796f",
"bP c #bd4164",
"bQ c #bd6a67",
"bR c #be5265",
"bS c #bf3f65",
"bT c #c03f66",
"bU c #c1376f",
"bV c #c35a69",
"bW c #c43967",
"bX c #c4726a",
"bY c #c6666b",
"bZ c #c7716c",
"b0 c #c8476a",
"b1 c #ca7b71",
"b2 c #cd3d6e",
"b3 c #cf696f",
"b4 c #d07572",
"b5 c #d35f71",
"b6 c #d44c71",
"b7 c #d67d76",
"b8 c #dc4276",
"b9 c #dc897e",
"b! c #dd6e77",
"b# c #de5677",
"b$ c #e24e79",
"b% c #e2747a",
"b& c #e2847b",
"b( c #e4637a",
"b) c #e54979",
"b* c #e57c7c",
"b+ c #e95d7f",
"b, c #ea8e81",
"b- c #eb457c",
"b. c #eb467c",
"b/ c #ec4482",
"b: c #ec5280",
"b; c #ec7580",
"b< c #ed9282",
"b= c #ee9284",
"b> c #ef8582",
"b? c #f0657f",
"b[ c #f16c81",
"b\ c #f35581",
"b] c #f44a84",
"b^ c #f77085",
"b_ c #f85884",
"b` c #f88c87",
"b{ c #f89489",
"b| c #f95085",
"b} c #f95784",
"b~ c #fb5586",
"ca c #fd4c86",
"cb c #fd4d86",
"cc c #fd4e86",
"cd c #fd4f86",
"ce c #fd5186",
"cf c #fd5286",
"cg c #fd5385",
"ch c #fd5386",
"ci c #fd5486",
"cj c #fd5586",
"ck c #fd5686",
"cl c #fd5886",
"cm c #fd5b87",
"cn c #fe5a88",
"co c #fe5d87",
"cp c #fe5f87",
"cq c #fe6187",
"cr c #fe6587",
"cs c #fe6688",
"ct c #fe6788",
"cu c #fe6a89",
"cv c #fe6c88",
"cw c #fe6e88",
"cx c #fe6f88",
"cy c #fe7088",
"cz c #fe7289",
"cA c #fe7589",
"cB c #fe7789",
"cC c #fe7889",
"cD c #fe7989",
"cE c #fe7b89",
"cF c #fe7e89",
"cG c #fe7f8a",
"cH c #fe808a",
"cI c #fe818a",
"cJ c #fe838a",
"cK c #fe858b",
"cL c #fe878a",
"cM c #ff4d86",
"cN c #ff4d89",
"cO c #ff538c",
"cP c #ff5488",
"cQ c #ff598d",
"cR c #ff608c",
"cS c #ff658a",
"cT c #ff718b",
"cU c #ff728f",
"cV c #ff798e",
"cW c #ff808e",
"cX c #ff888a",
"cY c #ff898a",
"cZ c #ff8a8b",
"c0 c #ff8c8b",
"c1 c #ff8e8b",
"c2 c #ff8f8b",
"c3 c #ff8f8f",
"c4 c #ff918c",
"c5 c #ff938b",
"c6 c #ff948b",
"c7 c #ff958b",
"c8 c #ff968b",
"c9 c #ff968f",
"c! c #ff978c",
"c# c #ff988c",
"c$ c #ff998c",
"c% c #ff9990",
"c& c #ff9a8c",
"c( c #ff9b8e",
"c) c #ff9c8c",
"c* c #ff9d90",
"c+ c #ffa192",
"c, c None",
"................................................................................................................................................................................................................................................................................................................................................................................................................................................................................................................................................................................................................................................................",
"................................................................................................................................................................................................................................................................................................................................................................................................................................................................................................................................................................................................................................................................",
"................................................................................................................................................................................................................................................................................................................................................................................................................................................................................................................................................................................................................................................................",
"................................................................................................................................................................................................................................................................................................................................................................................................................................................................................................................................................................................................................................................................",
"................................................................................................................................................................................................................................................................................................................................................................................................................................................................................................................................................................................................................................................................",
"................................................................................................................................................................................................................................................................................................................................................................................................................................................................................................................................................................................................................................................................",
"................................................................................................................................................................................................................................................................................................................................................................................................................................................................................................................................................................................................................................................................",
"................................................................................................................................................................................................................................................................................................................................................................................................................................................................................................................................................................................................................................................................",
"................................................................................................................................................................................................................................................................................................................................................................................................................................................................................................................................................................................................................................................................",
"................................................................................................................................................................................................................................................................................................................................................................................................................................................................................................................................................................................................................................................................",
"................................................................................................................................................................................................................................................................................................................................................................................................................................................................................................................................................................................................................................................................",
"................................................................................................................................................................................................................................................................................................................................................................................................................................................................................................................................................................................................................................................................",
"................................................................................................................................................................................................................................................................................................................................................................................................................................................................................................................................................................................................................................................................",
"................................................................................................................................................................................................................................................................................................................................................................................................................................................................................................................................................................................................................................................................",
"................................................................................................................................................................................................................................................................................................................................................................................................................................................................................................................................................................................................................................................................",
"......................................................................................................................................................................................................................................................................................................bwbub2b]b-b-b-b-b-b-b-b-b-b-b-b-b-b-b-b-b-b-b-b-b-b-b.bMbw................................................................................................................................................................................................................................................................................................",
"................................................................................................................................................................................................................................................................................bWb8b8b8cNcNcNcNcNcNcNcNcNcNcacNcMcNcMcNcMcNcMcNcMcNcMcNcMcNcMcNcMcNcMcNcMcNcNcNcNcNcNcNcNcNcNcab8b8b8..........................................................................................................................................................................................................................................................................",
"..................................................................................................................................................................................................................................................................bWb8cMcacMcNcOcNcNcNcNcacacacacacacacacacacacacacacacacacacacacacacacacacacacacacacacacacacacacacacacacacacacacMcMcNcNcNcNcNcMb)bWbW..........................................................................................................................................................................................................................................................",
"......................................................................................................................................................................................................................................................bWb|b]cNcOcNcNcNcbcbcbcacacacacacacacacacacacacacacacacacacacacacacacacacacacacacacacacacacacacacacacacacacacacacacacacacacacacacacacacbcacMcNcNcOcNcMb]b2................................................................................................................................................................................................................................................",
"............................................................................................................................................................................................................................................b8b.cOcNcOcNcMcMcacacacacacacacacacacacacacacacacacacacacacacacacacacacacacacacacacacacacacacacacacacacacacacacacacacacacacacacacacacacacacacacacacacacacacacacMcMcNcNcOcNb.b)bw....................................................................................................................................................................................................................................",
"....................................................................................................................................................................................................................................b8cNcNcOcNcNcbcbcbcbcbcbcbcbcbcbcbcbcbcbcbcbcbcbcbcbcbcbcbcbcbcbcbcbcbcbcbcbcbcbcbcbcbcbcbcbcbcbcbcbcbcbcbcbcbcbcbcbcbcbcbcbcbcbcbcbcbcbcbcbcbcbcbcbcbcbcbcbcbcbcbcbcbcbcbcbcbcbcbcNcNcOcNcOcab2............................................................................................................................................................................................................................",
"............................................................................................................................................................................................................................b8cNcOcOcNcMcbcbcbcbcbcbcbcbcbcbcbcbcbcbcbcbcbcbcbcbcbcbcbcbcbcbcbcbcbcbcbcbcbcbcbcbcbcbcbcbcbcbcbcbcbcbcbcbcbcbcbcbcbcbcbcbcbcbcbcbcbcbcbcbcbcbcbcbcbcbcbcbcbcbcbcbcbcbcbcbcbcbcbcbcbcbcbcbcbcbcbcbcMcNcOcOcab2....................................................................................................................................................................................................................",
"....................................................................................................................................................................................................................b8cecOcOcNcdcccccccccccccccccccccccccccccccccccccccccccccccccccccccccccccccccccccccccccccccccccccccccccccccccccccccccccccccccccccccccccccccccccccccccccccccccccccccccccccccccccccccccccccccccccccccccccccccccccccccccMcNcOceb]b2............................................................................................................................................................................................................",
"..............................................................................................................................................................................................................b]cOcOcNcdcccccccccccccccccccccccccccccccccccccccccccccccccccccccccccccccccccccccccccccccccccccccccccccccccccccccccccccccccccccccccccccccccccccccccccccccccccccccccccccccccccccccccccccccccccccccccccccccccccccccccccccccccccccccdcNcOcOcNb2......................................................................................................................................................................................................",
"......................................................................................................................................................................................................bMcPcOcOcecdcdcdcdcdcdcdcdcdcdcdcdcdcdcdcdcdcdcdcdcdcdcdcdcdcdcdcdcdcdcdcdcdcdcdcdcdcdcdcdcdcdcdcdcdcdcdcdcdcdcdcdcdcdcdcdcdcdcdcdcdcdcdcdcdcdcdcdcdcdcdcdcdcdcdcdcdcdcdcdcdcdcdcdcdcdcdcdcdcdcdcdcdcdcdcdcdcdcdcdcdcdcdcdcdcdcdcdcdcdcdcdcdcdcccNcOcOcOb8................................................................................................................................................................................................",
"................................................................................................................................................................................................b2b|cOcOcdcdcdcdcdcdcdcdcdcdcdcdcdcdcdcdcdcdcdcdcdcdcdcdcdcdcdcdcdcdcdcdcdcdcdcdcdcdcdcdcdcdcdcdcdcdcdcdcdcdcdcdcdcdcdcdcdcdcdcdcdcdcdcdcdcdcdcdcdcdcdcdcdcdcdcdcdcdcdcdcdcdcdcdcdcdcdcdcdcdcdcdcdcdcdcdcdcdcdcdcdcdcdcdcdcdcdcdcdcdcdcdcdcdcdcdcdcdcdcdcdcdcdcOcOcOb]..........................................................................................................................................................................................",
"............................................................................................................................................................................................b|cOcPcececdcdcdcdcdcdcdcdcdcdcdcdcdcdcdcdcdcdcdcdcdcdcdcdcdcdcdcdcdcdcdcdcdcdcdcdcdcdcdcdcdcdcdcdcdcdcdcdcdcdcdcdcdcdcdcdcdcdcdcdcdcdcdcdcdcdcdcdcdcdcdcdcdcdcdcdcdcdcdcdcdcdcdcdcdcdcdcdcdcdcdcdcdcdcdcdcdcdcdcdcdcdcdcdcdcdcdcdcdcdcdcdcdcdcdcdcdcdcdcdcdcdcdcdcdcdcNcdcOcPb/....................................................................................................................................................................................",
"......................................................................................................................................................................................b/cOcPcPcdcececececececececececececececececececececececececececececececececececececececececececececececececececececececececececececececececececececececececececececececececececececececececececececececececececececececececececececececececececececececececececececececececececececNcPcOcObP..............................................................................................................................................................................",
"..................................................................................................................................................................................cNcOcPcecececececececececececececececececececececececececececececececececececececececececececececececececececececececececececececececececececececPcecececececececececececececececececececececececececececececececececececececececececececececececececececececececececececececececececececececdcOcOb)..........................................................................................................................................................................",
"............................................................................................................................................................................b:cPcOcfcfcfcfcfcfcfcfcfcfcfcfcfcfcfcfcfcfcfcfcfcfcfcfcfcfcfcfcfcfcfcfcfcfcfcfcfcfcfcfcfcfcfcfcfcfcfcfcfcfcfcfcfcfcPcPcPcOcPcOcPcQcOcQcOcQcOcQcOcQcOcQb:b|cOcQcOcQcOcQcOcQcOcQcOcOcPcQcPcPcPcPcecfcfcfcfcfcfcfcfcfcfcfcfcfcfcfcfcfcfcfcfcfcfcfcfcfcfcfcfcfcfcfcfcfcfcfcfcfcfcfcfcfcfcfcfcfcfcfcfcfcfcfcfcPcOb\......................................................................................................................................................................",
"........................................................................................................................................................................cOcOcOcfcfcfcfcfcfcfcfcfcfcfcfcfcfcfcfcfcfcfcfcfcfcfcfcfcfcfcfcfcfcfcfcfcfcfcfcfcfcfcfcfcfcfcfcfcfcfcfcfcPcPcOcQcOcQcPb|b|b}b0bMbM....................................................bMbMb6ceb|b|cPcQcOcPcPcPchcfcfcfcfcfcfcfcfcfcfcfcfcfcfcfcfcfcfcfcfcfcfcfcfcfcfcfcfcfcfcfcfcfcfcfcfcfcfcfcfcfcfcfcfcfcfcfcecPcOcPbT................................................................................................................................................................",
"....................................................................................................................................................................b\cOcPchchchchchchchchchchchchchchchchchchchchchchchchchchchchchchchchchchchchchchchchchchchchchcPcPcPcQcPcPb|b0b6............................................................................................b6b6cecPcQcQcPcPchchchchchchchchchchchchchchchchchchchchchchchchchchchchchchchchchchchchchchchchchchchchchchcPcQb$............................................................................................................................................................",
"................................................................................................................................................................cPcQcPcfchchchchchchchchchchchchchchchchchchchchchchchchchchchchchchchchchchchchchchchchchcPcPcQcQcOb|b)bM....................................................................................................................b2b$cPcQcQcPcPcichchchchchchchchchchchchchchchchchchchchchchchchchchchchchchchchchchchchchchchchchcfcPcQb|........................................................................................................................................................",
"............................................................................................................................................................cPcQcgcicicicicicicicicicicicicicicicicicicicicicicicicicicicicicicicicicicicicicicicicPcQcQcQb\b)..........................................................................................................................................bMb:cncQcQckcPcicicicicicicicicicicicicicicicicicicicicicicicicicicicicicicicicicicicicicicicicPcQb$....................................................................................................................................................",
"........................................................................................................................................................cQclcPcjcjcjcjcjcjcjcjcjcjcjcjcjcjcjcjcjcjcjcjcjcjcjcjcjcjcjcjcjcjcjcjcjcjcjcjcjcjckclcQcQb:bT............................................................................................................................................................b/cOcQcQckcjcjcjcjcjcjcjcjcjcjcjcjcjcjcjcjcjcjcjcjcjcjcjcjcjcjcjcjcjcjcjcjcjcjcjcjcjcjcjcPcnb:................................................................................................................................................",
"....................................................................................................................................................b~cQcjcjcjcjcjcjcjcjcjcjcjcjcjcjcjcjcjcjcjcjcjcjcjcjcjcjcjcjcjcjcjcjcjcjcjcjcjcjckcQcQcNb8............................................................................................................................................................................b:cPcQcPclcjcjcjcjcjcjcjcjcjcjcjcjcjcjcjcjcjcjcjcjcjcjcjcjcjcjcjcjcjcjcjcjcjcjcjcjcjcPcQb)............................................................................................................................................",
"................................................................................................................................................b$cQclckckckckckckckckckckckckckckckckckckckckckckckckckckckckckckckckckckckckclcQcQb|..........................................................................................................................................................................................b6cjcQcQckckckckckckckckckckckckckckckckckckckckckckckckckckckckckckckckckckckckclcncQ..........................................................................................................................................",
"............................................................................................................................................bTcQcnckckckckckckckckckckckckckckckckckckckckckckckckckckckckckckckckckckckclcncQb$......................................................................................................................................................................................................bPckcQcnckckckckckckckckckckckckckckckckckckckckckckckckckckckckckckckckckckckckcQcn......................................................................................................................................",
"..........................................................................................................................................cncnckclclclclclclclclclclclclclclclclclclclclclclclclclclclclclclclclclcncncQb:..................................................................................................................................................................................................................b0clcQcnclclclclclclclclclclclclclclclclclclclclclclclclclclclclclclclclclclckcQb\..................................................................................................................................",
"......................................................................................................................................b\cQcnclclclclclclclclclclclclclclclclclclclclclclclclclclclclclclclclclcncQb_..............................................................................................................................................................................................................................b]cQcQcnckclclclclclclclclclclclclclclclclclclclclclclclclclclclclclclclclcncQ................................................................................................................................",
"....................................................................................................................................cQcnclclclclclclclclclclclclclclclclclclclclclclclclclclclclclclclclclcncRb6........................................................................................................................................................................................................................................b}cRcnclclclclclclclclclclclclclclclclclclclclclclclclclclclclclclclclclcQb:............................................................................................................................",
"................................................................................................................................b:cRclclclclclclclclclclclclclclclclclclclclclclclclclclclclclclclclcncRcQ..................................................................................................................................................................................................................................................b6cRcnclclclclclclclclclclclclclclclclclclclclclclclclclclclclclclclclcncQ..........................................................................................................................",
"..............................................................................................................................cQcncmclclclclclclclclclclclclclclclclclclclclclclclclclclclclclclcncRb}..........................................................................................................................................................................................................................................................b]cQcQcmclclclclclclclclclclclclclclclclclclclclclclclclclclclclclclclcRcQ......................................................................................................................",
"..........................................................................................................................b#cRcnclclclclclclclclclclclclclclclclclclclclclclclclclclclclclclcncRb:..................................................................................................................................................................................................................................................................b6cRcQcmclclclclclclclclclclclclclclclclclclclclclclclclclclclclclclcncn....................................................................................................................",
"........................................................................................................................cocncncmcmcmcmcmcmcmcmcmcmcmcmcmcmcmcmcmcmcmcmcmcmcmcmcmcmcmcmcmcncRb_..........................................................................................................................................................................................................................................................................bMcRcRclcmcmcmcmcmcmcmcmcmcmcmcmcmcmcmcmcmcmcmcmcmcmcmcmcmcmcmcmcmcncR..................................................................................................................",
"......................................................................................................................cQcRcmcmcmcmcmcmcmcmcmcmcmcmcmcmcmcmcmcmcmcmcmcmcmcmcmcmcmcmcmcmcocR..................................................................................................................................................................................................................................................................................b0cRcQcmcmcmcmcmcmcmcmcmcmcmcmcmcmcmcmcmcmcmcmcmcmcmcmcmcmcmcmcmcmcpck..............................................................................................................",
"....................................................................................................................cRcocmcmcmcmcmcmcmcmcmcmcmcmcmcmcmcmcmcmcmcmcmcmcmcmcmcmcmcmcmcRcO..........................................................................................................................................................................................................................................................................................b:cRcocmcmcmcmcmcmcmcmcmcmcmcmcmcmcmcmcmcmcmcmcmcmcmcmcmcmcmcmcmcRcn............................................................................................................",
"................................................................................................................b$cRcocmcmcmcmcmcmcmcmcmcmcmcmcmcmcmcmcmcmcmcmcmcmcmcmcmcmcmcmcocR..................................................................................................................................................................................................................................................................................................cocRcocmcmcmcmcmcmcmcmcmcmcmcmcmcmcmcmcmcmcmcmcmcmcmcmcmcmcmcmcocR..........................................................................................................",
"..............................................................................................................cQcRcocococococococococococococococococococococococococococococRcR........................................................................................................................................................................................................................................................................................................cRcRcocococococococococococococococococococococococococococococR........................................................................................................",
"............................................................................................................cRcocococococococococococococococococococococococococococococRcR..............................................................................................................................................................................................................................................................................................................b$cScocococococococococococococococococococococococococococococR......................................................................................................",
"..........................................................................................................cRcpcococococococococococococococococococococococococococococRb#....................................................................................................................................................................................................................................................................................................................cQcRcococococococococococococococococococococococococococococRb#..................................................................................................",
"........................................................................................................cRcpcocococococococococococococococococococococococococococpcR..........................................................................................................................................................................................................................................................................................................................b\cScococococococococococococococococococococococococococococRb\................................................................................................",
"......................................................................................................cRcpcpcpcpcpcpcpcpcpcpcpcpcpcpcpcpcpcpcpcpcpcpcpcpcpcpcpcocRb_................................................................................................................................................................................................................................................................................................................................cRcqcpcpcpcpcpcpcpcpcpcpcpcpcpcpcpcpcpcpcpcpcpcpcpcpcpcpcpcSb#..............................................................................................",
"....................................................................................................cRcqcpcpcpcpcpcpcpcpcpcpcpcpcpcpcpcpcpcpcpcpcpcpcpcpcpcpcpcS......................................................................................................................................................................................................................................................................................................................................cqcpcpcpcpcpcpcpcpcpcpcpcpcpcpcpcpcpcpcpcpcpcpcpcpcpcpcpcpcRb#............................................................................................",
"..................................................................................................cRcScpcqcqcqcqcqcqcqcqcqcqcqcqcqcqcqcqcqcqcqcqcqcqcqcqcqcqcR..........................................................................................................................................................................................................................................................................................................................................crcScpcqcqcqcqcqcqcqcqcqcqcqcqcqcqcqcqcqcqcqcqcqcqcqcqcqcqcSb#..........................................................................................",
"................................................................................................cScqcpcqcqcqcqcqcqcqcqcqcqcqcqcqcqcqcqcqcqcqcqcqcqcqcqcqcqcp................................................................................................................................................................................................................................................................................................................................................cScqcpcqcqcqcqcqcqcqcqcqcqcqcqcqcqcqcqcqcqcqcqcqcqcqcqcqcS..........................................................................................",
"..............................................................................................cqcqcqcqcqcqcqcqcqcqcqcqcqcqcqcqcqcqcqcqcqcqcqcqcqcqcqcqcScq....................................................................................................................................................................................................................................................................................................................................................cScqcqcqcqcqcqcqcqcqcqcqcqcqcqcqcqcqcqcqcqcqcqcqcqcqcqcqcS........................................................................................",
"............................................................................................b\ctcqcqcqcqcqcqcqcqcqcqcqcqcqcqcqcqcqcqcqcqcqcqcqcqcqcqcSb_........................................................................................................................................................................................................................................................................................................................................................cScrcqcqcqcqcqcqcqcqcqcqcqcqcqcqcqcqcqcqcqcqcqcqcqcqcqcqcS......................................................................................",
"............................................................................................cScqcqcqcqcqcqcqcqcqcqcqcqcqcqcqcqcqcqcqcqcqcqcqcqcqcqcSb+............................................................................................................................................................................................................................................................................................................................................................cRcScqcqcqcqcqcqcqcqcqcqcqcqcqcqcqcqcqcqcqcqcqcqcqcqcqcqcS....................................................................................",
"..........................................................................................cScqcqcqcqcqcqcqcqcqcqcqcqcqcqcqcqcqcqcqcqcqcqcqcqcqcqctb/................................................................................................................................................................................................................................................................................................................................................................ctcScqcqcqcqcqcqcqcqcqcqcqcqcqcqcqcqcqcqcqcqcqcqcqcqcqcrcQ..................................................................................",
"........................................................................................cScrcqcrcqcrcqcrcqcrcqcrcqcrcqcrcqcrcqcrcqcrcqcrcqcrcqcSb+....................................................................................................................................................................................................................................................................................................................................................................cScScqcrcqcrcqcrcqcrcqcrcqcrcqcrcqcrcqcrcqcrcqcrcqcrcqcS..................................................................................",
"......................................................................................b+cscqcrcrcrcrcrcrcrcrcrcrcrcrcrcrcrcrcrcrcrcrcrcrcrcqcSb?........................................................................................................................................................................................................................................................................................................................................................................cScrcqcrcrcrcrcrcrcrcrcrcrcrcrcrcrcrcrcrcrcrcrcrcrcrcqcu................................................................................",
"......................................................................................cScrcrcrcrcrcrcrcrcrcrcrcrcrcrcrcrcrcrcrcrcrcrcrcrcrcscu............................................................................................................................................................................................................................................................................................................................................................................cScscrcrcrcrcrcrcrcrcrcrcrcrcrcrcrcrcrcrcrcrcrcrcrcrcSb?..............................................................................",
"....................................................................................cucScrcrcrcrcrcrcrcrcrcrcrcrcrcrcrcrcrcrcrcrcrcrcrcrcscR................................................................................................................................................................................................................................................................................................................................................................................cucScrcrcrcrcrcrcrcrcrcrcrcrcrcrcrcrcrcrcrcrcrcrcrcrcSb#............................................................................",
"..................................................................................crcscrcScrcrcrcrcrcrcrcrcrcrcrcrcrcrcrcrcrcrcrcrcrcrcrcu..................................................................................................................................................................................................................................................................................................................................................................................b6cucscrcrcrcrcrcrcrcrcrcrcrcrcrcrcrcrcrcrcrcrcrcrcrcrcu............................................................................",
"..................................................................................cucScscscscscscscscscscscscscscscscscscscscscscscscscu......................................................................................................................................................................................................................................................................................................................................................................................cSctcscscscscscscscscscscscscscscscscscscscscscscscscSb?..........................................................................",
"................................................................................cSctcscscscscscscscscscscscscscscscscscscscscscscscscub6........................................................................................................................................................................................................................................................................................................................................................................................ctctcscscscscscscscscscscscscscscscscscscscscscscscrcu..........................................................................",
"................................................................................cucSctctctctctctctctctctctctctctctctctctctctctctctctcv............................................................................................................................................................................................................................................................................................................................................................................................cuctctctctctctctctctctctctctctctctctctctctctctctctctcR........................................................................",
"..............................................................................cUcsctctctctctctctctctctctctctctctctctctctctctctctctcu..............................................................................................................................................................................................................................................................................................................................................................................................b+cuctctctctctctctctctctctctctctctctctctctctctctctctcu........................................................................",
"..............................................................................cuctctctctctctctctctctctctctctctctctctctctctctctctcu..................................................................................................................................................................................................................................................................................................................................................................................................cucuctctctctctctctctctctctctctctctctctctctctctctctctcu......................................................................",
"............................................................................cvcuctctctctctctctctctctctctctctctctctctctctctctctcucu....................................................................................................................................................................................................................................................................................................................................................................................................cucuctctctctctctctctctctctctctctctctctctctctctctctcU......................................................................",
"............................................................................cUctcucucucucucucucucucucucucucucucucucucucucucucucu......................................................................................................................................................................................................................................................................................................................................................................................................cucucucucucucucucucucucucucucucucucucucucucucucuctctcu....................................................................",
"..........................................................................cucucucucucucucucucucucucucucucucucucucucucucucucucucu........................................................................................................................................................................................................................................................................................................................................................................................................cUcucucucucucucucucucucucucucucucucucucucucucucucucU....................................................................",
"..........................................................................cvcucucucucucucucucucucucucucucucucucucucucucucucucv..........................................................................................................................................................................................................................................................................................................................................................................................................cucucucucucucucucucucucucucucucucucucucucucucucucucub+..................................................................",
"........................................................................bVcUcucvcvcvcvcvcvcvcvcvcvcvcvcvcvcvcvcvcvcvcvcvcvcucU............................................................................................................................................................................................................................................................................................................................................................................................................cwcucvcvcvcvcvcvcvcvcvcvcvcvcvcvcvcvcvcvcvcvcvcvcvcU..................................................................",
"........................................................................cTcucvcvcvcvcvcvcvcvcvcvcvcvcvcvcvcvcvcvcvcvcvcvcvcT..............................................................................................................................................................................................................................................................................................................................................................................................................cUcvcvcvcvcvcvcvcvcvcvcvcvcvcvcvcvcvcvcvcvcvcvcvcvcT..................................................................",
"........................................................................cUcvcvcvcvcvcvcvcvcvcvcvcvcvcvcvcvcvcvcvcvcvcvcvcvcw................................................................................................................................................................................................................................................................................................................................................................................................................cTcvcvcvcvcvcvcvcvcvcvcvcvcvcvcvcvcvcvcvcvcvcvcvcwcR................................................................",
"........................................................................cTcvcvcvcvcvcvcvcvcvcvcvcvcvcvcvcvcvcvcvcvcvcvcvcTb(................................................................................................................................................................................................................................................................................................................................................................................................................cTcvcvcvcvcvcvcvcvcvcvcvcvcvcvcvcvcvcvcvcvcvcvcvcvcT................................................................",
"......................................................................b[cvcvcvcvcvcvcvcvcvcvcvcvcvcvcvcvcvcvcvcvcvcvcvcvcT..................................................................................................................................................................................................................................................................................................................................................................................................................cTcvcvcvcvcvcvcvcvcvcvcvcvcvcvcvcvcvcvcvcvcvcvcvcvcT................................................................",
"......................................................................cwcwcwcwcwcwcwcwcwcwcwcwcwcwcwcwcwcwcwcwcwcwcwcwcvcU............................................................................................................................................................................................b(b(cvcUcUcUcUcUcUcUcUb?b(bz............................................................................................................................................................................................cUcwcwcwcwcwcwcwcwcwcwcwcwcwcwcwcwcwcwcwcwcwcwcwcU................................................................",
"......................................................................cUcxcwcwcwcwcwcwcwcwcwcwcwcwcwcwcwcwcwcwcwcwcwcwcTb5....................................................................................................................................................................................bVb?cUcUcTcycxcwcwcwcwcwcwcwcwcxcTcUcUcUb(......................................................................................................................................................................................cUcxcwcwcwcwcwcwcwcwcwcwcwcwcwcwcwcwcwcwcwcwcwcwczb:..............................................................",
"......................................................................cUcycxcxcxcxcxcxcxcxcxcxcxcxcxcxcxcxcxcxcxcxcxcxcU..................................................................................................................................................................................b?cTcUcycxcxcxcxcxcxcxcxcxcxcxcxcxcxcxcxcxcxcTcUb[..................................................................................................................................................................................b^cwcxcxcxcxcxcxcxcxcxcxcxcxcxcxcxcxcxcxcxcxcxcxcxcU..............................................................",
"....................................................................b:cUcycxcxcxcxcxcxcxcxcxcxcxcxcxcxcxcxcxcxcxcxcxcxcV..............................................................................................................................................................................b5cUcTcxcxcxcxcxcxcxcxcxcxcxcxcxcxcxcxcxcxcxcxcxcxcxcycUcU..............................................................................................................................................................................b5cTcxcxcxcxcxcxcxcxcxcxcxcxcxcxcxcxcxcxcxcxcxcxcycV..............................................................",
"....................................................................cVcxcycycycycycycycycycycycycycycycycycycycycycyczcx............................................................................................................................................................................cScVcycycycycycycycycycycycycycycycycycycycycycycycycycycyczcz..............................................................................................................................................................................czcycycycycycycycycycycycycycycycycycycycycycycycV..............................................................",
"....................................................................cUczcycycycycycycycycycycycycycycycycycycycycycyczb[..........................................................................................................................................................................cAcUcycycycycycycycycycycycycycycycycycycycycycycycycycycycycycycV............................................................................................................................................................................cTczcycycycycycycycycycycycycycycycycycycycycycycz..............................................................",
"....................................................................cVcyczczczczczczczczczczczczczczczczczczczczczczczb[........................................................................................................................................................................b^cTczczczczczczczczczczczczczczczczczczczczczczczczczczczczczczczczcV..........................................................................................................................................................................cVcyczczczczczczczczczczczczczczczczczczczczczczcz..............................................................",
"....................................................................cVcyczczczczczczczczczczczczczczczczczczczczczczczb[........................................................................................................................................................................cVcyczczczczczczczczczczczczczczczczczczczczczczczczczczczczczczczczczcA........................................................................................................................................................................cVcyczczczczczczczczczczczczczczczczczczczczczczczb[............................................................",
"....................................................................cVcyczczczczczczczczczczczczczczczczczczczczczczcz........................................................................................................................................................................cVcTczczczczczczczczczczczczczczczczczczczczczczczczczczczczczczczczczczcV........................................................................................................................................................................cVcyczczczczczczczczczczczczczczczczczczczczczczczb[............................................................",
"....................................................................cVczczczczczczczczczczczczczczczczczczczczczczczcA........................................................................................................................................................................cVczczczczczczczczczczczczczczczczczczczczczczczczczczczczczczczczczczczczcV......................................................................................................................................................................cVczczczczczczczczczczczczczczczczczczczczczczczcAb[............................................................",
"....................................................................cVczczczczczczczczczczczczczczczczczczczczczczczcV........................................................................................................................................................................cVczczczczczczczczczczczczczczczczczczczczczczczczczczczczczczczczczczczczcV......................................................................................................................................................................cVczczczczczczczczczczczczczczczczczczczczczczczcAb[............................................................",
"....................................................................cVcAcAcAcAcAcAcAcAcAcAcAcAcAcAcAcAcAcAcAcAcAcAcAcV........................................................................................................................................................................cVcAcAcAcAcAcAcAcAcAcAcAcAcAcAcAcAcAcAcAcAcAcAcAcAcAcAcAcAcAcAcAcAcAcAcAcAcV......................................................................................................................................................................cVcAcAcAcAcAcAcAcAcAcAcAcAcAcAcAcAcAcAcAcAcAcAcAcAb[............................................................",
"....................................................................cVcAcAcAcAcAcAcAcAcAcAcAcAcAcAcAcAcAcAcAcAcAcAcAcA........................................................................................................................................................................cVcAcAcAcAcAcAcAcAcAcAcAcAcAcAcAcAcAcAcAcAcAcAcAcAcAcAcAcAcAcAcAcAcAcAcAcAcV......................................................................................................................................................................cVcAcAcAcAcAcAcAcAcAcAcAcAcAcAcAcAcAcAcAcAcAcAcAcAb[............................................................",
"....................................................................cVcAcAcAcAcAcAcAcAcAcAcAcAcAcAcAcAcAcAcAcAcAcAcAcA........................................................................................................................................................................cVcAcAcAcAcAcAcAcAcAcAcAcAcAcAcAcAcAcAcAcAcAcAcAcAcAcAcAcAcAcAcAcAcAcAcAcV........................................................................................................................................................................cVcAcAcAcAcAcAcAcAcAcAcAcAcAcAcAcAcAcAcAcAcAcAcAcAb[............................................................",
"....................................................................cVcAcAcAcAcAcAcAcAcAcAcAcAcAcAcAcAcAcAcAcAcAcAcAcAb[........................................................................................................................................................................cVcAcAcAcAcAcAcAcAcAcAcAcAcAcAcAcAcAcAcAcAcAcAcAcAcAcAcAcAcAcAcAcAcAcAcV........................................................................................................................................................................cVcAcAcAcAcAcAcAcAcAcAcAcAcAcAcAcAcAcAcAcAcAcAcAcAb[............................................................",
"....................................................................cVcBcAcAcAcAcAcAcAcAcAcAcAcAcAcAcAcAcAcAcAcAcAcAcBb[........................................................................................................................................................................b^cVcBcAcAcAcAcAcAcAcAcAcAcAcAcAcAcAcAcAcAcAcAcAcAcAcAcAcAcAcAcAcAcAcV..........................................................................................................................................................................cVcBcAcAcAcAcAcAcAcAcAcAcAcAcAcAcAcAcAcAcAcAcAcAcB..............................................................",
"....................................................................cVcBcAcAcAcAcAcAcAcAcAcAcAcAcAcAcAcAcAcAcAcAcAcAcDb;..........................................................................................................................................................................cDcDcAcAcAcAcAcAcAcAcAcAcAcAcAcAcAcAcAcAcAcAcAcAcAcAcAcAcAcAcAcAcV............................................................................................................................................................................cVcAcAcAcAcAcAcAcAcAcAcAcAcAcAcAcAcAcAcAcAcAcAcAcV..............................................................",
"....................................................................cWcBcBcBcBcBcBcBcBcBcBcBcBcBcBcBcBcBcBcBcBcBcBcBcBcA............................................................................................................................................................................cUcVcCcBcBcBcBcBcBcBcBcBcBcBcBcBcBcBcBcBcBcBcBcBcBcBcBcBcBcCcV..............................................................................................................................................................................cVcBcBcBcBcBcBcBcBcBcBcBcBcBcBcBcBcBcBcBcBcBcBcBcW..............................................................",
"....................................................................b:cWcCcCcCcCcCcCcCcCcCcCcCcCcCcCcCcCcCcCcCcCcCcCcCcW..............................................................................................................................................................................b5cWcVcCcCcCcCcCcCcCcCcCcCcCcCcCcCcCcCcCcCcCcCcCcCcCcDcWcV..............................................................................................................................................................................b5cWcBcCcCcCcCcCcCcCcCcCcCcCcCcCcCcCcCcCcCcCcCcCcCcW..............................................................",
"......................................................................cWcCcCcCcCcCcCcCcCcCcCcCcCcCcCcCcCcCcCcCcCcCcCcCcW..................................................................................................................................................................................b[cWcVcEcCcCcCcCcCcCcCcCcCcCcCcCcCcCcCcCcCcCcDcWb^..................................................................................................................................................................................cAcDcCcCcCcCcCcCcCcCcCcCcCcCcCcCcCcCcCcCcCcCcCcCcCcW..............................................................",
"......................................................................cWcDcDcDcDcDcDcDcDcDcDcDcDcDcDcDcDcDcDcDcDcDcDcDcEcR......................................................................................................................................................................................b;cWcWcVcEcDcDcDcDcDcDcDcDcDcDcEcWcWcWb%......................................................................................................................................................................................cWcDcDcDcDcDcDcDcDcDcDcDcDcDcDcDcDcDcDcDcDcDcDcDcFb+..............................................................",
"......................................................................cVcEcDcDcDcDcDcDcDcDcDcDcDcDcDcDcDcDcDcDcDcDcDcDcDcW............................................................................................................................................................................................b(b;b^cWcWcWcWcWcWcWcWb^b%bz............................................................................................................................................................................................cWcCcDcDcDcDcDcDcDcDcDcDcDcDcDcDcDcDcDcDcDcDcDcDcW................................................................",
"......................................................................b^cFcDcDcDcDcDcDcDcDcDcDcDcDcDcDcDcDcDcDcDcDcDcDcDcW..................................................................................................................................................................................................................................................................................................................................................................................................................cWcDcDcDcDcDcDcDcDcDcDcDcDcDcDcDcDcDcDcDcDcDcDcDcDcW................................................................",
"........................................................................cEcEcDcDcDcDcDcDcDcDcDcDcDcDcDcDcDcDcDcDcDcDcDcDcEb!................................................................................................................................................................................................................................................................................................................................................................................................................cWcDcDcDcDcDcDcDcDcDcDcDcDcDcDcDcDcDcDcDcDcDcDcDcDcF................................................................",
"........................................................................cWcEcEcEcEcEcEcEcEcEcEcEcEcEcEcEcEcEcEcEcEcEcEcEcEcG..............................................................................................................................................................................................................................................................................................................................................................................................................b5cWcEcEcEcEcEcEcEcEcEcEcEcEcEcEcEcEcEcEcEcEcEcEcEcEcU................................................................",
"........................................................................cWcEcEcEcEcEcEcEcEcEcEcEcEcEcEcEcEcEcEcEcEcEcEcEcEcW..............................................................................................................................................................................................................................................................................................................................................................................................................cWcEcEcEcEcEcEcEcEcEcEcEcEcEcEcEcEcEcEcEcEcEcEcEcEcJ..................................................................",
"........................................................................b3cWcEcEcEcEcEcEcEcEcEcEcEcEcEcEcEcEcEcEcEcEcEcEcEcEcW............................................................................................................................................................................................................................................................................................................................................................................................................cWcEcEcEcEcEcEcEcEcEcEcEcEcEcEcEcEcEcEcEcEcEcEcEcFcV..................................................................",
"..........................................................................cWcFcFcFcFcFcFcFcFcFcFcFcFcFcFcFcFcFcFcFcFcFcFcFcFcW..........................................................................................................................................................................................................................................................................................................................................................................................................cEcFcFcFcFcFcFcFcFcFcFcFcFcFcFcFcFcFcFcFcFcFcFcFcFcWb[..................................................................",
"..........................................................................cWcEcFcFcFcFcFcFcFcFcFcFcFcFcFcFcFcFcFcFcFcFcFcFcFcGcE........................................................................................................................................................................................................................................................................................................................................................................................................cWcFcFcFcFcFcFcFcFcFcFcFcFcFcFcFcFcFcFcFcFcFcFcFcFcW....................................................................",
"............................................................................cKcFcFcFcFcFcFcFcFcFcFcFcFcFcFcFcFcFcFcFcFcFcFcFcFcJ......................................................................................................................................................................................................................................................................................................................................................................................................cIcFcFcFcFcFcFcFcFcFcFcFcFcFcFcFcFcFcFcFcFcFcFcFcFcFcW....................................................................",
"............................................................................cVcWcFcFcFcFcFcFcFcFcFcFcFcFcFcFcFcFcFcFcFcFcFcFcFcFcW....................................................................................................................................................................................................................................................................................................................................................................................................cWcGcFcFcFcFcFcFcFcFcFcFcFcFcFcFcFcFcFcFcFcFcFcFcFcK......................................................................",
"..............................................................................cJcGcGcGcGcGcGcGcGcGcGcGcGcGcGcGcGcGcGcGcGcGcGcGcGcJb!................................................................................................................................................................................................................................................................................................................................................................................................cJcWcGcGcGcGcGcGcGcGcGcGcGcGcGcGcGcGcGcGcGcGcGcGcGcGcW......................................................................",
"..............................................................................cKcWcGcGcGcGcGcGcGcGcGcGcGcGcGcGcGcGcGcGcGcGcGcGcGcGcK..............................................................................................................................................................................................................................................................................................................................................................................................b;cWcHcGcGcGcGcGcGcGcGcGcGcGcGcGcGcGcGcGcGcGcGcGcGcGcI........................................................................",
"................................................................................cKcHcHcHcHcHcHcHcHcHcHcHcHcHcHcHcHcHcHcHcHcHcHcHcHcIcK............................................................................................................................................................................................................................................................................................................................................................................................cKcWcHcHcHcHcHcHcHcHcHcHcHcHcHcHcHcHcHcHcHcHcHcHcHcGc3........................................................................",
"................................................................................cKcIcHcHcHcHcHcHcHcHcHcHcHcHcHcHcHcHcHcHcHcHcHcHcHcHcJb3........................................................................................................................................................................................................................................................................................................................................................................................cJcWcHcHcHcHcHcHcHcHcHcHcHcHcHcHcHcHcHcHcHcHcHcHcHcHcK..........................................................................",
"..................................................................................cKcIcIcIcIcIcIcIcIcIcIcIcIcIcIcIcIcIcIcIcIcIcIcIcIcHcK......................................................................................................................................................................................................................................................................................................................................................................................cKcIcIcIcIcIcIcIcIcIcIcIcIcIcIcIcIcIcIcIcIcIcIcIcIcIcJb;..........................................................................",
"..................................................................................cEcKcIcIcIcIcIcIcIcIcIcIcIcIcIcIcIcIcIcIcIcIcIcIcIcIcIcK..................................................................................................................................................................................................................................................................................................................................................................................b3cKcIcIcIcIcIcIcIcIcIcIcIcIcIcIcIcIcIcIcIcIcIcIcIcIcIcK............................................................................",
"....................................................................................cXcIcIcIcIcIcIcIcIcIcIcIcIcIcIcIcIcIcIcIcIcIcIcIcIcIcIc3................................................................................................................................................................................................................................................................................................................................................................................cXcWcJcIcIcIcIcIcIcIcIcIcIcIcIcIcIcIcIcIcIcIcIcIcIcIcKb!............................................................................",
"......................................................................................cKcJcJcJcJcJcJcJcJcJcJcJcJcJcJcJcJcJcJcJcJcJcJcJcJcJcJcK............................................................................................................................................................................................................................................................................................................................................................................cXcWcJcJcJcJcJcJcJcJcJcJcJcJcJcJcJcJcJcJcJcJcJcJcJcJcKcF..............................................................................",
"......................................................................................b;cXcJcJcJcJcJcJcJcJcJcJcJcJcJcJcJcJcJcJcJcJcJcJcJcJcJcKcH........................................................................................................................................................................................................................................................................................................................................................................cZcJcJcJcJcJcJcJcJcJcJcJcJcJcJcJcJcJcJcJcJcJcJcJcJcJcJcZ................................................................................",
"........................................................................................cXcKcJcKcKcKcKcKcKcKcKcKcKcKcKcKcKcKcKcKcKcKcKcKcKcKcJcKb*....................................................................................................................................................................................................................................................................................................................................................................cZcJcJcJcJcKcKcKcKcKcKcKcKcKcKcKcKcKcKcKcKcKcKcKcKcKcKcX..................................................................................",
"..........................................................................................cXcKcKcKcKcKcKcKcKcKcKcKcKcKcKcKcKcKcKcKcKcKcKcKcKcKcJcXb;................................................................................................................................................................................................................................................................................................................................................................cKcKcJcJcJcKcKcKcKcKcKcKcKcKcKcKcKcKcKcKcKcKcKcKcKcKcKcKc3..................................................................................",
"............................................................................................cXcKcKcKcKcKcKcKcKcKcKcKcKcKcKcKcKcKcKcKcKcKcKcKcKcKcKcZb*............................................................................................................................................................................................................................................................................................................................................................c9cKcKcKcKcKcKcKcKcKcKcKcKcKcKcKcKcKcKcKcKcKcKcKcKcKcKcLcZ....................................................................................",
"............................................................................................b>cKcKcKcKcKcKcKcKcKcKcKcKcKcKcKcKcKcKcKcKcKcKcKcKcKcKcKcXb>........................................................................................................................................................................................................................................................................................................................................................cLcKcKcKcKcKcKcKcKcKcKcKcKcKcKcKcKcKcKcKcKcKcKcKcKcKcKcLc3......................................................................................",
"..............................................................................................cYcLcKcLcLcLcLcLcLcLcLcLcLcLcLcLcLcLcLcLcLcLcLcLcLcLcLcKcXcJ....................................................................................................................................................................................................................................................................................................................................................c3cKcLcKcLcLcLcLcLcLcLcLcLcLcLcLcLcLcLcLcLcLcLcLcLcLcLcLc3........................................................................................",
"................................................................................................cZcLcLcLcLcLcLcLcLcLcLcLcLcLcLcLcLcLcLcLcLcLcLcLcLcLcLcKcXcX..............................................................................................................................................................................................................................................................................................................................................bYc3cLcLcLcLcLcLcLcLcLcLcLcLcLcLcLcLcLcLcLcLcLcLcLcLcLcLcLc3..........................................................................................",
"..................................................................................................c3cXcLcLcLcLcLcLcLcLcLcLcLcLcLcLcLcLcLcLcLcLcLcLcLcLcLcLcYcZ..........................................................................................................................................................................................................................................................................................................................................cLcZcLcLcLcLcLcLcLcLcLcLcLcLcLcLcLcLcLcLcLcLcLcLcLcLcLcLcLc3b%..........................................................................................",
"....................................................................................................cZcYcXcXcXcXcXcXcXcXcXcXcXcXcXcXcXcXcXcXcXcXcXcXcXcXcXcXcXc3......................................................................................................................................................................................................................................................................................................................................cLcZcXcXcXcXcXcXcXcXcXcXcXcXcXcXcXcXcXcXcXcXcXcXcXcXcXcXcLc3b%............................................................................................",
"......................................................................................................c3cYcXcXcXcXcXcXcXcXcXcXcXcXcXcXcXcXcXcXcXcXcXcXcXcXcXcXcXc3b>................................................................................................................................................................................................................................................................................................................................c3cZcXcXcXcXcXcXcXcXcXcXcXcXcXcXcXcXcXcXcXcXcXcXcXcXcXcXcXc0b%..............................................................................................",
"........................................................................................................c3cZcYcYcYcYcYcYcYcYcYcYcYcYcYcYcYcYcYcYcYcYcYcYcYcYcYcYcYcZc9..........................................................................................................................................................................................................................................................................................................................b>c3cXcYcYcYcYcYcYcYcYcYcYcYcYcYcYcYcYcYcYcYcYcYcYcYcYcYcYcYc3b`................................................................................................",
"..........................................................................................................c3cZcYcYcYcYcYcYcYcYcYcYcYcYcYcYcYcYcYcYcYcYcYcYcYcYcYcYcYcYc3b*....................................................................................................................................................................................................................................................................................................................c3c0cXcYcYcYcYcYcYcYcYcYcYcYcYcYcYcYcYcYcYcYcYcYcYcYcYcYcYcYc3b%..................................................................................................",
"............................................................................................................c3c0cZcZcZcZcZcZcZcZcZcZcZcZcZcZcZcZcZcZcZcZcZcZcZcZcZcZcZcZc0c3..............................................................................................................................................................................................................................................................................................................b*c3cZcZcZcZcZcZcZcZcZcZcZcZcZcZcZcZcZcZcZcZcZcZcZcZcZcZcZcZcZc4......................................................................................................",
"..............................................................................................................c3c3cZcZcZcZcZcZcZcZcZcZcZcZcZcZcZcZcZcZcZcZcZcZcZcZcZcZcZcZcZc3c3........................................................................................................................................................................................................................................................................................................c3c3cZcZcZcZcZcZcZcZcZcZcZcZcZcZcZcZcZcZcZcZcZcZcZcZcZcZcZcZc0c3........................................................................................................",
"................................................................................................................b*c3c0c0c0c0c0c0c0c0c0c0c0c0c0c0c0c0c0c0c0c0c0c0c0c0c0c0c0c0c0c0c3..................................................................................................................................................................................................................................................................................................c0c3c0c0c0c0c0c0c0c0c0c0c0c0c0c0c0c0c0c0c0c0c0c0c0c0c0c0c0c0c0c0c3..........................................................................................................",
"....................................................................................................................c9c0cZc0c0c0c0c0c0c0c0c0c0c0c0c0c0c0c0c0c0c0c0c0c0c0c0c0c0c0c0c3c%..........................................................................................................................................................................................................................................................................................b>c3c0cZc0c0c0c0c0c0c0c0c0c0c0c0c0c0c0c0c0c0c0c0c0c0c0c0c0c0c0c0c3c0............................................................................................................",
"......................................................................................................................c3c1c0c0c0c0c0c0c0c0c0c0c0c0c0c0c0c0c0c0c0c0c0c0c0c0c0c0c0c0c0cZc3c3..................................................................................................................................................................................................................................................................................b4c3c3c0c0c0c0c0c0c0c0c0c0c0c0c0c0c0c0c0c0c0c0c0c0c0c0c0c0c0c0c0c0c0c3..............................................................................................................",
"........................................................................................................................c3c4c0c0c0c0c0c0c0c0c0c0c0c0c0c0c0c0c0c0c0c0c0c0c0c0c0c0c0c0c0c0c0c9cL..........................................................................................................................................................................................................................................................................bKc3c3c1c0c0c0c0c0c0c0c0c0c0c0c0c0c0c0c0c0c0c0c0c0c0c0c0c0c0c0c0c0c0c9..................................................................................................................",
"..........................................................................................................................b*c9c0c0c0c0c0c0c0c0c0c0c0c0c0c0c0c0c0c0c0c0c0c0c0c0c0c0c0c0c0c0c0c1c9b>..................................................................................................................................................................................................................................................................b4c9c4c3c0c0c0c0c0c0c0c0c0c0c0c0c0c0c0c0c0c0c0c0c0c0c0c0c0c0c0c0c0c0c2c1....................................................................................................................",
"..............................................................................................................................c9c3c0c1c1c1c1c1c1c1c1c1c1c1c1c1c1c1c1c1c1c1c1c1c1c1c1c1c1c1c1c1c1c2c9b`..........................................................................................................................................................................................................................................................b{c9c3c3c1c1c1c1c1c1c1c1c1c1c1c1c1c1c1c1c1c1c1c1c1c1c1c1c1c1c1c1c1c1c1c4c9......................................................................................................................",
"................................................................................................................................b>c9c1c1c1c1c1c1c1c1c1c1c1c1c1c1c1c1c1c1c1c1c1c1c1c1c1c1c1c1c1c1c1c1c2c9c9bK................................................................................................................................................................................................................................................b7c9c3c3c0c1c1c1c1c1c1c1c1c1c1c1c1c1c1c1c1c1c1c1c1c1c1c1c1c1c1c1c1c1c1c4c9..........................................................................................................................",
"....................................................................................................................................c9c4c2c2c2c2c2c2c2c2c2c2c2c2c2c2c2c2c2c2c2c2c2c2c2c2c2c2c2c2c2c2c2c2c2c9c9b7........................................................................................................................................................................................................................................b`c9c4c3c2c2c2c2c2c2c2c2c2c2c2c2c2c2c2c2c2c2c2c2c2c2c2c2c2c2c2c2c2c2c2c2c9b>............................................................................................................................",
"......................................................................................................................................b>c9c2c2c2c2c2c2c2c2c2c2c2c2c2c2c2c2c2c2c2c2c2c2c2c2c2c2c2c2c2c2c2c2c2c2c4c9b`..............................................................................................................................................................................................................................b>c9c9c2c2c2c2c2c2c2c2c2c2c2c2c2c2c2c2c2c2c2c2c2c2c2c2c2c2c2c2c2c2c2c2c2c2c4c%................................................................................................................................",
"..........................................................................................................................................c4c9c4c4c4c4c4c4c4c4c4c4c4c4c4c4c4c4c4c4c4c4c4c4c4c4c4c4c4c4c4c4c4c2c2c2c4c9c9b>..................................................................................................................................................................................................................bZc4c%c4c2c4c4c4c4c4c4c4c4c4c4c4c4c4c4c4c4c4c4c4c4c4c4c4c4c4c4c4c4c4c4c4c4c4c4c9b`..................................................................................................................................",
"............................................................................................................................................bZc9c9c4c4c4c4c4c4c4c4c4c4c4c4c4c4c4c4c4c4c4c4c4c4c4c4c4c4c4c4c4c4c4c4c4c4c4c5c9c9b>......................................................................................................................................................................................................bQc4c%c9c4c4c4c4c4c4c4c4c4c4c4c4c4c4c4c4c4c4c4c4c4c4c4c4c4c4c4c4c4c4c4c4c4c4c4c4c9c5......................................................................................................................................",
"................................................................................................................................................b&c%c5c4c4c4c4c4c4c4c4c4c4c4c4c4c4c4c4c4c4c4c4c4c4c4c4c4c4c4c4c4c4c4c4c4c4c4c5c5c9c%b`..........................................................................................................................................................................................b7c4c%c9c4c4c4c4c4c4c4c4c4c4c4c4c4c4c4c4c4c4c4c4c4c4c4c4c4c4c4c4c4c4c4c4c4c4c4c4c4c5c%..........................................................................................................................................",
"....................................................................................................................................................c2c%c5c5c5c5c5c5c5c5c5c5c5c5c5c5c5c5c5c5c5c5c5c5c5c5c5c5c5c5c5c5c5c5c5c5c5c5c4c4c5c9c%c5b*............................................................................................................................................................................b>c9c%c9c5c5c5c5c5c5c5c5c5c5c5c5c5c5c5c5c5c5c5c5c5c5c5c5c5c5c5c5c5c5c5c5c5c5c5c5c5c5c6c%b>............................................................................................................................................",
"........................................................................................................................................................c%c7c4c5c5c5c5c5c5c5c5c5c5c5c5c5c5c5c5c5c5c5c5c5c5c5c5c5c5c5c5c5c5c5c5c5c5c5c5c5c5c5c9c%c9b`bX............................................................................................................................................................b>c5c%c%c6c4c5c5c5c5c5c5c5c5c5c5c5c5c5c5c5c5c5c5c5c5c5c5c5c5c5c5c5c5c5c5c5c5c5c5c5c5c5c5c9c9b>................................................................................................................................................",
"............................................................................................................................................................c%c%c5c5c5c5c5c5c5c5c5c5c5c5c5c5c5c5c5c5c5c5c5c5c5c5c5c5c5c5c5c5c5c5c5c5c5c5c5c5c5c5c5c7c%c%c%b`b&..........................................................................................................................................bJb`c!c%c%c7c6c5c5c5c5c5c5c5c5c5c5c5c5c5c5c5c5c5c5c5c5c5c5c5c5c5c5c5c5c5c5c5c5c5c5c5c5c5c5c5c5c6c%b&....................................................................................................................................................",
"................................................................................................................................................................c%c%c7c5c5c5c5c5c5c5c5c5c5c5c5c5c5c5c5c5c5c5c5c5c5c5c5c5c5c5c5c5c5c5c5c5c5c5c5c5c5c5c5c5c5c6c9c%c%c%c2b&bK....................................................................................................................b4b&c9c%c%c%c6c6c5c5c5c5c5c5c5c5c5c5c5c5c5c5c5c5c5c5c5c5c5c5c5c5c5c5c5c5c5c5c5c5c5c5c5c5c5c5c5c5c5c5c!c%b{........................................................................................................................................................",
"....................................................................................................................................................................b`c*c6c6c6c6c6c6c6c6c6c6c6c6c6c6c6c6c6c6c6c6c6c6c6c6c6c6c6c6c6c6c6c6c6c6c6c6c6c6c6c6c6c6c6c6c6c6c7c!c%c*c%c!c5b1b7..........................................................................................b7b4b7c8c%c*c*c%c!c6c6c6c6c6c6c6c6c6c6c6c6c6c6c6c6c6c6c6c6c6c6c6c6c6c6c6c6c6c6c6c6c6c6c6c6c6c6c6c6c6c6c6c6c6c6c%c*b&............................................................................................................................................................",
"........................................................................................................................................................................c+c*c9c7c6c6c6c6c6c6c6c6c6c6c6c6c6c6c6c6c6c6c6c6c6c6c6c6c6c6c6c6c6c6c6c6c6c6c6c6c6c6c6c6c6c6c6c6c6c6c7c7c7c$c%c(c*c*c9b{b{c4bZbLbQ....................................................bQbJb7c5b{b{c9c*c%c%c%c%c7c7c6c6c6c6c6c6c6c6c6c6c6c6c6c6c6c6c6c6c6c6c6c6c6c6c6c6c6c6c6c6c6c6c6c6c6c6c6c6c6c6c6c6c6c6c6c6c6c8c(c%bX................................................................................................................................................................",
"............................................................................................................................................................................b,c#c(c!c7c7c7c7c7c7c7c7c7c7c7c7c7c7c7c7c7c7c7c7c7c7c7c7c7c7c7c7c7c7c7c7c7c7c7c7c7c7c7c7c7c7c7c7c7c7c7c7c7c7c7c7c8c8c8c8c(c(c(c(c%c*c*c*c*c*c*c*c*c*c*b`b{c*c*c*c*c*c*c*c*c*c*c%c*c(c%c%c8c7c7c7c7c7c7c7c7c7c7c7c7c7c7c7c7c7c7c7c7c7c7c7c7c7c7c7c7c7c7c7c7c7c7c7c7c7c7c7c7c7c7c7c7c7c7c7c7c7c7c7c7c7c7c7c#c(b`......................................................................................................................................................................",
"..................................................................................................................................................................................b=c(c!c8c8c8c8c8c8c8c8c8c8c8c8c8c8c8c8c8c8c8c8c8c8c8c8c8c8c8c8c8c8c8c8c8c8c8c8c8c8c8c8c8c8c8c8c8c8c8c8c8c8c8c8c8c8c8c8c8c8c8c8c8c8c8c8c8c8c8c8c7c!c!c7c8c8c8c8c8c8c8c8c8c8c8c8c8c8c8c8c8c8c8c8c8c8c8c8c8c8c8c8c8c8c8c8c8c8c8c8c8c8c8c8c8c8c8c8c8c8c8c8c8c8c8c8c8c8c8c8c8c8c8c8c8c8c8c8c8c8c7c8c(c*b,..........................................................................................................................................................................",
"......................................................................................................................................................................................b=c*c*c#c8c8c8c8c8c8c8c8c8c8c8c8c8c8c8c8c8c8c8c8c8c8c8c8c8c8c8c8c8c8c8c8c8c8c8c8c8c8c8c8c8c8c8c8c8c8c8c8c8c8c8c8c8c8c8c8c8c8c8c8c8c8c8c8c8c8c8c8c8c8c8c8c8c8c8c8c8c8c8c8c8c8c8c8c8c8c8c8c8c8c8c8c8c8c8c8c8c8c8c8c8c8c8c8c8c8c8c8c8c8c8c8c8c8c8c8c8c8c8c8c8c8c8c8c8c8c8c8c8c8c8c8c8c8c(c*c*................................................................................................................................................................................",
"............................................................................................................................................................................................b{c*c*c#c!c!c!c!c!c!c!c!c!c!c!c!c!c!c!c!c!c!c!c!c!c!c!c!c!c!c!c!c!c!c!c!c!c!c!c!c!c!c!c!c!c!c!c!c!c!c!c!c!c!c!c!c!c!c!c!c!c!c!c!c!c!c!c!c!c!c!c!c!c!c!c!c!c!c!c!c!c!c!c!c!c!c!c!c!c!c!c!c!c!c!c!c!c!c!c!c!c!c!c!c!c!c!c!c!c!c!c!c!c!c!c!c!c!c!c!c!c!c!c!c!c!c!c!c!c!c!c!c(c*c*bX....................................................................................................................................................................................",
"................................................................................................................................................................................................b4c8c*c*c!c!c!c!c!c!c!c!c!c!c!c!c!c!c!c!c!c!c!c!c!c!c!c!c!c!c!c!c!c!c!c!c!c!c!c!c!c!c!c!c!c!c!c!c!c!c!c!c!c!c!c!c!c!c!c!c!c!c!c!c!c!c!c!c!c!c!c!c!c!c!c!c!c!c!c!c!c!c!c!c!c!c!c!c!c!c!c!c!c!c!c!c!c!c!c!c!c!c!c!c!c!c!c!c!c!c!c!c!c!c!c!c!c!c!c!c!c!c!c!c!c!c!c%c*c*b7..........................................................................................................................................................................................",
"......................................................................................................................................................................................................bLc*c*c*c%c#c#c#c#c#c#c#c#c#c#c#c#c#c#c#c#c#c#c#c#c#c#c#c#c#c#c#c#c#c#c#c#c#c#c#c#c#c#c#c#c#c#c#c#c#c#c#c#c#c#c#c#c#c#c#c#c#c#c#c#c#c#c#c#c#c#c#c#c#c#c#c#c#c#c#c#c#c#c#c#c#c#c#c#c#c#c#c#c#c#c#c#c#c#c#c#c#c#c#c#c#c#c#c#c#c#c#c#c#c#c#c#c#c#c#c$c*c*c*b&................................................................................................................................................................................................",
"..............................................................................................................................................................................................................b=c*c+c(c$c#c#c#c#c#c#c#c#c#c#c#c#c#c#c#c#c#c#c#c#c#c#c#c#c#c#c#c#c#c#c#c#c#c#c#c#c#c#c#c#c#c#c#c#c#c#c#c#c#c#c#c#c#c#c#c#c#c#c#c#c#c#c#c#c#c#c#c#c#c#c#c#c#c#c#c#c#c#c#c#c#c#c#c#c#c#c#c#c#c#c#c#c#c#c#c#c#c#c#c#c#c#c#c#c#c#c#c$c$c(c+b{b1......................................................................................................................................................................................................",
"....................................................................................................................................................................................................................b&c*c+c*c*c$c$c$c$c$c$c$c$c$c$c$c$c$c$c$c$c$c$c$c$c$c$c$c$c$c$c$c$c$c$c$c$c$c$c$c$c$c$c$c$c$c$c$c$c$c$c$c$c$c$c$c$c$c$c$c$c$c$c$c$c$c$c$c$c$c$c$c$c$c$c$c$c$c$c$c$c$c$c$c$c$c$c$c$c$c$c$c$c$c$c$c$c$c$c$c$c$c$c$c$c$c&c*c+c(b{b9............................................................................................................................................................................................................",
"............................................................................................................................................................................................................................b&c(c+c+c*c&c$c$c$c$c$c$c$c$c$c$c$c$c$c$c$c$c$c$c$c$c$c$c$c$c$c$c$c$c$c$c$c$c$c$c$c$c$c$c$c$c$c$c$c$c$c$c$c$c$c$c$c$c$c$c$c$c$c$c$c$c$c$c$c$c$c$c$c$c$c$c$c$c$c$c$c$c$c$c$c$c$c$c$c$c$c$c$c$c$c$c$c$c$c*c+c*c&b7....................................................................................................................................................................................................................",
"....................................................................................................................................................................................................................................b&c*c*c+c*c)c&c&c&c&c&c&c&c&c&c&c&c&c&c&c&c&c&c&c&c&c&c&c&c&c&c&c&c&c&c&c&c&c&c&c&c&c&c&c&c&c&c&c&c&c&c&c&c&c&c&c&c&c&c&c&c&c&c&c&c&c&c&c&c&c&c&c&c&c&c&c&c&c&c&c&c&c&c&c&c&c&c&c&c(c*c+c+c+c+b7............................................................................................................................................................................................................................",
"............................................................................................................................................................................................................................................b9b=c+c+c+c+c&c)c&c&c&c&c&c&c&c&c&c&c&c&c&c&c&c&c&c&c&c&c&c&c&c&c&c&c&c&c&c&c&c&c&c&c&c&c&c&c&c&c&c&c&c&c&c&c&c&c&c&c&c&c&c&c&c&c&c&c&c&c&c&c&c&c&c&c&c&c&c&c&c(c)c+c+c+c+b=b&bA....................................................................................................................................................................................................................................",
"......................................................................................................................................................................................................................................................b1b{b{c+c+c+c+c*c)c)c&c&c&c&c&c&c&c&c&c&c&c&c&c&c&c&c&c&c&c&c&c&c&c&c&c&c&c&c&c&c&c&c&c&c&c&c&c&c&c&c&c&c&c&c&c&c&c&c&c&c&c&c&c&c&c&c&c)c&c*c+c+c+c+c*b{b1................................................................................................................................................................................................................................................",
"..................................................................................................................................................................................................................................................................b1b9c+c)c*c+c+c+c+c*c+c)c)c)c)c)c)c)c)c)c)c)c)c)c)c)c)c)c)c)c)c)c)c)c)c)c)c)c)c)c)c)c)c)c)c)c)c)c)c)c)c)c)c&c)c+c*c)c+c+c+c)c+b,b1bX..........................................................................................................................................................................................................................................................",
"................................................................................................................................................................................................................................................................................b1b9b9b9c+c+c+c+c+c+c+c+c+c+c)c+c)c*c)c+c)c*c)c+c)c*c)c+c)c*c)c+c)c*c)c+c)c*c+c+c+c+c+c+c+c+c+c)b9b9b,..........................................................................................................................................................................................................................................................................",
"......................................................................................................................................................................................................................................................................................................bAbvb7b<b<b<b<b<b<b<b<b<b<b<b<b<b<b<b<b<b<b<b<b<b<b<b=bObv................................................................................................................................................................................................................................................................................................",
"................................................................................................................................................................................................................................................................................................................................................................................................................................................................................................................................................................................................................................................................",
"................................................................................................................................................................................................................................................................................................................................................................................................................................................................................................................................................................................................................................................................",
"................................................................................................................................................................................................................................................................................................................................................................................................................................................................................................................................................................................................................................................................",
"................................................................................................................................................................................................................................................................................................................................................................................................................................................................................................................................................................................................................................................................",
"................................................................................................................................................................................................................................................................................................................................................................................................................................................................................................................................................................................................................................................................",
"................................................................................................................................................................................................................................................................................................................................................................................................................................................................................................................................................................................................................................................................",
"................................................................................................................................................................................................................................................................................................................................................................................................................................................................................................................................................................................................................................................................",
"................................................................................................................................................................................................................................................................................................................................................................................................................................................................................................................................................................................................................................................................",
"................................................................................................................................................................................................................................................................................................................................................................................................................................................................................................................................................................................................................................................................",
"................................................................................................................................................................................................................................................................................................................................................................................................................................................................................................................................................................................................................................................................",
"................................................................................................................................................................................................................................................................................................................................................................................................................................................................................................................................................................................................................................................................",
"................................................................................................................................................................................................................................................................................................................................................................................................................................................................................................................................................................................................................................................................",
"................................................................................................................................................................................................................................................................................................................................................................................................................................................................................................................................................................................................................................................................",
"................................................................................................................................................................................................................................................................................................................................................................................................................................................................................................................................................................................................................................................................",
"................................................................................................................................................................................................................................................................................................................................................................................................................................................................................................................................................................................................................................................................",
};
